;START 
;PRINT ID 
;5c159d4b07e60f698dce34d6 
;3 
;4 
;5 
;6 
;7 
;8 
;9 
;begining gcode 
M104 T0 S210
G28
;You could use this one or make your own as in the plugin functions @eject
;@EjectStuff()



G28 ; Home extruder
M107 ; Turn off fan
G90 ; Absolute positioning
M82 ; Extruder in absolute mode

; Activate all used extruder
; M104 T0 S210
G92 E0 ; Reset extruder position
; Wait for all used extruders to reach temperature
M109 T0 S210

;@myFunction()

; Turn on fan 
M106 P0
M106 P1
M106 P2



;set extrude factor override percentage (over/under-extrusion fix)
M221 S140
;set speed factor percentage
M220 S100

G1 X0 Y0 Z0
;Generated with Cura_SteamEngine DEV
G1 X0 Y0 Z200
;Layer count: 43
;LAYER:-2
;RAFT
G0 F7500 X-7.545 Y-5.515 Z0.300
;TYPE:SUPPORT
G1 F1800 X-7.473 Y-5.701 E0.01741
G1 X-7.161 Y-6.257 E0.07308
G1 X-7.124 Y-6.305 E0.07837
G1 X-6.854 Y-6.780 E0.12607
G1 X-5.673 Y-7.817 E0.26329
G1 X-4.000 Y-8.543 E0.42252
G1 X-3.684 Y-8.533 E0.45012
G1 X-3.684 Y-10.362 E0.60981
G1 X-3.484 Y-10.562 E0.63450
G1 X-3.484 Y-13.066 E0.85312
G1 X2.659 Y-13.684 E1.39216
G1 X2.919 Y-13.721 E1.41509
G1 X4.107 Y-14.315 E1.53105
G1 X4.316 Y-14.315 E1.54930
G1 X4.316 Y-14.515 E1.56676
G1 X4.818 Y-14.515 E1.61059
G1 X4.990 Y-14.756 E1.63644
G1 X5.460 Y-15.362 E1.70340
G1 X7.347 Y-16.655 E1.90311
G1 X10.056 Y-16.272 E2.14198
G1 X11.616 Y-15.039 E2.31559
G1 X11.944 Y-14.515 E2.36956
G1 X13.816 Y-14.515 E2.53300
G1 X13.816 Y-12.915 E2.67269
G1 X14.016 Y-12.915 E2.69015
G1 X14.016 Y-11.315 E2.82985
G1 X14.216 Y-11.315 E2.84731
G1 X14.216 Y-6.562 E3.26228
G1 X15.261 Y-5.517 E3.39131
G1 X14.416 Y-3.479 E3.58393
G1 X14.416 Y1.885 E4.05225
G1 X13.299 Y1.885 E4.14977
G1 X13.283 Y1.984 E4.15853
G1 X13.228 Y2.301 E4.18662
G1 X13.070 Y2.953 E4.24519
G1 X13.002 Y3.211 E4.26849
G1 X12.884 Y3.744 E4.31615
G1 X12.646 Y4.486 E4.38418
G1 X12.483 Y4.959 E4.42786
G1 X12.413 Y5.185 E4.44852
G1 X12.342 Y5.355 E4.46460
G1 X12.236 Y5.669 E4.49354
G1 X11.995 Y6.318 E4.55398
G1 X11.705 Y7.011 E4.61957
G1 X11.342 Y7.772 E4.69318
G1 X10.996 Y8.426 E4.75778
G1 X10.588 Y9.097 E4.82634
G1 X10.515 Y9.213 E4.83831
G1 X10.103 Y9.809 E4.90157
G1 X9.712 Y10.328 E4.95830
G1 X9.263 Y10.883 E5.02063
G1 X8.790 Y11.424 E5.08337
G1 X8.556 Y11.684 E5.11391
G1 X8.188 Y12.032 E5.15813
G1 X8.069 Y12.165 E5.17371
G1 X7.520 Y12.668 E5.23872
G1 X7.091 Y13.054 E5.28910
G1 X6.752 Y13.357 E5.32880
G1 X6.431 Y13.619 E5.36498
G1 X5.919 Y14.017 E5.42160
G1 X5.696 Y14.155 E5.44449
G1 X5.546 Y14.272 E5.46110
G1 X4.650 Y14.817 E5.55266
G1 X4.508 Y14.880 E5.56623
G1 X4.130 Y15.107 E5.60472
G1 X3.983 Y15.148 E5.61805
G1 X3.747 Y15.271 E5.64128
G1 X3.551 Y15.329 E5.65913
G1 X3.135 Y15.510 E5.69874
G1 X2.400 Y15.764 E5.76663
G1 X2.164 Y15.840 E5.78828
G1 X1.687 Y15.970 E5.83144
G1 X1.276 Y16.107 E5.86927
G1 X0.969 Y16.131 E5.89615
G1 X0.495 Y16.230 E5.93843
G1 X0.030 Y16.317 E5.97973
G1 X-0.400 Y16.389 E6.01780
G1 X-0.788 Y16.435 E6.05191
G1 X-1.265 Y16.468 E6.09366
G1 X-1.559 Y16.500 E6.11948
G1 X-2.306 Y16.516 E6.18471
G1 X-2.396 Y16.511 E6.19258
G1 X-2.644 Y16.519 E6.21424
G1 X-2.646 Y16.519 E6.21442
G1 X-2.818 Y16.538 E6.22953
G1 X-3.938 Y16.397 E6.32808
G1 X-4.546 Y16.286 E6.38204
G1 X-4.979 Y16.193 E6.42071
G1 X-5.717 Y16.011 E6.48707
G1 X-5.719 Y16.010 E6.48727
G1 X-6.227 Y15.889 E6.53286
G1 X-6.416 Y15.766 E6.55255
G1 X-6.864 Y15.597 E6.59435
G1 X-7.645 Y15.266 E6.66841
G1 X-7.877 Y15.136 E6.69163
G1 X-8.521 Y14.779 E6.75592
G1 X-8.951 Y14.500 E6.80067
G1 X-9.481 Y14.133 E6.85696
G1 X-10.120 Y13.608 E6.92916
G1 X-10.739 Y13.043 E7.00233
G1 X-11.089 Y12.687 E7.04592
G1 X-11.091 Y12.685 E7.04617
G1 X-14.284 Y12.685 E7.32494
G1 X-14.284 Y8.485 E7.69163
G1 X-14.484 Y8.485 E7.70909
G1 X-14.484 Y1.238 E8.34181
G1 X-14.284 Y1.038 E8.36651
G1 X-14.284 Y0.638 E8.40143
G1 X-14.084 Y0.438 E8.42613
G1 X-14.084 Y0.238 E8.44359
G1 X-13.884 Y0.038 E8.46828
G1 X-13.884 Y-0.162 E8.48574
G1 X-9.788 Y-4.258 E8.99148
G1 X-8.720 Y-4.526 E9.08762
G1 X-7.731 Y-5.515 E9.20973
G1 X-7.545 Y-5.515 E9.22597
G0 F7500 X-10.500 Y-3.695
G1 F1800 X-10.500 Y13.403 E10.71876
G0 F7500 X-3.500 Y16.558
G1 F1800 X-3.500 Y-13.170 E13.31425
G0 F7500 X3.500 Y-14.130
G1 F1800 X3.500 Y15.467 E15.89830
G0 F7500 X10.500 Y9.420
G1 F1800 X10.500 Y-16.054 E18.12238
;LAYER:-2
;RAFT
G0 F7500 X10.056 Y-16.272 Z0.600
;TYPE:SUPPORT
G1 F1800 X11.616 Y-15.039 E18.29599
G1 X11.944 Y-14.515 E18.34996
G1 X13.816 Y-14.515 E18.51340
G1 X13.816 Y-12.915 E18.65309
G1 X14.016 Y-12.915 E18.67056
G1 X14.016 Y-11.315 E18.81025
G1 X14.216 Y-11.315 E18.82771
G1 X14.216 Y-6.562 E19.24268
G1 X15.261 Y-5.517 E19.37171
G1 X14.416 Y-3.479 E19.56433
G1 X14.416 Y1.885 E20.03265
G1 X13.299 Y1.885 E20.13018
G1 X13.283 Y1.984 E20.13893
G1 X13.228 Y2.301 E20.16702
G1 X13.070 Y2.953 E20.22559
G1 X13.002 Y3.211 E20.24889
G1 X12.884 Y3.744 E20.29655
G1 X12.646 Y4.486 E20.36458
G1 X12.483 Y4.959 E20.40826
G1 X12.413 Y5.185 E20.42892
G1 X12.342 Y5.355 E20.44501
G1 X12.236 Y5.669 E20.47394
G1 X11.995 Y6.318 E20.53438
G1 X11.705 Y7.011 E20.59997
G1 X11.342 Y7.772 E20.67358
G1 X10.996 Y8.426 E20.73818
G1 X10.588 Y9.097 E20.80675
G1 X10.515 Y9.213 E20.81871
G1 X10.103 Y9.809 E20.88197
G1 X9.712 Y10.328 E20.93870
G1 X9.263 Y10.883 E21.00103
G1 X8.790 Y11.424 E21.06377
G1 X8.556 Y11.684 E21.09431
G1 X8.188 Y12.032 E21.13853
G1 X8.069 Y12.165 E21.15411
G1 X7.520 Y12.668 E21.21912
G1 X7.091 Y13.054 E21.26951
G1 X6.752 Y13.357 E21.30920
G1 X6.431 Y13.619 E21.34538
G1 X5.919 Y14.017 E21.40200
G1 X5.696 Y14.155 E21.42489
G1 X5.546 Y14.272 E21.44150
G1 X4.650 Y14.817 E21.53307
G1 X4.508 Y14.880 E21.54663
G1 X4.130 Y15.107 E21.58512
G1 X3.983 Y15.148 E21.59845
G1 X3.747 Y15.271 E21.62168
G1 X3.551 Y15.329 E21.63953
G1 X3.135 Y15.510 E21.67914
G1 X2.400 Y15.764 E21.74703
G1 X2.164 Y15.840 E21.76868
G1 X1.687 Y15.970 E21.81184
G1 X1.276 Y16.107 E21.84967
G1 X0.969 Y16.131 E21.87655
G1 X0.495 Y16.230 E21.91883
G1 X0.030 Y16.317 E21.96013
G1 X-0.400 Y16.389 E21.99820
G1 X-0.788 Y16.435 E22.03231
G1 X-1.265 Y16.468 E22.07406
G1 X-1.559 Y16.500 E22.09988
G1 X-2.306 Y16.516 E22.16511
G1 X-2.396 Y16.511 E22.17298
G1 X-2.644 Y16.519 E22.19464
G1 X-2.646 Y16.519 E22.19482
G1 X-2.818 Y16.538 E22.20993
G1 X-3.938 Y16.397 E22.30848
G1 X-4.546 Y16.286 E22.36244
G1 X-4.979 Y16.193 E22.40111
G1 X-5.717 Y16.011 E22.46748
G1 X-5.719 Y16.010 E22.46767
G1 X-6.227 Y15.889 E22.51326
G1 X-6.416 Y15.766 E22.53295
G1 X-6.864 Y15.597 E22.57476
G1 X-7.645 Y15.266 E22.64881
G1 X-7.877 Y15.136 E22.67203
G1 X-8.521 Y14.779 E22.73632
G1 X-8.951 Y14.500 E22.78107
G1 X-9.481 Y14.133 E22.83736
G1 X-10.120 Y13.608 E22.90956
G1 X-10.739 Y13.043 E22.98273
G1 X-11.089 Y12.687 E23.02632
G1 X-11.091 Y12.685 E23.02657
G1 X-14.284 Y12.685 E23.30534
G1 X-14.284 Y8.485 E23.67203
G1 X-14.484 Y8.485 E23.68950
G1 X-14.484 Y1.238 E24.32222
G1 X-14.284 Y1.038 E24.34691
G1 X-14.284 Y0.638 E24.38183
G1 X-14.084 Y0.438 E24.40653
G1 X-14.084 Y0.238 E24.42399
G1 X-13.884 Y0.038 E24.44868
G1 X-13.884 Y-0.162 E24.46615
G1 X-9.788 Y-4.258 E24.97189
G1 X-8.720 Y-4.526 E25.06802
G1 X-7.731 Y-5.515 E25.19014
G1 X-7.545 Y-5.515 E25.20637
G1 X-7.473 Y-5.701 E25.22379
G1 X-7.161 Y-6.257 E25.27945
G1 X-7.124 Y-6.305 E25.28474
G1 X-6.854 Y-6.780 E25.33245
G1 X-5.673 Y-7.817 E25.46967
G1 X-4.000 Y-8.543 E25.62889
G1 X-3.684 Y-8.533 E25.65649
G1 X-3.684 Y-10.362 E25.81618
G1 X-3.484 Y-10.562 E25.84087
G1 X-3.484 Y-13.066 E26.05949
G1 X2.659 Y-13.684 E26.59853
G1 X2.919 Y-13.721 E26.62146
G1 X4.107 Y-14.315 E26.73743
G1 X4.316 Y-14.315 E26.75567
G1 X4.316 Y-14.515 E26.77314
G1 X4.818 Y-14.515 E26.81696
G1 X4.990 Y-14.756 E26.84281
G1 X5.460 Y-15.362 E26.90977
G1 X7.347 Y-16.655 E27.10949
G1 X10.056 Y-16.272 E27.34836
G0 F7500 X14.321 Y-10.500
G1 F1800 X-3.693 Y-10.500 E28.92112
G0 F7500 X-10.693 Y-3.500
G1 F1800 X14.538 Y-3.499 E31.12398
G0 F7500 X13.045 Y3.500
G1 F1800 X-14.589 Y3.499 E33.53665
G0 F7500 X-14.389 Y10.500
G1 F1800 X9.708 Y10.500 E35.64051
;LAYER:-2
;RAFT
G0 F7500 X9.712 Y10.328 Z0.900
;TYPE:SUPPORT
G1 F1800 X9.263 Y10.883 E35.70283
G1 X8.790 Y11.424 E35.76557
G1 X8.556 Y11.684 E35.79611
G1 X8.188 Y12.032 E35.84033
G1 X8.069 Y12.165 E35.85592
G1 X7.520 Y12.668 E35.92092
G1 X7.091 Y13.054 E35.97131
G1 X6.752 Y13.357 E36.01101
G1 X6.431 Y13.619 E36.04718
G1 X5.919 Y14.017 E36.10380
G1 X5.696 Y14.155 E36.12670
G1 X5.546 Y14.272 E36.14331
G1 X4.650 Y14.817 E36.23487
G1 X4.508 Y14.880 E36.24843
G1 X4.130 Y15.107 E36.28693
G1 X3.983 Y15.148 E36.30025
G1 X3.747 Y15.271 E36.32349
G1 X3.551 Y15.329 E36.34133
G1 X3.135 Y15.510 E36.38094
G1 X2.400 Y15.764 E36.44884
G1 X2.164 Y15.840 E36.47048
G1 X1.687 Y15.970 E36.51365
G1 X1.276 Y16.107 E36.55147
G1 X0.969 Y16.131 E36.57836
G1 X0.495 Y16.230 E36.62064
G1 X0.030 Y16.317 E36.66194
G1 X-0.400 Y16.389 E36.70000
G1 X-0.788 Y16.435 E36.73412
G1 X-1.265 Y16.468 E36.77586
G1 X-1.559 Y16.500 E36.80168
G1 X-2.306 Y16.516 E36.86691
G1 X-2.396 Y16.511 E36.87478
G1 X-2.644 Y16.519 E36.89645
G1 X-2.646 Y16.519 E36.89662
G1 X-2.818 Y16.538 E36.91173
G1 X-3.938 Y16.397 E37.01029
G1 X-4.546 Y16.286 E37.06425
G1 X-4.979 Y16.193 E37.10291
G1 X-5.717 Y16.011 E37.16928
G1 X-5.719 Y16.010 E37.16947
G1 X-6.227 Y15.889 E37.21507
G1 X-6.416 Y15.766 E37.23475
G1 X-6.864 Y15.597 E37.27656
G1 X-7.645 Y15.266 E37.35062
G1 X-7.877 Y15.136 E37.37384
G1 X-8.521 Y14.779 E37.43812
G1 X-8.951 Y14.500 E37.48288
G1 X-9.481 Y14.133 E37.53916
G1 X-10.120 Y13.608 E37.61136
G1 X-10.739 Y13.043 E37.68454
G1 X-11.089 Y12.687 E37.72812
G1 X-11.091 Y12.685 E37.72837
G1 X-14.284 Y12.685 E38.00714
G1 X-14.284 Y8.485 E38.37384
G1 X-14.484 Y8.485 E38.39130
G1 X-14.484 Y1.238 E39.02402
G1 X-14.284 Y1.038 E39.04871
G1 X-14.284 Y0.638 E39.08364
G1 X-14.084 Y0.438 E39.10833
G1 X-14.084 Y0.238 E39.12579
G1 X-13.884 Y0.038 E39.15049
G1 X-13.884 Y-0.162 E39.16795
G1 X-9.788 Y-4.258 E39.67369
G1 X-8.720 Y-4.526 E39.76983
G1 X-7.731 Y-5.515 E39.89194
G1 X-7.545 Y-5.515 E39.90818
G1 X-7.473 Y-5.701 E39.92559
G1 X-7.161 Y-6.257 E39.98126
G1 X-7.124 Y-6.305 E39.98655
G1 X-6.854 Y-6.780 E40.03425
G1 X-5.673 Y-7.817 E40.17147
G1 X-4.000 Y-8.543 E40.33069
G1 X-3.684 Y-8.533 E40.35830
G1 X-3.684 Y-10.362 E40.51798
G1 X-3.484 Y-10.562 E40.54268
G1 X-3.484 Y-13.066 E40.76130
G1 X2.659 Y-13.684 E41.30034
G1 X2.919 Y-13.721 E41.32327
G1 X4.107 Y-14.315 E41.43923
G1 X4.316 Y-14.315 E41.45748
G1 X4.316 Y-14.515 E41.47494
G1 X4.818 Y-14.515 E41.51877
G1 X4.990 Y-14.756 E41.54462
G1 X5.460 Y-15.362 E41.61157
G1 X7.347 Y-16.655 E41.81129
G1 X10.056 Y-16.272 E42.05016
G1 X11.616 Y-15.039 E42.22377
G1 X11.944 Y-14.515 E42.27774
G1 X13.816 Y-14.515 E42.44118
G1 X13.816 Y-12.915 E42.58087
G1 X14.016 Y-12.915 E42.59833
G1 X14.016 Y-11.315 E42.73803
G1 X14.216 Y-11.315 E42.75549
G1 X14.216 Y-6.562 E43.17046
G1 X15.261 Y-5.517 E43.29949
G1 X14.416 Y-3.479 E43.49211
G1 X14.416 Y1.885 E43.96043
G1 X13.299 Y1.885 E44.05795
G1 X13.283 Y1.984 E44.06671
G1 X13.228 Y2.301 E44.09480
G1 X13.070 Y2.953 E44.15337
G1 X13.002 Y3.211 E44.17667
G1 X12.884 Y3.744 E44.22433
G1 X12.646 Y4.486 E44.29236
G1 X12.483 Y4.959 E44.33604
G1 X12.413 Y5.185 E44.35670
G1 X12.342 Y5.355 E44.37278
G1 X12.236 Y5.669 E44.40172
G1 X11.995 Y6.318 E44.46216
G1 X11.705 Y7.011 E44.52775
G1 X11.342 Y7.772 E44.60136
G1 X10.996 Y8.426 E44.66596
G1 X10.588 Y9.097 E44.73452
G1 X10.515 Y9.213 E44.74649
G1 X10.103 Y9.809 E44.80975
G1 X9.712 Y10.328 E44.86648
G0 F7500 X10.499 Y9.419
G1 F1800 X10.500 Y-16.053 E47.09039
G0 F7500 X3.500 Y-14.130
G1 F1800 X3.499 Y15.467 E49.67444
G0 F7500 X-3.500 Y16.558
G1 F1800 X-3.499 Y-13.170 E52.26992
G0 F7500 X-10.500 Y-3.694
G1 F1800 X-10.500 Y13.401 E53.76245
;LAYER:-2
;RAFT
G0 F7500 X-11.091 Y12.685 Z1.200
;TYPE:SUPPORT
G1 F1800 X-14.284 Y12.685 E54.04123
G1 X-14.284 Y8.485 E54.40792
G1 X-14.484 Y8.485 E54.42538
G1 X-14.484 Y1.238 E55.05810
G1 X-14.284 Y1.038 E55.08279
G1 X-14.284 Y0.638 E55.11772
G1 X-14.084 Y0.438 E55.14241
G1 X-14.084 Y0.238 E55.15987
G1 X-13.884 Y0.038 E55.18457
G1 X-13.884 Y-0.162 E55.20203
G1 X-9.788 Y-4.258 E55.70777
G1 X-8.720 Y-4.526 E55.80391
G1 X-7.731 Y-5.515 E55.92602
G1 X-7.545 Y-5.515 E55.94226
G1 X-7.473 Y-5.701 E55.95967
G1 X-7.161 Y-6.257 E56.01534
G1 X-7.124 Y-6.305 E56.02063
G1 X-6.854 Y-6.780 E56.06833
G1 X-5.673 Y-7.817 E56.20555
G1 X-4.000 Y-8.543 E56.36478
G1 X-3.684 Y-8.533 E56.39238
G1 X-3.684 Y-10.362 E56.55207
G1 X-3.484 Y-10.562 E56.57676
G1 X-3.484 Y-13.066 E56.79538
G1 X2.659 Y-13.684 E57.33442
G1 X2.919 Y-13.721 E57.35735
G1 X4.107 Y-14.315 E57.47331
G1 X4.316 Y-14.315 E57.49156
G1 X4.316 Y-14.515 E57.50902
G1 X4.818 Y-14.515 E57.55285
G1 X4.990 Y-14.756 E57.57870
G1 X5.460 Y-15.362 E57.64566
G1 X7.347 Y-16.655 E57.84537
G1 X10.056 Y-16.272 E58.08424
G1 X11.616 Y-15.039 E58.25785
G1 X11.944 Y-14.515 E58.31182
G1 X13.816 Y-14.515 E58.47526
G1 X13.816 Y-12.915 E58.61495
G1 X14.016 Y-12.915 E58.63241
G1 X14.016 Y-11.315 E58.77211
G1 X14.216 Y-11.315 E58.78957
G1 X14.216 Y-6.562 E59.20454
G1 X15.261 Y-5.517 E59.33357
G1 X14.416 Y-3.479 E59.52619
G1 X14.416 Y1.885 E59.99451
G1 X13.299 Y1.885 E60.09203
G1 X13.283 Y1.984 E60.10079
G1 X13.228 Y2.301 E60.12888
G1 X13.070 Y2.953 E60.18745
G1 X13.002 Y3.211 E60.21075
G1 X12.884 Y3.744 E60.25841
G1 X12.646 Y4.486 E60.32644
G1 X12.483 Y4.959 E60.37012
G1 X12.413 Y5.185 E60.39078
G1 X12.342 Y5.355 E60.40686
G1 X12.236 Y5.669 E60.43580
G1 X11.995 Y6.318 E60.49624
G1 X11.705 Y7.011 E60.56183
G1 X11.342 Y7.772 E60.63544
G1 X10.996 Y8.426 E60.70004
G1 X10.588 Y9.097 E60.76860
G1 X10.515 Y9.213 E60.78057
G1 X10.103 Y9.809 E60.84383
G1 X9.712 Y10.328 E60.90056
G1 X9.263 Y10.883 E60.96289
G1 X8.790 Y11.424 E61.02563
G1 X8.556 Y11.684 E61.05617
G1 X8.188 Y12.032 E61.10039
G1 X8.069 Y12.165 E61.11597
G1 X7.520 Y12.668 E61.18098
G1 X7.091 Y13.054 E61.23136
G1 X6.752 Y13.357 E61.27106
G1 X6.431 Y13.619 E61.30724
G1 X5.919 Y14.017 E61.36386
G1 X5.696 Y14.155 E61.38675
G1 X5.546 Y14.272 E61.40336
G1 X4.650 Y14.817 E61.49492
G1 X4.508 Y14.880 E61.50849
G1 X4.130 Y15.107 E61.54698
G1 X3.983 Y15.148 E61.56031
G1 X3.747 Y15.271 E61.58354
G1 X3.551 Y15.329 E61.60139
G1 X3.135 Y15.510 E61.64100
G1 X2.400 Y15.764 E61.70889
G1 X2.164 Y15.840 E61.73054
G1 X1.687 Y15.970 E61.77370
G1 X1.276 Y16.107 E61.81153
G1 X0.969 Y16.131 E61.83841
G1 X0.495 Y16.230 E61.88069
G1 X0.030 Y16.317 E61.92199
G1 X-0.400 Y16.389 E61.96006
G1 X-0.788 Y16.435 E61.99417
G1 X-1.265 Y16.468 E62.03592
G1 X-1.559 Y16.500 E62.06174
G1 X-2.306 Y16.516 E62.12697
G1 X-2.396 Y16.511 E62.13484
G1 X-2.644 Y16.519 E62.15650
G1 X-2.646 Y16.519 E62.15668
G1 X-2.818 Y16.538 E62.17179
G1 X-3.938 Y16.397 E62.27034
G1 X-4.546 Y16.286 E62.32430
G1 X-4.979 Y16.193 E62.36297
G1 X-5.717 Y16.011 E62.42933
G1 X-5.719 Y16.010 E62.42953
G1 X-6.227 Y15.889 E62.47512
G1 X-6.416 Y15.766 E62.49481
G1 X-6.864 Y15.597 E62.53661
G1 X-7.645 Y15.266 E62.61067
G1 X-7.877 Y15.136 E62.63389
G1 X-8.521 Y14.779 E62.69818
G1 X-8.951 Y14.500 E62.74293
G1 X-9.481 Y14.133 E62.79922
G1 X-10.120 Y13.608 E62.87142
G1 X-10.739 Y13.043 E62.94459
G1 X-11.089 Y12.687 E62.98818
G1 X-11.091 Y12.685 E62.98843
G0 F7500 X-14.388 Y10.499
G1 F1800 X9.706 Y10.500 E65.09202
G0 F7500 X13.045 Y3.500
G1 F1800 X-14.589 Y3.499 E67.50469
G0 F7500 X-10.693 Y-3.500
G1 F1800 X14.538 Y-3.499 E69.70755
G0 F7500 X14.320 Y-10.499
G1 F1800 X-3.693 Y-10.500 E71.28023
;LAYER:-2
;RAFT
G0 F7500 X-3.484 Y-10.562 Z1.500
;TYPE:SUPPORT
G1 F1800 X-3.484 Y-13.066 E71.49885
G1 X2.659 Y-13.684 E72.03789
G1 X2.919 Y-13.721 E72.06081
G1 X4.107 Y-14.315 E72.17678
G1 X4.316 Y-14.315 E72.19503
G1 X4.316 Y-14.515 E72.21249
G1 X4.818 Y-14.515 E72.25632
G1 X4.990 Y-14.756 E72.28217
G1 X5.460 Y-15.362 E72.34912
G1 X7.347 Y-16.655 E72.54884
G1 X10.056 Y-16.272 E72.78771
G1 X11.616 Y-15.039 E72.96131
G1 X11.944 Y-14.515 E73.01529
G1 X13.816 Y-14.515 E73.17873
G1 X13.816 Y-12.915 E73.31842
G1 X14.016 Y-12.915 E73.33588
G1 X14.016 Y-11.315 E73.47557
G1 X14.216 Y-11.315 E73.49304
G1 X14.216 Y-6.562 E73.90801
G1 X15.261 Y-5.517 E74.03704
G1 X14.416 Y-3.479 E74.22966
G1 X14.416 Y1.885 E74.69798
G1 X13.299 Y1.885 E74.79550
G1 X13.283 Y1.984 E74.80426
G1 X13.228 Y2.301 E74.83235
G1 X13.070 Y2.953 E74.89092
