;START 
;PRINT ID 
;5cc7cdeefe943774349e00d9 
;3 
;4 
;5 
;6 
;7 
;8 
;9 
;begining gcode 
M104 T0 S210
G28
G28 ; Home extruder
;You could use this one or make your own as in the plugin functions @eject
;@EjectStuff()



G28 ; Home extruder
M107 ; Turn off fan
G90 ; Absolute positioning
M82 ; Extruder in absolute mode

; Activate all used extruder
; M104 T0 S210
G92 E0 ; Reset extruder position
; Wait for all used extruders to reach temperature
M109 T0 S210

;@myFunction()

; Turn on fan 
M106 P0
M106 P1
M106 P2

G28 ; Home extruder

;set extrude factor override percentage (over/under-extrusion fix)
M221 S150
;set speed factor percentage
M220 S100


G1 X0 Y0 Z0
;Generated with Cura_SteamEngine DEV

;Layer count: 100
;LAYER:-2
;RAFT
G0 F2400 X19.433 Y13.782 Z0.300
;TYPE:SUPPORT
G1 F1800 X19.185 Y14.296 E0.04983
G1 X18.646 Y14.984 E0.12613
G1 X14.759 Y18.870 E0.60601
G1 X10.048 Y21.700 E1.08582
G1 X9.417 Y21.981 E1.14613
G1 X4.159 Y23.590 E1.62621
G1 X-1.322 Y23.877 E2.10540
G1 X-2.011 Y23.832 E2.16568
G1 X-7.418 Y22.780 E2.64661
G1 X-12.407 Y20.454 E3.12720
G1 X-12.991 Y20.086 E3.18747
G1 X-17.259 Y16.631 E3.66689
G1 X-20.565 Y12.244 E4.14649
G1 X-20.912 Y11.646 E4.20685
G1 X-23.061 Y6.579 E4.68738
G1 X-23.919 Y1.159 E5.16648
G1 X-23.946 Y0.469 E5.22677
G1 X-23.465 Y-5.017 E5.70758
G1 X-21.677 Y-10.208 E6.18693
G1 X-21.377 Y-10.828 E6.24706
G1 X-18.380 Y-15.445 E6.72764
G1 X-14.357 Y-19.198 E7.20799
G1 X-13.797 Y-19.604 E7.26838
G1 X-8.989 Y-22.267 E7.74824
G1 X-3.691 Y-23.687 E8.22713
G1 X-3.007 Y-23.787 E8.28748
G1 X2.501 Y-23.882 E8.76844
G1 X7.841 Y-22.648 E9.24695
G1 X8.491 Y-22.418 E9.30715
G1 X13.405 Y-19.913 E9.78871
G1 X17.549 Y-16.310 E10.26815
G1 X18.013 Y-15.799 E10.32841
G1 X21.248 Y-11.176 E10.82104
G1 X21.514 Y-10.312 E10.89997
G1 X23.314 Y-5.625 E11.33832
G1 X24.025 Y0.176 E11.84858
G1 X24.805 Y0.320 E11.91783
G1 X24.261 Y2.099 E12.08025
G1 X24.490 Y3.970 E12.24482
G1 X23.688 Y3.970 E12.31484
G1 X21.987 Y9.529 E12.82240
G1 X19.433 Y13.782 E13.25553
G0 F2400 X17.500 Y16.279
G1 F1800 X17.500 Y-16.491 E16.11661
G0 F2400 X-17.500 Y-16.410
G1 F1800 X-17.500 Y16.485 E18.98860
G0 F2400 X-10.500 Y21.458
G1 F1800 X-10.500 Y-21.551 E22.74362
G0 F2400 X-3.500 Y-23.822
G1 F1800 X-3.500 Y23.649 E26.88822
G0 F2400 X3.500 Y23.730
G1 F1800 X3.500 Y-23.758 E31.03429
G0 F2400 X10.500 Y-21.512
G1 F1800 X10.500 Y21.551 E34.79403
G0 F2400 X24.500 Y4.075
G1 F1800 X24.500 Y3.186 E34.87165
G0 F2400 X24.500 Y1.677
G1 F1800 X24.500 Y0.157 E35.00435
;LAYER:-2
;RAFT
G0 F2400 X24.025 Y0.176 Z0.600
;TYPE:SUPPORT
G1 F1800 X24.805 Y0.320 E35.07361
G1 X24.261 Y2.099 E35.23603
G1 X24.490 Y3.970 E35.40060
G1 X23.688 Y3.970 E35.47062
G1 X21.987 Y9.529 E35.97818
G1 X19.433 Y13.782 E36.41130
G1 X19.185 Y14.296 E36.46113
G1 X18.646 Y14.984 E36.53744
G1 X14.759 Y18.870 E37.01731
G1 X10.048 Y21.700 E37.49713
G1 X9.417 Y21.981 E37.55743
G1 X4.159 Y23.590 E38.03751
G1 X-1.322 Y23.877 E38.51670
G1 X-2.011 Y23.832 E38.57699
G1 X-7.418 Y22.780 E39.05791
G1 X-12.407 Y20.454 E39.53850
G1 X-12.991 Y20.086 E39.59877
G1 X-17.259 Y16.631 E40.07819
G1 X-20.565 Y12.244 E40.55779
G1 X-20.912 Y11.646 E40.61816
G1 X-23.061 Y6.579 E41.09869
G1 X-23.919 Y1.159 E41.57779
G1 X-23.946 Y0.469 E41.63808
G1 X-23.465 Y-5.017 E42.11889
G1 X-21.677 Y-10.208 E42.59823
G1 X-21.377 Y-10.828 E42.65837
G1 X-18.380 Y-15.445 E43.13895
G1 X-14.357 Y-19.198 E43.61929
G1 X-13.797 Y-19.604 E43.67968
G1 X-8.989 Y-22.267 E44.15955
G1 X-3.691 Y-23.687 E44.63843
G1 X-3.007 Y-23.787 E44.69878
G1 X2.501 Y-23.882 E45.17975
G1 X7.841 Y-22.648 E45.65826
G1 X8.491 Y-22.418 E45.71846
G1 X13.405 Y-19.913 E46.20002
G1 X17.549 Y-16.310 E46.67945
G1 X18.013 Y-15.799 E46.73971
G1 X21.248 Y-11.176 E47.23234
G1 X21.514 Y-10.312 E47.31127
G1 X23.314 Y-5.625 E47.74962
G1 X24.025 Y0.176 E48.25989
G0 F2400 X24.539 Y3.500
G1 F1800 X-23.655 Y3.499 E52.46760
G0 F2400 X-23.702 Y-3.500
G1 F1800 X23.681 Y-3.499 E56.60451
G0 F2400 X21.566 Y-10.499
G1 F1800 X-21.651 Y-10.500 E60.37769
G0 F2400 X-21.513 Y10.499
G1 F1800 X21.526 Y10.500 E64.13533
G0 F2400 X16.276 Y17.500
G1 F1800 X-16.352 Y17.500 E66.98402
G0 F2400 X-16.329 Y-17.500
G1 F1800 X16.341 Y-17.500 E69.83636
;LAYER:-2
;RAFT
G0 F2400 X17.549 Y-16.310 Z0.900
;TYPE:SUPPORT
G1 F1800 X18.013 Y-15.799 E69.89663
G1 X21.248 Y-11.176 E70.38926
G1 X21.514 Y-10.312 E70.46818
G1 X23.314 Y-5.625 E70.90654
G1 X24.025 Y0.176 E71.41680
G1 X24.805 Y0.320 E71.48605
G1 X24.261 Y2.099 E71.64847
G1 X24.490 Y3.970 E71.81304
G1 X23.688 Y3.970 E71.88306
G1 X21.987 Y9.529 E72.39062
G1 X19.433 Y13.782 E72.82375
G1 X19.185 Y14.296 E72.87358
G1 X18.646 Y14.984 E72.94988
G1 X14.759 Y18.870 E73.42976
G1 X10.048 Y21.700 E73.90957
G1 X9.417 Y21.981 E73.96988
G1 X4.159 Y23.590 E74.44996
G1 X-1.322 Y23.877 E74.92915
G1 X-2.011 Y23.832 E74.98943
G1 X-7.418 Y22.780 E75.47036
G1 X-12.407 Y20.454 E75.95095
G1 X-12.991 Y20.086 E76.01121
G1 X-17.259 Y16.631 E76.49064
G1 X-20.565 Y12.244 E76.97024
G1 X-20.912 Y11.646 E77.03060
G1 X-23.061 Y6.579 E77.51113
G1 X-23.919 Y1.159 E77.99023
G1 X-23.946 Y0.469 E78.05052
G1 X-23.465 Y-5.017 E78.53133
G1 X-21.677 Y-10.208 E79.01068
G1 X-21.377 Y-10.828 E79.07081
G1 X-18.380 Y-15.445 E79.55139
G1 X-14.357 Y-19.198 E80.03174
G1 X-13.797 Y-19.604 E80.09213
G1 X-8.989 Y-22.267 E80.57199
G1 X-3.691 Y-23.687 E81.05088
G1 X-3.007 Y-23.787 E81.11123
G1 X2.501 Y-23.882 E81.59219
G1 X7.841 Y-22.648 E82.07070
G1 X8.491 Y-22.418 E82.13090
G1 X13.405 Y-19.913 E82.61246
G1 X17.549 Y-16.310 E83.09189
G0 F2400 X17.500 Y-16.490
G1 F1800 X17.499 Y16.278 E85.95280
G0 F2400 X-17.500 Y16.482
G1 F1800 X-17.499 Y-16.409 E88.82444
G0 F2400 X-10.499 Y-21.551
G1 F1800 X-10.500 Y21.458 E92.57946
G0 F2400 X-3.500 Y23.649
G1 F1800 X-3.499 Y-23.822 E96.72406
G0 F2400 X3.500 Y-23.758
G1 F1800 X3.499 Y23.730 E100.87013
G0 F2400 X10.499 Y21.551
G1 F1800 X10.500 Y-21.511 E104.62978
G0 F2400 X24.500 Y0.156
G1 F1800 X24.500 Y1.676 E104.76249
G0 F2400 X24.500 Y3.185
G1 F1800 X24.500 Y4.074 E104.84011
;LAYER:-2
;RAFT
G0 F2400 X23.688 Y3.970 Z1.200
;TYPE:SUPPORT
G1 F1800 X21.987 Y9.529 E105.34766
G1 X19.433 Y13.782 E105.78079
G1 X19.185 Y14.296 E105.83062
G1 X18.646 Y14.984 E105.90693
G1 X14.759 Y18.870 E106.38680
G1 X10.048 Y21.700 E106.86661
G1 X9.417 Y21.981 E106.92692
G1 X4.159 Y23.590 E107.40700
G1 X-1.322 Y23.877 E107.88619
G1 X-2.011 Y23.832 E107.94647
G1 X-7.418 Y22.780 E108.42740
G1 X-12.407 Y20.454 E108.90799
G1 X-12.991 Y20.086 E108.96826
G1 X-17.259 Y16.631 E109.44768
G1 X-20.565 Y12.244 E109.92728
G1 X-20.912 Y11.646 E109.98764
G1 X-23.061 Y6.579 E110.46818
G1 X-23.919 Y1.159 E110.94728
G1 X-23.946 Y0.469 E111.00757
G1 X-23.465 Y-5.017 E111.48837
G1 X-21.677 Y-10.208 E111.96772
G1 X-21.377 Y-10.828 E112.02785
G1 X-18.380 Y-15.445 E112.50843
G1 X-14.357 Y-19.198 E112.98878
G1 X-13.797 Y-19.604 E113.04917
G1 X-8.989 Y-22.267 E113.52904
G1 X-3.691 Y-23.687 E114.00792
G1 X-3.007 Y-23.787 E114.06827
G1 X2.501 Y-23.882 E114.54924
G1 X7.841 Y-22.648 E115.02775
G1 X8.491 Y-22.418 E115.08794
G1 X13.405 Y-19.913 E115.56950
G1 X17.549 Y-16.310 E116.04894
G1 X18.013 Y-15.799 E116.10920
G1 X21.248 Y-11.176 E116.60183
G1 X21.514 Y-10.312 E116.68076
G1 X23.314 Y-5.625 E117.11911
G1 X24.025 Y0.176 E117.62937
G1 X24.805 Y0.320 E117.69862
G1 X24.261 Y2.099 E117.86104
G1 X24.490 Y3.970 E118.02562
G1 X23.688 Y3.970 E118.09564
G0 F2400 X24.539 Y3.500
G1 F1800 X-23.655 Y3.499 E122.30335
G0 F2400 X-23.702 Y-3.500
G1 F1800 X23.681 Y-3.499 E126.44026
G0 F2400 X21.565 Y-10.499
G1 F1800 X-21.650 Y-10.500 E130.21327
G0 F2400 X-21.512 Y10.499
G1 F1800 X21.525 Y10.500 E133.97074
G0 F2400 X16.275 Y17.500
G1 F1800 X-16.351 Y17.499 E136.81924
G0 F2400 X-16.328 Y-17.500
G1 F1800 X16.340 Y-17.499 E139.67142
;LAYER:-2
;RAFT
G0 F2400 X17.549 Y-16.310 Z1.500
;TYPE:SUPPORT
G1 F1800 X18.013 Y-15.799 E139.73168
G1 X21.248 Y-11.176 E140.22431
G1 X21.514 Y-10.312 E140.30324
G1 X23.314 Y-5.625 E140.74159
G1 X24.025 Y0.176 E141.25185
G1 X24.805 Y0.320 E141.32110
G1 X24.261 Y2.099 E141.48352
G1 X24.490 Y3.970 E141.64809
G1 X23.688 Y3.970 E141.71812
G1 X21.987 Y9.529 E142.22567
G1 X19.433 Y13.782 E142.65880
G1 X19.185 Y14.296 E142.70863
G1 X18.646 Y14.984 E142.78494
G1 X14.759 Y18.870 E143.26481
G1 X10.048 Y21.700 E143.74462
G1 X9.417 Y21.981 E143.80493
G1 X4.159 Y23.590 E144.28501
G1 X-1.322 Y23.877 E144.76420
G1 X-2.011 Y23.832 E144.82448
G1 X-7.418 Y22.780 E145.30541
G1 X-12.407 Y20.454 E145.78600
G1 X-12.991 Y20.086 E145.84627
G1 X-17.259 Y16.631 E146.32569
G1 X-20.565 Y12.244 E146.80529
G1 X-20.912 Y11.646 E146.86565
G1 X-23.061 Y6.579 E147.34619
G1 X-23.919 Y1.159 E147.82529
G1 X-23.946 Y0.469 E147.88557
G1 X-23.465 Y-5.017 E148.36638
G1 X-21.677 Y-10.208 E148.84573
G1 X-21.377 Y-10.828 E148.90586
G1 X-18.380 Y-15.445 E149.38644
G1 X-14.357 Y-19.198 E149.86679
G1 X-13.797 Y-19.604 E149.92718
G1 X-8.989 Y-22.267 E150.40705
G1 X-3.691 Y-23.687 E150.88593
G1 X-3.007 Y-23.787 E150.94628
G1 X2.501 Y-23.882 E151.42725
G1 X7.841 Y-22.648 E151.90576
G1 X8.491 Y-22.418 E151.96595
G1 X13.405 Y-19.913 E152.44751
G1 X17.549 Y-16.310 E152.92695
G0 F2400 X17.500 Y-16.490
G1 F1800 X17.499 Y16.278 E155.78785
G0 F2400 X-17.500 Y16.482
G1 F1800 X-17.499 Y-16.409 E158.65949
G0 F2400 X-10.499 Y-21.550
G1 F1800 X-10.500 Y21.457 E162.41434
G0 F2400 X-3.500 Y23.649
G1 F1800 X-3.499 Y-23.822 E166.55893
G0 F2400 X3.500 Y-23.758
G1 F1800 X3.499 Y23.730 E170.70501
G0 F2400 X10.499 Y21.550
G1 F1800 X10.500 Y-21.510 E174.46449
G0 F2400 X24.500 Y0.156
G1 F1800 X24.500 Y1.676 E174.59719
G0 F2400 X24.500 Y3.185
G1 F1800 X24.500 Y4.074 E174.67481
;LAYER:-2
;RAFT
G0 F2400 X23.688 Y3.970 Z1.800
;TYPE:SUPPORT
G1 F1800 X21.987 Y9.529 E175.18237
G1 X19.433 Y13.782 E175.61550
G1 X19.185 Y14.296 E175.66532
G1 X18.646 Y14.984 E175.74163
G1 X14.759 Y18.870 E176.22150
G1 X10.048 Y21.700 E176.70132
G1 X9.417 Y21.981 E176.76163
G1 X4.159 Y23.590 E177.24170
G1 X-1.322 Y23.877 E177.72089
G1 X-2.011 Y23.832 E177.78118
G1 X-7.418 Y22.780 E178.26210
G1 X-12.407 Y20.454 E178.74270
G1 X-12.991 Y20.086 E178.80296
G1 X-17.259 Y16.631 E179.28238
G1 X-20.565 Y12.244 E179.76198
G1 X-20.912 Y11.646 E179.82235
G1 X-23.061 Y6.579 E180.30288
G1 X-23.919 Y1.159 E180.78198
G1 X-23.946 Y0.469 E180.84227
G1 X-23.465 Y-5.017 E181.32308
G1 X-21.677 Y-10.208 E181.80242
G1 X-21.377 Y-10.828 E181.86256
G1 X-18.380 Y-15.445 E182.34314
G1 X-14.357 Y-19.198 E182.82349
G1 X-13.797 Y-19.604 E182.88388
G1 X-8.989 Y-22.267 E183.36374
G1 X-3.691 Y-23.687 E183.84262
G1 X-3.007 Y-23.787 E183.90298
G1 X2.501 Y-23.882 E184.38394
G1 X7.841 Y-22.648 E184.86245
G1 X8.491 Y-22.418 E184.92265
G1 X13.405 Y-19.913 E185.40421
G1 X17.549 Y-16.310 E185.88364
G1 X18.013 Y-15.799 E185.94390
G1 X21.248 Y-11.176 E186.43654
G1 X21.514 Y-10.312 E186.51546
G1 X23.314 Y-5.625 E186.95381
G1 X24.025 Y0.176 E187.46408
G1 X24.805 Y0.320 E187.53333
G1 X24.261 Y2.099 E187.69575
G1 X24.490 Y3.970 E187.86032
G1 X23.688 Y3.970 E187.93034
G0 F2400 X24.539 Y3.500
G1 F1800 X-23.655 Y3.499 E192.13806
G0 F2400 X-23.702 Y-3.500
G1 F1800 X23.681 Y-3.499 E196.27496
G0 F2400 X21.565 Y-10.499
G1 F1800 X-21.650 Y-10.500 E200.04797
G0 F2400 X-21.512 Y10.499
G1 F1800 X21.525 Y10.500 E203.80544
G0 F2400 X16.275 Y17.500
G1 F1800 X-16.351 Y17.499 E206.65395
G0 F2400 X-16.328 Y-17.500
G1 F1800 X16.340 Y-17.499 E209.50612
;LAYER:-2
;RAFT
G0 F2400 X17.549 Y-16.310 Z2.100
;TYPE:SUPPORT
G1 F1800 X18.013 Y-15.799 E209.56638
G1 X21.248 Y-11.176 E210.05901
G1 X21.514 Y-10.312 E210.13794
G1 X23.314 Y-5.625 E210.57629
G1 X24.025 Y0.176 E211.08656
G1 X24.805 Y0.320 E211.15581
G1 X24.261 Y2.099 E211.31823
G1 X24.490 Y3.970 E211.48280
G1 X23.688 Y3.970 E211.55282
G1 X21.987 Y9.529 E212.06038
G1 X19.433 Y13.782 E212.49351
G1 X19.185 Y14.296 E212.54333
G1 X18.646 Y14.984 E212.61964
G1 X14.759 Y18.870 E213.09951
G1 X10.048 Y21.700 E213.57933
G1 X9.417 Y21.981 E213.63964
G1 X4.159 Y23.590 E214.11971
G1 X-1.322 Y23.877 E214.59890
G1 X-2.011 Y23.832 E214.65919
G1 X-7.418 Y22.780 E215.14011
G1 X-12.407 Y20.454 E215.62071
G1 X-12.991 Y20.086 E215.68097
G1 X-17.259 Y16.631 E216.16039
G1 X-20.565 Y12.244 E216.63999
G1 X-20.912 Y11.646 E216.70036
G1 X-23.061 Y6.579 E217.18089
G1 X-23.919 Y1.159 E217.65999
G1 X-23.946 Y0.469 E217.72028
G1 X-23.465 Y-5.017 E218.20109
G1 X-21.677 Y-10.208 E218.68043
G1 X-21.377 Y-10.828 E218.74057
G1 X-18.380 Y-15.445 E219.22115
G1 X-14.357 Y-19.198 E219.70150
G1 X-13.797 Y-19.604 E219.76189
G1 X-8.989 Y-22.267 E220.24175
G1 X-3.691 Y-23.687 E220.72063
G1 X-3.007 Y-23.787 E220.78099
G1 X2.501 Y-23.882 E221.26195
G1 X7.841 Y-22.648 E221.74046
G1 X8.491 Y-22.418 E221.80066
G1 X13.405 Y-19.913 E222.28222
G1 X17.549 Y-16.310 E222.76165
G0 F2400 X17.500 Y-16.490
G1 F1800 X17.499 Y16.278 E225.62256
G0 F2400 X-17.500 Y16.482
G1 F1800 X-17.499 Y-16.409 E228.49420
G0 F2400 X-10.499 Y-21.550
G1 F1800 X-10.500 Y21.457 E232.24905
G0 F2400 X-3.500 Y23.649
G1 F1800 X-3.499 Y-23.822 E236.39364
G0 F2400 X3.500 Y-23.758
G1 F1800 X3.499 Y23.730 E240.53971
G0 F2400 X10.499 Y21.550
G1 F1800 X10.500 Y-21.510 E244.29919
G0 F2400 X24.500 Y0.156
G1 F1800 X24.500 Y1.676 E244.43190
G0 F2400 X24.500 Y3.185
G1 F1800 X24.500 Y4.074 E244.50951
M106 S255
;LAYER:-1
;RAFT
G0 F2400 X24.506 Y3.858 Z2.400
;TYPE:SUPPORT
G1 F1800 X-3.148 Y-23.795 E245.48507
G0 F2400 X-3.640 Y-23.722
G1 F1800 X24.081 Y4.000 E246.46302
G0 F2400 X23.664 Y4.148
G1 F1800 X-4.092 Y-23.608 E247.44218
G0 F2400 X-4.538 Y-23.488
G1 F1800 X23.532 Y4.582 E248.43243
G0 F2400 X23.399 Y5.014
G1 F1800 X-4.984 Y-23.369 E249.43372
G0 F2400 X-5.430 Y-23.249
G1 F1800 X23.267 Y5.448 E250.44608
G0 F2400 X23.134 Y5.881
G1 F1800 X-5.876 Y-23.130 E251.46950
G0 F2400 X-6.322 Y-23.010
G1 F1800 X23.002 Y6.314 E252.50399
G0 F2400 X22.869 Y6.747
G1 F1800 X-6.769 Y-22.891 E253.54955
G0 F2400 X-7.215 Y-22.771
G1 F1800 X22.737 Y7.180 E254.60617
G0 F2400 X22.604 Y7.614
G1 F1800 X-7.661 Y-22.652 E255.67387
G0 F2400 X-8.107 Y-22.532
G1 F1800 X22.471 Y8.046 E256.75259
G0 F2400 X22.339 Y8.480
G1 F1800 X-8.553 Y-22.413 E257.84240
G0 F2400 X-9.000 Y-22.293
G1 F1800 X22.206 Y8.913 E258.94328
G0 F2400 X22.074 Y9.346
G1 F1800 X-9.363 Y-22.091 E260.05230
G0 F2400 X-9.727 Y-21.889
G1 F1800 X21.897 Y9.735 E261.16793
G0 F2400 X21.685 Y10.088
G1 F1800 X-10.091 Y-21.688 E262.28891
G0 F2400 X-10.455 Y-21.486
G1 F1800 X21.473 Y10.442 E263.41526
G0 F2400 X21.261 Y10.796
G1 F1800 X-10.820 Y-21.285 E264.54700
G0 F2400 X-11.184 Y-21.083
G1 F1800 X21.049 Y11.149 E265.68409
G0 F2400 X20.836 Y11.502
G1 F1800 X-11.548 Y-20.882 E266.82652
G0 F2400 X-11.912 Y-20.680
G1 F1800 X20.624 Y11.856 E267.97432
G0 F2400 X20.412 Y12.209
G1 F1800 X-12.276 Y-20.479 E269.12748
G0 F2400 X-12.640 Y-20.277
G1 F1800 X20.199 Y12.563 E270.28598
G0 F2400 X24.427 Y3.214
G1 F1800 X-2.609 Y-23.822 E271.23975
G0 F2400 X-2.053 Y-23.832
G1 F1800 X24.348 Y2.569 E272.17111
G0 F2400 X24.328 Y1.983
G1 F1800 X-1.496 Y-23.841 E273.08212
G0 F2400 X-0.941 Y-23.851
G1 F1800 X24.460 Y1.549 E273.97819
G0 F2400 X24.593 Y1.117
G1 F1800 X-0.384 Y-23.860 E274.85933
G0 F2400 X0.171 Y-23.870
G1 F1800 X24.032 Y-0.009 E275.70109
G0 F2400 X24.224 Y0.182
G1 F1800 X24.725 Y0.683 E275.71876
G0 F2400 X23.953 Y-0.654
G1 F1800 X0.727 Y-23.879 E276.53810
G0 F2400 X1.283 Y-23.889
G1 F1800 X23.874 Y-1.298 E277.33506
G0 F2400 X23.794 Y-1.943
G1 F1800 X1.839 Y-23.898 E278.10958
G0 F2400 X2.395 Y-23.908
G1 F1800 X23.715 Y-2.588 E278.86170
G0 F2400 X23.637 Y-3.232
G1 F1800 X3.096 Y-23.773 E279.58634
G0 F2400 X3.831 Y-23.603
G1 F1800 X23.557 Y-3.877 E280.28223
G0 F2400 X23.478 Y-4.522
G1 F1800 X4.567 Y-23.434 E280.94939
G0 F2400 X5.303 Y-23.263
G1 F1800 X23.399 Y-5.167 E281.58777
G0 F2400 X23.244 Y-5.888
G1 F1800 X6.038 Y-23.094 E282.19476
G0 F2400 X6.774 Y-22.924
G1 F1800 X22.891 Y-6.807 E282.76333
G0 F2400 X22.539 Y-7.725
G1 F1800 X7.509 Y-22.754 E283.29354
G0 F2400 X8.319 Y-22.510
G1 F1800 X22.186 Y-8.643 E283.78273
G0 F2400 X21.833 Y-9.562
G1 F1800 X9.415 Y-21.980 E284.22081
G0 F2400 X10.569 Y-21.392
G1 F1800 X21.498 Y-10.463 E284.60636
G0 F2400 X21.126 Y-11.400
G1 F1800 X11.723 Y-20.803 E284.93808
G0 F2400 X12.877 Y-20.215
G1 F1800 X19.808 Y-13.284 E285.18259
