;Generated with Cura_SteamEngine 15.04.6
; Default start code
G28 ; Home extruder
M107 ; Turn off fan
G90 ; Absolute positioning
M82 ; Extruder in absolute mode

; Activate all used extruder
M104 T0 S210
G92 E0 ; Reset extruder position
; Wait for all used extruders to reach temperature
M109 T0 S210
;Layer count: 75
;LAYER:-2
;RAFT
G0 F7500 X-13.249 Y-23.249 Z0.300
;TYPE:SUPPORT
G1 F1800 X13.250 Y-23.249 E2.31357
G1 X13.250 Y23.250 E6.37330
G1 X-13.249 Y23.250 E8.68687
G1 X-13.249 Y-23.249 E12.74660
G0 F7500 X-5.000 Y-23.354
G1 F1800 X-5.000 Y23.355 E16.82466
G0 F7500 X5.000 Y23.355
G1 F1800 X5.000 Y-23.354 E20.90272
M106 S255
;LAYER:-1
;RAFT
G0 F7500 X4.722 Y-23.278 Z0.600
;TYPE:SUPPORT
G1 F1800 X13.280 Y-14.721 E21.20461
G0 F7500 X13.280 Y-15.286
G1 F1800 X5.288 Y-23.278 E21.48655
G0 F7500 X5.854 Y-23.278
G1 F1800 X13.280 Y-15.852 E21.74852
G0 F7500 X13.280 Y-16.418
G1 F1800 X6.419 Y-23.278 E21.99055
G0 F7500 X6.985 Y-23.278
G1 F1800 X13.280 Y-16.983 E22.21262
G0 F7500 X13.280 Y-17.549
G1 F1800 X7.551 Y-23.278 E22.41472
G0 F7500 X8.116 Y-23.278
G1 F1800 X13.280 Y-18.115 E22.59688
G0 F7500 X13.280 Y-18.681
G1 F1800 X8.682 Y-23.278 E22.75907
G0 F7500 X9.248 Y-23.278
G1 F1800 X13.280 Y-19.246 E22.90131
G0 F7500 X13.280 Y-19.812
G1 F1800 X9.813 Y-23.278 E23.02360
G0 F7500 X10.379 Y-23.278
G1 F1800 X13.280 Y-20.378 E23.12592
G0 F7500 X13.280 Y-20.943
G1 F1800 X10.945 Y-23.278 E23.20830
G0 F7500 X11.510 Y-23.278
G1 F1800 X13.280 Y-21.509 E23.27072
G0 F7500 X13.280 Y-22.075
G1 F1800 X12.076 Y-23.278 E23.31318
G0 F7500 X12.642 Y-23.278
G1 F1800 X13.280 Y-22.640 E23.33568
G0 F7500 X13.280 Y-23.206
G1 F1800 X13.208 Y-23.278 E23.33822
G0 F7500 X4.157 Y-23.278
G1 F1800 X13.280 Y-14.155 E23.66006
G0 F7500 X13.280 Y-13.589
G1 F1800 X3.591 Y-23.278 E24.00187
G0 F7500 X3.025 Y-23.278
G1 F1800 X13.280 Y-13.024 E24.36362
G0 F7500 X13.280 Y-12.458
G1 F1800 X2.460 Y-23.278 E24.74533
G0 F7500 X1.894 Y-23.278
G1 F1800 X13.280 Y-11.892 E25.14700
G0 F7500 X13.280 Y-11.327
G1 F1800 X1.328 Y-23.278 E25.56862
G0 F7500 X0.762 Y-23.278
G1 F1800 X13.280 Y-10.761 E26.01021
G0 F7500 X13.280 Y-10.195
G1 F1800 X0.197 Y-23.278 E26.47175
G0 F7500 X-0.368 Y-23.278
G1 F1800 X13.280 Y-9.630 E26.95322
G0 F7500 X13.280 Y-9.064
G1 F1800 X-0.934 Y-23.278 E27.45466
G0 F7500 X-1.499 Y-23.278
G1 F1800 X13.280 Y-8.498 E27.97604
G0 F7500 X13.280 Y-7.933
G1 F1800 X-2.065 Y-23.278 E28.51738
G0 F7500 X-2.631 Y-23.278
G1 F1800 X13.280 Y-7.367 E29.07868
G0 F7500 X13.280 Y-6.801
G1 F1800 X-3.196 Y-23.278 E29.65994
G0 F7500 X-3.762 Y-23.278
G1 F1800 X13.280 Y-6.235 E30.26116
G0 F7500 X13.280 Y-5.670
G1 F1800 X-4.328 Y-23.278 E30.88233
G0 F7500 X-4.893 Y-23.278
G1 F1800 X13.280 Y-5.104 E31.52344
G0 F7500 X13.280 Y-4.538
G1 F1800 X-5.459 Y-23.278 E32.18453
G0 F7500 X-6.025 Y-23.278
G1 F1800 X13.280 Y-3.973 E32.86557
G0 F7500 X13.280 Y-3.407
G1 F1800 X-6.590 Y-23.278 E33.56655
G0 F7500 X-7.156 Y-23.278
G1 F1800 X13.280 Y-2.841 E34.28751
G0 F7500 X13.280 Y-2.276
G1 F1800 X-7.722 Y-23.278 E35.02841
G0 F7500 X-8.287 Y-23.278
G1 F1800 X13.280 Y-1.710 E35.78926
G0 F7500 X13.280 Y-1.144
G1 F1800 X-8.853 Y-23.278 E36.57008
G0 F7500 X-9.419 Y-23.278
G1 F1800 X13.280 Y-0.579 E37.37085
G0 F7500 X13.280 Y-0.013
G1 F1800 X-9.985 Y-23.278 E38.19158
G0 F7500 X-10.550 Y-23.278
G1 F1800 X13.280 Y0.552 E39.03225
G0 F7500 X13.280 Y1.117
G1 F1800 X-11.116 Y-23.278 E39.89287
G0 F7500 X-11.682 Y-23.278
G1 F1800 X13.280 Y1.683 E40.77345
G0 F7500 X13.280 Y2.249
G1 F1800 X-12.247 Y-23.278 E41.67399
G0 F7500 X-12.813 Y-23.278
G1 F1800 X13.280 Y2.814 E42.59447
G0 F7500 X13.280 Y3.380
G1 F1800 X-13.279 Y-23.178 E43.53139
G0 F7500 X-13.279 Y-22.613
G1 F1800 X13.280 Y3.946 E44.46833
G0 F7500 X13.280 Y4.512
G1 F1800 X-13.279 Y-22.047 E45.40527
G0 F7500 X-13.279 Y-21.481
G1 F1800 X13.280 Y5.077 E46.34220
G0 F7500 X13.280 Y5.643
G1 F1800 X-13.279 Y-20.916 E47.27914
G0 F7500 X-13.279 Y-20.350
G1 F1800 X13.280 Y6.209 E48.21608
G0 F7500 X13.280 Y6.774
G1 F1800 X-13.279 Y-19.784 E49.15300
G0 F7500 X-13.279 Y-19.219
G1 F1800 X13.280 Y7.340 E50.08994
G0 F7500 X13.280 Y7.906
G1 F1800 X-13.279 Y-18.653 E51.02688
G0 F7500 X-13.279 Y-18.087
G1 F1800 X13.280 Y8.471 E51.96380
G0 F7500 X13.280 Y9.037
G1 F1800 X-13.279 Y-17.522 E52.90074
G0 F7500 X-13.279 Y-16.956
G1 F1800 X13.280 Y9.603 E53.83768
G0 F7500 X13.280 Y10.168
G1 F1800 X-13.279 Y-16.390 E54.77461
G0 F7500 X-13.279 Y-15.825
G1 F1800 X13.280 Y10.734 E55.71155
G0 F7500 X13.280 Y11.300
G1 F1800 X-13.279 Y-15.259 E56.64849
G0 F7500 X-13.279 Y-14.693
G1 F1800 X13.280 Y11.865 E57.58541
G0 F7500 X13.280 Y12.431
G1 F1800 X-13.279 Y-14.127 E58.52233
G0 F7500 X-13.279 Y-13.562
G1 F1800 X13.280 Y12.997 E59.45927
G0 F7500 X13.280 Y13.563
G1 F1800 X-13.279 Y-12.996 E60.39621
G0 F7500 X-13.279 Y-12.430
G1 F1800 X13.280 Y14.128 E61.33314
G0 F7500 X13.280 Y14.694
G1 F1800 X-13.279 Y-11.865 E62.27008
G0 F7500 X-13.279 Y-11.299
G1 F1800 X13.280 Y15.260 E63.20702
G0 F7500 X13.280 Y15.825
G1 F1800 X-13.279 Y-10.733 E64.14394
G0 F7500 X-13.279 Y-10.168
G1 F1800 X13.280 Y16.391 E65.08088
G0 F7500 X13.280 Y16.957
G1 F1800 X-13.279 Y-9.602 E66.01782
G0 F7500 X-13.279 Y-9.036
G1 F1800 X13.280 Y17.522 E66.95474
G0 F7500 X13.280 Y18.088
G1 F1800 X-13.279 Y-8.471 E67.89168
G0 F7500 X-13.279 Y-7.905
G1 F1800 X13.280 Y18.654 E68.82863
G0 F7500 X13.280 Y19.219
G1 F1800 X-13.279 Y-7.339 E69.76555
G0 F7500 X-13.279 Y-6.774
G1 F1800 X13.280 Y19.785 E70.70249
G0 F7500 X13.280 Y20.351
G1 F1800 X-13.279 Y-6.208 E71.63943
G0 F7500 X-13.279 Y-5.642
G1 F1800 X13.280 Y20.916 E72.57635
G0 F7500 X13.280 Y21.482
G1 F1800 X-13.279 Y-5.077 E73.51329
G0 F7500 X-13.279 Y-4.511
G1 F1800 X13.280 Y22.048 E74.45023
G0 F7500 X13.280 Y22.613
G1 F1800 X-13.279 Y-3.945 E75.38716
G0 F7500 X-13.279 Y-3.379
G1 F1800 X13.280 Y23.179 E76.32408
G0 F7500 X12.814 Y23.279
G1 F1800 X-13.279 Y-2.814 E77.24458
G0 F7500 X-13.279 Y-2.248
G1 F1800 X12.248 Y23.279 E78.14511
G0 F7500 X11.682 Y23.279
G1 F1800 X-13.279 Y-1.682 E79.02568
G0 F7500 X-13.279 Y-1.117
G1 F1800 X11.117 Y23.279 E79.88631
G0 F7500 X10.551 Y23.279
G1 F1800 X-13.279 Y-0.551 E80.72698
G0 F7500 X-13.279 Y0.014
G1 F1800 X9.985 Y23.279 E81.54770
G0 F7500 X9.420 Y23.279
G1 F1800 X-13.279 Y0.579 E82.34849
G0 F7500 X-13.279 Y1.145
G1 F1800 X8.854 Y23.279 E83.12931
G0 F7500 X8.288 Y23.279
G1 F1800 X-13.279 Y1.711 E83.89016
G0 F7500 X-13.279 Y2.276
G1 F1800 X7.723 Y23.279 E84.63108
G0 F7500 X7.157 Y23.279
G1 F1800 X-13.279 Y2.842 E85.35203
G0 F7500 X-13.279 Y3.408
G1 F1800 X6.591 Y23.279 E86.05302
G0 F7500 X6.025 Y23.279
G1 F1800 X-13.279 Y3.973 E86.73405
G0 F7500 X-13.279 Y4.539
G1 F1800 X5.460 Y23.279 E87.39514
G0 F7500 X4.894 Y23.279
G1 F1800 X-13.279 Y5.105 E88.03626
G0 F7500 X-13.279 Y5.670
G1 F1800 X4.328 Y23.279 E88.65743
G0 F7500 X3.763 Y23.279
G1 F1800 X-13.279 Y6.236 E89.25865
G0 F7500 X-13.279 Y6.802
G1 F1800 X3.197 Y23.279 E89.83990
G0 F7500 X2.631 Y23.279
G1 F1800 X-13.279 Y7.368 E90.40119
G0 F7500 X-13.279 Y7.933
G1 F1800 X2.066 Y23.279 E90.94254
G0 F7500 X1.500 Y23.279
G1 F1800 X-13.279 Y8.499 E91.46393
G0 F7500 X-13.279 Y9.065
G1 F1800 X0.934 Y23.279 E91.96535
G0 F7500 X0.369 Y23.279
G1 F1800 X-13.279 Y9.630 E92.44683
G0 F7500 X-13.279 Y10.196
G1 F1800 X-0.196 Y23.279 E92.90837
G0 F7500 X-0.762 Y23.279
G1 F1800 X-13.279 Y10.762 E93.34994
G0 F7500 X-13.279 Y11.327
G1 F1800 X-1.327 Y23.279 E93.77158
G0 F7500 X-1.893 Y23.279
G1 F1800 X-13.279 Y11.893 E94.17325
G0 F7500 X-13.279 Y12.459
G1 F1800 X-2.459 Y23.279 E94.55496
G0 F7500 X-3.025 Y23.279
G1 F1800 X-13.279 Y13.024 E94.91671
G0 F7500 X-13.279 Y13.590
G1 F1800 X-3.590 Y23.279 E95.25852
G0 F7500 X-4.156 Y23.279
G1 F1800 X-13.279 Y14.156 E95.58036
G0 F7500 X-13.279 Y14.721
G1 F1800 X-4.722 Y23.279 E95.88225
G0 F7500 X-5.287 Y23.279
G1 F1800 X-13.279 Y15.287 E96.16419
G0 F7500 X-13.279 Y15.853
G1 F1800 X-5.853 Y23.279 E96.42616
G0 F7500 X-6.419 Y23.279
G1 F1800 X-13.279 Y16.419 E96.66816
G0 F7500 X-13.279 Y16.984
G1 F1800 X-6.984 Y23.279 E96.89024
G0 F7500 X-7.550 Y23.279
G1 F1800 X-13.279 Y17.550 E97.09234
G0 F7500 X-13.279 Y18.116
G1 F1800 X-8.116 Y23.279 E97.27448
G0 F7500 X-8.681 Y23.279
G1 F1800 X-13.279 Y18.681 E97.43669
G0 F7500 X-13.279 Y19.247
G1 F1800 X-9.247 Y23.279 E97.57893
G0 F7500 X-9.813 Y23.279
G1 F1800 X-13.279 Y19.813 E97.70120
G0 F7500 X-13.279 Y20.378
G1 F1800 X-10.378 Y23.279 E97.80354
G0 F7500 X-10.944 Y23.279
G1 F1800 X-13.279 Y20.944 E97.88591
G0 F7500 X-13.279 Y21.510
G1 F1800 X-11.510 Y23.279 E97.94832
G0 F7500 X-12.075 Y23.279
G1 F1800 X-13.279 Y22.075 E97.99080
G0 F7500 X-13.279 Y22.641
G1 F1800 X-12.641 Y23.279 E98.01330
G0 F7500 X-13.207 Y23.279
G1 F1800 X-13.279 Y23.207 E98.01584
;LAYER:-1
;RAFT
G0 F7500 X-13.313 Y23.205 Z0.900
;TYPE:SUPPORT
G1 F1800 X13.313 Y23.205 E99.45381
G0 F7500 X13.313 Y22.815
G1 F1800 X-13.313 Y22.815 E100.89178
G0 F7500 X-13.313 Y22.425
G1 F1800 X13.313 Y22.425 E102.32975
G0 F7500 X13.313 Y22.035
G1 F1800 X-13.313 Y22.035 E103.76771
G0 F7500 X-13.313 Y21.645
G1 F1800 X13.313 Y21.645 E105.20568
G0 F7500 X13.313 Y21.255
G1 F1800 X-13.313 Y21.255 E106.64365
G0 F7500 X-13.313 Y20.865
G1 F1800 X13.313 Y20.865 E108.08162
G0 F7500 X13.313 Y20.475
G1 F1800 X-13.313 Y20.475 E109.51958
G0 F7500 X-13.313 Y20.085
G1 F1800 X13.313 Y20.085 E110.95755
G0 F7500 X13.313 Y19.695
G1 F1800 X-13.313 Y19.695 E112.39552
G0 F7500 X-13.313 Y19.305
G1 F1800 X13.313 Y19.305 E113.83349
G0 F7500 X13.313 Y18.915
G1 F1800 X-13.313 Y18.915 E115.27145
G0 F7500 X-13.313 Y18.525
G1 F1800 X13.313 Y18.525 E116.70942
G0 F7500 X13.313 Y18.135
G1 F1800 X-13.313 Y18.135 E118.14739
G0 F7500 X-13.313 Y17.745
G1 F1800 X13.313 Y17.745 E119.58536
G0 F7500 X13.313 Y17.355
G1 F1800 X-13.313 Y17.355 E121.02332
G0 F7500 X-13.313 Y16.965
G1 F1800 X13.313 Y16.965 E122.46129
G0 F7500 X13.313 Y16.575
G1 F1800 X-13.313 Y16.575 E123.89926
G0 F7500 X-13.313 Y16.185
G1 F1800 X13.313 Y16.185 E125.33723
G0 F7500 X13.313 Y15.795
G1 F1800 X-13.313 Y15.795 E126.77519
G0 F7500 X-13.313 Y15.405
G1 F1800 X13.313 Y15.405 E128.21316
G0 F7500 X13.313 Y15.015
G1 F1800 X-13.313 Y15.015 E129.65113
G0 F7500 X-13.313 Y14.625
G1 F1800 X13.314 Y14.625 E131.08915
G0 F7500 X13.314 Y14.235
G1 F1800 X-13.313 Y14.235 E132.52717
G0 F7500 X-13.313 Y13.845
G1 F1800 X13.314 Y13.845 E133.96519
G0 F7500 X13.314 Y13.455
G1 F1800 X-13.313 Y13.455 E135.40322
G0 F7500 X-13.313 Y13.065
G1 F1800 X13.314 Y13.065 E136.84124
G0 F7500 X13.314 Y12.675
G1 F1800 X-13.313 Y12.675 E138.27926
G0 F7500 X-13.313 Y12.285
G1 F1800 X13.314 Y12.285 E139.71728
G0 F7500 X13.314 Y11.895
G1 F1800 X-13.313 Y11.895 E141.15530
G0 F7500 X-13.313 Y11.505
G1 F1800 X13.314 Y11.505 E142.59332
G0 F7500 X13.314 Y11.115
G1 F1800 X-13.313 Y11.115 E144.03135
G0 F7500 X-13.313 Y10.725
G1 F1800 X13.314 Y10.725 E145.46937
G0 F7500 X13.314 Y10.335
G1 F1800 X-13.313 Y10.335 E146.90739
G0 F7500 X-13.313 Y9.945
G1 F1800 X13.314 Y9.945 E148.34541
G0 F7500 X13.314 Y9.555
G1 F1800 X-13.313 Y9.555 E149.78343
G0 F7500 X-13.313 Y9.165
G1 F1800 X13.314 Y9.165 E151.22145
G0 F7500 X13.314 Y8.775
G1 F1800 X-13.313 Y8.775 E152.65948
G0 F7500 X-13.313 Y8.385
G1 F1800 X13.314 Y8.385 E154.09750
G0 F7500 X13.314 Y7.995
G1 F1800 X-13.313 Y7.994 E155.53552
G0 F7500 X-13.313 Y7.604
G1 F1800 X13.314 Y7.605 E156.97354
G0 F7500 X13.314 Y7.215
G1 F1800 X-13.313 Y7.214 E158.41156
G0 F7500 X-13.313 Y6.824
G1 F1800 X13.314 Y6.825 E159.84958
G0 F7500 X13.314 Y6.435
G1 F1800 X-13.313 Y6.434 E161.28761
G0 F7500 X-13.313 Y6.044
G1 F1800 X13.314 Y6.045 E162.72563
G0 F7500 X13.314 Y5.655
G1 F1800 X-13.313 Y5.654 E164.16365
G0 F7500 X-13.313 Y5.264
G1 F1800 X13.314 Y5.265 E165.60167
G0 F7500 X13.314 Y4.875
G1 F1800 X-13.313 Y4.874 E167.03969
G0 F7500 X-13.313 Y4.484
G1 F1800 X13.314 Y4.485 E168.47771
G0 F7500 X13.314 Y4.095
G1 F1800 X-13.313 Y4.094 E169.91573
G0 F7500 X-13.313 Y3.704
G1 F1800 X13.314 Y3.705 E171.35376
G0 F7500 X13.314 Y3.315
G1 F1800 X-13.313 Y3.314 E172.79178
G0 F7500 X-13.313 Y2.924
G1 F1800 X13.314 Y2.925 E174.22980
G0 F7500 X13.314 Y2.535
G1 F1800 X-13.313 Y2.534 E175.66782
G0 F7500 X-13.313 Y2.144
G1 F1800 X13.314 Y2.145 E177.10584
G0 F7500 X13.314 Y1.755
G1 F1800 X-13.313 Y1.754 E178.54386
G0 F7500 X-13.313 Y1.364
G1 F1800 X13.314 Y1.365 E179.98189
G0 F7500 X13.314 Y0.975
G1 F1800 X-13.313 Y0.974 E181.41991
G0 F7500 X-13.313 Y0.584
G1 F1800 X13.314 Y0.585 E182.85793
G0 F7500 X13.314 Y0.195
G1 F1800 X-13.313 Y0.194 E184.29595
G0 F7500 X-13.313 Y-0.195
G1 F1800 X13.314 Y-0.194 E185.73397
G0 F7500 X13.314 Y-0.584
G1 F1800 X-13.313 Y-0.585 E187.17199
G0 F7500 X-13.313 Y-0.975
G1 F1800 X13.314 Y-0.974 E188.61002
G0 F7500 X13.314 Y-1.364
G1 F1800 X-13.313 Y-1.365 E190.04804
G0 F7500 X-13.313 Y-1.755
G1 F1800 X13.314 Y-1.754 E191.48606
G0 F7500 X13.314 Y-2.144
G1 F1800 X-13.313 Y-2.145 E192.92408
G0 F7500 X-13.313 Y-2.535
G1 F1800 X13.314 Y-2.534 E194.36210
G0 F7500 X13.314 Y-2.924
G1 F1800 X-13.313 Y-2.925 E195.80012
G0 F7500 X-13.313 Y-3.315
G1 F1800 X13.314 Y-3.314 E197.23815
G0 F7500 X13.314 Y-3.704
G1 F1800 X-13.313 Y-3.705 E198.67617
G0 F7500 X-13.313 Y-4.095
G1 F1800 X13.314 Y-4.094 E200.11419
G0 F7500 X13.314 Y-4.484
G1 F1800 X-13.313 Y-4.485 E201.55221
G0 F7500 X-13.313 Y-4.875
G1 F1800 X13.314 Y-4.874 E202.99023
G0 F7500 X13.314 Y-5.264
G1 F1800 X-13.313 Y-5.265 E204.42825
G0 F7500 X-13.313 Y-5.655
G1 F1800 X13.314 Y-5.654 E205.86627
G0 F7500 X13.314 Y-6.044
G1 F1800 X-13.313 Y-6.045 E207.30430
G0 F7500 X-13.313 Y-6.435
G1 F1800 X13.314 Y-6.434 E208.74232
G0 F7500 X13.314 Y-6.824
G1 F1800 X-13.313 Y-6.825 E210.18034
G0 F7500 X-13.313 Y-7.215
G1 F1800 X13.314 Y-7.214 E211.61836
G0 F7500 X13.314 Y-7.604
G1 F1800 X-13.313 Y-7.605 E213.05638
G0 F7500 X-13.313 Y-7.995
G1 F1800 X13.314 Y-7.994 E214.49440
G0 F7500 X13.314 Y-8.385
G1 F1800 X-13.313 Y-8.385 E215.93243
G0 F7500 X-13.313 Y-8.775
G1 F1800 X13.314 Y-8.775 E217.37045
G0 F7500 X13.314 Y-9.165
G1 F1800 X-13.313 Y-9.165 E218.80847
G0 F7500 X-13.313 Y-9.555
G1 F1800 X13.314 Y-9.555 E220.24649
G0 F7500 X13.314 Y-9.945
G1 F1800 X-13.313 Y-9.945 E221.68451
G0 F7500 X-13.313 Y-10.335
G1 F1800 X13.314 Y-10.335 E223.12253
G0 F7500 X13.314 Y-10.725
G1 F1800 X-13.313 Y-10.725 E224.56056
G0 F7500 X-13.313 Y-11.115
G1 F1800 X13.314 Y-11.115 E225.99858
G0 F7500 X13.314 Y-11.505
G1 F1800 X-13.313 Y-11.505 E227.43660
G0 F7500 X-13.313 Y-11.895
G1 F1800 X13.314 Y-11.895 E228.87462
G0 F7500 X13.314 Y-12.285
G1 F1800 X-13.313 Y-12.285 E230.31264
G0 F7500 X-13.313 Y-12.675
G1 F1800 X13.314 Y-12.675 E231.75066
G0 F7500 X13.314 Y-13.065
G1 F1800 X-13.313 Y-13.065 E233.18869
G0 F7500 X-13.313 Y-13.455
G1 F1800 X13.314 Y-13.455 E234.62671
G0 F7500 X13.314 Y-13.845
G1 F1800 X-13.313 Y-13.845 E236.06473
G0 F7500 X-13.313 Y-14.235
G1 F1800 X13.314 Y-14.235 E237.50275
G0 F7500 X13.314 Y-14.625
G1 F1800 X-13.313 Y-14.625 E238.94077
G0 F7500 X-13.312 Y-15.015
G1 F1800 X13.314 Y-15.015 E240.37874
G0 F7500 X13.314 Y-15.405
G1 F1800 X-13.312 Y-15.405 E241.81671
G0 F7500 X-13.312 Y-15.795
G1 F1800 X13.314 Y-15.795 E243.25467
G0 F7500 X13.314 Y-16.185
G1 F1800 X-13.312 Y-16.185 E244.69264
G0 F7500 X-13.312 Y-16.575
G1 F1800 X13.314 Y-16.575 E246.13061
G0 F7500 X13.314 Y-16.965
G1 F1800 X-13.312 Y-16.965 E247.56858
G0 F7500 X-13.312 Y-17.355
G1 F1800 X13.314 Y-17.355 E249.00654
G0 F7500 X13.314 Y-17.745
G1 F1800 X-13.312 Y-17.745 E250.44451
G0 F7500 X-13.312 Y-18.135
G1 F1800 X13.314 Y-18.135 E251.88248
G0 F7500 X13.314 Y-18.525
G1 F1800 X-13.312 Y-18.525 E253.32045
G0 F7500 X-13.312 Y-18.915
G1 F1800 X13.314 Y-18.915 E254.75842
G0 F7500 X13.314 Y-19.305
G1 F1800 X-13.312 Y-19.305 E256.19638
G0 F7500 X-13.312 Y-19.695
G1 F1800 X13.314 Y-19.695 E257.63435
G0 F7500 X13.314 Y-20.085
G1 F1800 X-13.312 Y-20.085 E259.07232
G0 F7500 X-13.312 Y-20.475
G1 F1800 X13.314 Y-20.475 E260.51029
G0 F7500 X13.314 Y-20.865
G1 F1800 X-13.312 Y-20.865 E261.94825
G0 F7500 X-13.312 Y-21.255
G1 F1800 X13.314 Y-21.255 E263.38622
G0 F7500 X13.314 Y-21.645
G1 F1800 X-13.312 Y-21.645 E264.82419
G0 F7500 X-13.312 Y-22.035
G1 F1800 X13.314 Y-22.035 E266.26216
G0 F7500 X13.314 Y-22.425
G1 F1800 X-13.312 Y-22.425 E267.70012
G0 F7500 X-13.312 Y-22.815
