;Generated with Cura_SteamEngine 15.04.6

;Layer count: 16
;LAYER:0
M107
G0 F7500 X-53.716 Y-48.616 Z0.300
;TYPE:SKIRT
G1 F1800 X53.816 Y-48.616 E5.80739
G1 X53.816 Y48.816 E11.06932
G1 X-53.716 Y48.816 E16.87670
G1 X-53.716 Y-48.616 E22.13863
G1 F2400 E21.13863
G0 F7500 X0.216 Y0.216
;TYPE:WALL-OUTER
G1 F2400 E22.13863
G1 F1800 X0.284 Y0.216 E22.14230
G1 X0.284 Y0.284 E22.14598
G1 X0.216 Y0.284 E22.14965
G1 X0.216 Y0.216 E22.15332
G0 F7500 X-0.700 Y-0.700
;TYPE:SUPPORT
G1 F1800 X-0.700 Y1.200 E22.25593
G1 X1.200 Y1.200 E22.35854
G1 X1.200 Y-0.700 E22.46116
G1 X-0.700 Y-0.700 E22.56377
G0 F7500 X-0.690 Y-0.800
G0 X-50.500 Y-45.400
G1 F1800 X50.600 Y-45.400 E28.02379
G1 X50.600 Y45.600 E32.93835
G1 X-50.500 Y45.600 E38.39837
G1 X-50.500 Y-45.400 E43.31293
G0 F7500 X-49.096 Y-45.464
G1 F1800 X-49.096 Y45.664 E48.23440
G0 F7500 X-49.096 Y45.500
G0 X-50.400 Y43.319
G0 X-50.564 Y43.319
G1 F1800 X50.663 Y43.320 E53.70128
G0 F7500 X50.500 Y43.320
G0 X49.096 Y45.500
G0 X49.096 Y45.664
G1 F1800 X49.096 Y-45.464 E58.62275
G0 F7500 X49.096 Y-45.300
G0 X50.500 Y-43.319
G0 X50.664 Y-43.319
G1 F1800 X-50.563 Y-43.320 E64.08963
G0 F7500 X-50.400 Y-43.320
G0 X-43.320 Y-45.300
G0 X-43.320 Y-45.464
G1 F1800 X-43.320 Y45.664 E69.01110
G0 F7500 X-43.320 Y45.500
G0 X-37.544 Y45.500
G0 X-37.544 Y45.664
G1 F1800 X-37.544 Y-45.464 E73.93258
G0 F7500 X-37.544 Y-45.300
G0 X-31.768 Y-45.300
G0 X-31.768 Y-45.464
G1 F1800 X-31.768 Y45.664 E78.85405
G0 F7500 X-31.768 Y45.500
G0 X-25.992 Y45.500
G0 X-25.992 Y45.664
G1 F1800 X-25.992 Y-45.464 E83.77552
G0 F7500 X-25.992 Y-45.300
G0 X-20.216 Y-45.300
G0 X-20.216 Y-45.464
G1 F1800 X-20.216 Y45.664 E88.69699
G0 F7500 X-20.216 Y45.500
G0 X-14.440 Y45.500
G0 X-14.440 Y45.664
G1 F1800 X-14.440 Y-45.464 E93.61846
G0 F7500 X-14.440 Y-45.300
G0 X-8.664 Y-45.300
G0 X-8.664 Y-45.464
G1 F1800 X-8.664 Y45.664 E98.53993
G0 F7500 X-8.664 Y45.500
G0 X-2.888 Y45.500
G0 X-2.888 Y45.664
G1 F1800 X-2.888 Y-45.464 E103.46141
G0 F7500 X-2.888 Y-45.300
G0 X2.888 Y-45.300
G0 X2.888 Y-45.464
G1 F1800 X2.888 Y45.664 E108.38288
G0 F7500 X2.888 Y45.500
G0 X8.664 Y45.500
G0 X8.664 Y45.664
G1 F1800 X8.664 Y-45.464 E113.30435
G0 F7500 X8.664 Y-45.300
G0 X14.440 Y-45.300
G0 X14.440 Y-45.464
G1 F1800 X14.440 Y45.664 E118.22582
G0 F7500 X14.440 Y45.500
G0 X20.216 Y45.500
G0 X20.216 Y45.664
G1 F1800 X20.216 Y-45.464 E123.14729
G0 F7500 X20.216 Y-45.300
G0 X25.992 Y-45.300
G0 X25.992 Y-45.464
G1 F1800 X25.992 Y45.664 E128.06877
G0 F7500 X25.992 Y45.500
G0 X31.768 Y45.500
G0 X31.768 Y45.664
G1 F1800 X31.768 Y-45.464 E132.99024
G0 F7500 X31.768 Y-45.300
G0 X37.544 Y-45.300
G0 X37.544 Y-45.464
G1 F1800 X37.544 Y45.664 E137.91171
G0 F7500 X37.544 Y45.500
G0 X43.320 Y45.500
G0 X43.320 Y45.664
G1 F1800 X43.320 Y-45.464 E142.83318
G0 F7500 X43.320 Y-45.300
G0 X50.500 Y-37.543
G0 X50.664 Y-37.543
G1 F1800 X-50.563 Y-37.544 E148.30006
G0 F7500 X-50.400 Y-37.544
G0 X-50.400 Y-31.768
G0 X-50.563 Y-31.768
G1 F1800 X50.664 Y-31.767 E153.76694
G0 F7500 X50.500 Y-31.767
G0 X50.500 Y-25.991
G0 X50.664 Y-25.991
G1 F1800 X-50.563 Y-25.992 E159.23382
G0 F7500 X-50.400 Y-25.992
G0 X-50.400 Y-20.216
G0 X-50.563 Y-20.216
G1 F1800 X50.664 Y-20.215 E164.70070
G0 F7500 X50.500 Y-20.215
G0 X50.500 Y-14.439
G0 X50.664 Y-14.439
G1 F1800 X-50.563 Y-14.440 E170.16758
G0 F7500 X-50.400 Y-14.440
G0 X-50.400 Y-8.664
G0 X-50.563 Y-8.664
G1 F1800 X50.664 Y-8.663 E175.63446
G0 F7500 X50.500 Y-8.663
G0 X50.500 Y-2.887
G0 X50.664 Y-2.887
G1 F1800 X-50.563 Y-2.888 E181.10134
G0 F7500 X-50.400 Y-2.888
G0 X-50.400 Y2.887
G0 X-50.564 Y2.887
G1 F1800 X50.663 Y2.888 E186.56822
G0 F7500 X50.500 Y2.888
G0 X50.500 Y8.664
G0 X50.663 Y8.664
G1 F1800 X-50.564 Y8.663 E192.03510
G0 F7500 X-50.400 Y8.663
G0 X-50.400 Y14.439
G0 X-50.564 Y14.439
G1 F1800 X50.663 Y14.440 E197.50198
G0 F7500 X50.500 Y14.440
G0 X50.500 Y20.216
G0 X50.663 Y20.216
G1 F1800 X-50.564 Y20.215 E202.96886
G0 F7500 X-50.400 Y20.215
G0 X-50.400 Y25.991
G0 X-50.564 Y25.991
G1 F1800 X50.663 Y25.992 E208.43574
G0 F7500 X50.500 Y25.992
G0 X50.500 Y31.768
G0 X50.663 Y31.768
G1 F1800 X-50.564 Y31.767 E213.90262
G0 F7500 X-50.400 Y31.767
G0 X-50.400 Y37.543
G0 X-50.564 Y37.543
G1 F1800 X50.663 Y37.544 E219.36950
;LAYER:1
M106 S63
G1 F2400 E218.36950
G0 F7500 X0.284 Y0.284 Z0.500
;TYPE:WALL-OUTER
G1 F2400 E219.36950
G1 F1980 X0.216 Y0.284 E219.37195
G1 X0.216 Y0.216 E219.37440
G1 X0.284 Y0.216 E219.37685
G1 X0.284 Y0.284 E219.37929
G0 F7500 X1.200 Y1.200
;TYPE:SUPPORT
G1 F1920 X1.200 Y-0.700 E219.44770
G1 X-0.700 Y-0.700 E219.51611
G1 X-0.700 Y1.200 E219.58452
G1 X1.200 Y1.200 E219.65293
G0 F7500 X1.190 Y1.300
G0 X50.500 Y45.590
G0 X50.600 Y45.600
G1 F1920 X-50.500 Y45.600 E223.29294
G1 X-50.500 Y-45.400 E226.56931
G1 X50.600 Y-45.400 E230.20933
G1 X50.600 Y45.600 E233.48570
G0 F7500 X50.500 Y45.590
G0 X49.096 Y45.500
G0 X49.096 Y45.664
G1 F1920 X49.096 Y-45.464 E236.76668
G0 F7500 X49.096 Y-45.300
G0 X50.500 Y-43.319
G0 X50.664 Y-43.319
G1 F1920 X-50.563 Y-43.320 E240.41127
G0 F7500 X-50.400 Y-43.320
G0 X-49.096 Y-45.300
G0 X-49.096 Y-45.464
G1 F1920 X-49.096 Y45.664 E243.69225
G0 F7500 X-49.096 Y45.500
G0 X-50.400 Y43.319
G0 X-50.564 Y43.319
G1 F1920 X50.663 Y43.320 E247.33684
G0 F7500 X50.500 Y43.320
G0 X43.320 Y45.500
G0 X43.320 Y45.664
G1 F1920 X43.320 Y-45.464 E250.61782
G0 F7500 X43.320 Y-45.300
G0 X37.544 Y-45.300
G0 X37.544 Y-45.464
G1 F1920 X37.544 Y45.664 E253.89880
G0 F7500 X37.544 Y45.500
G0 X31.768 Y45.500
G0 X31.768 Y45.664
G1 F1920 X31.768 Y-45.464 E257.17978
G0 F7500 X31.768 Y-45.300
G0 X25.992 Y-45.300
G0 X25.992 Y-45.464
G1 F1920 X25.992 Y45.664 E260.46076
G0 F7500 X25.992 Y45.500
G0 X20.216 Y45.500
G0 X20.216 Y45.664
G1 F1920 X20.216 Y-45.464 E263.74174
G0 F7500 X20.216 Y-45.300
G0 X14.440 Y-45.300
G0 X14.440 Y-45.464
G1 F1920 X14.440 Y45.664 E267.02272
G0 F7500 X14.440 Y45.500
G0 X8.664 Y45.500
G0 X8.664 Y45.664
G1 F1920 X8.664 Y-45.464 E270.30370
G0 F7500 X8.664 Y-45.300
G0 X2.888 Y-45.300
G0 X2.888 Y-45.464
G1 F1920 X2.888 Y45.664 E273.58469
G0 F7500 X2.888 Y45.500
G0 X-2.888 Y45.500
G0 X-2.888 Y45.664
G1 F1920 X-2.888 Y-45.464 E276.86567
G0 F7500 X-2.888 Y-45.300
G0 X-8.664 Y-45.300
G0 X-8.664 Y-45.464
G1 F1920 X-8.664 Y45.664 E280.14665
G0 F7500 X-8.664 Y45.500
G0 X-14.440 Y45.500
G0 X-14.440 Y45.664
G1 F1920 X-14.440 Y-45.464 E283.42763
G0 F7500 X-14.440 Y-45.300
G0 X-20.216 Y-45.300
G0 X-20.216 Y-45.464
G1 F1920 X-20.216 Y45.664 E286.70861
G0 F7500 X-20.216 Y45.500
G0 X-25.992 Y45.500
G0 X-25.992 Y45.664
G1 F1920 X-25.992 Y-45.464 E289.98959
G0 F7500 X-25.992 Y-45.300
G0 X-31.768 Y-45.300
G0 X-31.768 Y-45.464
G1 F1920 X-31.768 Y45.664 E293.27057
G0 F7500 X-31.768 Y45.500
G0 X-37.544 Y45.500
G0 X-37.544 Y45.664
G1 F1920 X-37.544 Y-45.464 E296.55155
G0 F7500 X-37.544 Y-45.300
G0 X-43.320 Y-45.300
G0 X-43.320 Y-45.464
G1 F1920 X-43.320 Y45.664 E299.83254
G0 F7500 X-43.320 Y45.500
G0 X-50.400 Y37.543
G0 X-50.564 Y37.543
G1 F1920 X50.663 Y37.544 E303.47712
G0 F7500 X50.500 Y37.544
G0 X50.500 Y31.768
G0 X50.663 Y31.768
G1 F1920 X-50.564 Y31.767 E307.12171
G0 F7500 X-50.400 Y31.767
G0 X-50.400 Y25.991
G0 X-50.564 Y25.991
G1 F1920 X50.663 Y25.992 E310.76630
G0 F7500 X50.500 Y25.992
G0 X50.500 Y20.216
G0 X50.663 Y20.216
G1 F1920 X-50.564 Y20.215 E314.41088
G0 F7500 X-50.400 Y20.215
G0 X-50.400 Y14.439
G0 X-50.564 Y14.439
G1 F1920 X50.663 Y14.440 E318.05547
G0 F7500 X50.500 Y14.440
G0 X50.500 Y8.664
G0 X50.663 Y8.664
G1 F1920 X-50.564 Y8.663 E321.70006
G0 F7500 X-50.400 Y8.663
G0 X-50.400 Y2.887
G0 X-50.564 Y2.887
G1 F1920 X50.663 Y2.888 E325.34464
G0 F7500 X50.500 Y2.888
G0 X50.500 Y-2.887
G0 X50.664 Y-2.887
G1 F1920 X-50.563 Y-2.888 E328.98923
G0 F7500 X-50.400 Y-2.888
G0 X-50.400 Y-8.664
G0 X-50.563 Y-8.664
G1 F1920 X50.664 Y-8.663 E332.63382
G0 F7500 X50.500 Y-8.663
G0 X50.500 Y-14.439
G0 X50.664 Y-14.439
G1 F1920 X-50.563 Y-14.440 E336.27840
G0 F7500 X-50.400 Y-14.440
G0 X-50.400 Y-20.216
G0 X-50.563 Y-20.216
G1 F1920 X50.664 Y-20.215 E339.92299
G0 F7500 X50.500 Y-20.215
G0 X50.500 Y-25.991
G0 X50.664 Y-25.991
G1 F1920 X-50.563 Y-25.992 E343.56758
G0 F7500 X-50.400 Y-25.992
G0 X-50.400 Y-31.768
G0 X-50.563 Y-31.768
G1 F1920 X50.664 Y-31.767 E347.21216
G0 F7500 X50.500 Y-31.767
G0 X50.500 Y-37.543
G0 X50.664 Y-37.543
G1 F1920 X-50.563 Y-37.544 E350.85675
;LAYER:2
M106 S127
G1 F2400 E349.85675
G0 F7500 X0.216 Y0.216 Z0.700
;TYPE:WALL-OUTER
G1 F2400 E350.85675
G1 F2220 X0.284 Y0.216 E350.85920
G1 X0.284 Y0.284 E350.86165
G1 X0.216 Y0.284 E350.86409
G1 X0.216 Y0.216 E350.86654
G0 F7500 X-0.700 Y-0.700
;TYPE:SUPPORT
G1 F2100 X-0.700 Y1.200 E350.93495
G1 X1.200 Y1.200 E351.00336
G1 X1.200 Y-0.700 E351.07177
G1 X-0.700 Y-0.700 E351.14017
G0 F7500 X-0.690 Y-0.800
G0 X-50.500 Y-45.400
G1 F2100 X50.600 Y-45.400 E354.78019
G1 X50.600 Y45.600 E358.05656
G1 X-50.500 Y45.600 E361.69657
G1 X-50.500 Y-45.400 E364.97295
G0 F7500 X-49.096 Y-45.464
G1 F2100 X-49.096 Y45.664 E368.25393
G0 F7500 X-49.096 Y45.500
G0 X-50.400 Y43.319
G0 X-50.564 Y43.319
G1 F2100 X50.663 Y43.320 E371.89851
G0 F7500 X50.500 Y43.320
G0 X49.096 Y45.500
G0 X49.096 Y45.664
G1 F2100 X49.096 Y-45.464 E375.17950
G0 F7500 X49.096 Y-45.300
G0 X50.500 Y-43.319
G0 X50.664 Y-43.319
G1 F2100 X-50.563 Y-43.320 E378.82408
G0 F7500 X-50.400 Y-43.320
G0 X-43.320 Y-45.300
G0 X-43.320 Y-45.464
G1 F2100 X-43.320 Y45.664 E382.10506
G0 F7500 X-43.320 Y45.500
G0 X-37.544 Y45.500
G0 X-37.544 Y45.664
G1 F2100 X-37.544 Y-45.464 E385.38605
G0 F7500 X-37.544 Y-45.300
G0 X-31.768 Y-45.300
G0 X-31.768 Y-45.464
G1 F2100 X-31.768 Y45.664 E388.66703
G0 F7500 X-31.768 Y45.500
G0 X-25.992 Y45.500
G0 X-25.992 Y45.664
G1 F2100 X-25.992 Y-45.464 E391.94801
G0 F7500 X-25.992 Y-45.300
G0 X-20.216 Y-45.300
G0 X-20.216 Y-45.464
G1 F2100 X-20.216 Y45.664 E395.22899
G0 F7500 X-20.216 Y45.500
G0 X-14.440 Y45.500
G0 X-14.440 Y45.664
G1 F2100 X-14.440 Y-45.464 E398.50997
G0 F7500 X-14.440 Y-45.300
G0 X-8.664 Y-45.300
G0 X-8.664 Y-45.464
G1 F2100 X-8.664 Y45.664 E401.79095
G0 F7500 X-8.664 Y45.500
G0 X-2.888 Y45.500
G0 X-2.888 Y45.664
G1 F2100 X-2.888 Y-45.464 E405.07193
G0 F7500 X-2.888 Y-45.300
G0 X2.888 Y-45.300
G0 X2.888 Y-45.464
G1 F2100 X2.888 Y45.664 E408.35291
G0 F7500 X2.888 Y45.500
G0 X8.664 Y45.500
G0 X8.664 Y45.664
G1 F2100 X8.664 Y-45.464 E411.63390
G0 F7500 X8.664 Y-45.300
G0 X14.440 Y-45.300
G0 X14.440 Y-45.464
G1 F2100 X14.440 Y45.664 E414.91488
G0 F7500 X14.440 Y45.500
G0 X20.216 Y45.500
G0 X20.216 Y45.664
G1 F2100 X20.216 Y-45.464 E418.19586
G0 F7500 X20.216 Y-45.300
G0 X25.992 Y-45.300
G0 X25.992 Y-45.464
G1 F2100 X25.992 Y45.664 E421.47684
G0 F7500 X25.992 Y45.500
G0 X31.768 Y45.500
G0 X31.768 Y45.664
G1 F2100 X31.768 Y-45.464 E424.75782
G0 F7500 X31.768 Y-45.300
G0 X37.544 Y-45.300
G0 X37.544 Y-45.464
G1 F2100 X37.544 Y45.664 E428.03880
G0 F7500 X37.544 Y45.500
G0 X43.320 Y45.500
G0 X43.320 Y45.664
G1 F2100 X43.320 Y-45.464 E431.31978
G0 F7500 X43.320 Y-45.300
G0 X50.500 Y-37.543
G0 X50.664 Y-37.543
G1 F2100 X-50.563 Y-37.544 E434.96437
G0 F7500 X-50.400 Y-37.544
G0 X-50.400 Y-31.768
G0 X-50.563 Y-31.768
G1 F2100 X50.664 Y-31.767 E438.60896
G0 F7500 X50.500 Y-31.767
G0 X50.500 Y-25.991
G0 X50.664 Y-25.991
G1 F2100 X-50.563 Y-25.992 E442.25354
G0 F7500 X-50.400 Y-25.992
G0 X-50.400 Y-20.216
G0 X-50.563 Y-20.216
G1 F2100 X50.664 Y-20.215 E445.89813
G0 F7500 X50.500 Y-20.215
G0 X50.500 Y-14.439
G0 X50.664 Y-14.439
G1 F2100 X-50.563 Y-14.440 E449.54272
G0 F7500 X-50.400 Y-14.440
G0 X-50.400 Y-8.664
G0 X-50.563 Y-8.664
G1 F2100 X50.664 Y-8.663 E453.18730
G0 F7500 X50.500 Y-8.663
G0 X50.500 Y-2.887
G0 X50.664 Y-2.887
G1 F2100 X-50.563 Y-2.888 E456.83189
G0 F7500 X-50.400 Y-2.888
G0 X-50.400 Y2.887
G0 X-50.564 Y2.887
G1 F2100 X50.663 Y2.888 E460.47648
G0 F7500 X50.500 Y2.888
G0 X50.500 Y8.664
G0 X50.663 Y8.664
G1 F2100 X-50.564 Y8.663 E464.12106
G0 F7500 X-50.400 Y8.663
G0 X-50.400 Y14.439
G0 X-50.564 Y14.439
G1 F2100 X50.663 Y14.440 E467.76565
G0 F7500 X50.500 Y14.440
G0 X50.500 Y20.216
G0 X50.663 Y20.216
G1 F2100 X-50.564 Y20.215 E471.41024
G0 F7500 X-50.400 Y20.215
G0 X-50.400 Y25.991
G0 X-50.564 Y25.991
G1 F2100 X50.663 Y25.992 E475.05482
G0 F7500 X50.500 Y25.992
G0 X50.500 Y31.768
G0 X50.663 Y31.768
G1 F2100 X-50.564 Y31.767 E478.69941
G0 F7500 X-50.400 Y31.767
G0 X-50.400 Y37.543
G0 X-50.564 Y37.543
G1 F2100 X50.663 Y37.544 E482.34400
;LAYER:3
G1 F2400 E481.34400
G0 F7500 X0.284 Y0.284 Z0.900
;TYPE:WALL-OUTER
G1 F2400 E482.34400
G1 X0.216 Y0.284 E482.34644
G1 X0.216 Y0.216 E482.34889
G1 X0.284 Y0.216 E482.35134
G1 X0.284 Y0.284 E482.35379
G0 F7500 X1.200 Y1.200
;TYPE:SUPPORT
G1 F2220 X1.200 Y-0.700 E482.42220
G1 X-0.700 Y-0.700 E482.49060
G1 X-0.700 Y1.200 E482.55901
G1 X1.200 Y1.200 E482.62742
G0 F7500 X1.190 Y1.300
G0 X50.500 Y45.590
G0 X50.600 Y45.600
G1 F2220 X-50.500 Y45.600 E486.26743
G1 X-50.500 Y-45.400 E489.54381
G1 X50.600 Y-45.400 E493.18382
G1 X50.600 Y45.600 E496.46019
G0 F7500 X50.500 Y45.590
G0 X49.096 Y45.500
G0 X49.096 Y45.664
G1 F2220 X49.096 Y-45.464 E499.74118
G0 F7500 X49.096 Y-45.300
G0 X50.500 Y-43.319
G0 X50.664 Y-43.319
G1 F2220 X-50.563 Y-43.320 E503.38576
G0 F7500 X-50.400 Y-43.320
G0 X-49.096 Y-45.300
G0 X-49.096 Y-45.464
G1 F2220 X-49.096 Y45.664 E506.66674
G0 F7500 X-49.096 Y45.500
G0 X-50.400 Y43.319
G0 X-50.564 Y43.319
G1 F2220 X50.663 Y43.320 E510.31133
G0 F7500 X50.500 Y43.320
G0 X43.320 Y45.500
G0 X43.320 Y45.664
G1 F2220 X43.320 Y-45.464 E513.59231
G0 F7500 X43.320 Y-45.300
G0 X37.544 Y-45.300
G0 X37.544 Y-45.464
G1 F2220 X37.544 Y45.664 E516.87329
G0 F7500 X37.544 Y45.500
G0 X31.768 Y45.500
G0 X31.768 Y45.664
G1 F2220 X31.768 Y-45.464 E520.15427
G0 F7500 X31.768 Y-45.300
G0 X25.992 Y-45.300
G0 X25.992 Y-45.464
G1 F2220 X25.992 Y45.664 E523.43526
G0 F7500 X25.992 Y45.500
G0 X20.216 Y45.500
G0 X20.216 Y45.664
G1 F2220 X20.216 Y-45.464 E526.71624
G0 F7500 X20.216 Y-45.300
G0 X14.440 Y-45.300
G0 X14.440 Y-45.464
G1 F2220 X14.440 Y45.664 E529.99722
G0 F7500 X14.440 Y45.500
G0 X8.664 Y45.500
G0 X8.664 Y45.664
G1 F2220 X8.664 Y-45.464 E533.27820
G0 F7500 X8.664 Y-45.300
G0 X2.888 Y-45.300
G0 X2.888 Y-45.464
G1 F2220 X2.888 Y45.664 E536.55918
G0 F7500 X2.888 Y45.500
G0 X-2.888 Y45.500
G0 X-2.888 Y45.664
G1 F2220 X-2.888 Y-45.464 E539.84016
G0 F7500 X-2.888 Y-45.300
G0 X-8.664 Y-45.300
G0 X-8.664 Y-45.464
G1 F2220 X-8.664 Y45.664 E543.12114
G0 F7500 X-8.664 Y45.500
G0 X-14.440 Y45.500
G0 X-14.440 Y45.664
G1 F2220 X-14.440 Y-45.464 E546.40212
G0 F7500 X-14.440 Y-45.300
G0 X-20.216 Y-45.300
G0 X-20.216 Y-45.464
G1 F2220 X-20.216 Y45.664 E549.68311
G0 F7500 X-20.216 Y45.500
G0 X-25.992 Y45.500
G0 X-25.992 Y45.664
G1 F2220 X-25.992 Y-45.464 E552.96409
G0 F7500 X-25.992 Y-45.300
G0 X-31.768 Y-45.300
G0 X-31.768 Y-45.464
G1 F2220 X-31.768 Y45.664 E556.24507
G0 F7500 X-31.768 Y45.500
G0 X-37.544 Y45.500
G0 X-37.544 Y45.664
G1 F2220 X-37.544 Y-45.464 E559.52605
G0 F7500 X-37.544 Y-45.300
G0 X-43.320 Y-45.300
G0 X-43.320 Y-45.464
G1 F2220 X-43.320 Y45.664 E562.80703
G0 F7500 X-43.320 Y45.500
G0 X-50.400 Y37.543
G0 X-50.564 Y37.543
G1 F2220 X50.663 Y37.544 E566.45162
G0 F7500 X50.500 Y37.544
G0 X50.500 Y31.768
G0 X50.663 Y31.768
G1 F2220 X-50.564 Y31.767 E570.09620
G0 F7500 X-50.400 Y31.767
G0 X-50.400 Y25.991
G0 X-50.564 Y25.991
G1 F2220 X50.663 Y25.992 E573.74079
G0 F7500 X50.500 Y25.992
G0 X50.500 Y20.216
G0 X50.663 Y20.216
G1 F2220 X-50.564 Y20.215 E577.38538
G0 F7500 X-50.400 Y20.215
G0 X-50.400 Y14.439
G0 X-50.564 Y14.439
G1 F2220 X50.663 Y14.440 E581.02996
G0 F7500 X50.500 Y14.440
G0 X50.500 Y8.664
G0 X50.663 Y8.664
G1 F2220 X-50.564 Y8.663 E584.67455
G0 F7500 X-50.400 Y8.663
G0 X-50.400 Y2.887
G0 X-50.564 Y2.887
G1 F2220 X50.663 Y2.888 E588.31914
G0 F7500 X50.500 Y2.888
G0 X50.500 Y-2.887
G0 X50.664 Y-2.887
G1 F2220 X-50.563 Y-2.888 E591.96372
G0 F7500 X-50.400 Y-2.888
G0 X-50.400 Y-8.664
G0 X-50.563 Y-8.664
G1 F2220 X50.664 Y-8.663 E595.60831
G0 F7500 X50.500 Y-8.663
G0 X50.500 Y-14.439
G0 X50.664 Y-14.439
G1 F2220 X-50.563 Y-14.440 E599.25290
G0 F7500 X-50.400 Y-14.440
G0 X-50.400 Y-20.216
G0 X-50.563 Y-20.216
G1 F2220 X50.664 Y-20.215 E602.89748
G0 F7500 X50.500 Y-20.215
G0 X50.500 Y-25.991
G0 X50.664 Y-25.991
