;Generated with Cura_SteamEngine 15.04.6

;Layer count: 16
;LAYER:0
M107
G0 F7500 X-53.716 Y-43.616 Z0.300
;TYPE:SKIRT
G1 F1800 X53.816 Y-43.616 E5.80739
G1 X53.816 Y43.816 E10.52925
G1 X-53.716 Y43.816 E16.33664
G1 X-53.716 Y-43.616 E21.05851
G1 F2400 E20.05851
G0 F7500 X0.216 Y0.216
;TYPE:WALL-OUTER
G1 F2400 E21.05851
G1 F1800 X0.284 Y0.216 E21.06218
G1 X0.284 Y0.284 E21.06585
G1 X0.216 Y0.284 E21.06953
G1 X0.216 Y0.216 E21.07320
G0 F7500 X-0.700 Y-0.700
;TYPE:SUPPORT
G1 F1800 X-0.700 Y1.200 E21.17581
G1 X1.200 Y1.200 E21.27842
G1 X1.200 Y-0.700 E21.38103
G1 X-0.700 Y-0.700 E21.48364
G0 F7500 X-0.690 Y-0.800
G0 X-50.500 Y-40.400
G1 F1800 X50.600 Y-40.400 E26.94367
G1 X50.600 Y40.600 E31.31816
G1 X-50.500 Y40.600 E36.77818
G1 X-50.500 Y-40.400 E41.15268
G0 F7500 X-49.096 Y-40.464
G1 F1800 X-49.096 Y40.664 E45.53409
G0 F7500 X-49.096 Y40.500
G0 X-43.320 Y40.500
G0 X-43.320 Y40.664
G1 F1800 X-43.320 Y-40.464 E49.91550
G0 F7500 X-43.320 Y-40.300
G0 X-37.544 Y-40.300
G0 X-37.544 Y-40.464
G1 F1800 X-37.544 Y40.664 E54.29691
G0 F7500 X-37.544 Y40.500
G0 X-31.768 Y40.500
G0 X-31.768 Y40.664
G1 F1800 X-31.768 Y-40.464 E58.67832
G0 F7500 X-31.768 Y-40.300
G0 X-25.992 Y-40.300
G0 X-25.992 Y-40.464
G1 F1800 X-25.992 Y40.664 E63.05973
G0 F7500 X-25.992 Y40.500
G0 X-20.216 Y40.500
G0 X-20.216 Y40.664
G1 F1800 X-20.216 Y-40.464 E67.44114
G0 F7500 X-20.216 Y-40.300
G0 X-14.440 Y-40.300
G0 X-14.440 Y-40.464
G1 F1800 X-14.440 Y40.664 E71.82256
G0 F7500 X-14.440 Y40.500
G0 X-8.664 Y40.500
G0 X-8.664 Y40.664
G1 F1800 X-8.664 Y-40.464 E76.20397
G0 F7500 X-8.664 Y-40.300
G0 X-2.888 Y-40.300
G0 X-2.888 Y-40.464
G1 F1800 X-2.888 Y40.664 E80.58538
G0 F7500 X-2.888 Y40.500
G0 X2.888 Y40.500
G0 X2.888 Y40.664
G1 F1800 X2.888 Y-40.464 E84.96679
G0 F7500 X2.888 Y-40.300
G0 X8.664 Y-40.300
G0 X8.664 Y-40.464
G1 F1800 X8.664 Y40.664 E89.34820
G0 F7500 X8.664 Y40.500
G0 X14.440 Y40.500
G0 X14.440 Y40.664
G1 F1800 X14.440 Y-40.464 E93.72961
G0 F7500 X14.440 Y-40.300
G0 X20.216 Y-40.300
G0 X20.216 Y-40.464
G1 F1800 X20.216 Y40.664 E98.11102
G0 F7500 X20.216 Y40.500
G0 X25.992 Y40.500
G0 X25.992 Y40.664
G1 F1800 X25.992 Y-40.464 E102.49243
G0 F7500 X25.992 Y-40.300
G0 X31.768 Y-40.300
G0 X31.768 Y-40.464
G1 F1800 X31.768 Y40.664 E106.87384
G0 F7500 X31.768 Y40.500
G0 X37.544 Y40.500
G0 X37.544 Y40.664
G1 F1800 X37.544 Y-40.464 E111.25525
G0 F7500 X37.544 Y-40.300
G0 X43.320 Y-40.300
G0 X43.320 Y-40.464
G1 F1800 X43.320 Y40.664 E115.63666
G0 F7500 X43.320 Y40.500
G0 X49.096 Y40.500
G0 X49.096 Y40.664
G1 F1800 X49.096 Y-40.464 E120.01807
G0 F7500 X49.096 Y-40.300
G0 X50.500 Y-37.543
G0 X50.664 Y-37.543
G1 F1800 X-50.563 Y-37.544 E125.48495
G0 F7500 X-50.400 Y-37.544
G0 X-50.400 Y-31.768
G0 X-50.563 Y-31.768
G1 F1800 X50.664 Y-31.767 E130.95183
G0 F7500 X50.500 Y-31.767
G0 X50.500 Y-25.991
G0 X50.664 Y-25.991
G1 F1800 X-50.563 Y-25.992 E136.41871
G0 F7500 X-50.400 Y-25.992
G0 X-50.400 Y-20.216
G0 X-50.563 Y-20.216
G1 F1800 X50.664 Y-20.215 E141.88559
G0 F7500 X50.500 Y-20.215
G0 X50.500 Y-14.439
G0 X50.664 Y-14.439
G1 F1800 X-50.563 Y-14.440 E147.35247
G0 F7500 X-50.400 Y-14.440
G0 X-50.400 Y-8.664
G0 X-50.563 Y-8.664
G1 F1800 X50.664 Y-8.663 E152.81935
G0 F7500 X50.500 Y-8.663
G0 X50.500 Y-2.887
G0 X50.664 Y-2.887
G1 F1800 X-50.563 Y-2.888 E158.28623
G0 F7500 X-50.400 Y-2.888
G0 X-50.400 Y2.887
G0 X-50.564 Y2.887
G1 F1800 X50.663 Y2.888 E163.75311
G0 F7500 X50.500 Y2.888
G0 X50.500 Y8.664
G0 X50.663 Y8.664
G1 F1800 X-50.564 Y8.663 E169.21999
G0 F7500 X-50.400 Y8.663
G0 X-50.400 Y14.439
G0 X-50.564 Y14.439
G1 F1800 X50.663 Y14.440 E174.68687
G0 F7500 X50.500 Y14.440
G0 X50.500 Y20.216
G0 X50.663 Y20.216
G1 F1800 X-50.564 Y20.215 E180.15375
G0 F7500 X-50.400 Y20.215
G0 X-50.400 Y25.991
G0 X-50.564 Y25.991
G1 F1800 X50.663 Y25.992 E185.62063
G0 F7500 X50.500 Y25.992
G0 X50.500 Y31.768
G0 X50.663 Y31.768
G1 F1800 X-50.564 Y31.767 E191.08751
G0 F7500 X-50.400 Y31.767
G0 X-50.400 Y37.543
G0 X-50.564 Y37.543
G1 F1800 X50.663 Y37.544 E196.55439
;LAYER:1
M106 S63
G1 F2400 E195.55439
G0 F7500 X0.284 Y0.284 Z0.500
;TYPE:WALL-OUTER
G1 F2400 E196.55439
G1 F1980 X0.216 Y0.284 E196.55684
G1 X0.216 Y0.216 E196.55929
G1 X0.284 Y0.216 E196.56173
G1 X0.284 Y0.284 E196.56418
G0 F7500 X1.200 Y1.200
;TYPE:SUPPORT
G1 F1920 X1.200 Y-0.700 E196.63259
G1 X-0.700 Y-0.700 E196.70100
G1 X-0.700 Y1.200 E196.76941
G1 X1.200 Y1.200 E196.83781
G0 F7500 X1.190 Y1.300
G0 X50.500 Y40.590
G0 X50.600 Y40.600
G1 F1920 X-50.500 Y40.600 E200.47783
G1 X-50.500 Y-40.400 E203.39416
G1 X50.600 Y-40.400 E207.03417
G1 X50.600 Y40.600 E209.95051
G0 F7500 X50.500 Y40.590
G0 X49.096 Y40.500
G0 X49.096 Y40.664
G1 F1920 X49.096 Y-40.464 E212.87145
G0 F7500 X49.096 Y-40.300
G0 X43.320 Y-40.300
G0 X43.320 Y-40.464
G1 F1920 X43.320 Y40.664 E215.79239
G0 F7500 X43.320 Y40.500
G0 X37.544 Y40.500
G0 X37.544 Y40.664
G1 F1920 X37.544 Y-40.464 E218.71333
G0 F7500 X37.544 Y-40.300
G0 X31.768 Y-40.300
G0 X31.768 Y-40.464
G1 F1920 X31.768 Y40.664 E221.63427
G0 F7500 X31.768 Y40.500
G0 X25.992 Y40.500
G0 X25.992 Y40.664
G1 F1920 X25.992 Y-40.464 E224.55521
G0 F7500 X25.992 Y-40.300
G0 X20.216 Y-40.300
G0 X20.216 Y-40.464
G1 F1920 X20.216 Y40.664 E227.47615
G0 F7500 X20.216 Y40.500
G0 X14.440 Y40.500
G0 X14.440 Y40.664
G1 F1920 X14.440 Y-40.464 E230.39709
G0 F7500 X14.440 Y-40.300
G0 X8.664 Y-40.300
G0 X8.664 Y-40.464
G1 F1920 X8.664 Y40.664 E233.31803
G0 F7500 X8.664 Y40.500
G0 X2.888 Y40.500
G0 X2.888 Y40.664
G1 F1920 X2.888 Y-40.464 E236.23897
G0 F7500 X2.888 Y-40.300
G0 X-2.888 Y-40.300
G0 X-2.888 Y-40.464
G1 F1920 X-2.888 Y40.664 E239.15991
G0 F7500 X-2.888 Y40.500
G0 X-8.664 Y40.500
G0 X-8.664 Y40.664
G1 F1920 X-8.664 Y-40.464 E242.08085
G0 F7500 X-8.664 Y-40.300
G0 X-14.440 Y-40.300
G0 X-14.440 Y-40.464
G1 F1920 X-14.440 Y40.664 E245.00179
G0 F7500 X-14.440 Y40.500
G0 X-20.216 Y40.500
G0 X-20.216 Y40.664
G1 F1920 X-20.216 Y-40.464 E247.92273
G0 F7500 X-20.216 Y-40.300
G0 X-25.992 Y-40.300
G0 X-25.992 Y-40.464
G1 F1920 X-25.992 Y40.664 E250.84367
G0 F7500 X-25.992 Y40.500
G0 X-31.768 Y40.500
G0 X-31.768 Y40.664
G1 F1920 X-31.768 Y-40.464 E253.76461
G0 F7500 X-31.768 Y-40.300
G0 X-37.544 Y-40.300
G0 X-37.544 Y-40.464
G1 F1920 X-37.544 Y40.664 E256.68555
G0 F7500 X-37.544 Y40.500
G0 X-43.320 Y40.500
G0 X-43.320 Y40.664
G1 F1920 X-43.320 Y-40.464 E259.60649
G0 F7500 X-43.320 Y-40.300
G0 X-49.096 Y-40.300
G0 X-49.096 Y-40.464
G1 F1920 X-49.096 Y40.664 E262.52743
G0 F7500 X-49.096 Y40.500
G0 X-50.400 Y37.543
G0 X-50.564 Y37.543
G1 F1920 X50.663 Y37.544 E266.17202
G0 F7500 X50.500 Y37.544
G0 X50.500 Y31.768
G0 X50.663 Y31.768
G1 F1920 X-50.564 Y31.767 E269.81661
G0 F7500 X-50.400 Y31.767
G0 X-50.400 Y25.991
G0 X-50.564 Y25.991
G1 F1920 X50.663 Y25.992 E273.46119
G0 F7500 X50.500 Y25.992
G0 X50.500 Y20.216
G0 X50.663 Y20.216
G1 F1920 X-50.564 Y20.215 E277.10578
G0 F7500 X-50.400 Y20.215
G0 X-50.400 Y14.439
G0 X-50.564 Y14.439
G1 F1920 X50.663 Y14.440 E280.75036
G0 F7500 X50.500 Y14.440
G0 X50.500 Y8.664
G0 X50.663 Y8.664
G1 F1920 X-50.564 Y8.663 E284.39495
G0 F7500 X-50.400 Y8.663
G0 X-50.400 Y2.887
G0 X-50.564 Y2.887
G1 F1920 X50.663 Y2.888 E288.03954
G0 F7500 X50.500 Y2.888
G0 X50.500 Y-2.887
G0 X50.664 Y-2.887
G1 F1920 X-50.563 Y-2.888 E291.68412
G0 F7500 X-50.400 Y-2.888
G0 X-50.400 Y-8.664
G0 X-50.563 Y-8.664
G1 F1920 X50.664 Y-8.663 E295.32871
G0 F7500 X50.500 Y-8.663
G0 X50.500 Y-14.439
G0 X50.664 Y-14.439
G1 F1920 X-50.563 Y-14.440 E298.97330
G0 F7500 X-50.400 Y-14.440
G0 X-50.400 Y-20.216
G0 X-50.563 Y-20.216
G1 F1920 X50.664 Y-20.215 E302.61788
G0 F7500 X50.500 Y-20.215
G0 X50.500 Y-25.991
G0 X50.664 Y-25.991
G1 F1920 X-50.563 Y-25.992 E306.26247
G0 F7500 X-50.400 Y-25.992
G0 X-50.400 Y-31.768
G0 X-50.563 Y-31.768
G1 F1920 X50.664 Y-31.767 E309.90706
G0 F7500 X50.500 Y-31.767
G0 X50.500 Y-37.543
G0 X50.664 Y-37.543
G1 F1920 X-50.563 Y-37.544 E313.55164
;LAYER:2
M106 S127
G1 F2400 E312.55164
G0 F7500 X0.216 Y0.216 Z0.700
;TYPE:WALL-OUTER
G1 F2400 E313.55164
G1 F2220 X0.284 Y0.216 E313.55409
G1 X0.284 Y0.284 E313.55654
G1 X0.216 Y0.284 E313.55899
G1 X0.216 Y0.216 E313.56144
G0 F7500 X-0.700 Y-0.700
;TYPE:SUPPORT
G1 F2100 X-0.700 Y1.200 E313.62985
G1 X1.200 Y1.200 E313.69825
G1 X1.200 Y-0.700 E313.76666
G1 X-0.700 Y-0.700 E313.83507
G0 F7500 X-0.690 Y-0.800
G0 X-50.500 Y-40.400
G1 F2100 X50.600 Y-40.400 E317.47508
G1 X50.600 Y40.600 E320.39141
G1 X-50.500 Y40.600 E324.03143
G1 X-50.500 Y-40.400 E326.94776
G0 F7500 X-49.096 Y-40.464
G1 F2100 X-49.096 Y40.664 E329.86870
G0 F7500 X-49.096 Y40.500
G0 X-43.320 Y40.500
G0 X-43.320 Y40.664
G1 F2100 X-43.320 Y-40.464 E332.78964
G0 F7500 X-43.320 Y-40.300
G0 X-37.544 Y-40.300
G0 X-37.544 Y-40.464
G1 F2100 X-37.544 Y40.664 E335.71058
G0 F7500 X-37.544 Y40.500
G0 X-31.768 Y40.500
G0 X-31.768 Y40.664
G1 F2100 X-31.768 Y-40.464 E338.63152
G0 F7500 X-31.768 Y-40.300
G0 X-25.992 Y-40.300
G0 X-25.992 Y-40.464
G1 F2100 X-25.992 Y40.664 E341.55246
G0 F7500 X-25.992 Y40.500
G0 X-20.216 Y40.500
G0 X-20.216 Y40.664
G1 F2100 X-20.216 Y-40.464 E344.47340
G0 F7500 X-20.216 Y-40.300
G0 X-14.440 Y-40.300
G0 X-14.440 Y-40.464
G1 F2100 X-14.440 Y40.664 E347.39434
G0 F7500 X-14.440 Y40.500
G0 X-8.664 Y40.500
G0 X-8.664 Y40.664
G1 F2100 X-8.664 Y-40.464 E350.31528
G0 F7500 X-8.664 Y-40.300
G0 X-2.888 Y-40.300
G0 X-2.888 Y-40.464
G1 F2100 X-2.888 Y40.664 E353.23622
G0 F7500 X-2.888 Y40.500
G0 X2.888 Y40.500
G0 X2.888 Y40.664
G1 F2100 X2.888 Y-40.464 E356.15716
G0 F7500 X2.888 Y-40.300
G0 X8.664 Y-40.300
G0 X8.664 Y-40.464
G1 F2100 X8.664 Y40.664 E359.07810
G0 F7500 X8.664 Y40.500
G0 X14.440 Y40.500
G0 X14.440 Y40.664
G1 F2100 X14.440 Y-40.464 E361.99904
G0 F7500 X14.440 Y-40.300
G0 X20.216 Y-40.300
G0 X20.216 Y-40.464
G1 F2100 X20.216 Y40.664 E364.91998
G0 F7500 X20.216 Y40.500
G0 X25.992 Y40.500
G0 X25.992 Y40.664
G1 F2100 X25.992 Y-40.464 E367.84093
G0 F7500 X25.992 Y-40.300
G0 X31.768 Y-40.300
G0 X31.768 Y-40.464
G1 F2100 X31.768 Y40.664 E370.76187
G0 F7500 X31.768 Y40.500
G0 X37.544 Y40.500
G0 X37.544 Y40.664
G1 F2100 X37.544 Y-40.464 E373.68281
G0 F7500 X37.544 Y-40.300
G0 X43.320 Y-40.300
G0 X43.320 Y-40.464
G1 F2100 X43.320 Y40.664 E376.60375
G0 F7500 X43.320 Y40.500
G0 X49.096 Y40.500
G0 X49.096 Y40.664
G1 F2100 X49.096 Y-40.464 E379.52469
G0 F7500 X49.096 Y-40.300
G0 X50.500 Y-37.543
G0 X50.664 Y-37.543
G1 F2100 X-50.563 Y-37.544 E383.16927
G0 F7500 X-50.400 Y-37.544
G0 X-50.400 Y-31.768
G0 X-50.563 Y-31.768
G1 F2100 X50.664 Y-31.767 E386.81386
G0 F7500 X50.500 Y-31.767
G0 X50.500 Y-25.991
G0 X50.664 Y-25.991
G1 F2100 X-50.563 Y-25.992 E390.45845
G0 F7500 X-50.400 Y-25.992
G0 X-50.400 Y-20.216
G0 X-50.563 Y-20.216
G1 F2100 X50.664 Y-20.215 E394.10303
G0 F7500 X50.500 Y-20.215
G0 X50.500 Y-14.439
G0 X50.664 Y-14.439
G1 F2100 X-50.563 Y-14.440 E397.74762
G0 F7500 X-50.400 Y-14.440
G0 X-50.400 Y-8.664
G0 X-50.563 Y-8.664
G1 F2100 X50.664 Y-8.663 E401.39221
G0 F7500 X50.500 Y-8.663
G0 X50.500 Y-2.887
G0 X50.664 Y-2.887
G1 F2100 X-50.563 Y-2.888 E405.03679
G0 F7500 X-50.400 Y-2.888
G0 X-50.400 Y2.887
G0 X-50.564 Y2.887
G1 F2100 X50.663 Y2.888 E408.68138
G0 F7500 X50.500 Y2.888
G0 X50.500 Y8.664
G0 X50.663 Y8.664
G1 F2100 X-50.564 Y8.663 E412.32597
G0 F7500 X-50.400 Y8.663
G0 X-50.400 Y14.439
G0 X-50.564 Y14.439
G1 F2100 X50.663 Y14.440 E415.97055
G0 F7500 X50.500 Y14.440
G0 X50.500 Y20.216
G0 X50.663 Y20.216
G1 F2100 X-50.564 Y20.215 E419.61514
G0 F7500 X-50.400 Y20.215
G0 X-50.400 Y25.991
G0 X-50.564 Y25.991
G1 F2100 X50.663 Y25.992 E423.25973
G0 F7500 X50.500 Y25.992
G0 X50.500 Y31.768
G0 X50.663 Y31.768
G1 F2100 X-50.564 Y31.767 E426.90431
G0 F7500 X-50.400 Y31.767
G0 X-50.400 Y37.543
G0 X-50.564 Y37.543
G1 F2100 X50.663 Y37.544 E430.54890
;LAYER:3
G1 F2400 E429.54890
G0 F7500 X0.284 Y0.284 Z0.900
;TYPE:WALL-OUTER
G1 F2400 E430.54890
G1 X0.216 Y0.284 E430.55135
G1 X0.216 Y0.216 E430.55380
G1 X0.284 Y0.216 E430.55624
G1 X0.284 Y0.284 E430.55869
G0 F7500 X1.200 Y1.200
;TYPE:SUPPORT
G1 F2220 X1.200 Y-0.700 E430.62710
G1 X-0.700 Y-0.700 E430.69551
G1 X-0.700 Y1.200 E430.76392
G1 X1.200 Y1.200 E430.83232
G0 F7500 X1.190 Y1.300
G0 X50.500 Y40.590
G0 X50.600 Y40.600
G1 F2220 X-50.500 Y40.600 E434.47234
G1 X-50.500 Y-40.400 E437.38867
G1 X50.600 Y-40.400 E441.02868
G1 X50.600 Y40.600 E443.94502
G0 F7500 X50.500 Y40.590
G0 X49.096 Y40.500
G0 X49.096 Y40.664
G1 F2220 X49.096 Y-40.464 E446.86596
G0 F7500 X49.096 Y-40.300
G0 X43.320 Y-40.300
G0 X43.320 Y-40.464
G1 F2220 X43.320 Y40.664 E449.78690
G0 F7500 X43.320 Y40.500
G0 X37.544 Y40.500
G0 X37.544 Y40.664
G1 F2220 X37.544 Y-40.464 E452.70784
G0 F7500 X37.544 Y-40.300
G0 X31.768 Y-40.300
G0 X31.768 Y-40.464
G1 F2220 X31.768 Y40.664 E455.62878
G0 F7500 X31.768 Y40.500
G0 X25.992 Y40.500
G0 X25.992 Y40.664
G1 F2220 X25.992 Y-40.464 E458.54972
G0 F7500 X25.992 Y-40.300
G0 X20.216 Y-40.300
G0 X20.216 Y-40.464
G1 F2220 X20.216 Y40.664 E461.47066
G0 F7500 X20.216 Y40.500
G0 X14.440 Y40.500
G0 X14.440 Y40.664
G1 F2220 X14.440 Y-40.464 E464.39160
G0 F7500 X14.440 Y-40.300
G0 X8.664 Y-40.300
G0 X8.664 Y-40.464
G1 F2220 X8.664 Y40.664 E467.31254
G0 F7500 X8.664 Y40.500
G0 X2.888 Y40.500
G0 X2.888 Y40.664
G1 F2220 X2.888 Y-40.464 E470.23348
G0 F7500 X2.888 Y-40.300
G0 X-2.888 Y-40.300
G0 X-2.888 Y-40.464
G1 F2220 X-2.888 Y40.664 E473.15442
G0 F7500 X-2.888 Y40.500
G0 X-8.664 Y40.500
G0 X-8.664 Y40.664
G1 F2220 X-8.664 Y-40.464 E476.07536
G0 F7500 X-8.664 Y-40.300
G0 X-14.440 Y-40.300
G0 X-14.440 Y-40.464
G1 F2220 X-14.440 Y40.664 E478.99630
G0 F7500 X-14.440 Y40.500
G0 X-20.216 Y40.500
G0 X-20.216 Y40.664
G1 F2220 X-20.216 Y-40.464 E481.91724
G0 F7500 X-20.216 Y-40.300
G0 X-25.992 Y-40.300
G0 X-25.992 Y-40.464
G1 F2220 X-25.992 Y40.664 E484.83818
G0 F7500 X-25.992 Y40.500
G0 X-31.768 Y40.500
G0 X-31.768 Y40.664
G1 F2220 X-31.768 Y-40.464 E487.75912
G0 F7500 X-31.768 Y-40.300
G0 X-37.544 Y-40.300
G0 X-37.544 Y-40.464
G1 F2220 X-37.544 Y40.664 E490.68006
G0 F7500 X-37.544 Y40.500
G0 X-43.320 Y40.500
G0 X-43.320 Y40.664
G1 F2220 X-43.320 Y-40.464 E493.60100
G0 F7500 X-43.320 Y-40.300
G0 X-49.096 Y-40.300
G0 X-49.096 Y-40.464
G1 F2220 X-49.096 Y40.664 E496.52194
G0 F7500 X-49.096 Y40.500
G0 X-50.400 Y37.543
G0 X-50.564 Y37.543
G1 F2220 X50.663 Y37.544 E500.16653
G0 F7500 X50.500 Y37.544
G0 X50.500 Y31.768
G0 X50.663 Y31.768
G1 F2220 X-50.564 Y31.767 E503.81111
G0 F7500 X-50.400 Y31.767
G0 X-50.400 Y25.991
G0 X-50.564 Y25.991
G1 F2220 X50.663 Y25.992 E507.45570
G0 F7500 X50.500 Y25.992
G0 X50.500 Y20.216
G0 X50.663 Y20.216
G1 F2220 X-50.564 Y20.215 E511.10029
G0 F7500 X-50.400 Y20.215
G0 X-50.400 Y14.439
G0 X-50.564 Y14.439
G1 F2220 X50.663 Y14.440 E514.74487
G0 F7500 X50.500 Y14.440
G0 X50.500 Y8.664
G0 X50.663 Y8.664
G1 F2220 X-50.564 Y8.663 E518.38946
G0 F7500 X-50.400 Y8.663
G0 X-50.400 Y2.887
G0 X-50.564 Y2.887
G1 F2220 X50.663 Y2.888 E522.03405
G0 F7500 X50.500 Y2.888
G0 X50.500 Y-2.887
G0 X50.664 Y-2.887
G1 F2220 X-50.563 Y-2.888 E525.67863
G0 F7500 X-50.400 Y-2.888
G0 X-50.400 Y-8.664
G0 X-50.563 Y-8.664
G1 F2220 X50.664 Y-8.663 E529.32322
G0 F7500 X50.500 Y-8.663
G0 X50.500 Y-14.439
G0 X50.664 Y-14.439
G1 F2220 X-50.563 Y-14.440 E532.96781
G0 F7500 X-50.400 Y-14.440
G0 X-50.400 Y-20.216
G0 X-50.563 Y-20.216
G1 F2220 X50.664 Y-20.215 E536.61239
G0 F7500 X50.500 Y-20.215
G0 X50.500 Y-25.991
G0 X50.664 Y-25.991
G1 F2220 X-50.563 Y-25.992 E540.25698
G0 F7500 X-50.400 Y-25.992
G0 X-50.400 Y-31.768
G0 X-50.563 Y-31.768
G1 F2220 X50.664 Y-31.767 E543.90157
G0 F7500 X50.500 Y-31.767
G0 X50.500 Y-37.543
G0 X50.664 Y-37.543
G1 F2220 X-50.563 Y-37.544 E547.54615
;LAYER:4
G1 F2400 E546.54615
G0 F7500 X0.216 Y0.216 Z1.100
;TYPE:WALL-OUTER
G1 F2400 E547.54615
G1 F2700 X0.284 Y0.216 E547.54860
G1 X0.284 Y0.284 E547.55105
G1 X0.216 Y0.284 E547.55350
G1 X0.216 Y0.216 E547.55595
G0 F7500 X-0.700 Y-0.700
;TYPE:SUPPORT
G1 F2400 X-0.700 Y1.200 E547.62436
G1 X1.200 Y1.200 E547.69276
G1 X1.200 Y-0.700 E547.76117
G1 X-0.700 Y-0.700 E547.82958
G0 F7500 X-0.690 Y-0.800
G0 X-50.500 Y-40.400
G1 F2400 X50.600 Y-40.400 E551.46959
G1 X50.600 Y40.600 E554.38592
G1 X-50.500 Y40.600 E558.02594
G1 X-50.500 Y-40.400 E560.94227
G0 F7500 X-49.096 Y-40.464
