;Generated with Cura_SteamEngine 15.04.6

;Layer count: 16
;LAYER:0
M107
G0 F7500 X-53.716 Y-8.616 Z0.300
;TYPE:SKIRT
G1 F1800 X53.816 Y-8.616 E5.80739
G1 X53.816 Y8.816 E6.74882
G1 X-53.716 Y8.816 E12.55621
G1 X-53.716 Y-8.616 E13.49765
G1 F2400 E12.49765
G0 F7500 X0.216 Y0.216
;TYPE:WALL-OUTER
G1 F2400 E13.49765
G1 F1800 X0.284 Y0.216 E13.50132
G1 X0.284 Y0.284 E13.50499
G1 X0.216 Y0.284 E13.50866
G1 X0.216 Y0.216 E13.51234
G0 F7500 X-0.700 Y-0.700
;TYPE:SUPPORT
G1 F1800 X-0.700 Y1.200 E13.61495
G1 X1.200 Y1.200 E13.71756
G1 X1.200 Y-0.700 E13.82017
G1 X-0.700 Y-0.700 E13.92278
G0 F7500 X-0.690 Y-0.800
G0 X-50.500 Y-5.400
G1 F1800 X50.600 Y-5.400 E19.38281
G1 X50.600 Y5.600 E19.97687
G1 X-50.500 Y5.600 E25.43689
G1 X-50.500 Y-5.400 E26.03096
G0 F7500 X-49.096 Y-5.464
G1 F1800 X-49.096 Y5.664 E26.63194
G0 F7500 X-49.096 Y5.500
G0 X-50.400 Y2.887
G0 X-50.564 Y2.887
G1 F1800 X50.663 Y2.888 E32.09882
G0 F7500 X50.500 Y2.888
G0 X49.096 Y5.500
G0 X49.096 Y5.664
G1 F1800 X49.096 Y-5.464 E32.69980
G0 F7500 X49.096 Y-5.300
G0 X50.500 Y-2.887
G0 X50.664 Y-2.887
G1 F1800 X-50.563 Y-2.888 E38.16668
G0 F7500 X-50.400 Y-2.888
G0 X-43.320 Y-5.300
G0 X-43.320 Y-5.464
G1 F1800 X-43.320 Y5.664 E38.76766
G0 F7500 X-43.320 Y5.500
G0 X-37.544 Y5.500
G0 X-37.544 Y5.664
G1 F1800 X-37.544 Y-5.464 E39.36864
G0 F7500 X-37.544 Y-5.300
G0 X-31.768 Y-5.300
G0 X-31.768 Y-5.464
G1 F1800 X-31.768 Y5.664 E39.96962
G0 F7500 X-31.768 Y5.500
G0 X-25.992 Y5.500
G0 X-25.992 Y5.664
G1 F1800 X-25.992 Y-5.464 E40.57060
G0 F7500 X-25.992 Y-5.300
G0 X-20.216 Y-5.300
G0 X-20.216 Y-5.464
G1 F1800 X-20.216 Y5.664 E41.17158
G0 F7500 X-20.216 Y5.500
G0 X-14.440 Y5.500
G0 X-14.440 Y5.664
G1 F1800 X-14.440 Y-5.464 E41.77256
G0 F7500 X-14.440 Y-5.300
G0 X-8.664 Y-5.300
G0 X-8.664 Y-5.464
G1 F1800 X-8.664 Y5.664 E42.37354
G0 F7500 X-8.664 Y5.500
G0 X-2.888 Y5.500
G0 X-2.888 Y5.664
G1 F1800 X-2.888 Y-5.464 E42.97453
G0 F7500 X-2.888 Y-5.300
G0 X2.888 Y-5.300
G0 X2.888 Y-5.464
G1 F1800 X2.888 Y5.664 E43.57551
G0 F7500 X2.888 Y5.500
G0 X8.664 Y5.500
G0 X8.664 Y5.664
G1 F1800 X8.664 Y-5.464 E44.17649
G0 F7500 X8.664 Y-5.300
G0 X14.440 Y-5.300
G0 X14.440 Y-5.464
G1 F1800 X14.440 Y5.664 E44.77747
G0 F7500 X14.440 Y5.500
G0 X20.216 Y5.500
G0 X20.216 Y5.664
G1 F1800 X20.216 Y-5.464 E45.37845
G0 F7500 X20.216 Y-5.300
G0 X25.992 Y-5.300
G0 X25.992 Y-5.464
G1 F1800 X25.992 Y5.664 E45.97943
G0 F7500 X25.992 Y5.500
G0 X31.768 Y5.500
G0 X31.768 Y5.664
G1 F1800 X31.768 Y-5.464 E46.58041
G0 F7500 X31.768 Y-5.300
G0 X37.544 Y-5.300
G0 X37.544 Y-5.464
G1 F1800 X37.544 Y5.664 E47.18139
G0 F7500 X37.544 Y5.500
G0 X43.320 Y5.500
G0 X43.320 Y5.664
G1 F1800 X43.320 Y-5.464 E47.78237
;LAYER:1
M106 S63
G1 F2400 E46.78237
G0 F7500 X0.284 Y0.216 Z0.500
;TYPE:WALL-OUTER
G1 F2400 E47.78237
G1 F1980 X0.284 Y0.284 E47.78482
G1 X0.216 Y0.284 E47.78726
G1 X0.216 Y0.216 E47.78971
G1 X0.284 Y0.216 E47.79216
G0 F7500 X1.200 Y-0.700
;TYPE:SUPPORT
G1 F1920 X-0.700 Y-0.700 E47.86057
G1 X-0.700 Y1.200 E47.92898
G1 X1.200 Y1.200 E47.99738
G1 X1.200 Y-0.700 E48.06579
G0 F7500 X50.600 Y-5.400
G1 F1920 X50.600 Y5.600 E48.46184
G1 X-50.500 Y5.600 E52.10185
G1 X-50.500 Y-5.400 E52.49790
G1 X50.600 Y-5.400 E56.13791
G0 F7500 X49.096 Y-5.300
G0 X49.096 Y-5.464
G1 F1920 X49.096 Y5.664 E56.53856
G0 F7500 X49.096 Y5.500
G0 X50.500 Y2.888
G0 X50.663 Y2.888
G1 F1920 X-50.564 Y2.887 E60.18315
G0 F7500 X-50.400 Y2.887
G0 X-49.096 Y5.500
G0 X-49.096 Y5.664
G1 F1920 X-49.096 Y-5.464 E60.58380
G0 F7500 X-49.096 Y-5.300
G0 X-50.400 Y-2.888
G0 X-50.563 Y-2.888
G1 F1920 X50.664 Y-2.887 E64.22839
G0 F7500 X50.500 Y-2.887
G0 X43.320 Y-5.300
G0 X43.320 Y-5.464
G1 F1920 X43.320 Y5.664 E64.62904
G0 F7500 X43.320 Y5.500
G0 X37.544 Y5.500
G0 X37.544 Y5.664
G1 F1920 X37.544 Y-5.464 E65.02970
G0 F7500 X37.544 Y-5.300
G0 X31.768 Y-5.300
G0 X31.768 Y-5.464
G1 F1920 X31.768 Y5.664 E65.43035
G0 F7500 X31.768 Y5.500
G0 X25.992 Y5.500
G0 X25.992 Y5.664
G1 F1920 X25.992 Y-5.464 E65.83101
G0 F7500 X25.992 Y-5.300
G0 X20.216 Y-5.300
G0 X20.216 Y-5.464
G1 F1920 X20.216 Y5.664 E66.23166
G0 F7500 X20.216 Y5.500
G0 X14.440 Y5.500
G0 X14.440 Y5.664
G1 F1920 X14.440 Y-5.464 E66.63231
G0 F7500 X14.440 Y-5.300
G0 X8.664 Y-5.300
G0 X8.664 Y-5.464
G1 F1920 X8.664 Y5.664 E67.03297
G0 F7500 X8.664 Y5.500
G0 X2.888 Y5.500
G0 X2.888 Y5.664
G1 F1920 X2.888 Y-5.464 E67.43362
G0 F7500 X2.888 Y-5.300
G0 X-2.888 Y-5.300
G0 X-2.888 Y-5.464
G1 F1920 X-2.888 Y5.664 E67.83427
G0 F7500 X-2.888 Y5.500
G0 X-8.664 Y5.500
G0 X-8.664 Y5.664
G1 F1920 X-8.664 Y-5.464 E68.23493
G0 F7500 X-8.664 Y-5.300
G0 X-14.440 Y-5.300
G0 X-14.440 Y-5.464
G1 F1920 X-14.440 Y5.664 E68.63558
G0 F7500 X-14.440 Y5.500
G0 X-20.216 Y5.500
G0 X-20.216 Y5.664
G1 F1920 X-20.216 Y-5.464 E69.03623
G0 F7500 X-20.216 Y-5.300
G0 X-25.992 Y-5.300
G0 X-25.992 Y-5.464
G1 F1920 X-25.992 Y5.664 E69.43689
G0 F7500 X-25.992 Y5.500
G0 X-31.768 Y5.500
G0 X-31.768 Y5.664
G1 F1920 X-31.768 Y-5.464 E69.83754
G0 F7500 X-31.768 Y-5.300
G0 X-37.544 Y-5.300
G0 X-37.544 Y-5.464
G1 F1920 X-37.544 Y5.664 E70.23820
G0 F7500 X-37.544 Y5.500
G0 X-43.320 Y5.500
G0 X-43.320 Y5.664
G1 F1920 X-43.320 Y-5.464 E70.63885
;LAYER:2
M106 S127
G1 F2400 E69.63885
G0 F7500 X0.216 Y0.216 Z0.700
;TYPE:WALL-OUTER
G1 F2400 E70.63885
G1 F2220 X0.284 Y0.216 E70.64130
G1 X0.284 Y0.284 E70.64375
G1 X0.216 Y0.284 E70.64619
G1 X0.216 Y0.216 E70.64864
G0 F7500 X-0.700 Y-0.700
;TYPE:SUPPORT
G1 F2100 X-0.700 Y1.200 E70.71705
G1 X1.200 Y1.200 E70.78546
G1 X1.200 Y-0.700 E70.85387
G1 X-0.700 Y-0.700 E70.92227
G0 F7500 X-0.690 Y-0.800
G0 X-50.500 Y-5.400
G1 F2100 X50.600 Y-5.400 E74.56229
G1 X50.600 Y5.600 E74.95833
G1 X-50.500 Y5.600 E78.59835
G1 X-50.500 Y-5.400 E78.99439
G0 F7500 X-49.096 Y-5.464
G1 F2100 X-49.096 Y5.664 E79.39504
G0 F7500 X-49.096 Y5.500
G0 X-50.400 Y2.887
G0 X-50.564 Y2.887
G1 F2100 X50.663 Y2.888 E83.03963
G0 F7500 X50.500 Y2.888
G0 X49.096 Y5.500
G0 X49.096 Y5.664
G1 F2100 X49.096 Y-5.464 E83.44029
G0 F7500 X49.096 Y-5.300
G0 X50.500 Y-2.887
G0 X50.664 Y-2.887
G1 F2100 X-50.563 Y-2.888 E87.08487
G0 F7500 X-50.400 Y-2.888
G0 X-43.320 Y-5.300
G0 X-43.320 Y-5.464
G1 F2100 X-43.320 Y5.664 E87.48553
G0 F7500 X-43.320 Y5.500
G0 X-37.544 Y5.500
G0 X-37.544 Y5.664
G1 F2100 X-37.544 Y-5.464 E87.88618
G0 F7500 X-37.544 Y-5.300
G0 X-31.768 Y-5.300
G0 X-31.768 Y-5.464
G1 F2100 X-31.768 Y5.664 E88.28683
G0 F7500 X-31.768 Y5.500
G0 X-25.992 Y5.500
G0 X-25.992 Y5.664
G1 F2100 X-25.992 Y-5.464 E88.68749
G0 F7500 X-25.992 Y-5.300
G0 X-20.216 Y-5.300
G0 X-20.216 Y-5.464
G1 F2100 X-20.216 Y5.664 E89.08814
G0 F7500 X-20.216 Y5.500
G0 X-14.440 Y5.500
G0 X-14.440 Y5.664
G1 F2100 X-14.440 Y-5.464 E89.48879
G0 F7500 X-14.440 Y-5.300
G0 X-8.664 Y-5.300
G0 X-8.664 Y-5.464
G1 F2100 X-8.664 Y5.664 E89.88945
G0 F7500 X-8.664 Y5.500
G0 X-2.888 Y5.500
G0 X-2.888 Y5.664
G1 F2100 X-2.888 Y-5.464 E90.29010
G0 F7500 X-2.888 Y-5.300
G0 X2.888 Y-5.300
G0 X2.888 Y-5.464
G1 F2100 X2.888 Y5.664 E90.69075
G0 F7500 X2.888 Y5.500
G0 X8.664 Y5.500
G0 X8.664 Y5.664
G1 F2100 X8.664 Y-5.464 E91.09141
G0 F7500 X8.664 Y-5.300
G0 X14.440 Y-5.300
G0 X14.440 Y-5.464
G1 F2100 X14.440 Y5.664 E91.49206
G0 F7500 X14.440 Y5.500
G0 X20.216 Y5.500
G0 X20.216 Y5.664
G1 F2100 X20.216 Y-5.464 E91.89271
G0 F7500 X20.216 Y-5.300
G0 X25.992 Y-5.300
G0 X25.992 Y-5.464
G1 F2100 X25.992 Y5.664 E92.29337
G0 F7500 X25.992 Y5.500
G0 X31.768 Y5.500
G0 X31.768 Y5.664
G1 F2100 X31.768 Y-5.464 E92.69402
G0 F7500 X31.768 Y-5.300
G0 X37.544 Y-5.300
G0 X37.544 Y-5.464
G1 F2100 X37.544 Y5.664 E93.09468
G0 F7500 X37.544 Y5.500
G0 X43.320 Y5.500
G0 X43.320 Y5.664
G1 F2100 X43.320 Y-5.464 E93.49533
;LAYER:3
G1 F2400 E92.49533
G0 F7500 X0.284 Y0.216 Z0.900
;TYPE:WALL-OUTER
G1 F2400 E93.49533
G1 X0.284 Y0.284 E93.49778
G1 X0.216 Y0.284 E93.50023
G1 X0.216 Y0.216 E93.50267
G1 X0.284 Y0.216 E93.50512
G0 F7500 X1.200 Y-0.700
;TYPE:SUPPORT
G1 F2220 X-0.700 Y-0.700 E93.57353
G1 X-0.700 Y1.200 E93.64194
G1 X1.200 Y1.200 E93.71035
G1 X1.200 Y-0.700 E93.77875
G0 F7500 X50.600 Y-5.400
G1 F2220 X50.600 Y5.600 E94.17480
G1 X-50.500 Y5.600 E97.81481
G1 X-50.500 Y-5.400 E98.21086
G1 X50.600 Y-5.400 E101.85087
G0 F7500 X49.096 Y-5.300
G0 X49.096 Y-5.464
G1 F2220 X49.096 Y5.664 E102.25153
G0 F7500 X49.096 Y5.500
G0 X50.500 Y2.888
G0 X50.663 Y2.888
G1 F2220 X-50.564 Y2.887 E105.89611
G0 F7500 X-50.400 Y2.887
G0 X-49.096 Y5.500
G0 X-49.096 Y5.664
G1 F2220 X-49.096 Y-5.464 E106.29677
G0 F7500 X-49.096 Y-5.300
G0 X-50.400 Y-2.888
G0 X-50.563 Y-2.888
G1 F2220 X50.664 Y-2.887 E109.94135
G0 F7500 X50.500 Y-2.887
G0 X43.320 Y-5.300
G0 X43.320 Y-5.464
G1 F2220 X43.320 Y5.664 E110.34201
G0 F7500 X43.320 Y5.500
G0 X37.544 Y5.500
G0 X37.544 Y5.664
G1 F2220 X37.544 Y-5.464 E110.74266
G0 F7500 X37.544 Y-5.300
G0 X31.768 Y-5.300
G0 X31.768 Y-5.464
G1 F2220 X31.768 Y5.664 E111.14331
G0 F7500 X31.768 Y5.500
G0 X25.992 Y5.500
G0 X25.992 Y5.664
G1 F2220 X25.992 Y-5.464 E111.54397
G0 F7500 X25.992 Y-5.300
G0 X20.216 Y-5.300
G0 X20.216 Y-5.464
G1 F2220 X20.216 Y5.664 E111.94462
G0 F7500 X20.216 Y5.500
G0 X14.440 Y5.500
G0 X14.440 Y5.664
G1 F2220 X14.440 Y-5.464 E112.34527
G0 F7500 X14.440 Y-5.300
G0 X8.664 Y-5.300
G0 X8.664 Y-5.464
G1 F2220 X8.664 Y5.664 E112.74593
G0 F7500 X8.664 Y5.500
G0 X2.888 Y5.500
G0 X2.888 Y5.664
G1 F2220 X2.888 Y-5.464 E113.14658
G0 F7500 X2.888 Y-5.300
G0 X-2.888 Y-5.300
G0 X-2.888 Y-5.464
G1 F2220 X-2.888 Y5.664 E113.54723
G0 F7500 X-2.888 Y5.500
G0 X-8.664 Y5.500
G0 X-8.664 Y5.664
G1 F2220 X-8.664 Y-5.464 E113.94789
G0 F7500 X-8.664 Y-5.300
G0 X-14.440 Y-5.300
G0 X-14.440 Y-5.464
G1 F2220 X-14.440 Y5.664 E114.34854
G0 F7500 X-14.440 Y5.500
G0 X-20.216 Y5.500
G0 X-20.216 Y5.664
G1 F2220 X-20.216 Y-5.464 E114.74920
G0 F7500 X-20.216 Y-5.300
G0 X-25.992 Y-5.300
G0 X-25.992 Y-5.464
G1 F2220 X-25.992 Y5.664 E115.14985
G0 F7500 X-25.992 Y5.500
G0 X-31.768 Y5.500
G0 X-31.768 Y5.664
G1 F2220 X-31.768 Y-5.464 E115.55050
G0 F7500 X-31.768 Y-5.300
G0 X-37.544 Y-5.300
G0 X-37.544 Y-5.464
G1 F2220 X-37.544 Y5.664 E115.95116
G0 F7500 X-37.544 Y5.500
G0 X-43.320 Y5.500
G0 X-43.320 Y5.664
G1 F2220 X-43.320 Y-5.464 E116.35181
;LAYER:4
G1 F2400 E115.35181
G0 F7500 X0.216 Y0.216 Z1.100
;TYPE:WALL-OUTER
G1 F2400 E116.35181
G1 F2700 X0.284 Y0.216 E116.35426
G1 X0.284 Y0.284 E116.35671
G1 X0.216 Y0.284 E116.35915
G1 X0.216 Y0.216 E116.36160
G0 F7500 X-0.700 Y-0.700
;TYPE:SUPPORT
G1 F2400 X-0.700 Y1.200 E116.43001
G1 X1.200 Y1.200 E116.49842
G1 X1.200 Y-0.700 E116.56683
G1 X-0.700 Y-0.700 E116.63523
G0 F7500 X-0.690 Y-0.800
G0 X-50.500 Y-5.400
G1 F2400 X50.600 Y-5.400 E120.27525
G1 X50.600 Y5.600 E120.67129
G1 X-50.500 Y5.600 E124.31131
G1 X-50.500 Y-5.400 E124.70735
G0 F7500 X-49.096 Y-5.464
G1 F2400 X-49.096 Y5.664 E125.10801
G0 F7500 X-49.096 Y5.500
G0 X-50.400 Y2.887
G0 X-50.564 Y2.887
G1 F2400 X50.663 Y2.888 E128.75259
G0 F7500 X50.500 Y2.888
G0 X49.096 Y5.500
G0 X49.096 Y5.664
G1 F2400 X49.096 Y-5.464 E129.15325
G0 F7500 X49.096 Y-5.300
G0 X50.500 Y-2.887
G0 X50.664 Y-2.887
G1 F2400 X-50.563 Y-2.888 E132.79783
G0 F7500 X-50.400 Y-2.888
G0 X-43.320 Y-5.300
G0 X-43.320 Y-5.464
G1 F2400 X-43.320 Y5.664 E133.19849
G0 F7500 X-43.320 Y5.500
G0 X-37.544 Y5.500
G0 X-37.544 Y5.664
G1 F2400 X-37.544 Y-5.464 E133.59914
G0 F7500 X-37.544 Y-5.300
G0 X-31.768 Y-5.300
G0 X-31.768 Y-5.464
G1 F2400 X-31.768 Y5.664 E133.99979
G0 F7500 X-31.768 Y5.500
G0 X-25.992 Y5.500
G0 X-25.992 Y5.664
G1 F2400 X-25.992 Y-5.464 E134.40045
G0 F7500 X-25.992 Y-5.300
G0 X-20.216 Y-5.300
G0 X-20.216 Y-5.464
G1 F2400 X-20.216 Y5.664 E134.80110
G0 F7500 X-20.216 Y5.500
G0 X-14.440 Y5.500
G0 X-14.440 Y5.664
G1 F2400 X-14.440 Y-5.464 E135.20175
G0 F7500 X-14.440 Y-5.300
G0 X-8.664 Y-5.300
G0 X-8.664 Y-5.464
G1 F2400 X-8.664 Y5.664 E135.60241
G0 F7500 X-8.664 Y5.500
G0 X-2.888 Y5.500
G0 X-2.888 Y5.664
G1 F2400 X-2.888 Y-5.464 E136.00306
G0 F7500 X-2.888 Y-5.300
G0 X2.888 Y-5.300
G0 X2.888 Y-5.464
G1 F2400 X2.888 Y5.664 E136.40371
G0 F7500 X2.888 Y5.500
G0 X8.664 Y5.500
G0 X8.664 Y5.664
G1 F2400 X8.664 Y-5.464 E136.80437
G0 F7500 X8.664 Y-5.300
G0 X14.440 Y-5.300
G0 X14.440 Y-5.464
G1 F2400 X14.440 Y5.664 E137.20502
G0 F7500 X14.440 Y5.500
G0 X20.216 Y5.500
G0 X20.216 Y5.664
G1 F2400 X20.216 Y-5.464 E137.60568
G0 F7500 X20.216 Y-5.300
G0 X25.992 Y-5.300
G0 X25.992 Y-5.464
G1 F2400 X25.992 Y5.664 E138.00633
G0 F7500 X25.992 Y5.500
G0 X31.768 Y5.500
G0 X31.768 Y5.664
G1 F2400 X31.768 Y-5.464 E138.40698
G0 F7500 X31.768 Y-5.300
G0 X37.544 Y-5.300
G0 X37.544 Y-5.464
G1 F2400 X37.544 Y5.664 E138.80764
G0 F7500 X37.544 Y5.500
G0 X43.320 Y5.500
G0 X43.320 Y5.664
G1 F2400 X43.320 Y-5.464 E139.20829
;LAYER:5
G1 F2400 E138.20829
G0 F7500 X0.284 Y0.216 Z1.300
;TYPE:WALL-OUTER
G1 F2400 E139.20829
G1 F2700 X0.284 Y0.284 E139.21074
G1 X0.216 Y0.284 E139.21319
G1 X0.216 Y0.216 E139.21563
G1 X0.284 Y0.216 E139.21808
G0 F7500 X1.200 Y-0.700
;TYPE:SUPPORT
G1 F2400 X-0.700 Y-0.700 E139.28649
G1 X-0.700 Y1.200 E139.35490
G1 X1.200 Y1.200 E139.42331
G1 X1.200 Y-0.700 E139.49171
G0 F7500 X50.600 Y-5.400
G1 F2400 X50.600 Y5.600 E139.88776
G1 X-50.500 Y5.600 E143.52777
G1 X-50.500 Y-5.400 E143.92382
G1 X50.600 Y-5.400 E147.56383
G0 F7500 X49.096 Y-5.300
G0 X49.096 Y-5.464
G1 F2400 X49.096 Y5.664 E147.96449
G0 F7500 X49.096 Y5.500
G0 X50.500 Y2.888
G0 X50.663 Y2.888
G1 F2400 X-50.564 Y2.887 E151.60907
G0 F7500 X-50.400 Y2.887
G0 X-49.096 Y5.500
G0 X-49.096 Y5.664
G1 F2400 X-49.096 Y-5.464 E152.00973
G0 F7500 X-49.096 Y-5.300
G0 X-50.400 Y-2.888
G0 X-50.563 Y-2.888
G1 F2400 X50.664 Y-2.887 E155.65431
G0 F7500 X50.500 Y-2.887
G0 X43.320 Y-5.300
G0 X43.320 Y-5.464
G1 F2400 X43.320 Y5.664 E156.05497
G0 F7500 X43.320 Y5.500
G0 X37.544 Y5.500
G0 X37.544 Y5.664
G1 F2400 X37.544 Y-5.464 E156.45562
G0 F7500 X37.544 Y-5.300
G0 X31.768 Y-5.300
G0 X31.768 Y-5.464
G1 F2400 X31.768 Y5.664 E156.85627
G0 F7500 X31.768 Y5.500
G0 X25.992 Y5.500
G0 X25.992 Y5.664
G1 F2400 X25.992 Y-5.464 E157.25693
G0 F7500 X25.992 Y-5.300
G0 X20.216 Y-5.300
G0 X20.216 Y-5.464
G1 F2400 X20.216 Y5.664 E157.65758
G0 F7500 X20.216 Y5.500
G0 X14.440 Y5.500
G0 X14.440 Y5.664
G1 F2400 X14.440 Y-5.464 E158.05823
G0 F7500 X14.440 Y-5.300
G0 X8.664 Y-5.300
G0 X8.664 Y-5.464
G1 F2400 X8.664 Y5.664 E158.45889
G0 F7500 X8.664 Y5.500
G0 X2.888 Y5.500
G0 X2.888 Y5.664
G1 F2400 X2.888 Y-5.464 E158.85954
G0 F7500 X2.888 Y-5.300
G0 X-2.888 Y-5.300
G0 X-2.888 Y-5.464
G1 F2400 X-2.888 Y5.664 E159.26020
G0 F7500 X-2.888 Y5.500
G0 X-8.664 Y5.500
G0 X-8.664 Y5.664
G1 F2400 X-8.664 Y-5.464 E159.66085
G0 F7500 X-8.664 Y-5.300
G0 X-14.440 Y-5.300
G0 X-14.440 Y-5.464
G1 F2400 X-14.440 Y5.664 E160.06150
G0 F7500 X-14.440 Y5.500
G0 X-20.216 Y5.500
G0 X-20.216 Y5.664
G1 F2400 X-20.216 Y-5.464 E160.46216
G0 F7500 X-20.216 Y-5.300
G0 X-25.992 Y-5.300
G0 X-25.992 Y-5.464
G1 F2400 X-25.992 Y5.664 E160.86281
G0 F7500 X-25.992 Y5.500
G0 X-31.768 Y5.500
G0 X-31.768 Y5.664
G1 F2400 X-31.768 Y-5.464 E161.26346
G0 F7500 X-31.768 Y-5.300
G0 X-37.544 Y-5.300
G0 X-37.544 Y-5.464
G1 F2400 X-37.544 Y5.664 E161.66412
G0 F7500 X-37.544 Y5.500
G0 X-43.320 Y5.500
G0 X-43.320 Y5.664
G1 F2400 X-43.320 Y-5.464 E162.06477
;LAYER:6
G1 F2400 E161.06477
G0 F7500 X0.216 Y0.216 Z1.500
;TYPE:WALL-OUTER
G1 F2400 E162.06477
G1 F2700 X0.284 Y0.216 E162.06722
G1 X0.284 Y0.284 E162.06967
G1 X0.216 Y0.284 E162.07211
G1 X0.216 Y0.216 E162.07456
G0 F7500 X-0.700 Y-0.700
;TYPE:SUPPORT
G1 F2400 X-0.700 Y1.200 E162.14297
G1 X1.200 Y1.200 E162.21138
G1 X1.200 Y-0.700 E162.27979
G1 X-0.700 Y-0.700 E162.34819
G0 F7500 X-0.690 Y-0.800
G0 X-50.500 Y-5.400
G1 F2400 X50.600 Y-5.400 E165.98821
G1 X50.600 Y5.600 E166.38425
G1 X-50.500 Y5.600 E170.02427
G1 X-50.500 Y-5.400 E170.42031
G0 F7500 X-49.096 Y-5.464
G1 F2400 X-49.096 Y5.664 E170.82097
G0 F7500 X-49.096 Y5.500
G0 X-50.400 Y2.887
G0 X-50.564 Y2.887
G1 F2400 X50.663 Y2.888 E174.46555
G0 F7500 X50.500 Y2.888
G0 X49.096 Y5.500
G0 X49.096 Y5.664
G1 F2400 X49.096 Y-5.464 E174.86621
G0 F7500 X49.096 Y-5.300
G0 X50.500 Y-2.887
G0 X50.664 Y-2.887
G1 F2400 X-50.563 Y-2.888 E178.51079
G0 F7500 X-50.400 Y-2.888
G0 X-43.320 Y-5.300
G0 X-43.320 Y-5.464
G1 F2400 X-43.320 Y5.664 E178.91145
G0 F7500 X-43.320 Y5.500
G0 X-37.544 Y5.500
