;Generated with Cura_SteamEngine 15.04.6

;Layer count: 16
;LAYER:0
M107
G0 F7500 X-53.716 Y-53.616 Z0.300
;TYPE:SKIRT
G1 F1800 X53.816 Y-53.616 E5.80739
G1 X53.816 Y53.816 E11.60938
G1 X-53.716 Y53.816 E17.41677
G1 X-53.716 Y-53.616 E23.21875
G1 F2400 E22.21875
G0 F7500 X0.216 Y0.216
;TYPE:WALL-OUTER
G1 F2400 E23.21875
G1 F1800 X0.284 Y0.216 E23.22243
G1 X0.284 Y0.284 E23.22610
G1 X0.216 Y0.284 E23.22977
G1 X0.216 Y0.216 E23.23344
G0 F7500 X-0.700 Y-0.700
;TYPE:SUPPORT
G1 F1800 X-0.700 Y1.200 E23.33605
G1 X1.200 Y1.200 E23.43867
G1 X1.200 Y-0.700 E23.54128
G1 X-0.700 Y-0.700 E23.64389
G0 F7500 X-0.690 Y-0.800
G0 X-50.500 Y-50.400
G1 F1800 X50.600 Y-50.400 E29.10391
G1 X50.600 Y50.600 E34.55853
G1 X-50.500 Y50.600 E40.01855
G1 X-50.500 Y-50.400 E45.47317
G0 F7500 X-50.563 Y-49.096
G1 F1800 X50.664 Y-49.095 E50.94005
G0 F7500 X50.500 Y-49.095
G0 X49.096 Y-50.300
G0 X49.096 Y-50.464
G1 F1800 X49.096 Y50.664 E56.40159
G0 F7500 X49.096 Y50.500
G0 X50.500 Y49.096
G0 X50.663 Y49.096
G1 F1800 X-50.564 Y49.095 E61.86847
G0 F7500 X-50.400 Y49.095
G0 X-49.096 Y50.500
G0 X-49.096 Y50.664
G1 F1800 X-49.096 Y-50.464 E67.33000
G0 F7500 X-49.096 Y-50.300
G0 X-43.320 Y-50.300
G0 X-43.320 Y-50.464
G1 F1800 X-43.320 Y50.664 E72.79153
G0 F7500 X-43.320 Y50.500
G0 X-50.400 Y43.319
G0 X-50.564 Y43.319
G1 F1800 X50.663 Y43.320 E78.25841
G0 F7500 X50.500 Y43.320
G0 X43.320 Y50.500
G0 X43.320 Y50.664
G1 F1800 X43.320 Y-50.464 E83.71995
G0 F7500 X43.320 Y-50.300
G0 X50.500 Y-43.319
G0 X50.664 Y-43.319
G1 F1800 X-50.563 Y-43.320 E89.18683
G0 F7500 X-50.400 Y-43.320
G0 X-50.400 Y-37.544
G0 X-50.563 Y-37.544
G1 F1800 X50.664 Y-37.543 E94.65371
G0 F7500 X50.500 Y-37.543
G0 X50.500 Y-31.767
G0 X50.664 Y-31.767
G1 F1800 X-50.563 Y-31.768 E100.12059
G0 F7500 X-50.400 Y-31.768
G0 X-50.400 Y-25.992
G0 X-50.563 Y-25.992
G1 F1800 X50.664 Y-25.991 E105.58747
G0 F7500 X50.500 Y-25.991
G0 X50.500 Y-20.215
G0 X50.664 Y-20.215
G1 F1800 X-50.563 Y-20.216 E111.05435
G0 F7500 X-50.400 Y-20.216
G0 X-50.400 Y-14.440
G0 X-50.563 Y-14.440
G1 F1800 X50.664 Y-14.439 E116.52123
G0 F7500 X50.500 Y-14.439
G0 X50.500 Y-8.663
G0 X50.664 Y-8.663
G1 F1800 X-50.563 Y-8.664 E121.98811
G0 F7500 X-50.400 Y-8.664
G0 X-50.400 Y-2.888
G0 X-50.563 Y-2.888
G1 F1800 X50.664 Y-2.887 E127.45499
G0 F7500 X50.500 Y-2.887
G0 X50.500 Y2.888
G0 X50.663 Y2.888
G1 F1800 X-50.564 Y2.887 E132.92187
G0 F7500 X-50.400 Y2.887
G0 X-50.400 Y8.663
G0 X-50.564 Y8.663
G1 F1800 X50.663 Y8.664 E138.38875
G0 F7500 X50.500 Y8.664
G0 X50.500 Y14.440
G0 X50.663 Y14.440
G1 F1800 X-50.564 Y14.439 E143.85563
G0 F7500 X-50.400 Y14.439
G0 X-50.400 Y20.215
G0 X-50.564 Y20.215
G1 F1800 X50.663 Y20.216 E149.32251
G0 F7500 X50.500 Y20.216
G0 X50.500 Y25.992
G0 X50.663 Y25.992
G1 F1800 X-50.564 Y25.991 E154.78939
G0 F7500 X-50.400 Y25.991
G0 X-50.400 Y31.767
G0 X-50.564 Y31.767
G1 F1800 X50.663 Y31.768 E160.25627
G0 F7500 X50.500 Y31.768
G0 X50.500 Y37.544
G0 X50.663 Y37.544
G1 F1800 X-50.564 Y37.543 E165.72315
G0 F7500 X-50.400 Y37.543
G0 X-37.544 Y50.500
G0 X-37.544 Y50.664
G1 F1800 X-37.544 Y-50.464 E171.18468
G0 F7500 X-37.544 Y-50.300
G0 X-31.768 Y-50.300
G0 X-31.768 Y-50.464
G1 F1800 X-31.768 Y50.664 E176.64621
G0 F7500 X-31.768 Y50.500
G0 X-25.992 Y50.500
G0 X-25.992 Y50.664
G1 F1800 X-25.992 Y-50.464 E182.10775
G0 F7500 X-25.992 Y-50.300
G0 X-20.216 Y-50.300
G0 X-20.216 Y-50.464
G1 F1800 X-20.216 Y50.664 E187.56928
G0 F7500 X-20.216 Y50.500
G0 X-14.440 Y50.500
G0 X-14.440 Y50.664
G1 F1800 X-14.440 Y-50.464 E193.03081
G0 F7500 X-14.440 Y-50.300
G0 X-8.664 Y-50.300
G0 X-8.664 Y-50.464
G1 F1800 X-8.664 Y50.664 E198.49235
G0 F7500 X-8.664 Y50.500
G0 X-2.888 Y50.500
G0 X-2.888 Y50.664
G1 F1800 X-2.888 Y-50.464 E203.95388
G0 F7500 X-2.888 Y-50.300
G0 X2.888 Y-50.300
G0 X2.888 Y-50.464
G1 F1800 X2.888 Y50.664 E209.41541
G0 F7500 X2.888 Y50.500
G0 X8.664 Y50.500
G0 X8.664 Y50.664
G1 F1800 X8.664 Y-50.464 E214.87695
G0 F7500 X8.664 Y-50.300
G0 X14.440 Y-50.300
G0 X14.440 Y-50.464
G1 F1800 X14.440 Y50.664 E220.33848
G0 F7500 X14.440 Y50.500
G0 X20.216 Y50.500
G0 X20.216 Y50.664
G1 F1800 X20.216 Y-50.464 E225.80001
G0 F7500 X20.216 Y-50.300
G0 X25.992 Y-50.300
G0 X25.992 Y-50.464
G1 F1800 X25.992 Y50.664 E231.26155
G0 F7500 X25.992 Y50.500
G0 X31.768 Y50.500
G0 X31.768 Y50.664
G1 F1800 X31.768 Y-50.464 E236.72308
G0 F7500 X31.768 Y-50.300
G0 X37.544 Y-50.300
G0 X37.544 Y-50.464
G1 F1800 X37.544 Y50.664 E242.18461
;LAYER:1
M106 S63
G1 F2400 E241.18461
G0 F7500 X0.284 Y0.284 Z0.500
;TYPE:WALL-OUTER
G1 F2400 E242.18461
G1 F1980 X0.216 Y0.284 E242.18706
G1 X0.216 Y0.216 E242.18951
G1 X0.284 Y0.216 E242.19196
G1 X0.284 Y0.284 E242.19441
G0 F7500 X1.200 Y1.200
;TYPE:SUPPORT
G1 F1920 X1.200 Y-0.700 E242.26281
G1 X-0.700 Y-0.700 E242.33122
G1 X-0.700 Y1.200 E242.39963
G1 X1.200 Y1.200 E242.46804
G0 F7500 X1.190 Y1.300
G0 X50.500 Y50.590
G0 X50.600 Y50.600
G1 F1920 X-50.500 Y50.600 E246.10805
G1 X-50.500 Y-50.400 E249.74447
G1 X50.600 Y-50.400 E253.38448
G1 X50.600 Y50.600 E257.02089
G0 F7500 X50.500 Y50.590
G0 X50.500 Y49.096
G0 X50.663 Y49.096
G1 F1920 X-50.564 Y49.095 E260.66548
G0 F7500 X-50.400 Y49.095
G0 X-49.096 Y50.500
G0 X-49.096 Y50.664
G1 F1920 X-49.096 Y-50.464 E264.30650
G0 F7500 X-49.096 Y-50.300
G0 X-50.400 Y-49.096
G0 X-50.563 Y-49.096
G1 F1920 X50.664 Y-49.095 E267.95109
G0 F7500 X50.500 Y-49.095
G0 X49.096 Y-50.300
G0 X49.096 Y-50.464
G1 F1920 X49.096 Y50.664 E271.59211
G0 F7500 X49.096 Y50.500
G0 X43.320 Y50.500
G0 X43.320 Y50.664
G1 F1920 X43.320 Y-50.464 E275.23313
G0 F7500 X43.320 Y-50.300
G0 X50.500 Y-43.319
G0 X50.664 Y-43.319
G1 F1920 X-50.563 Y-43.320 E278.87772
G0 F7500 X-50.400 Y-43.320
G0 X-43.320 Y-50.300
G0 X-43.320 Y-50.464
G1 F1920 X-43.320 Y50.664 E282.51874
G0 F7500 X-43.320 Y50.500
G0 X-50.400 Y43.319
G0 X-50.564 Y43.319
G1 F1920 X50.663 Y43.320 E286.16333
G0 F7500 X50.500 Y43.320
G0 X50.500 Y37.544
G0 X50.663 Y37.544
G1 F1920 X-50.564 Y37.543 E289.80792
G0 F7500 X-50.400 Y37.543
G0 X-50.400 Y31.767
G0 X-50.564 Y31.767
G1 F1920 X50.663 Y31.768 E293.45250
G0 F7500 X50.500 Y31.768
G0 X50.500 Y25.992
G0 X50.663 Y25.992
G1 F1920 X-50.564 Y25.991 E297.09709
G0 F7500 X-50.400 Y25.991
G0 X-50.400 Y20.215
G0 X-50.564 Y20.215
G1 F1920 X50.663 Y20.216 E300.74168
G0 F7500 X50.500 Y20.216
G0 X50.500 Y14.440
G0 X50.663 Y14.440
G1 F1920 X-50.564 Y14.439 E304.38626
G0 F7500 X-50.400 Y14.439
G0 X-50.400 Y8.663
G0 X-50.564 Y8.663
G1 F1920 X50.663 Y8.664 E308.03085
G0 F7500 X50.500 Y8.664
G0 X50.500 Y2.888
G0 X50.663 Y2.888
G1 F1920 X-50.564 Y2.887 E311.67544
G0 F7500 X-50.400 Y2.887
G0 X-50.400 Y-2.888
G0 X-50.563 Y-2.888
G1 F1920 X50.664 Y-2.887 E315.32002
G0 F7500 X50.500 Y-2.887
G0 X50.500 Y-8.663
G0 X50.664 Y-8.663
G1 F1920 X-50.563 Y-8.664 E318.96461
G0 F7500 X-50.400 Y-8.664
G0 X-50.400 Y-14.440
G0 X-50.563 Y-14.440
G1 F1920 X50.664 Y-14.439 E322.60920
G0 F7500 X50.500 Y-14.439
G0 X50.500 Y-20.215
G0 X50.664 Y-20.215
G1 F1920 X-50.563 Y-20.216 E326.25378
G0 F7500 X-50.400 Y-20.216
G0 X-50.400 Y-25.992
G0 X-50.563 Y-25.992
G1 F1920 X50.664 Y-25.991 E329.89837
G0 F7500 X50.500 Y-25.991
G0 X50.500 Y-31.767
G0 X50.664 Y-31.767
G1 F1920 X-50.563 Y-31.768 E333.54296
G0 F7500 X-50.400 Y-31.768
G0 X-50.400 Y-37.544
G0 X-50.563 Y-37.544
G1 F1920 X50.664 Y-37.543 E337.18754
G0 F7500 X50.500 Y-37.543
G0 X37.544 Y-50.300
G0 X37.544 Y-50.464
G1 F1920 X37.544 Y50.664 E340.82856
G0 F7500 X37.544 Y50.500
G0 X31.768 Y50.500
G0 X31.768 Y50.664
G1 F1920 X31.768 Y-50.464 E344.46959
G0 F7500 X31.768 Y-50.300
G0 X25.992 Y-50.300
G0 X25.992 Y-50.464
G1 F1920 X25.992 Y50.664 E348.11061
G0 F7500 X25.992 Y50.500
G0 X20.216 Y50.500
G0 X20.216 Y50.664
G1 F1920 X20.216 Y-50.464 E351.75163
G0 F7500 X20.216 Y-50.300
G0 X14.440 Y-50.300
G0 X14.440 Y-50.464
G1 F1920 X14.440 Y50.664 E355.39265
G0 F7500 X14.440 Y50.500
G0 X8.664 Y50.500
G0 X8.664 Y50.664
G1 F1920 X8.664 Y-50.464 E359.03368
G0 F7500 X8.664 Y-50.300
G0 X2.888 Y-50.300
G0 X2.888 Y-50.464
G1 F1920 X2.888 Y50.664 E362.67470
G0 F7500 X2.888 Y50.500
G0 X-2.888 Y50.500
G0 X-2.888 Y50.664
G1 F1920 X-2.888 Y-50.464 E366.31572
G0 F7500 X-2.888 Y-50.300
G0 X-8.664 Y-50.300
G0 X-8.664 Y-50.464
G1 F1920 X-8.664 Y50.664 E369.95674
G0 F7500 X-8.664 Y50.500
G0 X-14.440 Y50.500
G0 X-14.440 Y50.664
G1 F1920 X-14.440 Y-50.464 E373.59776
G0 F7500 X-14.440 Y-50.300
G0 X-20.216 Y-50.300
G0 X-20.216 Y-50.464
G1 F1920 X-20.216 Y50.664 E377.23879
G0 F7500 X-20.216 Y50.500
G0 X-25.992 Y50.500
G0 X-25.992 Y50.664
G1 F1920 X-25.992 Y-50.464 E380.87981
G0 F7500 X-25.992 Y-50.300
G0 X-31.768 Y-50.300
G0 X-31.768 Y-50.464
G1 F1920 X-31.768 Y50.664 E384.52083
G0 F7500 X-31.768 Y50.500
G0 X-37.544 Y50.500
G0 X-37.544 Y50.664
G1 F1920 X-37.544 Y-50.464 E388.16185
;LAYER:2
M106 S127
G1 F2400 E387.16185
G0 F7500 X0.216 Y0.216 Z0.700
;TYPE:WALL-OUTER
G1 F2400 E388.16185
G1 F2220 X0.284 Y0.216 E388.16430
G1 X0.284 Y0.284 E388.16675
G1 X0.216 Y0.284 E388.16920
G1 X0.216 Y0.216 E388.17165
G0 F7500 X-0.700 Y-0.700
;TYPE:SUPPORT
G1 F2100 X-0.700 Y1.200 E388.24005
G1 X1.200 Y1.200 E388.30846
G1 X1.200 Y-0.700 E388.37687
G1 X-0.700 Y-0.700 E388.44528
G0 F7500 X-0.690 Y-0.800
G0 X-50.500 Y-50.400
G1 F2100 X50.600 Y-50.400 E392.08529
G1 X50.600 Y50.600 E395.72171
G1 X-50.500 Y50.600 E399.36172
G1 X-50.500 Y-50.400 E402.99813
G0 F7500 X-50.563 Y-49.096
G1 F2100 X50.664 Y-49.095 E406.64272
G0 F7500 X50.500 Y-49.095
G0 X49.096 Y-50.300
G0 X49.096 Y-50.464
G1 F2100 X49.096 Y50.664 E410.28374
G0 F7500 X49.096 Y50.500
G0 X50.500 Y49.096
G0 X50.663 Y49.096
G1 F2100 X-50.564 Y49.095 E413.92833
G0 F7500 X-50.400 Y49.095
G0 X-49.096 Y50.500
G0 X-49.096 Y50.664
G1 F2100 X-49.096 Y-50.464 E417.56935
G0 F7500 X-49.096 Y-50.300
G0 X-43.320 Y-50.300
G0 X-43.320 Y-50.464
G1 F2100 X-43.320 Y50.664 E421.21037
G0 F7500 X-43.320 Y50.500
G0 X-50.400 Y43.319
G0 X-50.564 Y43.319
G1 F2100 X50.663 Y43.320 E424.85496
G0 F7500 X50.500 Y43.320
G0 X43.320 Y50.500
G0 X43.320 Y50.664
G1 F2100 X43.320 Y-50.464 E428.49598
G0 F7500 X43.320 Y-50.300
G0 X50.500 Y-43.319
G0 X50.664 Y-43.319
G1 F2100 X-50.563 Y-43.320 E432.14057
G0 F7500 X-50.400 Y-43.320
G0 X-50.400 Y-37.544
G0 X-50.563 Y-37.544
G1 F2100 X50.664 Y-37.543 E435.78516
G0 F7500 X50.500 Y-37.543
G0 X50.500 Y-31.767
G0 X50.664 Y-31.767
G1 F2100 X-50.563 Y-31.768 E439.42974
G0 F7500 X-50.400 Y-31.768
G0 X-50.400 Y-25.992
G0 X-50.563 Y-25.992
G1 F2100 X50.664 Y-25.991 E443.07433
G0 F7500 X50.500 Y-25.991
G0 X50.500 Y-20.215
G0 X50.664 Y-20.215
G1 F2100 X-50.563 Y-20.216 E446.71892
G0 F7500 X-50.400 Y-20.216
G0 X-50.400 Y-14.440
G0 X-50.563 Y-14.440
G1 F2100 X50.664 Y-14.439 E450.36350
G0 F7500 X50.500 Y-14.439
G0 X50.500 Y-8.663
G0 X50.664 Y-8.663
G1 F2100 X-50.563 Y-8.664 E454.00809
G0 F7500 X-50.400 Y-8.664
G0 X-50.400 Y-2.888
G0 X-50.563 Y-2.888
G1 F2100 X50.664 Y-2.887 E457.65268
G0 F7500 X50.500 Y-2.887
G0 X50.500 Y2.888
G0 X50.663 Y2.888
G1 F2100 X-50.564 Y2.887 E461.29726
G0 F7500 X-50.400 Y2.887
G0 X-50.400 Y8.663
G0 X-50.564 Y8.663
G1 F2100 X50.663 Y8.664 E464.94185
G0 F7500 X50.500 Y8.664
G0 X50.500 Y14.440
G0 X50.663 Y14.440
G1 F2100 X-50.564 Y14.439 E468.58644
G0 F7500 X-50.400 Y14.439
G0 X-50.400 Y20.215
G0 X-50.564 Y20.215
G1 F2100 X50.663 Y20.216 E472.23102
G0 F7500 X50.500 Y20.216
G0 X50.500 Y25.992
G0 X50.663 Y25.992
G1 F2100 X-50.564 Y25.991 E475.87561
G0 F7500 X-50.400 Y25.991
G0 X-50.400 Y31.767
G0 X-50.564 Y31.767
G1 F2100 X50.663 Y31.768 E479.52020
G0 F7500 X50.500 Y31.768
G0 X50.500 Y37.544
G0 X50.663 Y37.544
G1 F2100 X-50.564 Y37.543 E483.16478
G0 F7500 X-50.400 Y37.543
G0 X-37.544 Y50.500
G0 X-37.544 Y50.664
G1 F2100 X-37.544 Y-50.464 E486.80580
G0 F7500 X-37.544 Y-50.300
G0 X-31.768 Y-50.300
G0 X-31.768 Y-50.464
G1 F2100 X-31.768 Y50.664 E490.44683
G0 F7500 X-31.768 Y50.500
G0 X-25.992 Y50.500
G0 X-25.992 Y50.664
G1 F2100 X-25.992 Y-50.464 E494.08785
G0 F7500 X-25.992 Y-50.300
G0 X-20.216 Y-50.300
G0 X-20.216 Y-50.464
G1 F2100 X-20.216 Y50.664 E497.72887
G0 F7500 X-20.216 Y50.500
G0 X-14.440 Y50.500
G0 X-14.440 Y50.664
G1 F2100 X-14.440 Y-50.464 E501.36989
G0 F7500 X-14.440 Y-50.300
G0 X-8.664 Y-50.300
G0 X-8.664 Y-50.464
G1 F2100 X-8.664 Y50.664 E505.01092
G0 F7500 X-8.664 Y50.500
G0 X-2.888 Y50.500
G0 X-2.888 Y50.664
G1 F2100 X-2.888 Y-50.464 E508.65194
G0 F7500 X-2.888 Y-50.300
G0 X2.888 Y-50.300
G0 X2.888 Y-50.464
G1 F2100 X2.888 Y50.664 E512.29296
G0 F7500 X2.888 Y50.500
G0 X8.664 Y50.500
G0 X8.664 Y50.664
G1 F2100 X8.664 Y-50.464 E515.93398
G0 F7500 X8.664 Y-50.300
G0 X14.440 Y-50.300
G0 X14.440 Y-50.464
G1 F2100 X14.440 Y50.664 E519.57500
G0 F7500 X14.440 Y50.500
G0 X20.216 Y50.500
G0 X20.216 Y50.664
G1 F2100 X20.216 Y-50.464 E523.21603
G0 F7500 X20.216 Y-50.300
G0 X25.992 Y-50.300
G0 X25.992 Y-50.464
G1 F2100 X25.992 Y50.664 E526.85705
G0 F7500 X25.992 Y50.500
G0 X31.768 Y50.500
G0 X31.768 Y50.664
G1 F2100 X31.768 Y-50.464 E530.49807
G0 F7500 X31.768 Y-50.300
G0 X37.544 Y-50.300
G0 X37.544 Y-50.464
G1 F2100 X37.544 Y50.664 E534.13909
;LAYER:3
G1 F2400 E533.13909
G0 F7500 X0.284 Y0.284 Z0.900
;TYPE:WALL-OUTER
G1 F2400 E534.13909
G1 X0.216 Y0.284 E534.14154
G1 X0.216 Y0.216 E534.14399
G1 X0.284 Y0.216 E534.14644
G1 X0.284 Y0.284 E534.14889
G0 F7500 X1.200 Y1.200
;TYPE:SUPPORT
G1 F2220 X1.200 Y-0.700 E534.21729
G1 X-0.700 Y-0.700 E534.28570
G1 X-0.700 Y1.200 E534.35411
G1 X1.200 Y1.200 E534.42252
G0 F7500 X1.190 Y1.300
G0 X50.500 Y50.590
G0 X50.600 Y50.600
G1 F2220 X-50.500 Y50.600 E538.06253
G1 X-50.500 Y-50.400 E541.69895
G1 X50.600 Y-50.400 E545.33896
G1 X50.600 Y50.600 E548.97537
G0 F7500 X50.500 Y50.590
G0 X50.500 Y49.096
G0 X50.663 Y49.096
G1 F2220 X-50.564 Y49.095 E552.61996
G0 F7500 X-50.400 Y49.095
G0 X-49.096 Y50.500
G0 X-49.096 Y50.664
G1 F2220 X-49.096 Y-50.464 E556.26098
G0 F7500 X-49.096 Y-50.300
G0 X-50.400 Y-49.096
G0 X-50.563 Y-49.096
G1 F2220 X50.664 Y-49.095 E559.90557
G0 F7500 X50.500 Y-49.095
G0 X49.096 Y-50.300
G0 X49.096 Y-50.464
G1 F2220 X49.096 Y50.664 E563.54659
G0 F7500 X49.096 Y50.500
G0 X43.320 Y50.500
G0 X43.320 Y50.664
G1 F2220 X43.320 Y-50.464 E567.18761
G0 F7500 X43.320 Y-50.300
G0 X50.500 Y-43.319
G0 X50.664 Y-43.319
G1 F2220 X-50.563 Y-43.320 E570.83220
G0 F7500 X-50.400 Y-43.320
G0 X-43.320 Y-50.300
G0 X-43.320 Y-50.464
G1 F2220 X-43.320 Y50.664 E574.47322
G0 F7500 X-43.320 Y50.500
G0 X-50.400 Y43.319
G0 X-50.564 Y43.319
G1 F2220 X50.663 Y43.320 E578.11781
G0 F7500 X50.500 Y43.320
G0 X50.500 Y37.544
G0 X50.663 Y37.544
G1 F2220 X-50.564 Y37.543 E581.76240
G0 F7500 X-50.400 Y37.543
G0 X-50.400 Y31.767
G0 X-50.564 Y31.767
G1 F2220 X50.663 Y31.768 E585.40698
G0 F7500 X50.500 Y31.768
G0 X50.500 Y25.992
G0 X50.663 Y25.992
G1 F2220 X-50.564 Y25.991 E589.05157
G0 F7500 X-50.400 Y25.991
G0 X-50.400 Y20.215
G0 X-50.564 Y20.215
G1 F2220 X50.663 Y20.216 E592.69616
G0 F7500 X50.500 Y20.216
G0 X50.500 Y14.440
G0 X50.663 Y14.440
G1 F2220 X-50.564 Y14.439 E596.34074
G0 F7500 X-50.400 Y14.439
G0 X-50.400 Y8.663
G0 X-50.564 Y8.663
G1 F2220 X50.663 Y8.664 E599.98533
G0 F7500 X50.500 Y8.664
G0 X50.500 Y2.888
G0 X50.663 Y2.888
G1 F2220 X-50.564 Y2.887 E603.62992
G0 F7500 X-50.400 Y2.887
G0 X-50.400 Y-2.888
G0 X-50.563 Y-2.888
G1 F2220 X50.664 Y-2.887 E607.27450
G0 F7500 X50.500 Y-2.887
G0 X50.500 Y-8.663
G0 X50.664 Y-8.663
G1 F2220 X-50.563 Y-8.664 E610.91909
G0 F7500 X-50.400 Y-8.664
G0 X-50.400 Y-14.440
G0 X-50.563 Y-14.440
G1 F2220 X50.664 Y-14.439 E614.56367
G0 F7500 X50.500 Y-14.439
G0 X50.500 Y-20.215
G0 X50.664 Y-20.215
G1 F2220 X-50.563 Y-20.216 E618.20826
G0 F7500 X-50.400 Y-20.216
G0 X-50.400 Y-25.992
G0 X-50.563 Y-25.992
G1 F2220 X50.664 Y-25.991 E621.85285
G0 F7500 X50.500 Y-25.991
G0 X50.500 Y-31.767
G0 X50.664 Y-31.767
G1 F2220 X-50.563 Y-31.768 E625.49743
G0 F7500 X-50.400 Y-31.768
G0 X-50.400 Y-37.544
G0 X-50.563 Y-37.544
G1 F2220 X50.664 Y-37.543 E629.14202
G0 F7500 X50.500 Y-37.543
G0 X37.544 Y-50.300
G0 X37.544 Y-50.464
G1 F2220 X37.544 Y50.664 E632.78304
G0 F7500 X37.544 Y50.500
G0 X31.768 Y50.500
G0 X31.768 Y50.664
G1 F2220 X31.768 Y-50.464 E636.42407
G0 F7500 X31.768 Y-50.300
G0 X25.992 Y-50.300
G0 X25.992 Y-50.464
G1 F2220 X25.992 Y50.664 E640.06509
G0 F7500 X25.992 Y50.500
G0 X20.216 Y50.500
