;Generated with Cura_SteamEngine 15.04.6

;Layer count: 16
;LAYER:0
M107
G0 F7500 X-53.716 Y-13.616 Z0.300
;TYPE:SKIRT
G1 F1800 X53.816 Y-13.616 E5.80739
G1 X53.816 Y13.816 E7.28889
G1 X-53.716 Y13.816 E13.09627
G1 X-53.716 Y-13.616 E14.57777
G1 F2400 E13.57777
G0 F7500 X0.216 Y0.216
;TYPE:WALL-OUTER
G1 F2400 E14.57777
G1 F1800 X0.284 Y0.216 E14.58144
G1 X0.284 Y0.284 E14.58512
G1 X0.216 Y0.284 E14.58879
G1 X0.216 Y0.216 E14.59246
G0 F7500 X-0.700 Y-0.700
;TYPE:SUPPORT
G1 F1800 X-0.700 Y1.200 E14.69507
G1 X1.200 Y1.200 E14.79768
G1 X1.200 Y-0.700 E14.90030
G1 X-0.700 Y-0.700 E15.00291
G0 F7500 X-0.690 Y-0.800
G0 X-50.500 Y-10.400
G1 F1800 X50.600 Y-10.400 E20.46293
G1 X50.600 Y10.600 E21.59706
G1 X-50.500 Y10.600 E27.05708
G1 X-50.500 Y-10.400 E28.19121
G0 F7500 X-49.096 Y-10.464
G1 F1800 X-49.096 Y10.664 E29.33225
G0 F7500 X-49.096 Y10.500
G0 X-50.400 Y8.663
G0 X-50.564 Y8.663
G1 F1800 X50.663 Y8.664 E34.79913
G0 F7500 X50.500 Y8.664
G0 X49.096 Y10.500
G0 X49.096 Y10.664
G1 F1800 X49.096 Y-10.464 E35.94017
G0 F7500 X49.096 Y-10.300
G0 X50.500 Y-8.663
G0 X50.664 Y-8.663
G1 F1800 X-50.563 Y-8.664 E41.40705
G0 F7500 X-50.400 Y-8.664
G0 X-50.400 Y-2.888
G0 X-50.563 Y-2.888
G1 F1800 X50.664 Y-2.887 E46.87393
G0 F7500 X50.500 Y-2.887
G0 X50.500 Y2.888
G0 X50.663 Y2.888
G1 F1800 X-50.564 Y2.887 E52.34081
G0 F7500 X-50.400 Y2.887
G0 X-43.320 Y10.500
G0 X-43.320 Y10.664
G1 F1800 X-43.320 Y-10.464 E53.48185
G0 F7500 X-43.320 Y-10.300
G0 X-37.544 Y-10.300
G0 X-37.544 Y-10.464
G1 F1800 X-37.544 Y10.664 E54.62289
G0 F7500 X-37.544 Y10.500
G0 X-31.768 Y10.500
G0 X-31.768 Y10.664
G1 F1800 X-31.768 Y-10.464 E55.76394
G0 F7500 X-31.768 Y-10.300
G0 X-25.992 Y-10.300
G0 X-25.992 Y-10.464
G1 F1800 X-25.992 Y10.664 E56.90498
G0 F7500 X-25.992 Y10.500
G0 X-20.216 Y10.500
G0 X-20.216 Y10.664
G1 F1800 X-20.216 Y-10.464 E58.04602
G0 F7500 X-20.216 Y-10.300
G0 X-14.440 Y-10.300
G0 X-14.440 Y-10.464
G1 F1800 X-14.440 Y10.664 E59.18706
G0 F7500 X-14.440 Y10.500
G0 X-8.664 Y10.500
G0 X-8.664 Y10.664
G1 F1800 X-8.664 Y-10.464 E60.32810
G0 F7500 X-8.664 Y-10.300
G0 X-2.888 Y-10.300
G0 X-2.888 Y-10.464
G1 F1800 X-2.888 Y10.664 E61.46915
G0 F7500 X-2.888 Y10.500
G0 X2.888 Y10.500
G0 X2.888 Y10.664
G1 F1800 X2.888 Y-10.464 E62.61019
G0 F7500 X2.888 Y-10.300
G0 X8.664 Y-10.300
G0 X8.664 Y-10.464
G1 F1800 X8.664 Y10.664 E63.75123
G0 F7500 X8.664 Y10.500
G0 X14.440 Y10.500
G0 X14.440 Y10.664
G1 F1800 X14.440 Y-10.464 E64.89227
G0 F7500 X14.440 Y-10.300
G0 X20.216 Y-10.300
G0 X20.216 Y-10.464
G1 F1800 X20.216 Y10.664 E66.03331
G0 F7500 X20.216 Y10.500
G0 X25.992 Y10.500
G0 X25.992 Y10.664
G1 F1800 X25.992 Y-10.464 E67.17435
G0 F7500 X25.992 Y-10.300
G0 X31.768 Y-10.300
G0 X31.768 Y-10.464
G1 F1800 X31.768 Y10.664 E68.31540
G0 F7500 X31.768 Y10.500
G0 X37.544 Y10.500
G0 X37.544 Y10.664
G1 F1800 X37.544 Y-10.464 E69.45644
G0 F7500 X37.544 Y-10.300
G0 X43.320 Y-10.300
G0 X43.320 Y-10.464
G1 F1800 X43.320 Y10.664 E70.59748
;LAYER:1
M106 S63
G1 F2400 E69.59748
G0 F7500 X0.284 Y0.284 Z0.500
;TYPE:WALL-OUTER
G1 F2400 E70.59748
G1 F1980 X0.216 Y0.284 E70.59993
G1 X0.216 Y0.216 E70.60238
G1 X0.284 Y0.216 E70.60482
G1 X0.284 Y0.284 E70.60727
G0 F7500 X1.200 Y1.200
;TYPE:SUPPORT
G1 F1920 X1.200 Y-0.700 E70.67568
G1 X-0.700 Y-0.700 E70.74409
G1 X-0.700 Y1.200 E70.81250
G1 X1.200 Y1.200 E70.88090
G0 F7500 X1.190 Y1.300
G0 X50.500 Y10.590
G0 X50.600 Y10.600
G1 F1920 X-50.500 Y10.600 E74.52092
G1 X-50.500 Y-10.400 E75.27700
G1 X50.600 Y-10.400 E78.91702
G1 X50.600 Y10.600 E79.67310
G0 F7500 X50.500 Y10.590
G0 X49.096 Y10.500
G0 X49.096 Y10.664
G1 F1920 X49.096 Y-10.464 E80.43380
G0 F7500 X49.096 Y-10.300
G0 X50.500 Y-8.663
G0 X50.664 Y-8.663
G1 F1920 X-50.563 Y-8.664 E84.07839
G0 F7500 X-50.400 Y-8.664
G0 X-49.096 Y-10.300
G0 X-49.096 Y-10.464
G1 F1920 X-49.096 Y10.664 E84.83908
G0 F7500 X-49.096 Y10.500
G0 X-50.400 Y8.663
G0 X-50.564 Y8.663
G1 F1920 X50.663 Y8.664 E88.48367
G0 F7500 X50.500 Y8.664
G0 X50.500 Y2.888
G0 X50.663 Y2.888
G1 F1920 X-50.564 Y2.887 E92.12825
G0 F7500 X-50.400 Y2.887
G0 X-50.400 Y-2.888
G0 X-50.563 Y-2.888
G1 F1920 X50.664 Y-2.887 E95.77284
G0 F7500 X50.500 Y-2.887
G0 X43.320 Y-10.300
G0 X43.320 Y-10.464
G1 F1920 X43.320 Y10.664 E96.53353
G0 F7500 X43.320 Y10.500
G0 X37.544 Y10.500
G0 X37.544 Y10.664
G1 F1920 X37.544 Y-10.464 E97.29423
G0 F7500 X37.544 Y-10.300
G0 X31.768 Y-10.300
G0 X31.768 Y-10.464
G1 F1920 X31.768 Y10.664 E98.05492
G0 F7500 X31.768 Y10.500
G0 X25.992 Y10.500
G0 X25.992 Y10.664
G1 F1920 X25.992 Y-10.464 E98.81562
G0 F7500 X25.992 Y-10.300
G0 X20.216 Y-10.300
G0 X20.216 Y-10.464
G1 F1920 X20.216 Y10.664 E99.57631
G0 F7500 X20.216 Y10.500
G0 X14.440 Y10.500
G0 X14.440 Y10.664
G1 F1920 X14.440 Y-10.464 E100.33701
G0 F7500 X14.440 Y-10.300
G0 X8.664 Y-10.300
G0 X8.664 Y-10.464
G1 F1920 X8.664 Y10.664 E101.09770
G0 F7500 X8.664 Y10.500
G0 X2.888 Y10.500
G0 X2.888 Y10.664
G1 F1920 X2.888 Y-10.464 E101.85840
G0 F7500 X2.888 Y-10.300
G0 X-2.888 Y-10.300
G0 X-2.888 Y-10.464
G1 F1920 X-2.888 Y10.664 E102.61909
G0 F7500 X-2.888 Y10.500
G0 X-8.664 Y10.500
G0 X-8.664 Y10.664
G1 F1920 X-8.664 Y-10.464 E103.37979
G0 F7500 X-8.664 Y-10.300
G0 X-14.440 Y-10.300
G0 X-14.440 Y-10.464
G1 F1920 X-14.440 Y10.664 E104.14048
G0 F7500 X-14.440 Y10.500
G0 X-20.216 Y10.500
G0 X-20.216 Y10.664
G1 F1920 X-20.216 Y-10.464 E104.90117
G0 F7500 X-20.216 Y-10.300
G0 X-25.992 Y-10.300
G0 X-25.992 Y-10.464
G1 F1920 X-25.992 Y10.664 E105.66187
G0 F7500 X-25.992 Y10.500
G0 X-31.768 Y10.500
G0 X-31.768 Y10.664
G1 F1920 X-31.768 Y-10.464 E106.42256
G0 F7500 X-31.768 Y-10.300
G0 X-37.544 Y-10.300
G0 X-37.544 Y-10.464
G1 F1920 X-37.544 Y10.664 E107.18326
G0 F7500 X-37.544 Y10.500
G0 X-43.320 Y10.500
G0 X-43.320 Y10.664
G1 F1920 X-43.320 Y-10.464 E107.94395
;LAYER:2
M106 S127
G1 F2400 E106.94395
G0 F7500 X0.216 Y0.216 Z0.700
;TYPE:WALL-OUTER
G1 F2400 E107.94395
G1 F2220 X0.284 Y0.216 E107.94640
G1 X0.284 Y0.284 E107.94885
G1 X0.216 Y0.284 E107.95130
G1 X0.216 Y0.216 E107.95375
G0 F7500 X-0.700 Y-0.700
;TYPE:SUPPORT
G1 F2100 X-0.700 Y1.200 E108.02215
G1 X1.200 Y1.200 E108.09056
G1 X1.200 Y-0.700 E108.15897
G1 X-0.700 Y-0.700 E108.22738
G0 F7500 X-0.690 Y-0.800
G0 X-50.500 Y-10.400
G1 F2100 X50.600 Y-10.400 E111.86739
G1 X50.600 Y10.600 E112.62348
G1 X-50.500 Y10.600 E116.26349
G1 X-50.500 Y-10.400 E117.01958
G0 F7500 X-49.096 Y-10.464
G1 F2100 X-49.096 Y10.664 E117.78027
G0 F7500 X-49.096 Y10.500
G0 X-50.400 Y8.663
G0 X-50.564 Y8.663
G1 F2100 X50.663 Y8.664 E121.42486
G0 F7500 X50.500 Y8.664
G0 X49.096 Y10.500
G0 X49.096 Y10.664
G1 F2100 X49.096 Y-10.464 E122.18555
G0 F7500 X49.096 Y-10.300
G0 X50.500 Y-8.663
G0 X50.664 Y-8.663
G1 F2100 X-50.563 Y-8.664 E125.83014
G0 F7500 X-50.400 Y-8.664
G0 X-50.400 Y-2.888
G0 X-50.563 Y-2.888
G1 F2100 X50.664 Y-2.887 E129.47473
G0 F7500 X50.500 Y-2.887
G0 X50.500 Y2.888
G0 X50.663 Y2.888
G1 F2100 X-50.564 Y2.887 E133.11931
G0 F7500 X-50.400 Y2.887
G0 X-43.320 Y10.500
G0 X-43.320 Y10.664
G1 F2100 X-43.320 Y-10.464 E133.88001
G0 F7500 X-43.320 Y-10.300
G0 X-37.544 Y-10.300
G0 X-37.544 Y-10.464
G1 F2100 X-37.544 Y10.664 E134.64070
G0 F7500 X-37.544 Y10.500
G0 X-31.768 Y10.500
G0 X-31.768 Y10.664
G1 F2100 X-31.768 Y-10.464 E135.40140
G0 F7500 X-31.768 Y-10.300
G0 X-25.992 Y-10.300
G0 X-25.992 Y-10.464
G1 F2100 X-25.992 Y10.664 E136.16209
G0 F7500 X-25.992 Y10.500
G0 X-20.216 Y10.500
G0 X-20.216 Y10.664
G1 F2100 X-20.216 Y-10.464 E136.92279
G0 F7500 X-20.216 Y-10.300
G0 X-14.440 Y-10.300
G0 X-14.440 Y-10.464
G1 F2100 X-14.440 Y10.664 E137.68348
G0 F7500 X-14.440 Y10.500
G0 X-8.664 Y10.500
G0 X-8.664 Y10.664
G1 F2100 X-8.664 Y-10.464 E138.44417
G0 F7500 X-8.664 Y-10.300
G0 X-2.888 Y-10.300
G0 X-2.888 Y-10.464
G1 F2100 X-2.888 Y10.664 E139.20487
G0 F7500 X-2.888 Y10.500
G0 X2.888 Y10.500
G0 X2.888 Y10.664
G1 F2100 X2.888 Y-10.464 E139.96556
G0 F7500 X2.888 Y-10.300
G0 X8.664 Y-10.300
G0 X8.664 Y-10.464
G1 F2100 X8.664 Y10.664 E140.72626
G0 F7500 X8.664 Y10.500
G0 X14.440 Y10.500
G0 X14.440 Y10.664
G1 F2100 X14.440 Y-10.464 E141.48695
G0 F7500 X14.440 Y-10.300
G0 X20.216 Y-10.300
G0 X20.216 Y-10.464
G1 F2100 X20.216 Y10.664 E142.24765
G0 F7500 X20.216 Y10.500
G0 X25.992 Y10.500
G0 X25.992 Y10.664
G1 F2100 X25.992 Y-10.464 E143.00834
G0 F7500 X25.992 Y-10.300
G0 X31.768 Y-10.300
G0 X31.768 Y-10.464
G1 F2100 X31.768 Y10.664 E143.76904
G0 F7500 X31.768 Y10.500
G0 X37.544 Y10.500
G0 X37.544 Y10.664
G1 F2100 X37.544 Y-10.464 E144.52973
G0 F7500 X37.544 Y-10.300
G0 X43.320 Y-10.300
G0 X43.320 Y-10.464
G1 F2100 X43.320 Y10.664 E145.29043
;LAYER:3
G1 F2400 E144.29043
G0 F7500 X0.284 Y0.284 Z0.900
;TYPE:WALL-OUTER
G1 F2400 E145.29043
G1 X0.216 Y0.284 E145.29287
G1 X0.216 Y0.216 E145.29532
G1 X0.284 Y0.216 E145.29777
G1 X0.284 Y0.284 E145.30022
G0 F7500 X1.200 Y1.200
;TYPE:SUPPORT
G1 F2220 X1.200 Y-0.700 E145.36863
G1 X-0.700 Y-0.700 E145.43703
G1 X-0.700 Y1.200 E145.50544
G1 X1.200 Y1.200 E145.57385
G0 F7500 X1.190 Y1.300
G0 X50.500 Y10.590
G0 X50.600 Y10.600
G1 F2220 X-50.500 Y10.600 E149.21386
G1 X-50.500 Y-10.400 E149.96995
G1 X50.600 Y-10.400 E153.60996
G1 X50.600 Y10.600 E154.36605
G0 F7500 X50.500 Y10.590
G0 X49.096 Y10.500
G0 X49.096 Y10.664
G1 F2220 X49.096 Y-10.464 E155.12674
G0 F7500 X49.096 Y-10.300
G0 X50.500 Y-8.663
G0 X50.664 Y-8.663
G1 F2220 X-50.563 Y-8.664 E158.77133
G0 F7500 X-50.400 Y-8.664
G0 X-49.096 Y-10.300
G0 X-49.096 Y-10.464
G1 F2220 X-49.096 Y10.664 E159.53203
G0 F7500 X-49.096 Y10.500
G0 X-50.400 Y8.663
G0 X-50.564 Y8.663
G1 F2220 X50.663 Y8.664 E163.17661
G0 F7500 X50.500 Y8.664
G0 X50.500 Y2.888
G0 X50.663 Y2.888
G1 F2220 X-50.564 Y2.887 E166.82120
G0 F7500 X-50.400 Y2.887
G0 X-50.400 Y-2.888
G0 X-50.563 Y-2.888
G1 F2220 X50.664 Y-2.887 E170.46579
G0 F7500 X50.500 Y-2.887
G0 X43.320 Y-10.300
G0 X43.320 Y-10.464
G1 F2220 X43.320 Y10.664 E171.22648
G0 F7500 X43.320 Y10.500
G0 X37.544 Y10.500
G0 X37.544 Y10.664
G1 F2220 X37.544 Y-10.464 E171.98717
G0 F7500 X37.544 Y-10.300
G0 X31.768 Y-10.300
G0 X31.768 Y-10.464
G1 F2220 X31.768 Y10.664 E172.74787
G0 F7500 X31.768 Y10.500
G0 X25.992 Y10.500
G0 X25.992 Y10.664
G1 F2220 X25.992 Y-10.464 E173.50856
G0 F7500 X25.992 Y-10.300
G0 X20.216 Y-10.300
G0 X20.216 Y-10.464
G1 F2220 X20.216 Y10.664 E174.26926
G0 F7500 X20.216 Y10.500
G0 X14.440 Y10.500
G0 X14.440 Y10.664
G1 F2220 X14.440 Y-10.464 E175.02995
G0 F7500 X14.440 Y-10.300
G0 X8.664 Y-10.300
G0 X8.664 Y-10.464
G1 F2220 X8.664 Y10.664 E175.79065
G0 F7500 X8.664 Y10.500
G0 X2.888 Y10.500
G0 X2.888 Y10.664
G1 F2220 X2.888 Y-10.464 E176.55134
G0 F7500 X2.888 Y-10.300
G0 X-2.888 Y-10.300
G0 X-2.888 Y-10.464
G1 F2220 X-2.888 Y10.664 E177.31204
G0 F7500 X-2.888 Y10.500
G0 X-8.664 Y10.500
G0 X-8.664 Y10.664
G1 F2220 X-8.664 Y-10.464 E178.07273
G0 F7500 X-8.664 Y-10.300
G0 X-14.440 Y-10.300
G0 X-14.440 Y-10.464
G1 F2220 X-14.440 Y10.664 E178.83343
G0 F7500 X-14.440 Y10.500
G0 X-20.216 Y10.500
G0 X-20.216 Y10.664
G1 F2220 X-20.216 Y-10.464 E179.59412
G0 F7500 X-20.216 Y-10.300
G0 X-25.992 Y-10.300
G0 X-25.992 Y-10.464
G1 F2220 X-25.992 Y10.664 E180.35481
G0 F7500 X-25.992 Y10.500
G0 X-31.768 Y10.500
G0 X-31.768 Y10.664
G1 F2220 X-31.768 Y-10.464 E181.11551
G0 F7500 X-31.768 Y-10.300
G0 X-37.544 Y-10.300
G0 X-37.544 Y-10.464
G1 F2220 X-37.544 Y10.664 E181.87620
G0 F7500 X-37.544 Y10.500
G0 X-43.320 Y10.500
G0 X-43.320 Y10.664
G1 F2220 X-43.320 Y-10.464 E182.63690
;LAYER:4
G1 F2400 E181.63690
G0 F7500 X0.216 Y0.216 Z1.100
;TYPE:WALL-OUTER
G1 F2400 E182.63690
G1 F2700 X0.284 Y0.216 E182.63935
G1 X0.284 Y0.284 E182.64180
G1 X0.216 Y0.284 E182.64424
G1 X0.216 Y0.216 E182.64669
G0 F7500 X-0.700 Y-0.700
;TYPE:SUPPORT
G1 F2400 X-0.700 Y1.200 E182.71510
G1 X1.200 Y1.200 E182.78351
G1 X1.200 Y-0.700 E182.85192
G1 X-0.700 Y-0.700 E182.92032
G0 F7500 X-0.690 Y-0.800
G0 X-50.500 Y-10.400
G1 F2400 X50.600 Y-10.400 E186.56034
G1 X50.600 Y10.600 E187.31642
G1 X-50.500 Y10.600 E190.95644
G1 X-50.500 Y-10.400 E191.71252
G0 F7500 X-49.096 Y-10.464
G1 F2400 X-49.096 Y10.664 E192.47322
G0 F7500 X-49.096 Y10.500
G0 X-50.400 Y8.663
G0 X-50.564 Y8.663
G1 F2400 X50.663 Y8.664 E196.11780
G0 F7500 X50.500 Y8.664
G0 X49.096 Y10.500
G0 X49.096 Y10.664
G1 F2400 X49.096 Y-10.464 E196.87850
G0 F7500 X49.096 Y-10.300
G0 X50.500 Y-8.663
G0 X50.664 Y-8.663
G1 F2400 X-50.563 Y-8.664 E200.52309
G0 F7500 X-50.400 Y-8.664
G0 X-50.400 Y-2.888
G0 X-50.563 Y-2.888
G1 F2400 X50.664 Y-2.887 E204.16767
G0 F7500 X50.500 Y-2.887
G0 X50.500 Y2.888
G0 X50.663 Y2.888
G1 F2400 X-50.564 Y2.887 E207.81226
G0 F7500 X-50.400 Y2.887
G0 X-43.320 Y10.500
G0 X-43.320 Y10.664
G1 F2400 X-43.320 Y-10.464 E208.57295
G0 F7500 X-43.320 Y-10.300
G0 X-37.544 Y-10.300
G0 X-37.544 Y-10.464
G1 F2400 X-37.544 Y10.664 E209.33365
G0 F7500 X-37.544 Y10.500
G0 X-31.768 Y10.500
G0 X-31.768 Y10.664
G1 F2400 X-31.768 Y-10.464 E210.09434
G0 F7500 X-31.768 Y-10.300
G0 X-25.992 Y-10.300
G0 X-25.992 Y-10.464
G1 F2400 X-25.992 Y10.664 E210.85504
G0 F7500 X-25.992 Y10.500
G0 X-20.216 Y10.500
G0 X-20.216 Y10.664
G1 F2400 X-20.216 Y-10.464 E211.61573
G0 F7500 X-20.216 Y-10.300
G0 X-14.440 Y-10.300
G0 X-14.440 Y-10.464
G1 F2400 X-14.440 Y10.664 E212.37643
G0 F7500 X-14.440 Y10.500
G0 X-8.664 Y10.500
G0 X-8.664 Y10.664
G1 F2400 X-8.664 Y-10.464 E213.13712
G0 F7500 X-8.664 Y-10.300
G0 X-2.888 Y-10.300
G0 X-2.888 Y-10.464
G1 F2400 X-2.888 Y10.664 E213.89782
G0 F7500 X-2.888 Y10.500
G0 X2.888 Y10.500
G0 X2.888 Y10.664
G1 F2400 X2.888 Y-10.464 E214.65851
G0 F7500 X2.888 Y-10.300
G0 X8.664 Y-10.300
G0 X8.664 Y-10.464
G1 F2400 X8.664 Y10.664 E215.41920
G0 F7500 X8.664 Y10.500
G0 X14.440 Y10.500
G0 X14.440 Y10.664
G1 F2400 X14.440 Y-10.464 E216.17990
G0 F7500 X14.440 Y-10.300
G0 X20.216 Y-10.300
G0 X20.216 Y-10.464
G1 F2400 X20.216 Y10.664 E216.94059
G0 F7500 X20.216 Y10.500
G0 X25.992 Y10.500
G0 X25.992 Y10.664
G1 F2400 X25.992 Y-10.464 E217.70129
G0 F7500 X25.992 Y-10.300
G0 X31.768 Y-10.300
G0 X31.768 Y-10.464
G1 F2400 X31.768 Y10.664 E218.46198
G0 F7500 X31.768 Y10.500
G0 X37.544 Y10.500
G0 X37.544 Y10.664
G1 F2400 X37.544 Y-10.464 E219.22268
G0 F7500 X37.544 Y-10.300
G0 X43.320 Y-10.300
G0 X43.320 Y-10.464
G1 F2400 X43.320 Y10.664 E219.98337
;LAYER:5
G1 F2400 E218.98337
G0 F7500 X0.284 Y0.284 Z1.300
;TYPE:WALL-OUTER
G1 F2400 E219.98337
G1 F2700 X0.216 Y0.284 E219.98582
G1 X0.216 Y0.216 E219.98827
G1 X0.284 Y0.216 E219.99072
G1 X0.284 Y0.284 E219.99316
G0 F7500 X1.200 Y1.200
;TYPE:SUPPORT
G1 F2400 X1.200 Y-0.700 E220.06157
G1 X-0.700 Y-0.700 E220.12998
G1 X-0.700 Y1.200 E220.19839
G1 X1.200 Y1.200 E220.26680
G0 F7500 X1.190 Y1.300
G0 X50.500 Y10.590
G0 X50.600 Y10.600
G1 F2400 X-50.500 Y10.600 E223.90681
G1 X-50.500 Y-10.400 E224.66290
G1 X50.600 Y-10.400 E228.30291
G1 X50.600 Y10.600 E229.05900
G0 F7500 X50.500 Y10.590
G0 X49.096 Y10.500
G0 X49.096 Y10.664
G1 F2400 X49.096 Y-10.464 E229.81969
G0 F7500 X49.096 Y-10.300
G0 X50.500 Y-8.663
G0 X50.664 Y-8.663
G1 F2400 X-50.563 Y-8.664 E233.46428
G0 F7500 X-50.400 Y-8.664
G0 X-49.096 Y-10.300
G0 X-49.096 Y-10.464
G1 F2400 X-49.096 Y10.664 E234.22497
G0 F7500 X-49.096 Y10.500
G0 X-50.400 Y8.663
G0 X-50.564 Y8.663
G1 F2400 X50.663 Y8.664 E237.86956
G0 F7500 X50.500 Y8.664
G0 X50.500 Y2.888
G0 X50.663 Y2.888
G1 F2400 X-50.564 Y2.887 E241.51415
G0 F7500 X-50.400 Y2.887
G0 X-50.400 Y-2.888
G0 X-50.563 Y-2.888
G1 F2400 X50.664 Y-2.887 E245.15873
G0 F7500 X50.500 Y-2.887
G0 X43.320 Y-10.300
G0 X43.320 Y-10.464
G1 F2400 X43.320 Y10.664 E245.91943
G0 F7500 X43.320 Y10.500
G0 X37.544 Y10.500
G0 X37.544 Y10.664
G1 F2400 X37.544 Y-10.464 E246.68012
G0 F7500 X37.544 Y-10.300
G0 X31.768 Y-10.300
G0 X31.768 Y-10.464
G1 F2400 X31.768 Y10.664 E247.44082
G0 F7500 X31.768 Y10.500
G0 X25.992 Y10.500
G0 X25.992 Y10.664
G1 F2400 X25.992 Y-10.464 E248.20151
G0 F7500 X25.992 Y-10.300
G0 X20.216 Y-10.300
G0 X20.216 Y-10.464
G1 F2400 X20.216 Y10.664 E248.96220
G0 F7500 X20.216 Y10.500
G0 X14.440 Y10.500
G0 X14.440 Y10.664
G1 F2400 X14.440 Y-10.464 E249.72290
G0 F7500 X14.440 Y-10.300
G0 X8.664 Y-10.300
G0 X8.664 Y-10.464
G1 F2400 X8.664 Y10.664 E250.48359
G0 F7500 X8.664 Y10.500
G0 X2.888 Y10.500
G0 X2.888 Y10.664
G1 F2400 X2.888 Y-10.464 E251.24429
G0 F7500 X2.888 Y-10.300
