;Generated with Cura_SteamEngine 15.04.6

;Layer count: 16
;LAYER:0
M107
G0 F7500 X-53.716 Y-28.616 Z0.300
;TYPE:SKIRT
G1 F1800 X53.816 Y-28.616 E5.80739
G1 X53.816 Y28.816 E8.90907
G1 X-53.716 Y28.816 E14.71646
G1 X-53.716 Y-28.616 E17.81814
G1 F2400 E16.81814
G0 F7500 X0.216 Y0.216
;TYPE:WALL-OUTER
G1 F2400 E17.81814
G1 F1800 X0.284 Y0.216 E17.82181
G1 X0.284 Y0.284 E17.82548
G1 X0.216 Y0.284 E17.82916
G1 X0.216 Y0.216 E17.83283
G0 F7500 X-0.700 Y-0.700
;TYPE:SUPPORT
G1 F1800 X-0.700 Y1.200 E17.93544
G1 X1.200 Y1.200 E18.03805
G1 X1.200 Y-0.700 E18.14066
G1 X-0.700 Y-0.700 E18.24328
G0 F7500 X-0.690 Y-0.800
G0 X-50.500 Y-25.400
G1 F1800 X50.600 Y-25.400 E23.70330
G1 X50.600 Y25.600 E26.45761
G1 X-50.500 Y25.600 E31.91763
G1 X-50.500 Y-25.400 E34.67194
G0 F7500 X-49.096 Y-25.464
G1 F1800 X-49.096 Y25.664 E37.43317
G0 F7500 X-49.096 Y25.500
G0 X-50.400 Y20.215
G0 X-50.564 Y20.215
G1 F1800 X50.663 Y20.216 E42.90005
G0 F7500 X50.500 Y20.216
G0 X49.096 Y25.500
G0 X49.096 Y25.664
G1 F1800 X49.096 Y-25.464 E45.66128
G0 F7500 X49.096 Y-25.300
G0 X50.500 Y-20.215
G0 X50.664 Y-20.215
G1 F1800 X-50.563 Y-20.216 E51.12816
G0 F7500 X-50.400 Y-20.216
G0 X-43.320 Y-25.300
G0 X-43.320 Y-25.464
G1 F1800 X-43.320 Y25.664 E53.88938
G0 F7500 X-43.320 Y25.500
G0 X-37.544 Y25.500
G0 X-37.544 Y25.664
G1 F1800 X-37.544 Y-25.464 E56.65061
G0 F7500 X-37.544 Y-25.300
G0 X-31.768 Y-25.300
G0 X-31.768 Y-25.464
G1 F1800 X-31.768 Y25.664 E59.41184
G0 F7500 X-31.768 Y25.500
G0 X-25.992 Y25.500
G0 X-25.992 Y25.664
G1 F1800 X-25.992 Y-25.464 E62.17306
G0 F7500 X-25.992 Y-25.300
G0 X-20.216 Y-25.300
G0 X-20.216 Y-25.464
G1 F1800 X-20.216 Y25.664 E64.93429
G0 F7500 X-20.216 Y25.500
G0 X-14.440 Y25.500
G0 X-14.440 Y25.664
G1 F1800 X-14.440 Y-25.464 E67.69551
G0 F7500 X-14.440 Y-25.300
G0 X-8.664 Y-25.300
G0 X-8.664 Y-25.464
G1 F1800 X-8.664 Y25.664 E70.45674
G0 F7500 X-8.664 Y25.500
G0 X-2.888 Y25.500
G0 X-2.888 Y25.664
G1 F1800 X-2.888 Y-25.464 E73.21797
G0 F7500 X-2.888 Y-25.300
G0 X2.888 Y-25.300
G0 X2.888 Y-25.464
G1 F1800 X2.888 Y25.664 E75.97919
G0 F7500 X2.888 Y25.500
G0 X8.664 Y25.500
G0 X8.664 Y25.664
G1 F1800 X8.664 Y-25.464 E78.74042
G0 F7500 X8.664 Y-25.300
G0 X14.440 Y-25.300
G0 X14.440 Y-25.464
G1 F1800 X14.440 Y25.664 E81.50164
G0 F7500 X14.440 Y25.500
G0 X20.216 Y25.500
G0 X20.216 Y25.664
G1 F1800 X20.216 Y-25.464 E84.26287
G0 F7500 X20.216 Y-25.300
G0 X25.992 Y-25.300
G0 X25.992 Y-25.464
G1 F1800 X25.992 Y25.664 E87.02410
G0 F7500 X25.992 Y25.500
G0 X31.768 Y25.500
G0 X31.768 Y25.664
G1 F1800 X31.768 Y-25.464 E89.78532
G0 F7500 X31.768 Y-25.300
G0 X37.544 Y-25.300
G0 X37.544 Y-25.464
G1 F1800 X37.544 Y25.664 E92.54655
G0 F7500 X37.544 Y25.500
G0 X43.320 Y25.500
G0 X43.320 Y25.664
G1 F1800 X43.320 Y-25.464 E95.30778
G0 F7500 X43.320 Y-25.300
G0 X50.500 Y-14.439
G0 X50.664 Y-14.439
G1 F1800 X-50.563 Y-14.440 E100.77466
G0 F7500 X-50.400 Y-14.440
G0 X-50.400 Y-8.664
G0 X-50.563 Y-8.664
G1 F1800 X50.664 Y-8.663 E106.24154
G0 F7500 X50.500 Y-8.663
G0 X50.500 Y-2.887
G0 X50.664 Y-2.887
G1 F1800 X-50.563 Y-2.888 E111.70842
G0 F7500 X-50.400 Y-2.888
G0 X-50.400 Y2.887
G0 X-50.564 Y2.887
G1 F1800 X50.663 Y2.888 E117.17530
G0 F7500 X50.500 Y2.888
G0 X50.500 Y8.664
G0 X50.663 Y8.664
G1 F1800 X-50.564 Y8.663 E122.64218
G0 F7500 X-50.400 Y8.663
G0 X-50.400 Y14.439
G0 X-50.564 Y14.439
G1 F1800 X50.663 Y14.440 E128.10905
;LAYER:1
M106 S63
G1 F2400 E127.10905
G0 F7500 X0.284 Y0.284 Z0.500
;TYPE:WALL-OUTER
G1 F2400 E128.10905
G1 F1980 X0.216 Y0.284 E128.11150
G1 X0.216 Y0.216 E128.11395
G1 X0.284 Y0.216 E128.11640
G1 X0.284 Y0.284 E128.11885
G0 F7500 X1.200 Y1.200
;TYPE:SUPPORT
G1 F1920 X1.200 Y-0.700 E128.18726
G1 X-0.700 Y-0.700 E128.25566
G1 X-0.700 Y1.200 E128.32407
G1 X1.200 Y1.200 E128.39248
G0 F7500 X1.190 Y1.300
G0 X50.500 Y25.590
G0 X50.600 Y25.600
G1 F1920 X-50.500 Y25.600 E132.03249
G1 X-50.500 Y-25.400 E133.86870
G1 X50.600 Y-25.400 E137.50872
G1 X50.600 Y25.600 E139.34493
G0 F7500 X50.500 Y25.590
G0 X49.096 Y25.500
G0 X49.096 Y25.664
G1 F1920 X49.096 Y-25.464 E141.18574
G0 F7500 X49.096 Y-25.300
G0 X50.500 Y-20.215
G0 X50.664 Y-20.215
G1 F1920 X-50.563 Y-20.216 E144.83033
G0 F7500 X-50.400 Y-20.216
G0 X-49.096 Y-25.300
G0 X-49.096 Y-25.464
G1 F1920 X-49.096 Y25.664 E146.67115
G0 F7500 X-49.096 Y25.500
G0 X-50.400 Y20.215
G0 X-50.564 Y20.215
G1 F1920 X50.663 Y20.216 E150.31573
G0 F7500 X50.500 Y20.216
G0 X43.320 Y25.500
G0 X43.320 Y25.664
G1 F1920 X43.320 Y-25.464 E152.15655
G0 F7500 X43.320 Y-25.300
G0 X37.544 Y-25.300
G0 X37.544 Y-25.464
G1 F1920 X37.544 Y25.664 E153.99737
G0 F7500 X37.544 Y25.500
G0 X31.768 Y25.500
G0 X31.768 Y25.664
G1 F1920 X31.768 Y-25.464 E155.83819
G0 F7500 X31.768 Y-25.300
G0 X25.992 Y-25.300
G0 X25.992 Y-25.464
G1 F1920 X25.992 Y25.664 E157.67900
G0 F7500 X25.992 Y25.500
G0 X20.216 Y25.500
G0 X20.216 Y25.664
G1 F1920 X20.216 Y-25.464 E159.51982
G0 F7500 X20.216 Y-25.300
G0 X14.440 Y-25.300
G0 X14.440 Y-25.464
G1 F1920 X14.440 Y25.664 E161.36064
G0 F7500 X14.440 Y25.500
G0 X8.664 Y25.500
G0 X8.664 Y25.664
G1 F1920 X8.664 Y-25.464 E163.20146
G0 F7500 X8.664 Y-25.300
G0 X2.888 Y-25.300
G0 X2.888 Y-25.464
G1 F1920 X2.888 Y25.664 E165.04227
G0 F7500 X2.888 Y25.500
G0 X-2.888 Y25.500
G0 X-2.888 Y25.664
G1 F1920 X-2.888 Y-25.464 E166.88309
G0 F7500 X-2.888 Y-25.300
G0 X-8.664 Y-25.300
G0 X-8.664 Y-25.464
G1 F1920 X-8.664 Y25.664 E168.72391
G0 F7500 X-8.664 Y25.500
G0 X-14.440 Y25.500
G0 X-14.440 Y25.664
G1 F1920 X-14.440 Y-25.464 E170.56473
G0 F7500 X-14.440 Y-25.300
G0 X-20.216 Y-25.300
G0 X-20.216 Y-25.464
G1 F1920 X-20.216 Y25.664 E172.40554
G0 F7500 X-20.216 Y25.500
G0 X-25.992 Y25.500
G0 X-25.992 Y25.664
G1 F1920 X-25.992 Y-25.464 E174.24636
G0 F7500 X-25.992 Y-25.300
G0 X-31.768 Y-25.300
G0 X-31.768 Y-25.464
G1 F1920 X-31.768 Y25.664 E176.08718
G0 F7500 X-31.768 Y25.500
G0 X-37.544 Y25.500
G0 X-37.544 Y25.664
G1 F1920 X-37.544 Y-25.464 E177.92799
G0 F7500 X-37.544 Y-25.300
G0 X-43.320 Y-25.300
G0 X-43.320 Y-25.464
G1 F1920 X-43.320 Y25.664 E179.76881
G0 F7500 X-43.320 Y25.500
G0 X-50.400 Y14.439
G0 X-50.564 Y14.439
G1 F1920 X50.663 Y14.440 E183.41340
G0 F7500 X50.500 Y14.440
G0 X50.500 Y8.664
G0 X50.663 Y8.664
G1 F1920 X-50.564 Y8.663 E187.05799
G0 F7500 X-50.400 Y8.663
G0 X-50.400 Y2.887
G0 X-50.564 Y2.887
G1 F1920 X50.663 Y2.888 E190.70257
G0 F7500 X50.500 Y2.888
G0 X50.500 Y-2.887
G0 X50.664 Y-2.887
G1 F1920 X-50.563 Y-2.888 E194.34716
G0 F7500 X-50.400 Y-2.888
G0 X-50.400 Y-8.664
G0 X-50.563 Y-8.664
G1 F1920 X50.664 Y-8.663 E197.99175
G0 F7500 X50.500 Y-8.663
G0 X50.500 Y-14.439
G0 X50.664 Y-14.439
G1 F1920 X-50.563 Y-14.440 E201.63633
;LAYER:2
M106 S127
G1 F2400 E200.63633
G0 F7500 X0.216 Y0.216 Z0.700
;TYPE:WALL-OUTER
G1 F2400 E201.63633
G1 F2220 X0.284 Y0.216 E201.63878
G1 X0.284 Y0.284 E201.64123
G1 X0.216 Y0.284 E201.64368
G1 X0.216 Y0.216 E201.64613
G0 F7500 X-0.700 Y-0.700
;TYPE:SUPPORT
G1 F2100 X-0.700 Y1.200 E201.71453
G1 X1.200 Y1.200 E201.78294
G1 X1.200 Y-0.700 E201.85135
G1 X-0.700 Y-0.700 E201.91976
G0 F7500 X-0.690 Y-0.800
G0 X-50.500 Y-25.400
G1 F2100 X50.600 Y-25.400 E205.55977
G1 X50.600 Y25.600 E207.39598
G1 X-50.500 Y25.600 E211.03599
G1 X-50.500 Y-25.400 E212.87220
G0 F7500 X-49.096 Y-25.464
G1 F2100 X-49.096 Y25.664 E214.71302
G0 F7500 X-49.096 Y25.500
G0 X-50.400 Y20.215
G0 X-50.564 Y20.215
G1 F2100 X50.663 Y20.216 E218.35761
G0 F7500 X50.500 Y20.216
G0 X49.096 Y25.500
G0 X49.096 Y25.664
G1 F2100 X49.096 Y-25.464 E220.19842
G0 F7500 X49.096 Y-25.300
G0 X50.500 Y-20.215
G0 X50.664 Y-20.215
G1 F2100 X-50.563 Y-20.216 E223.84301
G0 F7500 X-50.400 Y-20.216
G0 X-43.320 Y-25.300
G0 X-43.320 Y-25.464
G1 F2100 X-43.320 Y25.664 E225.68383
G0 F7500 X-43.320 Y25.500
G0 X-37.544 Y25.500
G0 X-37.544 Y25.664
G1 F2100 X-37.544 Y-25.464 E227.52465
G0 F7500 X-37.544 Y-25.300
G0 X-31.768 Y-25.300
G0 X-31.768 Y-25.464
G1 F2100 X-31.768 Y25.664 E229.36546
G0 F7500 X-31.768 Y25.500
G0 X-25.992 Y25.500
G0 X-25.992 Y25.664
G1 F2100 X-25.992 Y-25.464 E231.20628
G0 F7500 X-25.992 Y-25.300
G0 X-20.216 Y-25.300
G0 X-20.216 Y-25.464
G1 F2100 X-20.216 Y25.664 E233.04710
G0 F7500 X-20.216 Y25.500
G0 X-14.440 Y25.500
G0 X-14.440 Y25.664
G1 F2100 X-14.440 Y-25.464 E234.88792
G0 F7500 X-14.440 Y-25.300
G0 X-8.664 Y-25.300
G0 X-8.664 Y-25.464
G1 F2100 X-8.664 Y25.664 E236.72873
G0 F7500 X-8.664 Y25.500
G0 X-2.888 Y25.500
G0 X-2.888 Y25.664
G1 F2100 X-2.888 Y-25.464 E238.56955
G0 F7500 X-2.888 Y-25.300
G0 X2.888 Y-25.300
G0 X2.888 Y-25.464
G1 F2100 X2.888 Y25.664 E240.41037
G0 F7500 X2.888 Y25.500
G0 X8.664 Y25.500
G0 X8.664 Y25.664
G1 F2100 X8.664 Y-25.464 E242.25118
G0 F7500 X8.664 Y-25.300
G0 X14.440 Y-25.300
G0 X14.440 Y-25.464
G1 F2100 X14.440 Y25.664 E244.09200
G0 F7500 X14.440 Y25.500
G0 X20.216 Y25.500
G0 X20.216 Y25.664
G1 F2100 X20.216 Y-25.464 E245.93282
G0 F7500 X20.216 Y-25.300
G0 X25.992 Y-25.300
G0 X25.992 Y-25.464
G1 F2100 X25.992 Y25.664 E247.77364
G0 F7500 X25.992 Y25.500
G0 X31.768 Y25.500
G0 X31.768 Y25.664
G1 F2100 X31.768 Y-25.464 E249.61445
G0 F7500 X31.768 Y-25.300
G0 X37.544 Y-25.300
G0 X37.544 Y-25.464
G1 F2100 X37.544 Y25.664 E251.45527
G0 F7500 X37.544 Y25.500
G0 X43.320 Y25.500
G0 X43.320 Y25.664
G1 F2100 X43.320 Y-25.464 E253.29609
G0 F7500 X43.320 Y-25.300
G0 X50.500 Y-14.439
G0 X50.664 Y-14.439
G1 F2100 X-50.563 Y-14.440 E256.94068
G0 F7500 X-50.400 Y-14.440
G0 X-50.400 Y-8.664
G0 X-50.563 Y-8.664
G1 F2100 X50.664 Y-8.663 E260.58526
G0 F7500 X50.500 Y-8.663
G0 X50.500 Y-2.887
G0 X50.664 Y-2.887
G1 F2100 X-50.563 Y-2.888 E264.22985
G0 F7500 X-50.400 Y-2.888
G0 X-50.400 Y2.887
G0 X-50.564 Y2.887
G1 F2100 X50.663 Y2.888 E267.87444
G0 F7500 X50.500 Y2.888
G0 X50.500 Y8.664
G0 X50.663 Y8.664
G1 F2100 X-50.564 Y8.663 E271.51902
G0 F7500 X-50.400 Y8.663
G0 X-50.400 Y14.439
G0 X-50.564 Y14.439
G1 F2100 X50.663 Y14.440 E275.16361
;LAYER:3
G1 F2400 E274.16361
G0 F7500 X0.284 Y0.284 Z0.900
;TYPE:WALL-OUTER
G1 F2400 E275.16361
G1 X0.216 Y0.284 E275.16606
G1 X0.216 Y0.216 E275.16851
G1 X0.284 Y0.216 E275.17095
G1 X0.284 Y0.284 E275.17340
G0 F7500 X1.200 Y1.200
;TYPE:SUPPORT
G1 F2220 X1.200 Y-0.700 E275.24181
G1 X-0.700 Y-0.700 E275.31022
G1 X-0.700 Y1.200 E275.37863
G1 X1.200 Y1.200 E275.44703
G0 F7500 X1.190 Y1.300
G0 X50.500 Y25.590
G0 X50.600 Y25.600
G1 F2220 X-50.500 Y25.600 E279.08705
G1 X-50.500 Y-25.400 E280.92326
G1 X50.600 Y-25.400 E284.56327
G1 X50.600 Y25.600 E286.39948
G0 F7500 X50.500 Y25.590
G0 X49.096 Y25.500
G0 X49.096 Y25.664
G1 F2220 X49.096 Y-25.464 E288.24030
G0 F7500 X49.096 Y-25.300
G0 X50.500 Y-20.215
G0 X50.664 Y-20.215
G1 F2220 X-50.563 Y-20.216 E291.88488
G0 F7500 X-50.400 Y-20.216
G0 X-49.096 Y-25.300
G0 X-49.096 Y-25.464
G1 F2220 X-49.096 Y25.664 E293.72570
G0 F7500 X-49.096 Y25.500
G0 X-50.400 Y20.215
G0 X-50.564 Y20.215
G1 F2220 X50.663 Y20.216 E297.37029
G0 F7500 X50.500 Y20.216
G0 X43.320 Y25.500
G0 X43.320 Y25.664
G1 F2220 X43.320 Y-25.464 E299.21111
G0 F7500 X43.320 Y-25.300
G0 X37.544 Y-25.300
G0 X37.544 Y-25.464
G1 F2220 X37.544 Y25.664 E301.05192
G0 F7500 X37.544 Y25.500
G0 X31.768 Y25.500
G0 X31.768 Y25.664
G1 F2220 X31.768 Y-25.464 E302.89274
G0 F7500 X31.768 Y-25.300
G0 X25.992 Y-25.300
G0 X25.992 Y-25.464
G1 F2220 X25.992 Y25.664 E304.73356
G0 F7500 X25.992 Y25.500
G0 X20.216 Y25.500
G0 X20.216 Y25.664
G1 F2220 X20.216 Y-25.464 E306.57437
G0 F7500 X20.216 Y-25.300
G0 X14.440 Y-25.300
G0 X14.440 Y-25.464
G1 F2220 X14.440 Y25.664 E308.41519
G0 F7500 X14.440 Y25.500
G0 X8.664 Y25.500
G0 X8.664 Y25.664
G1 F2220 X8.664 Y-25.464 E310.25601
G0 F7500 X8.664 Y-25.300
G0 X2.888 Y-25.300
G0 X2.888 Y-25.464
G1 F2220 X2.888 Y25.664 E312.09683
G0 F7500 X2.888 Y25.500
G0 X-2.888 Y25.500
G0 X-2.888 Y25.664
G1 F2220 X-2.888 Y-25.464 E313.93764
G0 F7500 X-2.888 Y-25.300
G0 X-8.664 Y-25.300
G0 X-8.664 Y-25.464
G1 F2220 X-8.664 Y25.664 E315.77846
G0 F7500 X-8.664 Y25.500
G0 X-14.440 Y25.500
G0 X-14.440 Y25.664
G1 F2220 X-14.440 Y-25.464 E317.61928
G0 F7500 X-14.440 Y-25.300
G0 X-20.216 Y-25.300
G0 X-20.216 Y-25.464
G1 F2220 X-20.216 Y25.664 E319.46010
G0 F7500 X-20.216 Y25.500
G0 X-25.992 Y25.500
G0 X-25.992 Y25.664
G1 F2220 X-25.992 Y-25.464 E321.30091
G0 F7500 X-25.992 Y-25.300
G0 X-31.768 Y-25.300
G0 X-31.768 Y-25.464
G1 F2220 X-31.768 Y25.664 E323.14173
G0 F7500 X-31.768 Y25.500
G0 X-37.544 Y25.500
G0 X-37.544 Y25.664
G1 F2220 X-37.544 Y-25.464 E324.98255
G0 F7500 X-37.544 Y-25.300
G0 X-43.320 Y-25.300
G0 X-43.320 Y-25.464
G1 F2220 X-43.320 Y25.664 E326.82337
G0 F7500 X-43.320 Y25.500
G0 X-50.400 Y14.439
G0 X-50.564 Y14.439
G1 F2220 X50.663 Y14.440 E330.46795
G0 F7500 X50.500 Y14.440
G0 X50.500 Y8.664
G0 X50.663 Y8.664
G1 F2220 X-50.564 Y8.663 E334.11254
G0 F7500 X-50.400 Y8.663
G0 X-50.400 Y2.887
G0 X-50.564 Y2.887
G1 F2220 X50.663 Y2.888 E337.75713
G0 F7500 X50.500 Y2.888
G0 X50.500 Y-2.887
G0 X50.664 Y-2.887
G1 F2220 X-50.563 Y-2.888 E341.40171
G0 F7500 X-50.400 Y-2.888
G0 X-50.400 Y-8.664
G0 X-50.563 Y-8.664
G1 F2220 X50.664 Y-8.663 E345.04630
G0 F7500 X50.500 Y-8.663
G0 X50.500 Y-14.439
G0 X50.664 Y-14.439
G1 F2220 X-50.563 Y-14.440 E348.69089
;LAYER:4
G1 F2400 E347.69089
G0 F7500 X0.216 Y0.216 Z1.100
;TYPE:WALL-OUTER
G1 F2400 E348.69089
G1 F2700 X0.284 Y0.216 E348.69333
G1 X0.284 Y0.284 E348.69578
G1 X0.216 Y0.284 E348.69823
G1 X0.216 Y0.216 E348.70068
G0 F7500 X-0.700 Y-0.700
;TYPE:SUPPORT
G1 F2400 X-0.700 Y1.200 E348.76909
G1 X1.200 Y1.200 E348.83750
G1 X1.200 Y-0.700 E348.90590
G1 X-0.700 Y-0.700 E348.97431
G0 F7500 X-0.690 Y-0.800
G0 X-50.500 Y-25.400
G1 F2400 X50.600 Y-25.400 E352.61432
G1 X50.600 Y25.600 E354.45053
G1 X-50.500 Y25.600 E358.09055
G1 X-50.500 Y-25.400 E359.92676
G0 F7500 X-49.096 Y-25.464
G1 F2400 X-49.096 Y25.664 E361.76757
G0 F7500 X-49.096 Y25.500
G0 X-50.400 Y20.215
G0 X-50.564 Y20.215
G1 F2400 X50.663 Y20.216 E365.41216
G0 F7500 X50.500 Y20.216
G0 X49.096 Y25.500
G0 X49.096 Y25.664
G1 F2400 X49.096 Y-25.464 E367.25298
G0 F7500 X49.096 Y-25.300
G0 X50.500 Y-20.215
G0 X50.664 Y-20.215
G1 F2400 X-50.563 Y-20.216 E370.89757
G0 F7500 X-50.400 Y-20.216
G0 X-43.320 Y-25.300
G0 X-43.320 Y-25.464
G1 F2400 X-43.320 Y25.664 E372.73838
G0 F7500 X-43.320 Y25.500
G0 X-37.544 Y25.500
G0 X-37.544 Y25.664
G1 F2400 X-37.544 Y-25.464 E374.57920
G0 F7500 X-37.544 Y-25.300
G0 X-31.768 Y-25.300
G0 X-31.768 Y-25.464
G1 F2400 X-31.768 Y25.664 E376.42002
G0 F7500 X-31.768 Y25.500
G0 X-25.992 Y25.500
G0 X-25.992 Y25.664
G1 F2400 X-25.992 Y-25.464 E378.26083
G0 F7500 X-25.992 Y-25.300
G0 X-20.216 Y-25.300
G0 X-20.216 Y-25.464
G1 F2400 X-20.216 Y25.664 E380.10165
G0 F7500 X-20.216 Y25.500
G0 X-14.440 Y25.500
G0 X-14.440 Y25.664
G1 F2400 X-14.440 Y-25.464 E381.94247
G0 F7500 X-14.440 Y-25.300
G0 X-8.664 Y-25.300
G0 X-8.664 Y-25.464
G1 F2400 X-8.664 Y25.664 E383.78329
G0 F7500 X-8.664 Y25.500
G0 X-2.888 Y25.500
G0 X-2.888 Y25.664
G1 F2400 X-2.888 Y-25.464 E385.62410
G0 F7500 X-2.888 Y-25.300
G0 X2.888 Y-25.300
G0 X2.888 Y-25.464
G1 F2400 X2.888 Y25.664 E387.46492
G0 F7500 X2.888 Y25.500
G0 X8.664 Y25.500
G0 X8.664 Y25.664
G1 F2400 X8.664 Y-25.464 E389.30574
G0 F7500 X8.664 Y-25.300
G0 X14.440 Y-25.300
G0 X14.440 Y-25.464
G1 F2400 X14.440 Y25.664 E391.14656
G0 F7500 X14.440 Y25.500
G0 X20.216 Y25.500
G0 X20.216 Y25.664
G1 F2400 X20.216 Y-25.464 E392.98737
G0 F7500 X20.216 Y-25.300
G0 X25.992 Y-25.300
G0 X25.992 Y-25.464
G1 F2400 X25.992 Y25.664 E394.82819
G0 F7500 X25.992 Y25.500
G0 X31.768 Y25.500
G0 X31.768 Y25.664
G1 F2400 X31.768 Y-25.464 E396.66901
G0 F7500 X31.768 Y-25.300
G0 X37.544 Y-25.300
G0 X37.544 Y-25.464
G1 F2400 X37.544 Y25.664 E398.50983
G0 F7500 X37.544 Y25.500
G0 X43.320 Y25.500
G0 X43.320 Y25.664
G1 F2400 X43.320 Y-25.464 E400.35064
G0 F7500 X43.320 Y-25.300
G0 X50.500 Y-14.439
G0 X50.664 Y-14.439
G1 F2400 X-50.563 Y-14.440 E403.99523
G0 F7500 X-50.400 Y-14.440
G0 X-50.400 Y-8.664
G0 X-50.563 Y-8.664
G1 F2400 X50.664 Y-8.663 E407.63982
G0 F7500 X50.500 Y-8.663
G0 X50.500 Y-2.887
G0 X50.664 Y-2.887
G1 F2400 X-50.563 Y-2.888 E411.28440
G0 F7500 X-50.400 Y-2.888
G0 X-50.400 Y2.887
G0 X-50.564 Y2.887
G1 F2400 X50.663 Y2.888 E414.92899
G0 F7500 X50.500 Y2.888
G0 X50.500 Y8.664
G0 X50.663 Y8.664
G1 F2400 X-50.564 Y8.663 E418.57358
