;Generated with Cura_SteamEngine 15.04.6

;Layer count: 16
;LAYER:0
M107
G0 F7500 X-53.716 Y-33.616 Z0.300
;TYPE:SKIRT
G1 F1800 X53.816 Y-33.616 E5.80739
G1 X53.816 Y33.816 E9.44913
G1 X-53.716 Y33.816 E15.25652
G1 X-53.716 Y-33.616 E18.89826
G1 F2400 E17.89826
G0 F7500 X0.216 Y0.216
;TYPE:WALL-OUTER
G1 F2400 E18.89826
G1 F1800 X0.284 Y0.216 E18.90193
G1 X0.284 Y0.284 E18.90561
G1 X0.216 Y0.284 E18.90928
G1 X0.216 Y0.216 E18.91295
G0 F7500 X-0.700 Y-0.700
;TYPE:SUPPORT
G1 F1800 X-0.700 Y1.200 E19.01556
G1 X1.200 Y1.200 E19.11818
G1 X1.200 Y-0.700 E19.22079
G1 X-0.700 Y-0.700 E19.32340
G0 F7500 X-0.690 Y-0.800
G0 X-50.500 Y-30.400
G1 F1800 X50.600 Y-30.400 E24.78342
G1 X50.600 Y30.600 E28.07779
G1 X-50.500 Y30.600 E33.53782
G1 X-50.500 Y-30.400 E36.83219
G0 F7500 X-49.096 Y-30.464
G1 F1800 X-49.096 Y30.664 E40.13348
G0 F7500 X-49.096 Y30.500
G0 X-50.400 Y25.991
G0 X-50.564 Y25.991
G1 F1800 X50.663 Y25.992 E45.60036
G0 F7500 X50.500 Y25.992
G0 X49.096 Y30.500
G0 X49.096 Y30.664
G1 F1800 X49.096 Y-30.464 E48.90165
G0 F7500 X49.096 Y-30.300
G0 X50.500 Y-25.991
G0 X50.664 Y-25.991
G1 F1800 X-50.563 Y-25.992 E54.36853
G0 F7500 X-50.400 Y-25.992
G0 X-50.400 Y-20.216
G0 X-50.563 Y-20.216
G1 F1800 X50.664 Y-20.215 E59.83541
G0 F7500 X50.500 Y-20.215
G0 X43.320 Y-30.300
G0 X43.320 Y-30.464
G1 F1800 X43.320 Y30.664 E63.13669
G0 F7500 X43.320 Y30.500
G0 X50.500 Y20.216
G0 X50.663 Y20.216
G1 F1800 X-50.564 Y20.215 E68.60357
G0 F7500 X-50.400 Y20.215
G0 X-43.320 Y30.500
G0 X-43.320 Y30.664
G1 F1800 X-43.320 Y-30.464 E71.90486
G0 F7500 X-43.320 Y-30.300
G0 X-37.544 Y-30.300
G0 X-37.544 Y-30.464
G1 F1800 X-37.544 Y30.664 E75.20615
G0 F7500 X-37.544 Y30.500
G0 X-31.768 Y30.500
G0 X-31.768 Y30.664
G1 F1800 X-31.768 Y-30.464 E78.50744
G0 F7500 X-31.768 Y-30.300
G0 X-25.992 Y-30.300
G0 X-25.992 Y-30.464
G1 F1800 X-25.992 Y30.664 E81.80872
G0 F7500 X-25.992 Y30.500
G0 X-20.216 Y30.500
G0 X-20.216 Y30.664
G1 F1800 X-20.216 Y-30.464 E85.11001
G0 F7500 X-20.216 Y-30.300
G0 X-14.440 Y-30.300
G0 X-14.440 Y-30.464
G1 F1800 X-14.440 Y30.664 E88.41130
G0 F7500 X-14.440 Y30.500
G0 X-8.664 Y30.500
G0 X-8.664 Y30.664
G1 F1800 X-8.664 Y-30.464 E91.71259
G0 F7500 X-8.664 Y-30.300
G0 X-2.888 Y-30.300
G0 X-2.888 Y-30.464
G1 F1800 X-2.888 Y30.664 E95.01387
G0 F7500 X-2.888 Y30.500
G0 X2.888 Y30.500
G0 X2.888 Y30.664
G1 F1800 X2.888 Y-30.464 E98.31516
G0 F7500 X2.888 Y-30.300
G0 X8.664 Y-30.300
G0 X8.664 Y-30.464
G1 F1800 X8.664 Y30.664 E101.61645
G0 F7500 X8.664 Y30.500
G0 X14.440 Y30.500
G0 X14.440 Y30.664
G1 F1800 X14.440 Y-30.464 E104.91774
G0 F7500 X14.440 Y-30.300
G0 X20.216 Y-30.300
G0 X20.216 Y-30.464
G1 F1800 X20.216 Y30.664 E108.21902
G0 F7500 X20.216 Y30.500
G0 X25.992 Y30.500
G0 X25.992 Y30.664
G1 F1800 X25.992 Y-30.464 E111.52031
G0 F7500 X25.992 Y-30.300
G0 X31.768 Y-30.300
G0 X31.768 Y-30.464
G1 F1800 X31.768 Y30.664 E114.82160
G0 F7500 X31.768 Y30.500
G0 X37.544 Y30.500
G0 X37.544 Y30.664
G1 F1800 X37.544 Y-30.464 E118.12289
G0 F7500 X37.544 Y-30.300
G0 X50.500 Y-14.439
G0 X50.664 Y-14.439
G1 F1800 X-50.563 Y-14.440 E123.58977
G0 F7500 X-50.400 Y-14.440
G0 X-50.400 Y-8.664
G0 X-50.563 Y-8.664
G1 F1800 X50.664 Y-8.663 E129.05665
G0 F7500 X50.500 Y-8.663
G0 X50.500 Y-2.887
G0 X50.664 Y-2.887
G1 F1800 X-50.563 Y-2.888 E134.52353
G0 F7500 X-50.400 Y-2.888
G0 X-50.400 Y2.887
G0 X-50.564 Y2.887
G1 F1800 X50.663 Y2.888 E139.99041
G0 F7500 X50.500 Y2.888
G0 X50.500 Y8.664
G0 X50.663 Y8.664
G1 F1800 X-50.564 Y8.663 E145.45729
G0 F7500 X-50.400 Y8.663
G0 X-50.400 Y14.439
G0 X-50.564 Y14.439
G1 F1800 X50.663 Y14.440 E150.92417
;LAYER:1
M106 S63
G1 F2400 E149.92417
G0 F7500 X0.284 Y0.284 Z0.500
;TYPE:WALL-OUTER
G1 F2400 E150.92417
G1 F1980 X0.216 Y0.284 E150.92661
G1 X0.216 Y0.216 E150.92906
G1 X0.284 Y0.216 E150.93151
G1 X0.284 Y0.284 E150.93396
G0 F7500 X1.200 Y1.200
;TYPE:SUPPORT
G1 F1920 X1.200 Y-0.700 E151.00237
G1 X-0.700 Y-0.700 E151.07078
G1 X-0.700 Y1.200 E151.13918
G1 X1.200 Y1.200 E151.20759
G0 F7500 X1.190 Y1.300
G0 X50.500 Y30.590
G0 X50.600 Y30.600
G1 F1920 X-50.500 Y30.600 E154.84761
G1 X-50.500 Y-30.400 E157.04385
G1 X50.600 Y-30.400 E160.68387
G1 X50.600 Y30.600 E162.88012
G0 F7500 X50.500 Y30.590
G0 X49.096 Y30.500
G0 X49.096 Y30.664
G1 F1920 X49.096 Y-30.464 E165.08098
G0 F7500 X49.096 Y-30.300
G0 X50.500 Y-25.991
G0 X50.664 Y-25.991
G1 F1920 X-50.563 Y-25.992 E168.72556
G0 F7500 X-50.400 Y-25.992
G0 X-49.096 Y-30.300
G0 X-49.096 Y-30.464
G1 F1920 X-49.096 Y30.664 E170.92642
G0 F7500 X-49.096 Y30.500
G0 X-50.400 Y25.991
G0 X-50.564 Y25.991
G1 F1920 X50.663 Y25.992 E174.57101
G0 F7500 X50.500 Y25.992
G0 X50.500 Y20.216
G0 X50.663 Y20.216
G1 F1920 X-50.564 Y20.215 E178.21560
G0 F7500 X-50.400 Y20.215
G0 X-43.320 Y30.500
G0 X-43.320 Y30.664
G1 F1920 X-43.320 Y-30.464 E180.41645
G0 F7500 X-43.320 Y-30.300
G0 X-50.400 Y-20.216
G0 X-50.563 Y-20.216
G1 F1920 X50.664 Y-20.215 E184.06104
G0 F7500 X50.500 Y-20.215
G0 X43.320 Y-30.300
G0 X43.320 Y-30.464
G1 F1920 X43.320 Y30.664 E186.26190
G0 F7500 X43.320 Y30.500
G0 X37.544 Y30.500
G0 X37.544 Y30.664
G1 F1920 X37.544 Y-30.464 E188.46276
G0 F7500 X37.544 Y-30.300
G0 X31.768 Y-30.300
G0 X31.768 Y-30.464
G1 F1920 X31.768 Y30.664 E190.66362
G0 F7500 X31.768 Y30.500
G0 X25.992 Y30.500
G0 X25.992 Y30.664
G1 F1920 X25.992 Y-30.464 E192.86447
G0 F7500 X25.992 Y-30.300
G0 X20.216 Y-30.300
G0 X20.216 Y-30.464
G1 F1920 X20.216 Y30.664 E195.06533
G0 F7500 X20.216 Y30.500
G0 X14.440 Y30.500
G0 X14.440 Y30.664
G1 F1920 X14.440 Y-30.464 E197.26619
G0 F7500 X14.440 Y-30.300
G0 X8.664 Y-30.300
G0 X8.664 Y-30.464
G1 F1920 X8.664 Y30.664 E199.46705
G0 F7500 X8.664 Y30.500
G0 X2.888 Y30.500
G0 X2.888 Y30.664
G1 F1920 X2.888 Y-30.464 E201.66791
G0 F7500 X2.888 Y-30.300
G0 X-2.888 Y-30.300
G0 X-2.888 Y-30.464
G1 F1920 X-2.888 Y30.664 E203.86877
G0 F7500 X-2.888 Y30.500
G0 X-8.664 Y30.500
G0 X-8.664 Y30.664
G1 F1920 X-8.664 Y-30.464 E206.06962
G0 F7500 X-8.664 Y-30.300
G0 X-14.440 Y-30.300
G0 X-14.440 Y-30.464
G1 F1920 X-14.440 Y30.664 E208.27048
G0 F7500 X-14.440 Y30.500
G0 X-20.216 Y30.500
G0 X-20.216 Y30.664
G1 F1920 X-20.216 Y-30.464 E210.47134
G0 F7500 X-20.216 Y-30.300
G0 X-25.992 Y-30.300
G0 X-25.992 Y-30.464
G1 F1920 X-25.992 Y30.664 E212.67220
G0 F7500 X-25.992 Y30.500
G0 X-31.768 Y30.500
G0 X-31.768 Y30.664
G1 F1920 X-31.768 Y-30.464 E214.87306
G0 F7500 X-31.768 Y-30.300
G0 X-37.544 Y-30.300
G0 X-37.544 Y-30.464
G1 F1920 X-37.544 Y30.664 E217.07392
G0 F7500 X-37.544 Y30.500
G0 X-50.400 Y14.439
G0 X-50.564 Y14.439
G1 F1920 X50.663 Y14.440 E220.71850
G0 F7500 X50.500 Y14.440
G0 X50.500 Y8.664
G0 X50.663 Y8.664
G1 F1920 X-50.564 Y8.663 E224.36309
G0 F7500 X-50.400 Y8.663
G0 X-50.400 Y2.887
G0 X-50.564 Y2.887
G1 F1920 X50.663 Y2.888 E228.00768
G0 F7500 X50.500 Y2.888
G0 X50.500 Y-2.887
G0 X50.664 Y-2.887
G1 F1920 X-50.563 Y-2.888 E231.65226
G0 F7500 X-50.400 Y-2.888
G0 X-50.400 Y-8.664
G0 X-50.563 Y-8.664
G1 F1920 X50.664 Y-8.663 E235.29685
G0 F7500 X50.500 Y-8.663
G0 X50.500 Y-14.439
G0 X50.664 Y-14.439
G1 F1920 X-50.563 Y-14.440 E238.94144
;LAYER:2
M106 S127
G1 F2400 E237.94144
G0 F7500 X0.216 Y0.216 Z0.700
;TYPE:WALL-OUTER
G1 F2400 E238.94144
G1 F2220 X0.284 Y0.216 E238.94388
G1 X0.284 Y0.284 E238.94633
G1 X0.216 Y0.284 E238.94878
G1 X0.216 Y0.216 E238.95123
G0 F7500 X-0.700 Y-0.700
;TYPE:SUPPORT
G1 F2100 X-0.700 Y1.200 E239.01964
G1 X1.200 Y1.200 E239.08805
G1 X1.200 Y-0.700 E239.15645
G1 X-0.700 Y-0.700 E239.22486
G0 F7500 X-0.690 Y-0.800
G0 X-50.500 Y-30.400
G1 F2100 X50.600 Y-30.400 E242.86487
G1 X50.600 Y30.600 E245.06112
G1 X-50.500 Y30.600 E248.70114
G1 X-50.500 Y-30.400 E250.89739
G0 F7500 X-49.096 Y-30.464
G1 F2100 X-49.096 Y30.664 E253.09825
G0 F7500 X-49.096 Y30.500
G0 X-50.400 Y25.991
G0 X-50.564 Y25.991
G1 F2100 X50.663 Y25.992 E256.74283
G0 F7500 X50.500 Y25.992
G0 X49.096 Y30.500
G0 X49.096 Y30.664
G1 F2100 X49.096 Y-30.464 E258.94369
G0 F7500 X49.096 Y-30.300
G0 X50.500 Y-25.991
G0 X50.664 Y-25.991
G1 F2100 X-50.563 Y-25.992 E262.58828
G0 F7500 X-50.400 Y-25.992
G0 X-50.400 Y-20.216
G0 X-50.563 Y-20.216
G1 F2100 X50.664 Y-20.215 E266.23287
G0 F7500 X50.500 Y-20.215
G0 X43.320 Y-30.300
G0 X43.320 Y-30.464
G1 F2100 X43.320 Y30.664 E268.43372
G0 F7500 X43.320 Y30.500
G0 X50.500 Y20.216
G0 X50.663 Y20.216
G1 F2100 X-50.564 Y20.215 E272.07831
G0 F7500 X-50.400 Y20.215
G0 X-43.320 Y30.500
G0 X-43.320 Y30.664
G1 F2100 X-43.320 Y-30.464 E274.27917
G0 F7500 X-43.320 Y-30.300
G0 X-37.544 Y-30.300
G0 X-37.544 Y-30.464
G1 F2100 X-37.544 Y30.664 E276.48003
G0 F7500 X-37.544 Y30.500
G0 X-31.768 Y30.500
G0 X-31.768 Y30.664
G1 F2100 X-31.768 Y-30.464 E278.68089
G0 F7500 X-31.768 Y-30.300
G0 X-25.992 Y-30.300
G0 X-25.992 Y-30.464
G1 F2100 X-25.992 Y30.664 E280.88174
G0 F7500 X-25.992 Y30.500
G0 X-20.216 Y30.500
G0 X-20.216 Y30.664
G1 F2100 X-20.216 Y-30.464 E283.08260
G0 F7500 X-20.216 Y-30.300
G0 X-14.440 Y-30.300
G0 X-14.440 Y-30.464
G1 F2100 X-14.440 Y30.664 E285.28346
G0 F7500 X-14.440 Y30.500
G0 X-8.664 Y30.500
G0 X-8.664 Y30.664
G1 F2100 X-8.664 Y-30.464 E287.48432
G0 F7500 X-8.664 Y-30.300
G0 X-2.888 Y-30.300
G0 X-2.888 Y-30.464
G1 F2100 X-2.888 Y30.664 E289.68518
G0 F7500 X-2.888 Y30.500
G0 X2.888 Y30.500
G0 X2.888 Y30.664
G1 F2100 X2.888 Y-30.464 E291.88604
G0 F7500 X2.888 Y-30.300
G0 X8.664 Y-30.300
G0 X8.664 Y-30.464
G1 F2100 X8.664 Y30.664 E294.08689
G0 F7500 X8.664 Y30.500
G0 X14.440 Y30.500
G0 X14.440 Y30.664
G1 F2100 X14.440 Y-30.464 E296.28775
G0 F7500 X14.440 Y-30.300
G0 X20.216 Y-30.300
G0 X20.216 Y-30.464
G1 F2100 X20.216 Y30.664 E298.48861
G0 F7500 X20.216 Y30.500
G0 X25.992 Y30.500
G0 X25.992 Y30.664
G1 F2100 X25.992 Y-30.464 E300.68947
G0 F7500 X25.992 Y-30.300
G0 X31.768 Y-30.300
G0 X31.768 Y-30.464
G1 F2100 X31.768 Y30.664 E302.89033
G0 F7500 X31.768 Y30.500
G0 X37.544 Y30.500
G0 X37.544 Y30.664
G1 F2100 X37.544 Y-30.464 E305.09119
G0 F7500 X37.544 Y-30.300
G0 X50.500 Y-14.439
G0 X50.664 Y-14.439
G1 F2100 X-50.563 Y-14.440 E308.73577
G0 F7500 X-50.400 Y-14.440
G0 X-50.400 Y-8.664
G0 X-50.563 Y-8.664
G1 F2100 X50.664 Y-8.663 E312.38036
G0 F7500 X50.500 Y-8.663
G0 X50.500 Y-2.887
G0 X50.664 Y-2.887
G1 F2100 X-50.563 Y-2.888 E316.02495
G0 F7500 X-50.400 Y-2.888
G0 X-50.400 Y2.887
G0 X-50.564 Y2.887
G1 F2100 X50.663 Y2.888 E319.66953
G0 F7500 X50.500 Y2.888
G0 X50.500 Y8.664
G0 X50.663 Y8.664
G1 F2100 X-50.564 Y8.663 E323.31412
G0 F7500 X-50.400 Y8.663
G0 X-50.400 Y14.439
G0 X-50.564 Y14.439
G1 F2100 X50.663 Y14.440 E326.95871
;LAYER:3
G1 F2400 E325.95871
G0 F7500 X0.284 Y0.284 Z0.900
;TYPE:WALL-OUTER
G1 F2400 E326.95871
G1 X0.216 Y0.284 E326.96115
G1 X0.216 Y0.216 E326.96360
G1 X0.284 Y0.216 E326.96605
G1 X0.284 Y0.284 E326.96850
G0 F7500 X1.200 Y1.200
;TYPE:SUPPORT
G1 F2220 X1.200 Y-0.700 E327.03691
G1 X-0.700 Y-0.700 E327.10531
G1 X-0.700 Y1.200 E327.17372
G1 X1.200 Y1.200 E327.24213
G0 F7500 X1.190 Y1.300
G0 X50.500 Y30.590
G0 X50.600 Y30.600
G1 F2220 X-50.500 Y30.600 E330.88214
G1 X-50.500 Y-30.400 E333.07839
G1 X50.600 Y-30.400 E336.71841
G1 X50.600 Y30.600 E338.91466
G0 F7500 X50.500 Y30.590
G0 X49.096 Y30.500
G0 X49.096 Y30.664
G1 F2220 X49.096 Y-30.464 E341.11552
G0 F7500 X49.096 Y-30.300
G0 X50.500 Y-25.991
G0 X50.664 Y-25.991
G1 F2220 X-50.563 Y-25.992 E344.76010
G0 F7500 X-50.400 Y-25.992
G0 X-49.096 Y-30.300
G0 X-49.096 Y-30.464
G1 F2220 X-49.096 Y30.664 E346.96096
G0 F7500 X-49.096 Y30.500
G0 X-50.400 Y25.991
G0 X-50.564 Y25.991
G1 F2220 X50.663 Y25.992 E350.60555
G0 F7500 X50.500 Y25.992
G0 X50.500 Y20.216
G0 X50.663 Y20.216
G1 F2220 X-50.564 Y20.215 E354.25014
G0 F7500 X-50.400 Y20.215
G0 X-43.320 Y30.500
G0 X-43.320 Y30.664
G1 F2220 X-43.320 Y-30.464 E356.45099
G0 F7500 X-43.320 Y-30.300
G0 X-50.400 Y-20.216
G0 X-50.563 Y-20.216
G1 F2220 X50.664 Y-20.215 E360.09558
G0 F7500 X50.500 Y-20.215
G0 X43.320 Y-30.300
G0 X43.320 Y-30.464
G1 F2220 X43.320 Y30.664 E362.29644
G0 F7500 X43.320 Y30.500
G0 X37.544 Y30.500
G0 X37.544 Y30.664
G1 F2220 X37.544 Y-30.464 E364.49730
G0 F7500 X37.544 Y-30.300
G0 X31.768 Y-30.300
G0 X31.768 Y-30.464
G1 F2220 X31.768 Y30.664 E366.69816
G0 F7500 X31.768 Y30.500
G0 X25.992 Y30.500
G0 X25.992 Y30.664
G1 F2220 X25.992 Y-30.464 E368.89901
G0 F7500 X25.992 Y-30.300
G0 X20.216 Y-30.300
G0 X20.216 Y-30.464
G1 F2220 X20.216 Y30.664 E371.09987
G0 F7500 X20.216 Y30.500
G0 X14.440 Y30.500
G0 X14.440 Y30.664
G1 F2220 X14.440 Y-30.464 E373.30073
G0 F7500 X14.440 Y-30.300
G0 X8.664 Y-30.300
G0 X8.664 Y-30.464
G1 F2220 X8.664 Y30.664 E375.50159
G0 F7500 X8.664 Y30.500
G0 X2.888 Y30.500
G0 X2.888 Y30.664
G1 F2220 X2.888 Y-30.464 E377.70245
G0 F7500 X2.888 Y-30.300
G0 X-2.888 Y-30.300
G0 X-2.888 Y-30.464
G1 F2220 X-2.888 Y30.664 E379.90331
G0 F7500 X-2.888 Y30.500
G0 X-8.664 Y30.500
G0 X-8.664 Y30.664
G1 F2220 X-8.664 Y-30.464 E382.10416
G0 F7500 X-8.664 Y-30.300
G0 X-14.440 Y-30.300
G0 X-14.440 Y-30.464
G1 F2220 X-14.440 Y30.664 E384.30502
G0 F7500 X-14.440 Y30.500
G0 X-20.216 Y30.500
G0 X-20.216 Y30.664
G1 F2220 X-20.216 Y-30.464 E386.50588
G0 F7500 X-20.216 Y-30.300
G0 X-25.992 Y-30.300
G0 X-25.992 Y-30.464
G1 F2220 X-25.992 Y30.664 E388.70674
G0 F7500 X-25.992 Y30.500
G0 X-31.768 Y30.500
G0 X-31.768 Y30.664
G1 F2220 X-31.768 Y-30.464 E390.90760
G0 F7500 X-31.768 Y-30.300
G0 X-37.544 Y-30.300
G0 X-37.544 Y-30.464
G1 F2220 X-37.544 Y30.664 E393.10846
G0 F7500 X-37.544 Y30.500
G0 X-50.400 Y14.439
G0 X-50.564 Y14.439
G1 F2220 X50.663 Y14.440 E396.75304
G0 F7500 X50.500 Y14.440
G0 X50.500 Y8.664
G0 X50.663 Y8.664
G1 F2220 X-50.564 Y8.663 E400.39763
G0 F7500 X-50.400 Y8.663
G0 X-50.400 Y2.887
G0 X-50.564 Y2.887
G1 F2220 X50.663 Y2.888 E404.04222
G0 F7500 X50.500 Y2.888
G0 X50.500 Y-2.887
G0 X50.664 Y-2.887
G1 F2220 X-50.563 Y-2.888 E407.68680
G0 F7500 X-50.400 Y-2.888
G0 X-50.400 Y-8.664
G0 X-50.563 Y-8.664
G1 F2220 X50.664 Y-8.663 E411.33139
G0 F7500 X50.500 Y-8.663
G0 X50.500 Y-14.439
G0 X50.664 Y-14.439
G1 F2220 X-50.563 Y-14.440 E414.97598
;LAYER:4
G1 F2400 E413.97598
G0 F7500 X0.216 Y0.216 Z1.100
;TYPE:WALL-OUTER
G1 F2400 E414.97598
G1 F2700 X0.284 Y0.216 E414.97842
G1 X0.284 Y0.284 E414.98087
G1 X0.216 Y0.284 E414.98332
G1 X0.216 Y0.216 E414.98577
G0 F7500 X-0.700 Y-0.700
;TYPE:SUPPORT
G1 F2400 X-0.700 Y1.200 E415.05418
G1 X1.200 Y1.200 E415.12258
G1 X1.200 Y-0.700 E415.19099
G1 X-0.700 Y-0.700 E415.25940
G0 F7500 X-0.690 Y-0.800
G0 X-50.500 Y-30.400
G1 F2400 X50.600 Y-30.400 E418.89941
G1 X50.600 Y30.600 E421.09566
G1 X-50.500 Y30.600 E424.73568
G1 X-50.500 Y-30.400 E426.93193
G0 F7500 X-49.096 Y-30.464
G1 F2400 X-49.096 Y30.664 E429.13279
G0 F7500 X-49.096 Y30.500
G0 X-50.400 Y25.991
G0 X-50.564 Y25.991
G1 F2400 X50.663 Y25.992 E432.77737
G0 F7500 X50.500 Y25.992
G0 X49.096 Y30.500
G0 X49.096 Y30.664
G1 F2400 X49.096 Y-30.464 E434.97823
G0 F7500 X49.096 Y-30.300
G0 X50.500 Y-25.991
G0 X50.664 Y-25.991
G1 F2400 X-50.563 Y-25.992 E438.62282
G0 F7500 X-50.400 Y-25.992
G0 X-50.400 Y-20.216
G0 X-50.563 Y-20.216
G1 F2400 X50.664 Y-20.215 E442.26740
G0 F7500 X50.500 Y-20.215
G0 X43.320 Y-30.300
G0 X43.320 Y-30.464
G1 F2400 X43.320 Y30.664 E444.46826
G0 F7500 X43.320 Y30.500
G0 X50.500 Y20.216
G0 X50.663 Y20.216
G1 F2400 X-50.564 Y20.215 E448.11285
G0 F7500 X-50.400 Y20.215
G0 X-43.320 Y30.500
G0 X-43.320 Y30.664
G1 F2400 X-43.320 Y-30.464 E450.31371
G0 F7500 X-43.320 Y-30.300
G0 X-37.544 Y-30.300
G0 X-37.544 Y-30.464
G1 F2400 X-37.544 Y30.664 E452.51457
G0 F7500 X-37.544 Y30.500
G0 X-31.768 Y30.500
G0 X-31.768 Y30.664
G1 F2400 X-31.768 Y-30.464 E454.71543
G0 F7500 X-31.768 Y-30.300
G0 X-25.992 Y-30.300
G0 X-25.992 Y-30.464
G1 F2400 X-25.992 Y30.664 E456.91628
G0 F7500 X-25.992 Y30.500
G0 X-20.216 Y30.500
G0 X-20.216 Y30.664
G1 F2400 X-20.216 Y-30.464 E459.11714
G0 F7500 X-20.216 Y-30.300
G0 X-14.440 Y-30.300
G0 X-14.440 Y-30.464
G1 F2400 X-14.440 Y30.664 E461.31800
G0 F7500 X-14.440 Y30.500
G0 X-8.664 Y30.500
G0 X-8.664 Y30.664
G1 F2400 X-8.664 Y-30.464 E463.51886
G0 F7500 X-8.664 Y-30.300
G0 X-2.888 Y-30.300
G0 X-2.888 Y-30.464
G1 F2400 X-2.888 Y30.664 E465.71972
G0 F7500 X-2.888 Y30.500
G0 X2.888 Y30.500
G0 X2.888 Y30.664
G1 F2400 X2.888 Y-30.464 E467.92058
G0 F7500 X2.888 Y-30.300
G0 X8.664 Y-30.300
G0 X8.664 Y-30.464
