;Generated with Cura_SteamEngine 15.04.6

;Layer count: 16
;LAYER:0
M107
G0 F7500 X-53.716 Y-23.616 Z0.300
;TYPE:SKIRT
G1 F1800 X53.816 Y-23.616 E5.80739
G1 X53.816 Y23.816 E8.36901
G1 X-53.716 Y23.816 E14.17640
G1 X-53.716 Y-23.616 E16.73802
G1 F2400 E15.73802
G0 F7500 X0.216 Y0.216
;TYPE:WALL-OUTER
G1 F2400 E16.73802
G1 F1800 X0.284 Y0.216 E16.74169
G1 X0.284 Y0.284 E16.74536
G1 X0.216 Y0.284 E16.74903
G1 X0.216 Y0.216 E16.75271
G0 F7500 X-0.700 Y-0.700
;TYPE:SUPPORT
G1 F1800 X-0.700 Y1.200 E16.85532
G1 X1.200 Y1.200 E16.95793
G1 X1.200 Y-0.700 E17.06054
G1 X-0.700 Y-0.700 E17.16315
G0 F7500 X-0.690 Y-0.800
G0 X-50.500 Y-20.400
G1 F1800 X50.600 Y-20.400 E22.62317
G1 X50.600 Y20.600 E24.83743
G1 X-50.500 Y20.600 E30.29745
G1 X-50.500 Y-20.400 E32.51170
G0 F7500 X-50.563 Y-20.216
G1 F1800 X50.664 Y-20.215 E37.97858
G0 F7500 X50.500 Y-20.215
G0 X49.096 Y-20.300
G0 X49.096 Y-20.464
G1 F1800 X49.096 Y20.664 E40.19974
G0 F7500 X49.096 Y20.500
G0 X50.500 Y20.216
G0 X50.663 Y20.216
G1 F1800 X-50.564 Y20.215 E45.66662
G0 F7500 X-50.400 Y20.215
G0 X-49.096 Y20.500
G0 X-49.096 Y20.664
G1 F1800 X-49.096 Y-20.464 E47.88779
G0 F7500 X-49.096 Y-20.300
G0 X-43.320 Y-20.300
G0 X-43.320 Y-20.464
G1 F1800 X-43.320 Y20.664 E50.10895
G0 F7500 X-43.320 Y20.500
G0 X-37.544 Y20.500
G0 X-37.544 Y20.664
G1 F1800 X-37.544 Y-20.464 E52.33012
G0 F7500 X-37.544 Y-20.300
G0 X-31.768 Y-20.300
G0 X-31.768 Y-20.464
G1 F1800 X-31.768 Y20.664 E54.55128
G0 F7500 X-31.768 Y20.500
G0 X-25.992 Y20.500
G0 X-25.992 Y20.664
G1 F1800 X-25.992 Y-20.464 E56.77245
G0 F7500 X-25.992 Y-20.300
G0 X-20.216 Y-20.300
G0 X-20.216 Y-20.464
G1 F1800 X-20.216 Y20.664 E58.99361
G0 F7500 X-20.216 Y20.500
G0 X-14.440 Y20.500
G0 X-14.440 Y20.664
G1 F1800 X-14.440 Y-20.464 E61.21478
G0 F7500 X-14.440 Y-20.300
G0 X-8.664 Y-20.300
G0 X-8.664 Y-20.464
G1 F1800 X-8.664 Y20.664 E63.43594
G0 F7500 X-8.664 Y20.500
G0 X-2.888 Y20.500
G0 X-2.888 Y20.664
G1 F1800 X-2.888 Y-20.464 E65.65711
G0 F7500 X-2.888 Y-20.300
G0 X2.888 Y-20.300
G0 X2.888 Y-20.464
G1 F1800 X2.888 Y20.664 E67.87827
G0 F7500 X2.888 Y20.500
G0 X8.664 Y20.500
G0 X8.664 Y20.664
G1 F1800 X8.664 Y-20.464 E70.09944
G0 F7500 X8.664 Y-20.300
G0 X14.440 Y-20.300
G0 X14.440 Y-20.464
G1 F1800 X14.440 Y20.664 E72.32060
G0 F7500 X14.440 Y20.500
G0 X20.216 Y20.500
G0 X20.216 Y20.664
G1 F1800 X20.216 Y-20.464 E74.54176
G0 F7500 X20.216 Y-20.300
G0 X25.992 Y-20.300
G0 X25.992 Y-20.464
G1 F1800 X25.992 Y20.664 E76.76293
G0 F7500 X25.992 Y20.500
G0 X31.768 Y20.500
G0 X31.768 Y20.664
G1 F1800 X31.768 Y-20.464 E78.98409
G0 F7500 X31.768 Y-20.300
G0 X37.544 Y-20.300
G0 X37.544 Y-20.464
G1 F1800 X37.544 Y20.664 E81.20526
G0 F7500 X37.544 Y20.500
G0 X43.320 Y20.500
G0 X43.320 Y20.664
G1 F1800 X43.320 Y-20.464 E83.42642
G0 F7500 X43.320 Y-20.300
G0 X50.500 Y-14.439
G0 X50.664 Y-14.439
G1 F1800 X-50.563 Y-14.440 E88.89330
G0 F7500 X-50.400 Y-14.440
G0 X-50.400 Y-8.664
G0 X-50.563 Y-8.664
G1 F1800 X50.664 Y-8.663 E94.36018
G0 F7500 X50.500 Y-8.663
G0 X50.500 Y-2.887
G0 X50.664 Y-2.887
G1 F1800 X-50.563 Y-2.888 E99.82706
G0 F7500 X-50.400 Y-2.888
G0 X-50.400 Y2.887
G0 X-50.564 Y2.887
G1 F1800 X50.663 Y2.888 E105.29394
G0 F7500 X50.500 Y2.888
G0 X50.500 Y8.664
G0 X50.663 Y8.664
G1 F1800 X-50.564 Y8.663 E110.76082
G0 F7500 X-50.400 Y8.663
G0 X-50.400 Y14.439
G0 X-50.564 Y14.439
G1 F1800 X50.663 Y14.440 E116.22770
;LAYER:1
M106 S63
G1 F2400 E115.22770
G0 F7500 X0.284 Y0.284 Z0.500
;TYPE:WALL-OUTER
G1 F2400 E116.22770
G1 F1980 X0.216 Y0.284 E116.23015
G1 X0.216 Y0.216 E116.23260
G1 X0.284 Y0.216 E116.23505
G1 X0.284 Y0.284 E116.23750
G0 F7500 X1.200 Y1.200
;TYPE:SUPPORT
G1 F1920 X1.200 Y-0.700 E116.30590
G1 X-0.700 Y-0.700 E116.37431
G1 X-0.700 Y1.200 E116.44272
G1 X1.200 Y1.200 E116.51113
G0 F7500 X1.190 Y1.300
G0 X50.500 Y20.590
G0 X50.600 Y20.600
G1 F1920 X-50.500 Y20.600 E120.15114
G1 X-50.500 Y-20.400 E121.62731
G1 X50.600 Y-20.400 E125.26732
G1 X50.600 Y20.600 E126.74349
G0 F7500 X50.663 Y20.216
G1 F1920 X-50.564 Y20.215 E130.38808
G0 F7500 X-50.400 Y20.215
G0 X-49.096 Y20.500
G0 X-49.096 Y20.664
G1 F1920 X-49.096 Y-20.464 E131.86885
G0 F7500 X-50.563 Y-20.216
G1 F1920 X50.664 Y-20.215 E135.51344
G0 F7500 X50.500 Y-20.215
G0 X49.096 Y-20.300
G0 X49.096 Y-20.464
G1 F1920 X49.096 Y20.664 E136.99422
G0 F7500 X49.096 Y20.500
G0 X43.320 Y20.500
G0 X43.320 Y20.664
G1 F1920 X43.320 Y-20.464 E138.47499
G0 F7500 X43.320 Y-20.300
G0 X37.544 Y-20.300
G0 X37.544 Y-20.464
G1 F1920 X37.544 Y20.664 E139.95577
G0 F7500 X37.544 Y20.500
G0 X31.768 Y20.500
G0 X31.768 Y20.664
G1 F1920 X31.768 Y-20.464 E141.43655
G0 F7500 X31.768 Y-20.300
G0 X25.992 Y-20.300
G0 X25.992 Y-20.464
G1 F1920 X25.992 Y20.664 E142.91732
G0 F7500 X25.992 Y20.500
G0 X20.216 Y20.500
G0 X20.216 Y20.664
G1 F1920 X20.216 Y-20.464 E144.39810
G0 F7500 X20.216 Y-20.300
G0 X14.440 Y-20.300
G0 X14.440 Y-20.464
G1 F1920 X14.440 Y20.664 E145.87888
G0 F7500 X14.440 Y20.500
G0 X8.664 Y20.500
G0 X8.664 Y20.664
G1 F1920 X8.664 Y-20.464 E147.35965
G0 F7500 X8.664 Y-20.300
G0 X2.888 Y-20.300
G0 X2.888 Y-20.464
G1 F1920 X2.888 Y20.664 E148.84043
G0 F7500 X2.888 Y20.500
G0 X-2.888 Y20.500
G0 X-2.888 Y20.664
G1 F1920 X-2.888 Y-20.464 E150.32121
G0 F7500 X-2.888 Y-20.300
G0 X-8.664 Y-20.300
G0 X-8.664 Y-20.464
G1 F1920 X-8.664 Y20.664 E151.80198
G0 F7500 X-8.664 Y20.500
G0 X-14.440 Y20.500
G0 X-14.440 Y20.664
G1 F1920 X-14.440 Y-20.464 E153.28276
G0 F7500 X-14.440 Y-20.300
G0 X-20.216 Y-20.300
G0 X-20.216 Y-20.464
G1 F1920 X-20.216 Y20.664 E154.76354
G0 F7500 X-20.216 Y20.500
G0 X-25.992 Y20.500
G0 X-25.992 Y20.664
G1 F1920 X-25.992 Y-20.464 E156.24431
G0 F7500 X-25.992 Y-20.300
G0 X-31.768 Y-20.300
G0 X-31.768 Y-20.464
G1 F1920 X-31.768 Y20.664 E157.72509
G0 F7500 X-31.768 Y20.500
G0 X-37.544 Y20.500
G0 X-37.544 Y20.664
G1 F1920 X-37.544 Y-20.464 E159.20586
G0 F7500 X-37.544 Y-20.300
G0 X-43.320 Y-20.300
G0 X-43.320 Y-20.464
G1 F1920 X-43.320 Y20.664 E160.68664
G0 F7500 X-43.320 Y20.500
G0 X-50.400 Y14.439
G0 X-50.564 Y14.439
G1 F1920 X50.663 Y14.440 E164.33123
G0 F7500 X50.500 Y14.440
G0 X50.500 Y8.664
G0 X50.663 Y8.664
G1 F1920 X-50.564 Y8.663 E167.97581
G0 F7500 X-50.400 Y8.663
G0 X-50.400 Y2.887
G0 X-50.564 Y2.887
G1 F1920 X50.663 Y2.888 E171.62040
G0 F7500 X50.500 Y2.888
G0 X50.500 Y-2.887
G0 X50.664 Y-2.887
G1 F1920 X-50.563 Y-2.888 E175.26499
G0 F7500 X-50.400 Y-2.888
G0 X-50.400 Y-8.664
G0 X-50.563 Y-8.664
G1 F1920 X50.664 Y-8.663 E178.90957
G0 F7500 X50.500 Y-8.663
G0 X50.500 Y-14.439
G0 X50.664 Y-14.439
G1 F1920 X-50.563 Y-14.440 E182.55416
;LAYER:2
M106 S127
G1 F2400 E181.55416
G0 F7500 X0.216 Y0.216 Z0.700
;TYPE:WALL-OUTER
G1 F2400 E182.55416
G1 F2220 X0.284 Y0.216 E182.55661
G1 X0.284 Y0.284 E182.55906
G1 X0.216 Y0.284 E182.56151
G1 X0.216 Y0.216 E182.56395
G0 F7500 X-0.700 Y-0.700
;TYPE:SUPPORT
G1 F2100 X-0.700 Y1.200 E182.63236
G1 X1.200 Y1.200 E182.70077
G1 X1.200 Y-0.700 E182.76918
G1 X-0.700 Y-0.700 E182.83759
G0 F7500 X-0.690 Y-0.800
G0 X-50.500 Y-20.400
G1 F2100 X50.600 Y-20.400 E186.47760
G1 X50.600 Y20.600 E187.95377
G1 X-50.500 Y20.600 E191.59378
G1 X-50.500 Y-20.400 E193.06995
G0 F7500 X-50.563 Y-20.216
G1 F2100 X50.664 Y-20.215 E196.71454
G0 F7500 X50.500 Y-20.215
G0 X49.096 Y-20.300
G0 X49.096 Y-20.464
G1 F2100 X49.096 Y20.664 E198.19531
G0 F7500 X49.096 Y20.500
G0 X50.500 Y20.216
G0 X50.663 Y20.216
G1 F2100 X-50.564 Y20.215 E201.83990
G0 F7500 X-50.400 Y20.215
G0 X-49.096 Y20.500
G0 X-49.096 Y20.664
G1 F2100 X-49.096 Y-20.464 E203.32068
G0 F7500 X-49.096 Y-20.300
G0 X-43.320 Y-20.300
G0 X-43.320 Y-20.464
G1 F2100 X-43.320 Y20.664 E204.80145
G0 F7500 X-43.320 Y20.500
G0 X-37.544 Y20.500
G0 X-37.544 Y20.664
G1 F2100 X-37.544 Y-20.464 E206.28223
G0 F7500 X-37.544 Y-20.300
G0 X-31.768 Y-20.300
G0 X-31.768 Y-20.464
G1 F2100 X-31.768 Y20.664 E207.76301
G0 F7500 X-31.768 Y20.500
G0 X-25.992 Y20.500
G0 X-25.992 Y20.664
G1 F2100 X-25.992 Y-20.464 E209.24378
G0 F7500 X-25.992 Y-20.300
G0 X-20.216 Y-20.300
G0 X-20.216 Y-20.464
G1 F2100 X-20.216 Y20.664 E210.72456
G0 F7500 X-20.216 Y20.500
G0 X-14.440 Y20.500
G0 X-14.440 Y20.664
G1 F2100 X-14.440 Y-20.464 E212.20533
G0 F7500 X-14.440 Y-20.300
G0 X-8.664 Y-20.300
G0 X-8.664 Y-20.464
G1 F2100 X-8.664 Y20.664 E213.68611
G0 F7500 X-8.664 Y20.500
G0 X-2.888 Y20.500
G0 X-2.888 Y20.664
G1 F2100 X-2.888 Y-20.464 E215.16689
G0 F7500 X-2.888 Y-20.300
G0 X2.888 Y-20.300
G0 X2.888 Y-20.464
G1 F2100 X2.888 Y20.664 E216.64766
G0 F7500 X2.888 Y20.500
G0 X8.664 Y20.500
G0 X8.664 Y20.664
G1 F2100 X8.664 Y-20.464 E218.12844
G0 F7500 X8.664 Y-20.300
G0 X14.440 Y-20.300
G0 X14.440 Y-20.464
G1 F2100 X14.440 Y20.664 E219.60922
G0 F7500 X14.440 Y20.500
G0 X20.216 Y20.500
G0 X20.216 Y20.664
G1 F2100 X20.216 Y-20.464 E221.08999
G0 F7500 X20.216 Y-20.300
G0 X25.992 Y-20.300
G0 X25.992 Y-20.464
G1 F2100 X25.992 Y20.664 E222.57077
G0 F7500 X25.992 Y20.500
G0 X31.768 Y20.500
G0 X31.768 Y20.664
G1 F2100 X31.768 Y-20.464 E224.05155
G0 F7500 X31.768 Y-20.300
G0 X37.544 Y-20.300
G0 X37.544 Y-20.464
G1 F2100 X37.544 Y20.664 E225.53232
G0 F7500 X37.544 Y20.500
G0 X43.320 Y20.500
G0 X43.320 Y20.664
G1 F2100 X43.320 Y-20.464 E227.01310
G0 F7500 X43.320 Y-20.300
G0 X50.500 Y-14.439
G0 X50.664 Y-14.439
G1 F2100 X-50.563 Y-14.440 E230.65769
G0 F7500 X-50.400 Y-14.440
G0 X-50.400 Y-8.664
G0 X-50.563 Y-8.664
G1 F2100 X50.664 Y-8.663 E234.30227
G0 F7500 X50.500 Y-8.663
G0 X50.500 Y-2.887
G0 X50.664 Y-2.887
G1 F2100 X-50.563 Y-2.888 E237.94686
G0 F7500 X-50.400 Y-2.888
G0 X-50.400 Y2.887
G0 X-50.564 Y2.887
G1 F2100 X50.663 Y2.888 E241.59145
G0 F7500 X50.500 Y2.888
G0 X50.500 Y8.664
G0 X50.663 Y8.664
G1 F2100 X-50.564 Y8.663 E245.23603
G0 F7500 X-50.400 Y8.663
G0 X-50.400 Y14.439
G0 X-50.564 Y14.439
G1 F2100 X50.663 Y14.440 E248.88062
;LAYER:3
G1 F2400 E247.88062
G0 F7500 X0.284 Y0.284 Z0.900
;TYPE:WALL-OUTER
G1 F2400 E248.88062
G1 X0.216 Y0.284 E248.88307
G1 X0.216 Y0.216 E248.88552
G1 X0.284 Y0.216 E248.88796
G1 X0.284 Y0.284 E248.89041
G0 F7500 X1.200 Y1.200
;TYPE:SUPPORT
G1 F2220 X1.200 Y-0.700 E248.95882
G1 X-0.700 Y-0.700 E249.02723
G1 X-0.700 Y1.200 E249.09564
G1 X1.200 Y1.200 E249.16404
G0 F7500 X1.190 Y1.300
G0 X50.500 Y20.590
G0 X50.600 Y20.600
G1 F2220 X-50.500 Y20.600 E252.80406
G1 X-50.500 Y-20.400 E254.28023
G1 X50.600 Y-20.400 E257.92024
G1 X50.600 Y20.600 E259.39641
G0 F7500 X50.663 Y20.216
G1 F2220 X-50.564 Y20.215 E263.04099
G0 F7500 X-50.400 Y20.215
G0 X-49.096 Y20.500
G0 X-49.096 Y20.664
G1 F2220 X-49.096 Y-20.464 E264.52177
G0 F7500 X-50.563 Y-20.216
G1 F2220 X50.664 Y-20.215 E268.16636
G0 F7500 X50.500 Y-20.215
G0 X49.096 Y-20.300
G0 X49.096 Y-20.464
G1 F2220 X49.096 Y20.664 E269.64713
G0 F7500 X49.096 Y20.500
G0 X43.320 Y20.500
G0 X43.320 Y20.664
G1 F2220 X43.320 Y-20.464 E271.12791
G0 F7500 X43.320 Y-20.300
G0 X37.544 Y-20.300
G0 X37.544 Y-20.464
G1 F2220 X37.544 Y20.664 E272.60869
G0 F7500 X37.544 Y20.500
G0 X31.768 Y20.500
G0 X31.768 Y20.664
G1 F2220 X31.768 Y-20.464 E274.08946
G0 F7500 X31.768 Y-20.300
G0 X25.992 Y-20.300
G0 X25.992 Y-20.464
G1 F2220 X25.992 Y20.664 E275.57024
G0 F7500 X25.992 Y20.500
G0 X20.216 Y20.500
G0 X20.216 Y20.664
G1 F2220 X20.216 Y-20.464 E277.05102
G0 F7500 X20.216 Y-20.300
G0 X14.440 Y-20.300
G0 X14.440 Y-20.464
G1 F2220 X14.440 Y20.664 E278.53179
G0 F7500 X14.440 Y20.500
G0 X8.664 Y20.500
G0 X8.664 Y20.664
G1 F2220 X8.664 Y-20.464 E280.01257
G0 F7500 X8.664 Y-20.300
G0 X2.888 Y-20.300
G0 X2.888 Y-20.464
G1 F2220 X2.888 Y20.664 E281.49335
G0 F7500 X2.888 Y20.500
G0 X-2.888 Y20.500
G0 X-2.888 Y20.664
G1 F2220 X-2.888 Y-20.464 E282.97412
G0 F7500 X-2.888 Y-20.300
G0 X-8.664 Y-20.300
G0 X-8.664 Y-20.464
G1 F2220 X-8.664 Y20.664 E284.45490
G0 F7500 X-8.664 Y20.500
G0 X-14.440 Y20.500
G0 X-14.440 Y20.664
G1 F2220 X-14.440 Y-20.464 E285.93567
G0 F7500 X-14.440 Y-20.300
G0 X-20.216 Y-20.300
G0 X-20.216 Y-20.464
G1 F2220 X-20.216 Y20.664 E287.41645
G0 F7500 X-20.216 Y20.500
G0 X-25.992 Y20.500
G0 X-25.992 Y20.664
G1 F2220 X-25.992 Y-20.464 E288.89723
G0 F7500 X-25.992 Y-20.300
G0 X-31.768 Y-20.300
G0 X-31.768 Y-20.464
G1 F2220 X-31.768 Y20.664 E290.37800
G0 F7500 X-31.768 Y20.500
G0 X-37.544 Y20.500
G0 X-37.544 Y20.664
G1 F2220 X-37.544 Y-20.464 E291.85878
G0 F7500 X-37.544 Y-20.300
G0 X-43.320 Y-20.300
G0 X-43.320 Y-20.464
G1 F2220 X-43.320 Y20.664 E293.33956
G0 F7500 X-43.320 Y20.500
G0 X-50.400 Y14.439
G0 X-50.564 Y14.439
G1 F2220 X50.663 Y14.440 E296.98414
G0 F7500 X50.500 Y14.440
G0 X50.500 Y8.664
G0 X50.663 Y8.664
G1 F2220 X-50.564 Y8.663 E300.62873
G0 F7500 X-50.400 Y8.663
G0 X-50.400 Y2.887
G0 X-50.564 Y2.887
G1 F2220 X50.663 Y2.888 E304.27332
G0 F7500 X50.500 Y2.888
G0 X50.500 Y-2.887
G0 X50.664 Y-2.887
G1 F2220 X-50.563 Y-2.888 E307.91790
G0 F7500 X-50.400 Y-2.888
G0 X-50.400 Y-8.664
G0 X-50.563 Y-8.664
G1 F2220 X50.664 Y-8.663 E311.56249
G0 F7500 X50.500 Y-8.663
G0 X50.500 Y-14.439
G0 X50.664 Y-14.439
G1 F2220 X-50.563 Y-14.440 E315.20708
;LAYER:4
G1 F2400 E314.20708
G0 F7500 X0.216 Y0.216 Z1.100
;TYPE:WALL-OUTER
G1 F2400 E315.20708
G1 F2700 X0.284 Y0.216 E315.20953
G1 X0.284 Y0.284 E315.21197
G1 X0.216 Y0.284 E315.21442
G1 X0.216 Y0.216 E315.21687
G0 F7500 X-0.700 Y-0.700
;TYPE:SUPPORT
G1 F2400 X-0.700 Y1.200 E315.28528
G1 X1.200 Y1.200 E315.35369
G1 X1.200 Y-0.700 E315.42209
G1 X-0.700 Y-0.700 E315.49050
G0 F7500 X-0.690 Y-0.800
G0 X-50.500 Y-20.400
G1 F2400 X50.600 Y-20.400 E319.13052
G1 X50.600 Y20.600 E320.60668
G1 X-50.500 Y20.600 E324.24670
G1 X-50.500 Y-20.400 E325.72287
G0 F7500 X-50.563 Y-20.216
G1 F2400 X50.664 Y-20.215 E329.36745
G0 F7500 X50.500 Y-20.215
G0 X49.096 Y-20.300
G0 X49.096 Y-20.464
G1 F2400 X49.096 Y20.664 E330.84823
G0 F7500 X49.096 Y20.500
G0 X50.500 Y20.216
G0 X50.663 Y20.216
G1 F2400 X-50.564 Y20.215 E334.49282
G0 F7500 X-50.400 Y20.215
G0 X-49.096 Y20.500
G0 X-49.096 Y20.664
G1 F2400 X-49.096 Y-20.464 E335.97359
G0 F7500 X-49.096 Y-20.300
G0 X-43.320 Y-20.300
G0 X-43.320 Y-20.464
G1 F2400 X-43.320 Y20.664 E337.45437
G0 F7500 X-43.320 Y20.500
G0 X-37.544 Y20.500
G0 X-37.544 Y20.664
G1 F2400 X-37.544 Y-20.464 E338.93514
G0 F7500 X-37.544 Y-20.300
G0 X-31.768 Y-20.300
G0 X-31.768 Y-20.464
G1 F2400 X-31.768 Y20.664 E340.41592
G0 F7500 X-31.768 Y20.500
G0 X-25.992 Y20.500
G0 X-25.992 Y20.664
G1 F2400 X-25.992 Y-20.464 E341.89670
G0 F7500 X-25.992 Y-20.300
G0 X-20.216 Y-20.300
G0 X-20.216 Y-20.464
G1 F2400 X-20.216 Y20.664 E343.37747
G0 F7500 X-20.216 Y20.500
G0 X-14.440 Y20.500
G0 X-14.440 Y20.664
G1 F2400 X-14.440 Y-20.464 E344.85825
G0 F7500 X-14.440 Y-20.300
G0 X-8.664 Y-20.300
G0 X-8.664 Y-20.464
G1 F2400 X-8.664 Y20.664 E346.33903
G0 F7500 X-8.664 Y20.500
G0 X-2.888 Y20.500
G0 X-2.888 Y20.664
G1 F2400 X-2.888 Y-20.464 E347.81980
G0 F7500 X-2.888 Y-20.300
G0 X2.888 Y-20.300
G0 X2.888 Y-20.464
G1 F2400 X2.888 Y20.664 E349.30058
G0 F7500 X2.888 Y20.500
G0 X8.664 Y20.500
G0 X8.664 Y20.664
G1 F2400 X8.664 Y-20.464 E350.78136
G0 F7500 X8.664 Y-20.300
G0 X14.440 Y-20.300
G0 X14.440 Y-20.464
G1 F2400 X14.440 Y20.664 E352.26213
G0 F7500 X14.440 Y20.500
G0 X20.216 Y20.500
G0 X20.216 Y20.664
G1 F2400 X20.216 Y-20.464 E353.74291
G0 F7500 X20.216 Y-20.300
G0 X25.992 Y-20.300
G0 X25.992 Y-20.464
G1 F2400 X25.992 Y20.664 E355.22369
G0 F7500 X25.992 Y20.500
G0 X31.768 Y20.500
G0 X31.768 Y20.664
G1 F2400 X31.768 Y-20.464 E356.70446
G0 F7500 X31.768 Y-20.300
G0 X37.544 Y-20.300
G0 X37.544 Y-20.464
G1 F2400 X37.544 Y20.664 E358.18524
G0 F7500 X37.544 Y20.500
G0 X43.320 Y20.500
G0 X43.320 Y20.664
G1 F2400 X43.320 Y-20.464 E359.66602
G0 F7500 X43.320 Y-20.300
G0 X50.500 Y-14.439
G0 X50.664 Y-14.439
G1 F2400 X-50.563 Y-14.440 E363.31060
G0 F7500 X-50.400 Y-14.440
G0 X-50.400 Y-8.664
G0 X-50.563 Y-8.664
G1 F2400 X50.664 Y-8.663 E366.95519
G0 F7500 X50.500 Y-8.663
G0 X50.500 Y-2.887
G0 X50.664 Y-2.887
G1 F2400 X-50.563 Y-2.888 E370.59978
G0 F7500 X-50.400 Y-2.888
G0 X-50.400 Y2.887
G0 X-50.564 Y2.887
G1 F2400 X50.663 Y2.888 E374.24436
G0 F7500 X50.500 Y2.888
G0 X50.500 Y8.664
G0 X50.663 Y8.664
G1 F2400 X-50.564 Y8.663 E377.88895
G0 F7500 X-50.400 Y8.663
G0 X-50.400 Y14.439
G0 X-50.564 Y14.439
G1 F2400 X50.663 Y14.440 E381.53354
;LAYER:5
G1 F2400 E380.53354
G0 F7500 X0.284 Y0.284 Z1.300
