;Generated with Cura_SteamEngine 15.04.6

;Layer count: 16
;LAYER:0
M107
G0 F7500 X-53.716 Y-18.616 Z0.300
;TYPE:SKIRT
G1 F1800 X53.816 Y-18.616 E5.80739
G1 X53.816 Y18.816 E7.82895
G1 X-53.716 Y18.816 E13.63634
G1 X-53.716 Y-18.616 E15.65789
G1 F2400 E14.65789
G0 F7500 X0.216 Y0.216
;TYPE:WALL-OUTER
G1 F2400 E15.65789
G1 F1800 X0.284 Y0.216 E15.66157
G1 X0.284 Y0.284 E15.66524
G1 X0.216 Y0.284 E15.66891
G1 X0.216 Y0.216 E15.67258
G0 F7500 X-0.700 Y-0.700
;TYPE:SUPPORT
G1 F1800 X-0.700 Y1.200 E15.77519
G1 X1.200 Y1.200 E15.87781
G1 X1.200 Y-0.700 E15.98042
G1 X-0.700 Y-0.700 E16.08303
G0 F7500 X-0.690 Y-0.800
G0 X-50.500 Y-15.400
G1 F1800 X50.600 Y-15.400 E21.54305
G1 X50.600 Y15.600 E23.21724
G1 X-50.500 Y15.600 E28.67726
G1 X-50.500 Y-15.400 E30.35145
G0 F7500 X-50.563 Y-14.440
G1 F1800 X50.664 Y-14.439 E35.81833
G0 F7500 X50.500 Y-14.439
G0 X49.096 Y-15.300
G0 X49.096 Y-15.464
G1 F1800 X49.096 Y15.664 E37.49944
G0 F7500 X49.096 Y15.500
G0 X50.500 Y14.440
G0 X50.663 Y14.440
G1 F1800 X-50.564 Y14.439 E42.96632
G0 F7500 X-50.400 Y14.439
G0 X-49.096 Y15.500
G0 X-49.096 Y15.664
G1 F1800 X-49.096 Y-15.464 E44.64742
G0 F7500 X-49.096 Y-15.300
G0 X-43.320 Y-15.300
G0 X-43.320 Y-15.464
G1 F1800 X-43.320 Y15.664 E46.32852
G0 F7500 X-43.320 Y15.500
G0 X-50.400 Y8.663
G0 X-50.564 Y8.663
G1 F1800 X50.663 Y8.664 E51.79540
G0 F7500 X50.500 Y8.664
G0 X50.500 Y2.888
G0 X50.663 Y2.888
G1 F1800 X-50.564 Y2.887 E57.26228
G0 F7500 X-50.400 Y2.887
G0 X-50.400 Y-2.888
G0 X-50.563 Y-2.888
G1 F1800 X50.664 Y-2.887 E62.72916
G0 F7500 X50.500 Y-2.887
G0 X50.500 Y-8.663
G0 X50.664 Y-8.663
G1 F1800 X-50.563 Y-8.664 E68.19604
G0 F7500 X-50.400 Y-8.664
G0 X-37.544 Y-15.300
G0 X-37.544 Y-15.464
G1 F1800 X-37.544 Y15.664 E69.87715
G0 F7500 X-37.544 Y15.500
G0 X-31.768 Y15.500
G0 X-31.768 Y15.664
G1 F1800 X-31.768 Y-15.464 E71.55825
G0 F7500 X-31.768 Y-15.300
G0 X-25.992 Y-15.300
G0 X-25.992 Y-15.464
G1 F1800 X-25.992 Y15.664 E73.23935
G0 F7500 X-25.992 Y15.500
G0 X-20.216 Y15.500
G0 X-20.216 Y15.664
G1 F1800 X-20.216 Y-15.464 E74.92046
G0 F7500 X-20.216 Y-15.300
G0 X-14.440 Y-15.300
G0 X-14.440 Y-15.464
G1 F1800 X-14.440 Y15.664 E76.60156
G0 F7500 X-14.440 Y15.500
G0 X-8.664 Y15.500
G0 X-8.664 Y15.664
G1 F1800 X-8.664 Y-15.464 E78.28266
G0 F7500 X-8.664 Y-15.300
G0 X-2.888 Y-15.300
G0 X-2.888 Y-15.464
G1 F1800 X-2.888 Y15.664 E79.96377
G0 F7500 X-2.888 Y15.500
G0 X2.888 Y15.500
G0 X2.888 Y15.664
G1 F1800 X2.888 Y-15.464 E81.64487
G0 F7500 X2.888 Y-15.300
G0 X8.664 Y-15.300
G0 X8.664 Y-15.464
G1 F1800 X8.664 Y15.664 E83.32597
G0 F7500 X8.664 Y15.500
G0 X14.440 Y15.500
G0 X14.440 Y15.664
G1 F1800 X14.440 Y-15.464 E85.00708
G0 F7500 X14.440 Y-15.300
G0 X20.216 Y-15.300
G0 X20.216 Y-15.464
G1 F1800 X20.216 Y15.664 E86.68818
G0 F7500 X20.216 Y15.500
G0 X25.992 Y15.500
G0 X25.992 Y15.664
G1 F1800 X25.992 Y-15.464 E88.36928
G0 F7500 X25.992 Y-15.300
G0 X31.768 Y-15.300
G0 X31.768 Y-15.464
G1 F1800 X31.768 Y15.664 E90.05039
G0 F7500 X31.768 Y15.500
G0 X37.544 Y15.500
G0 X37.544 Y15.664
G1 F1800 X37.544 Y-15.464 E91.73149
G0 F7500 X37.544 Y-15.300
G0 X43.320 Y-15.300
G0 X43.320 Y-15.464
G1 F1800 X43.320 Y15.664 E93.41259
;LAYER:1
M106 S63
G1 F2400 E92.41259
G0 F7500 X0.284 Y0.284 Z0.500
;TYPE:WALL-OUTER
G1 F2400 E93.41259
G1 F1980 X0.216 Y0.284 E93.41504
G1 X0.216 Y0.216 E93.41749
G1 X0.284 Y0.216 E93.41994
G1 X0.284 Y0.284 E93.42238
G0 F7500 X1.200 Y1.200
;TYPE:SUPPORT
G1 F1920 X1.200 Y-0.700 E93.49079
G1 X-0.700 Y-0.700 E93.55920
G1 X-0.700 Y1.200 E93.62761
G1 X1.200 Y1.200 E93.69602
G0 F7500 X1.190 Y1.300
G0 X50.500 Y15.590
G0 X50.600 Y15.600
G1 F1920 X-50.500 Y15.600 E97.33603
G1 X-50.500 Y-15.400 E98.45216
G1 X50.600 Y-15.400 E102.09217
G1 X50.600 Y15.600 E103.20830
G0 F7500 X50.663 Y14.440
G1 F1920 X-50.564 Y14.439 E106.85288
G0 F7500 X-50.400 Y14.439
G0 X-49.096 Y15.500
G0 X-49.096 Y15.664
G1 F1920 X-49.096 Y-15.464 E107.97362
G0 F7500 X-49.096 Y-15.300
G0 X-50.400 Y-14.440
G0 X-50.563 Y-14.440
G1 F1920 X50.664 Y-14.439 E111.61821
G0 F7500 X50.500 Y-14.439
G0 X49.096 Y-15.300
G0 X49.096 Y-15.464
G1 F1920 X49.096 Y15.664 E112.73894
G0 F7500 X49.096 Y15.500
G0 X43.320 Y15.500
G0 X43.320 Y15.664
G1 F1920 X43.320 Y-15.464 E113.85968
G0 F7500 X43.320 Y-15.300
G0 X50.500 Y-8.663
G0 X50.664 Y-8.663
G1 F1920 X-50.563 Y-8.664 E117.50426
G0 F7500 X-50.400 Y-8.664
G0 X-50.400 Y-2.888
G0 X-50.563 Y-2.888
G1 F1920 X50.664 Y-2.887 E121.14885
G0 F7500 X50.500 Y-2.887
G0 X50.500 Y2.888
G0 X50.663 Y2.888
G1 F1920 X-50.564 Y2.887 E124.79344
G0 F7500 X-50.400 Y2.887
G0 X-50.400 Y8.663
G0 X-50.564 Y8.663
G1 F1920 X50.663 Y8.664 E128.43802
G0 F7500 X50.500 Y8.664
G0 X37.544 Y15.500
G0 X37.544 Y15.664
G1 F1920 X37.544 Y-15.464 E129.55876
G0 F7500 X37.544 Y-15.300
G0 X31.768 Y-15.300
G0 X31.768 Y-15.464
G1 F1920 X31.768 Y15.664 E130.67950
G0 F7500 X31.768 Y15.500
G0 X25.992 Y15.500
G0 X25.992 Y15.664
G1 F1920 X25.992 Y-15.464 E131.80023
G0 F7500 X25.992 Y-15.300
G0 X20.216 Y-15.300
G0 X20.216 Y-15.464
G1 F1920 X20.216 Y15.664 E132.92097
G0 F7500 X20.216 Y15.500
G0 X14.440 Y15.500
G0 X14.440 Y15.664
G1 F1920 X14.440 Y-15.464 E134.04170
G0 F7500 X14.440 Y-15.300
G0 X8.664 Y-15.300
G0 X8.664 Y-15.464
G1 F1920 X8.664 Y15.664 E135.16244
G0 F7500 X8.664 Y15.500
G0 X2.888 Y15.500
G0 X2.888 Y15.664
G1 F1920 X2.888 Y-15.464 E136.28317
G0 F7500 X2.888 Y-15.300
G0 X-2.888 Y-15.300
G0 X-2.888 Y-15.464
G1 F1920 X-2.888 Y15.664 E137.40391
G0 F7500 X-2.888 Y15.500
G0 X-8.664 Y15.500
G0 X-8.664 Y15.664
G1 F1920 X-8.664 Y-15.464 E138.52464
G0 F7500 X-8.664 Y-15.300
G0 X-14.440 Y-15.300
G0 X-14.440 Y-15.464
G1 F1920 X-14.440 Y15.664 E139.64538
G0 F7500 X-14.440 Y15.500
G0 X-20.216 Y15.500
G0 X-20.216 Y15.664
G1 F1920 X-20.216 Y-15.464 E140.76611
G0 F7500 X-20.216 Y-15.300
G0 X-25.992 Y-15.300
G0 X-25.992 Y-15.464
G1 F1920 X-25.992 Y15.664 E141.88685
G0 F7500 X-25.992 Y15.500
G0 X-31.768 Y15.500
G0 X-31.768 Y15.664
G1 F1920 X-31.768 Y-15.464 E143.00759
G0 F7500 X-31.768 Y-15.300
G0 X-37.544 Y-15.300
G0 X-37.544 Y-15.464
G1 F1920 X-37.544 Y15.664 E144.12832
G0 F7500 X-37.544 Y15.500
G0 X-43.320 Y15.500
G0 X-43.320 Y15.664
G1 F1920 X-43.320 Y-15.464 E145.24906
;LAYER:2
M106 S127
G1 F2400 E144.24906
G0 F7500 X0.216 Y0.216 Z0.700
;TYPE:WALL-OUTER
G1 F2400 E145.24906
G1 F2220 X0.284 Y0.216 E145.25151
G1 X0.284 Y0.284 E145.25395
G1 X0.216 Y0.284 E145.25640
G1 X0.216 Y0.216 E145.25885
G0 F7500 X-0.700 Y-0.700
;TYPE:SUPPORT
G1 F2100 X-0.700 Y1.200 E145.32726
G1 X1.200 Y1.200 E145.39567
G1 X1.200 Y-0.700 E145.46407
G1 X-0.700 Y-0.700 E145.53248
G0 F7500 X-0.690 Y-0.800
G0 X-50.500 Y-15.400
G1 F2100 X50.600 Y-15.400 E149.17250
G1 X50.600 Y15.600 E150.28862
G1 X-50.500 Y15.600 E153.92864
G1 X-50.500 Y-15.400 E155.04476
G0 F7500 X-50.563 Y-14.440
G1 F2100 X50.664 Y-14.439 E158.68935
G0 F7500 X50.500 Y-14.439
G0 X49.096 Y-15.300
G0 X49.096 Y-15.464
G1 F2100 X49.096 Y15.664 E159.81009
G0 F7500 X49.096 Y15.500
G0 X50.500 Y14.440
G0 X50.663 Y14.440
G1 F2100 X-50.564 Y14.439 E163.45467
G0 F7500 X-50.400 Y14.439
G0 X-49.096 Y15.500
G0 X-49.096 Y15.664
G1 F2100 X-49.096 Y-15.464 E164.57541
G0 F7500 X-49.096 Y-15.300
G0 X-43.320 Y-15.300
G0 X-43.320 Y-15.464
G1 F2100 X-43.320 Y15.664 E165.69614
G0 F7500 X-43.320 Y15.500
G0 X-50.400 Y8.663
G0 X-50.564 Y8.663
G1 F2100 X50.663 Y8.664 E169.34073
G0 F7500 X50.500 Y8.664
G0 X50.500 Y2.888
G0 X50.663 Y2.888
G1 F2100 X-50.564 Y2.887 E172.98532
G0 F7500 X-50.400 Y2.887
G0 X-50.400 Y-2.888
G0 X-50.563 Y-2.888
G1 F2100 X50.664 Y-2.887 E176.62990
G0 F7500 X50.500 Y-2.887
G0 X50.500 Y-8.663
G0 X50.664 Y-8.663
G1 F2100 X-50.563 Y-8.664 E180.27449
G0 F7500 X-50.400 Y-8.664
G0 X-37.544 Y-15.300
G0 X-37.544 Y-15.464
G1 F2100 X-37.544 Y15.664 E181.39523
G0 F7500 X-37.544 Y15.500
G0 X-31.768 Y15.500
G0 X-31.768 Y15.664
G1 F2100 X-31.768 Y-15.464 E182.51596
G0 F7500 X-31.768 Y-15.300
G0 X-25.992 Y-15.300
G0 X-25.992 Y-15.464
G1 F2100 X-25.992 Y15.664 E183.63670
G0 F7500 X-25.992 Y15.500
G0 X-20.216 Y15.500
G0 X-20.216 Y15.664
G1 F2100 X-20.216 Y-15.464 E184.75743
G0 F7500 X-20.216 Y-15.300
G0 X-14.440 Y-15.300
G0 X-14.440 Y-15.464
G1 F2100 X-14.440 Y15.664 E185.87817
G0 F7500 X-14.440 Y15.500
G0 X-8.664 Y15.500
G0 X-8.664 Y15.664
G1 F2100 X-8.664 Y-15.464 E186.99890
G0 F7500 X-8.664 Y-15.300
G0 X-2.888 Y-15.300
G0 X-2.888 Y-15.464
G1 F2100 X-2.888 Y15.664 E188.11964
G0 F7500 X-2.888 Y15.500
G0 X2.888 Y15.500
G0 X2.888 Y15.664
G1 F2100 X2.888 Y-15.464 E189.24037
G0 F7500 X2.888 Y-15.300
G0 X8.664 Y-15.300
G0 X8.664 Y-15.464
G1 F2100 X8.664 Y15.664 E190.36111
G0 F7500 X8.664 Y15.500
G0 X14.440 Y15.500
G0 X14.440 Y15.664
G1 F2100 X14.440 Y-15.464 E191.48184
G0 F7500 X14.440 Y-15.300
G0 X20.216 Y-15.300
G0 X20.216 Y-15.464
G1 F2100 X20.216 Y15.664 E192.60258
G0 F7500 X20.216 Y15.500
G0 X25.992 Y15.500
G0 X25.992 Y15.664
G1 F2100 X25.992 Y-15.464 E193.72332
G0 F7500 X25.992 Y-15.300
G0 X31.768 Y-15.300
G0 X31.768 Y-15.464
G1 F2100 X31.768 Y15.664 E194.84405
G0 F7500 X31.768 Y15.500
G0 X37.544 Y15.500
G0 X37.544 Y15.664
G1 F2100 X37.544 Y-15.464 E195.96479
G0 F7500 X37.544 Y-15.300
G0 X43.320 Y-15.300
G0 X43.320 Y-15.464
G1 F2100 X43.320 Y15.664 E197.08552
;LAYER:3
G1 F2400 E196.08552
G0 F7500 X0.284 Y0.284 Z0.900
;TYPE:WALL-OUTER
G1 F2400 E197.08552
G1 X0.216 Y0.284 E197.08797
G1 X0.216 Y0.216 E197.09042
G1 X0.284 Y0.216 E197.09287
G1 X0.284 Y0.284 E197.09532
G0 F7500 X1.200 Y1.200
;TYPE:SUPPORT
G1 F2220 X1.200 Y-0.700 E197.16372
G1 X-0.700 Y-0.700 E197.23213
G1 X-0.700 Y1.200 E197.30054
G1 X1.200 Y1.200 E197.36895
G0 F7500 X1.190 Y1.300
G0 X50.500 Y15.590
G0 X50.600 Y15.600
G1 F2220 X-50.500 Y15.600 E201.00896
G1 X-50.500 Y-15.400 E202.12509
G1 X50.600 Y-15.400 E205.76510
G1 X50.600 Y15.600 E206.88123
G0 F7500 X50.663 Y14.440
G1 F2220 X-50.564 Y14.439 E210.52582
G0 F7500 X-50.400 Y14.439
G0 X-49.096 Y15.500
G0 X-49.096 Y15.664
G1 F2220 X-49.096 Y-15.464 E211.64655
G0 F7500 X-49.096 Y-15.300
G0 X-50.400 Y-14.440
G0 X-50.563 Y-14.440
G1 F2220 X50.664 Y-14.439 E215.29114
G0 F7500 X50.500 Y-14.439
G0 X49.096 Y-15.300
G0 X49.096 Y-15.464
G1 F2220 X49.096 Y15.664 E216.41187
G0 F7500 X49.096 Y15.500
G0 X43.320 Y15.500
G0 X43.320 Y15.664
G1 F2220 X43.320 Y-15.464 E217.53261
G0 F7500 X43.320 Y-15.300
G0 X50.500 Y-8.663
G0 X50.664 Y-8.663
G1 F2220 X-50.563 Y-8.664 E221.17720
G0 F7500 X-50.400 Y-8.664
G0 X-50.400 Y-2.888
G0 X-50.563 Y-2.888
G1 F2220 X50.664 Y-2.887 E224.82178
G0 F7500 X50.500 Y-2.887
G0 X50.500 Y2.888
G0 X50.663 Y2.888
G1 F2220 X-50.564 Y2.887 E228.46637
G0 F7500 X-50.400 Y2.887
G0 X-50.400 Y8.663
G0 X-50.564 Y8.663
G1 F2220 X50.663 Y8.664 E232.11096
G0 F7500 X50.500 Y8.664
G0 X37.544 Y15.500
G0 X37.544 Y15.664
G1 F2220 X37.544 Y-15.464 E233.23169
G0 F7500 X37.544 Y-15.300
G0 X31.768 Y-15.300
G0 X31.768 Y-15.464
G1 F2220 X31.768 Y15.664 E234.35243
G0 F7500 X31.768 Y15.500
G0 X25.992 Y15.500
G0 X25.992 Y15.664
G1 F2220 X25.992 Y-15.464 E235.47316
G0 F7500 X25.992 Y-15.300
G0 X20.216 Y-15.300
G0 X20.216 Y-15.464
G1 F2220 X20.216 Y15.664 E236.59390
G0 F7500 X20.216 Y15.500
G0 X14.440 Y15.500
G0 X14.440 Y15.664
G1 F2220 X14.440 Y-15.464 E237.71463
G0 F7500 X14.440 Y-15.300
G0 X8.664 Y-15.300
G0 X8.664 Y-15.464
G1 F2220 X8.664 Y15.664 E238.83537
G0 F7500 X8.664 Y15.500
G0 X2.888 Y15.500
G0 X2.888 Y15.664
G1 F2220 X2.888 Y-15.464 E239.95610
G0 F7500 X2.888 Y-15.300
G0 X-2.888 Y-15.300
G0 X-2.888 Y-15.464
G1 F2220 X-2.888 Y15.664 E241.07684
G0 F7500 X-2.888 Y15.500
G0 X-8.664 Y15.500
G0 X-8.664 Y15.664
G1 F2220 X-8.664 Y-15.464 E242.19757
G0 F7500 X-8.664 Y-15.300
G0 X-14.440 Y-15.300
G0 X-14.440 Y-15.464
G1 F2220 X-14.440 Y15.664 E243.31831
G0 F7500 X-14.440 Y15.500
G0 X-20.216 Y15.500
G0 X-20.216 Y15.664
G1 F2220 X-20.216 Y-15.464 E244.43905
G0 F7500 X-20.216 Y-15.300
G0 X-25.992 Y-15.300
G0 X-25.992 Y-15.464
G1 F2220 X-25.992 Y15.664 E245.55978
G0 F7500 X-25.992 Y15.500
G0 X-31.768 Y15.500
G0 X-31.768 Y15.664
G1 F2220 X-31.768 Y-15.464 E246.68052
G0 F7500 X-31.768 Y-15.300
G0 X-37.544 Y-15.300
G0 X-37.544 Y-15.464
G1 F2220 X-37.544 Y15.664 E247.80125
G0 F7500 X-37.544 Y15.500
G0 X-43.320 Y15.500
G0 X-43.320 Y15.664
G1 F2220 X-43.320 Y-15.464 E248.92199
;LAYER:4
G1 F2400 E247.92199
G0 F7500 X0.216 Y0.216 Z1.100
;TYPE:WALL-OUTER
G1 F2400 E248.92199
G1 F2700 X0.284 Y0.216 E248.92444
G1 X0.284 Y0.284 E248.92688
G1 X0.216 Y0.284 E248.92933
G1 X0.216 Y0.216 E248.93178
G0 F7500 X-0.700 Y-0.700
;TYPE:SUPPORT
G1 F2400 X-0.700 Y1.200 E249.00019
G1 X1.200 Y1.200 E249.06860
G1 X1.200 Y-0.700 E249.13700
G1 X-0.700 Y-0.700 E249.20541
G0 F7500 X-0.690 Y-0.800
G0 X-50.500 Y-15.400
G1 F2400 X50.600 Y-15.400 E252.84543
G1 X50.600 Y15.600 E253.96155
G1 X-50.500 Y15.600 E257.60157
G1 X-50.500 Y-15.400 E258.71769
G0 F7500 X-50.563 Y-14.440
G1 F2400 X50.664 Y-14.439 E262.36228
G0 F7500 X50.500 Y-14.439
G0 X49.096 Y-15.300
G0 X49.096 Y-15.464
G1 F2400 X49.096 Y15.664 E263.48302
G0 F7500 X49.096 Y15.500
G0 X50.500 Y14.440
G0 X50.663 Y14.440
G1 F2400 X-50.564 Y14.439 E267.12760
G0 F7500 X-50.400 Y14.439
G0 X-49.096 Y15.500
G0 X-49.096 Y15.664
G1 F2400 X-49.096 Y-15.464 E268.24834
G0 F7500 X-49.096 Y-15.300
G0 X-43.320 Y-15.300
G0 X-43.320 Y-15.464
G1 F2400 X-43.320 Y15.664 E269.36907
G0 F7500 X-43.320 Y15.500
G0 X-50.400 Y8.663
G0 X-50.564 Y8.663
G1 F2400 X50.663 Y8.664 E273.01366
G0 F7500 X50.500 Y8.664
G0 X50.500 Y2.888
G0 X50.663 Y2.888
G1 F2400 X-50.564 Y2.887 E276.65825
G0 F7500 X-50.400 Y2.887
G0 X-50.400 Y-2.888
G0 X-50.563 Y-2.888
G1 F2400 X50.664 Y-2.887 E280.30283
G0 F7500 X50.500 Y-2.887
G0 X50.500 Y-8.663
G0 X50.664 Y-8.663
G1 F2400 X-50.563 Y-8.664 E283.94742
G0 F7500 X-50.400 Y-8.664
G0 X-37.544 Y-15.300
G0 X-37.544 Y-15.464
G1 F2400 X-37.544 Y15.664 E285.06816
G0 F7500 X-37.544 Y15.500
G0 X-31.768 Y15.500
G0 X-31.768 Y15.664
G1 F2400 X-31.768 Y-15.464 E286.18889
G0 F7500 X-31.768 Y-15.300
G0 X-25.992 Y-15.300
G0 X-25.992 Y-15.464
G1 F2400 X-25.992 Y15.664 E287.30963
G0 F7500 X-25.992 Y15.500
G0 X-20.216 Y15.500
G0 X-20.216 Y15.664
G1 F2400 X-20.216 Y-15.464 E288.43036
G0 F7500 X-20.216 Y-15.300
G0 X-14.440 Y-15.300
G0 X-14.440 Y-15.464
G1 F2400 X-14.440 Y15.664 E289.55110
G0 F7500 X-14.440 Y15.500
G0 X-8.664 Y15.500
G0 X-8.664 Y15.664
G1 F2400 X-8.664 Y-15.464 E290.67183
G0 F7500 X-8.664 Y-15.300
G0 X-2.888 Y-15.300
G0 X-2.888 Y-15.464
G1 F2400 X-2.888 Y15.664 E291.79257
G0 F7500 X-2.888 Y15.500
G0 X2.888 Y15.500
G0 X2.888 Y15.664
G1 F2400 X2.888 Y-15.464 E292.91330
G0 F7500 X2.888 Y-15.300
G0 X8.664 Y-15.300
G0 X8.664 Y-15.464
G1 F2400 X8.664 Y15.664 E294.03404
G0 F7500 X8.664 Y15.500
G0 X14.440 Y15.500
G0 X14.440 Y15.664
G1 F2400 X14.440 Y-15.464 E295.15478
G0 F7500 X14.440 Y-15.300
G0 X20.216 Y-15.300
G0 X20.216 Y-15.464
G1 F2400 X20.216 Y15.664 E296.27551
G0 F7500 X20.216 Y15.500
G0 X25.992 Y15.500
G0 X25.992 Y15.664
G1 F2400 X25.992 Y-15.464 E297.39625
G0 F7500 X25.992 Y-15.300
G0 X31.768 Y-15.300
G0 X31.768 Y-15.464
G1 F2400 X31.768 Y15.664 E298.51698
G0 F7500 X31.768 Y15.500
G0 X37.544 Y15.500
G0 X37.544 Y15.664
G1 F2400 X37.544 Y-15.464 E299.63772
G0 F7500 X37.544 Y-15.300
G0 X43.320 Y-15.300
G0 X43.320 Y-15.464
G1 F2400 X43.320 Y15.664 E300.75845
;LAYER:5
G1 F2400 E299.75845
G0 F7500 X0.284 Y0.284 Z1.300
;TYPE:WALL-OUTER
G1 F2400 E300.75845
G1 F2700 X0.216 Y0.284 E300.76090
G1 X0.216 Y0.216 E300.76335
G1 X0.284 Y0.216 E300.76580
G1 X0.284 Y0.284 E300.76825
G0 F7500 X1.200 Y1.200
;TYPE:SUPPORT
G1 F2400 X1.200 Y-0.700 E300.83665
G1 X-0.700 Y-0.700 E300.90506
G1 X-0.700 Y1.200 E300.97347
G1 X1.200 Y1.200 E301.04188
G0 F7500 X1.190 Y1.300
G0 X50.500 Y15.590
G0 X50.600 Y15.600
G1 F2400 X-50.500 Y15.600 E304.68189
G1 X-50.500 Y-15.400 E305.79802
G1 X50.600 Y-15.400 E309.43803
G1 X50.600 Y15.600 E310.55416
G0 F7500 X50.663 Y14.440
G1 F2400 X-50.564 Y14.439 E314.19875
G0 F7500 X-50.400 Y14.439
G0 X-49.096 Y15.500
G0 X-49.096 Y15.664
G1 F2400 X-49.096 Y-15.464 E315.31948
G0 F7500 X-49.096 Y-15.300
G0 X-50.400 Y-14.440
G0 X-50.563 Y-14.440
G1 F2400 X50.664 Y-14.439 E318.96407
G0 F7500 X50.500 Y-14.439
G0 X49.096 Y-15.300
G0 X49.096 Y-15.464
G1 F2400 X49.096 Y15.664 E320.08480
G0 F7500 X49.096 Y15.500
G0 X43.320 Y15.500
G0 X43.320 Y15.664
