;Generated with Cura_SteamEngine 15.04.6

;Layer count: 16
;LAYER:0
M107
G0 F7500 X-53.716 Y-38.616 Z0.300
;TYPE:SKIRT
G1 F1800 X53.816 Y-38.616 E5.80739
G1 X53.816 Y38.816 E9.98919
G1 X-53.716 Y38.816 E15.79658
G1 X-53.716 Y-38.616 E19.97838
G1 F2400 E18.97838
G0 F7500 X0.216 Y0.216
;TYPE:WALL-OUTER
G1 F2400 E19.97838
G1 F1800 X0.284 Y0.216 E19.98206
G1 X0.284 Y0.284 E19.98573
G1 X0.216 Y0.284 E19.98940
G1 X0.216 Y0.216 E19.99307
G0 F7500 X-0.700 Y-0.700
;TYPE:SUPPORT
G1 F1800 X-0.700 Y1.200 E20.09569
G1 X1.200 Y1.200 E20.19830
G1 X1.200 Y-0.700 E20.30091
G1 X-0.700 Y-0.700 E20.40352
G0 F7500 X-0.690 Y-0.800
G0 X-50.500 Y-35.400
G1 F1800 X50.600 Y-35.400 E25.86354
G1 X50.600 Y35.600 E29.69798
G1 X-50.500 Y35.600 E35.15800
G1 X-50.500 Y-35.400 E38.99244
G0 F7500 X-49.096 Y-35.464
G1 F1800 X-49.096 Y35.664 E42.83379
G0 F7500 X-49.096 Y35.500
G0 X-50.400 Y31.767
G0 X-50.564 Y31.767
G1 F1800 X50.663 Y31.768 E48.30067
G0 F7500 X50.500 Y31.768
G0 X49.096 Y35.500
G0 X49.096 Y35.664
G1 F1800 X49.096 Y-35.464 E52.14201
G0 F7500 X49.096 Y-35.300
G0 X50.500 Y-31.767
G0 X50.664 Y-31.767
G1 F1800 X-50.563 Y-31.768 E57.60889
G0 F7500 X-50.400 Y-31.768
G0 X-50.400 Y-25.992
G0 X-50.563 Y-25.992
G1 F1800 X50.664 Y-25.991 E63.07577
G0 F7500 X50.500 Y-25.991
G0 X50.500 Y-20.215
G0 X50.664 Y-20.215
G1 F1800 X-50.563 Y-20.216 E68.54265
G0 F7500 X-50.400 Y-20.216
G0 X-43.320 Y-35.300
G0 X-43.320 Y-35.464
G1 F1800 X-43.320 Y35.664 E72.38400
G0 F7500 X-43.320 Y35.500
G0 X-50.400 Y25.991
G0 X-50.564 Y25.991
G1 F1800 X50.663 Y25.992 E77.85088
G0 F7500 X50.500 Y25.992
G0 X50.500 Y20.216
G0 X50.663 Y20.216
G1 F1800 X-50.564 Y20.215 E83.31776
G0 F7500 X-50.400 Y20.215
G0 X-50.400 Y14.439
G0 X-50.564 Y14.439
G1 F1800 X50.663 Y14.440 E88.78464
G0 F7500 X50.500 Y14.440
G0 X50.500 Y8.664
G0 X50.663 Y8.664
G1 F1800 X-50.564 Y8.663 E94.25152
G0 F7500 X-50.400 Y8.663
G0 X-50.400 Y2.887
G0 X-50.564 Y2.887
G1 F1800 X50.663 Y2.888 E99.71840
G0 F7500 X50.500 Y2.888
G0 X50.500 Y-2.887
G0 X50.664 Y-2.887
G1 F1800 X-50.563 Y-2.888 E105.18528
G0 F7500 X-50.400 Y-2.888
G0 X-50.400 Y-8.664
G0 X-50.563 Y-8.664
G1 F1800 X50.664 Y-8.663 E110.65216
G0 F7500 X50.500 Y-8.663
G0 X50.500 Y-14.439
G0 X50.664 Y-14.439
G1 F1800 X-50.563 Y-14.440 E116.11904
G0 F7500 X-50.400 Y-14.440
G0 X-37.544 Y-35.300
G0 X-37.544 Y-35.464
G1 F1800 X-37.544 Y35.664 E119.96039
G0 F7500 X-37.544 Y35.500
G0 X-31.768 Y35.500
G0 X-31.768 Y35.664
G1 F1800 X-31.768 Y-35.464 E123.80174
G0 F7500 X-31.768 Y-35.300
G0 X-25.992 Y-35.300
G0 X-25.992 Y-35.464
G1 F1800 X-25.992 Y35.664 E127.64309
G0 F7500 X-25.992 Y35.500
G0 X-20.216 Y35.500
G0 X-20.216 Y35.664
G1 F1800 X-20.216 Y-35.464 E131.48444
G0 F7500 X-20.216 Y-35.300
G0 X-14.440 Y-35.300
G0 X-14.440 Y-35.464
G1 F1800 X-14.440 Y35.664 E135.32579
G0 F7500 X-14.440 Y35.500
G0 X-8.664 Y35.500
G0 X-8.664 Y35.664
G1 F1800 X-8.664 Y-35.464 E139.16714
G0 F7500 X-8.664 Y-35.300
G0 X-2.888 Y-35.300
G0 X-2.888 Y-35.464
G1 F1800 X-2.888 Y35.664 E143.00849
G0 F7500 X-2.888 Y35.500
G0 X2.888 Y35.500
G0 X2.888 Y35.664
G1 F1800 X2.888 Y-35.464 E146.84984
G0 F7500 X2.888 Y-35.300
G0 X8.664 Y-35.300
G0 X8.664 Y-35.464
G1 F1800 X8.664 Y35.664 E150.69118
G0 F7500 X8.664 Y35.500
G0 X14.440 Y35.500
G0 X14.440 Y35.664
G1 F1800 X14.440 Y-35.464 E154.53253
G0 F7500 X14.440 Y-35.300
G0 X20.216 Y-35.300
G0 X20.216 Y-35.464
G1 F1800 X20.216 Y35.664 E158.37388
G0 F7500 X20.216 Y35.500
G0 X25.992 Y35.500
G0 X25.992 Y35.664
G1 F1800 X25.992 Y-35.464 E162.21523
G0 F7500 X25.992 Y-35.300
G0 X31.768 Y-35.300
G0 X31.768 Y-35.464
G1 F1800 X31.768 Y35.664 E166.05658
G0 F7500 X31.768 Y35.500
G0 X37.544 Y35.500
G0 X37.544 Y35.664
G1 F1800 X37.544 Y-35.464 E169.89793
G0 F7500 X37.544 Y-35.300
G0 X43.320 Y-35.300
G0 X43.320 Y-35.464
G1 F1800 X43.320 Y35.664 E173.73928
;LAYER:1
M106 S63
G1 F2400 E172.73928
G0 F7500 X0.284 Y0.284 Z0.500
;TYPE:WALL-OUTER
G1 F2400 E173.73928
G1 F1980 X0.216 Y0.284 E173.74173
G1 X0.216 Y0.216 E173.74417
G1 X0.284 Y0.216 E173.74662
G1 X0.284 Y0.284 E173.74907
G0 F7500 X1.200 Y1.200
;TYPE:SUPPORT
G1 F1920 X1.200 Y-0.700 E173.81748
G1 X-0.700 Y-0.700 E173.88589
G1 X-0.700 Y1.200 E173.95429
G1 X1.200 Y1.200 E174.02270
G0 F7500 X1.190 Y1.300
G0 X50.500 Y35.590
G0 X50.600 Y35.600
G1 F1920 X-50.500 Y35.600 E177.66272
G1 X-50.500 Y-35.400 E180.21901
G1 X50.600 Y-35.400 E183.85902
G1 X50.600 Y35.600 E186.41531
G0 F7500 X50.500 Y35.590
G0 X49.096 Y35.500
G0 X49.096 Y35.664
G1 F1920 X49.096 Y-35.464 E188.97621
G0 F7500 X49.096 Y-35.300
G0 X50.500 Y-31.767
G0 X50.664 Y-31.767
G1 F1920 X-50.563 Y-31.768 E192.62080
G0 F7500 X-50.400 Y-31.768
G0 X-49.096 Y-35.300
G0 X-49.096 Y-35.464
G1 F1920 X-49.096 Y35.664 E195.18170
G0 F7500 X-49.096 Y35.500
G0 X-50.400 Y31.767
G0 X-50.564 Y31.767
G1 F1920 X50.663 Y31.768 E198.82628
G0 F7500 X50.500 Y31.768
G0 X50.500 Y25.992
G0 X50.663 Y25.992
G1 F1920 X-50.564 Y25.991 E202.47087
G0 F7500 X-50.400 Y25.991
G0 X-50.400 Y20.215
G0 X-50.564 Y20.215
G1 F1920 X50.663 Y20.216 E206.11546
G0 F7500 X50.500 Y20.216
G0 X43.320 Y35.500
G0 X43.320 Y35.664
G1 F1920 X43.320 Y-35.464 E208.67636
G0 F7500 X43.320 Y-35.300
G0 X50.500 Y-25.991
G0 X50.664 Y-25.991
G1 F1920 X-50.563 Y-25.992 E212.32094
G0 F7500 X-50.400 Y-25.992
G0 X-50.400 Y-20.216
G0 X-50.563 Y-20.216
G1 F1920 X50.664 Y-20.215 E215.96553
G0 F7500 X50.500 Y-20.215
G0 X50.500 Y-14.439
G0 X50.664 Y-14.439
G1 F1920 X-50.563 Y-14.440 E219.61012
G0 F7500 X-50.400 Y-14.440
G0 X-50.400 Y-8.664
G0 X-50.563 Y-8.664
G1 F1920 X50.664 Y-8.663 E223.25470
G0 F7500 X50.500 Y-8.663
G0 X50.500 Y-2.887
G0 X50.664 Y-2.887
G1 F1920 X-50.563 Y-2.888 E226.89929
G0 F7500 X-50.400 Y-2.888
G0 X-50.400 Y2.887
G0 X-50.564 Y2.887
G1 F1920 X50.663 Y2.888 E230.54388
G0 F7500 X50.500 Y2.888
G0 X50.500 Y8.664
G0 X50.663 Y8.664
G1 F1920 X-50.564 Y8.663 E234.18846
G0 F7500 X-50.400 Y8.663
G0 X-50.400 Y14.439
G0 X-50.564 Y14.439
G1 F1920 X50.663 Y14.440 E237.83305
G0 F7500 X50.500 Y14.440
G0 X37.544 Y35.500
G0 X37.544 Y35.664
G1 F1920 X37.544 Y-35.464 E240.39395
G0 F7500 X37.544 Y-35.300
G0 X31.768 Y-35.300
G0 X31.768 Y-35.464
G1 F1920 X31.768 Y35.664 E242.95485
G0 F7500 X31.768 Y35.500
G0 X25.992 Y35.500
G0 X25.992 Y35.664
G1 F1920 X25.992 Y-35.464 E245.51575
G0 F7500 X25.992 Y-35.300
G0 X20.216 Y-35.300
G0 X20.216 Y-35.464
G1 F1920 X20.216 Y35.664 E248.07665
G0 F7500 X20.216 Y35.500
G0 X14.440 Y35.500
G0 X14.440 Y35.664
G1 F1920 X14.440 Y-35.464 E250.63755
G0 F7500 X14.440 Y-35.300
G0 X8.664 Y-35.300
G0 X8.664 Y-35.464
G1 F1920 X8.664 Y35.664 E253.19845
G0 F7500 X8.664 Y35.500
G0 X2.888 Y35.500
G0 X2.888 Y35.664
G1 F1920 X2.888 Y-35.464 E255.75935
G0 F7500 X2.888 Y-35.300
G0 X-2.888 Y-35.300
G0 X-2.888 Y-35.464
G1 F1920 X-2.888 Y35.664 E258.32025
G0 F7500 X-2.888 Y35.500
G0 X-8.664 Y35.500
G0 X-8.664 Y35.664
G1 F1920 X-8.664 Y-35.464 E260.88114
G0 F7500 X-8.664 Y-35.300
G0 X-14.440 Y-35.300
G0 X-14.440 Y-35.464
G1 F1920 X-14.440 Y35.664 E263.44204
G0 F7500 X-14.440 Y35.500
G0 X-20.216 Y35.500
G0 X-20.216 Y35.664
G1 F1920 X-20.216 Y-35.464 E266.00294
G0 F7500 X-20.216 Y-35.300
G0 X-25.992 Y-35.300
G0 X-25.992 Y-35.464
G1 F1920 X-25.992 Y35.664 E268.56384
G0 F7500 X-25.992 Y35.500
G0 X-31.768 Y35.500
G0 X-31.768 Y35.664
G1 F1920 X-31.768 Y-35.464 E271.12474
G0 F7500 X-31.768 Y-35.300
G0 X-37.544 Y-35.300
G0 X-37.544 Y-35.464
G1 F1920 X-37.544 Y35.664 E273.68564
G0 F7500 X-37.544 Y35.500
G0 X-43.320 Y35.500
G0 X-43.320 Y35.664
G1 F1920 X-43.320 Y-35.464 E276.24654
;LAYER:2
M106 S127
G1 F2400 E275.24654
G0 F7500 X0.216 Y0.216 Z0.700
;TYPE:WALL-OUTER
G1 F2400 E276.24654
G1 F2220 X0.284 Y0.216 E276.24899
G1 X0.284 Y0.284 E276.25144
G1 X0.216 Y0.284 E276.25389
G1 X0.216 Y0.216 E276.25633
G0 F7500 X-0.700 Y-0.700
;TYPE:SUPPORT
G1 F2100 X-0.700 Y1.200 E276.32474
G1 X1.200 Y1.200 E276.39315
G1 X1.200 Y-0.700 E276.46156
G1 X-0.700 Y-0.700 E276.52996
G0 F7500 X-0.690 Y-0.800
G0 X-50.500 Y-35.400
G1 F2100 X50.600 Y-35.400 E280.16998
G1 X50.600 Y35.600 E282.72627
G1 X-50.500 Y35.600 E286.36628
G1 X-50.500 Y-35.400 E288.92257
G0 F7500 X-49.096 Y-35.464
G1 F2100 X-49.096 Y35.664 E291.48347
G0 F7500 X-49.096 Y35.500
G0 X-50.400 Y31.767
G0 X-50.564 Y31.767
G1 F2100 X50.663 Y31.768 E295.12806
G0 F7500 X50.500 Y31.768
G0 X49.096 Y35.500
G0 X49.096 Y35.664
G1 F2100 X49.096 Y-35.464 E297.68896
G0 F7500 X49.096 Y-35.300
G0 X50.500 Y-31.767
G0 X50.664 Y-31.767
G1 F2100 X-50.563 Y-31.768 E301.33355
G0 F7500 X-50.400 Y-31.768
G0 X-50.400 Y-25.992
G0 X-50.563 Y-25.992
G1 F2100 X50.664 Y-25.991 E304.97813
G0 F7500 X50.500 Y-25.991
G0 X50.500 Y-20.215
G0 X50.664 Y-20.215
G1 F2100 X-50.563 Y-20.216 E308.62272
G0 F7500 X-50.400 Y-20.216
G0 X-43.320 Y-35.300
G0 X-43.320 Y-35.464
G1 F2100 X-43.320 Y35.664 E311.18362
G0 F7500 X-43.320 Y35.500
G0 X-50.400 Y25.991
G0 X-50.564 Y25.991
G1 F2100 X50.663 Y25.992 E314.82821
G0 F7500 X50.500 Y25.992
G0 X50.500 Y20.216
G0 X50.663 Y20.216
G1 F2100 X-50.564 Y20.215 E318.47279
G0 F7500 X-50.400 Y20.215
G0 X-50.400 Y14.439
G0 X-50.564 Y14.439
G1 F2100 X50.663 Y14.440 E322.11738
G0 F7500 X50.500 Y14.440
G0 X50.500 Y8.664
G0 X50.663 Y8.664
G1 F2100 X-50.564 Y8.663 E325.76197
G0 F7500 X-50.400 Y8.663
G0 X-50.400 Y2.887
G0 X-50.564 Y2.887
G1 F2100 X50.663 Y2.888 E329.40655
G0 F7500 X50.500 Y2.888
G0 X50.500 Y-2.887
G0 X50.664 Y-2.887
G1 F2100 X-50.563 Y-2.888 E333.05114
G0 F7500 X-50.400 Y-2.888
G0 X-50.400 Y-8.664
G0 X-50.563 Y-8.664
G1 F2100 X50.664 Y-8.663 E336.69573
G0 F7500 X50.500 Y-8.663
G0 X50.500 Y-14.439
G0 X50.664 Y-14.439
G1 F2100 X-50.563 Y-14.440 E340.34031
G0 F7500 X-50.400 Y-14.440
G0 X-37.544 Y-35.300
G0 X-37.544 Y-35.464
G1 F2100 X-37.544 Y35.664 E342.90121
G0 F7500 X-37.544 Y35.500
G0 X-31.768 Y35.500
G0 X-31.768 Y35.664
G1 F2100 X-31.768 Y-35.464 E345.46211
G0 F7500 X-31.768 Y-35.300
G0 X-25.992 Y-35.300
G0 X-25.992 Y-35.464
G1 F2100 X-25.992 Y35.664 E348.02301
G0 F7500 X-25.992 Y35.500
G0 X-20.216 Y35.500
G0 X-20.216 Y35.664
G1 F2100 X-20.216 Y-35.464 E350.58391
G0 F7500 X-20.216 Y-35.300
G0 X-14.440 Y-35.300
G0 X-14.440 Y-35.464
G1 F2100 X-14.440 Y35.664 E353.14481
G0 F7500 X-14.440 Y35.500
G0 X-8.664 Y35.500
G0 X-8.664 Y35.664
G1 F2100 X-8.664 Y-35.464 E355.70571
G0 F7500 X-8.664 Y-35.300
G0 X-2.888 Y-35.300
G0 X-2.888 Y-35.464
G1 F2100 X-2.888 Y35.664 E358.26661
G0 F7500 X-2.888 Y35.500
G0 X2.888 Y35.500
G0 X2.888 Y35.664
G1 F2100 X2.888 Y-35.464 E360.82751
G0 F7500 X2.888 Y-35.300
G0 X8.664 Y-35.300
G0 X8.664 Y-35.464
G1 F2100 X8.664 Y35.664 E363.38841
G0 F7500 X8.664 Y35.500
G0 X14.440 Y35.500
G0 X14.440 Y35.664
G1 F2100 X14.440 Y-35.464 E365.94931
G0 F7500 X14.440 Y-35.300
G0 X20.216 Y-35.300
G0 X20.216 Y-35.464
G1 F2100 X20.216 Y35.664 E368.51021
G0 F7500 X20.216 Y35.500
G0 X25.992 Y35.500
G0 X25.992 Y35.664
G1 F2100 X25.992 Y-35.464 E371.07110
G0 F7500 X25.992 Y-35.300
G0 X31.768 Y-35.300
G0 X31.768 Y-35.464
G1 F2100 X31.768 Y35.664 E373.63200
G0 F7500 X31.768 Y35.500
G0 X37.544 Y35.500
G0 X37.544 Y35.664
G1 F2100 X37.544 Y-35.464 E376.19290
G0 F7500 X37.544 Y-35.300
G0 X43.320 Y-35.300
G0 X43.320 Y-35.464
G1 F2100 X43.320 Y35.664 E378.75380
;LAYER:3
G1 F2400 E377.75380
G0 F7500 X0.284 Y0.284 Z0.900
;TYPE:WALL-OUTER
G1 F2400 E378.75380
G1 X0.216 Y0.284 E378.75625
G1 X0.216 Y0.216 E378.75870
G1 X0.284 Y0.216 E378.76115
G1 X0.284 Y0.284 E378.76360
G0 F7500 X1.200 Y1.200
;TYPE:SUPPORT
G1 F2220 X1.200 Y-0.700 E378.83200
G1 X-0.700 Y-0.700 E378.90041
G1 X-0.700 Y1.200 E378.96882
G1 X1.200 Y1.200 E379.03723
G0 F7500 X1.190 Y1.300
G0 X50.500 Y35.590
G0 X50.600 Y35.600
G1 F2220 X-50.500 Y35.600 E382.67724
G1 X-50.500 Y-35.400 E385.23353
G1 X50.600 Y-35.400 E388.87355
G1 X50.600 Y35.600 E391.42984
G0 F7500 X50.500 Y35.590
G0 X49.096 Y35.500
G0 X49.096 Y35.664
G1 F2220 X49.096 Y-35.464 E393.99074
G0 F7500 X49.096 Y-35.300
G0 X50.500 Y-31.767
G0 X50.664 Y-31.767
G1 F2220 X-50.563 Y-31.768 E397.63532
G0 F7500 X-50.400 Y-31.768
G0 X-49.096 Y-35.300
G0 X-49.096 Y-35.464
G1 F2220 X-49.096 Y35.664 E400.19622
G0 F7500 X-49.096 Y35.500
G0 X-50.400 Y31.767
G0 X-50.564 Y31.767
G1 F2220 X50.663 Y31.768 E403.84081
G0 F7500 X50.500 Y31.768
G0 X50.500 Y25.992
G0 X50.663 Y25.992
G1 F2220 X-50.564 Y25.991 E407.48540
G0 F7500 X-50.400 Y25.991
G0 X-50.400 Y20.215
G0 X-50.564 Y20.215
G1 F2220 X50.663 Y20.216 E411.12998
G0 F7500 X50.500 Y20.216
G0 X43.320 Y35.500
G0 X43.320 Y35.664
G1 F2220 X43.320 Y-35.464 E413.69088
G0 F7500 X43.320 Y-35.300
G0 X50.500 Y-25.991
G0 X50.664 Y-25.991
G1 F2220 X-50.563 Y-25.992 E417.33547
G0 F7500 X-50.400 Y-25.992
G0 X-50.400 Y-20.216
G0 X-50.563 Y-20.216
G1 F2220 X50.664 Y-20.215 E420.98005
G0 F7500 X50.500 Y-20.215
G0 X50.500 Y-14.439
G0 X50.664 Y-14.439
G1 F2220 X-50.563 Y-14.440 E424.62464
G0 F7500 X-50.400 Y-14.440
G0 X-50.400 Y-8.664
G0 X-50.563 Y-8.664
G1 F2220 X50.664 Y-8.663 E428.26923
G0 F7500 X50.500 Y-8.663
G0 X50.500 Y-2.887
G0 X50.664 Y-2.887
G1 F2220 X-50.563 Y-2.888 E431.91381
G0 F7500 X-50.400 Y-2.888
G0 X-50.400 Y2.887
G0 X-50.564 Y2.887
G1 F2220 X50.663 Y2.888 E435.55840
G0 F7500 X50.500 Y2.888
G0 X50.500 Y8.664
G0 X50.663 Y8.664
G1 F2220 X-50.564 Y8.663 E439.20299
G0 F7500 X-50.400 Y8.663
G0 X-50.400 Y14.439
G0 X-50.564 Y14.439
G1 F2220 X50.663 Y14.440 E442.84757
G0 F7500 X50.500 Y14.440
G0 X37.544 Y35.500
G0 X37.544 Y35.664
G1 F2220 X37.544 Y-35.464 E445.40847
G0 F7500 X37.544 Y-35.300
G0 X31.768 Y-35.300
G0 X31.768 Y-35.464
G1 F2220 X31.768 Y35.664 E447.96937
G0 F7500 X31.768 Y35.500
G0 X25.992 Y35.500
G0 X25.992 Y35.664
G1 F2220 X25.992 Y-35.464 E450.53027
G0 F7500 X25.992 Y-35.300
G0 X20.216 Y-35.300
G0 X20.216 Y-35.464
G1 F2220 X20.216 Y35.664 E453.09117
G0 F7500 X20.216 Y35.500
G0 X14.440 Y35.500
G0 X14.440 Y35.664
G1 F2220 X14.440 Y-35.464 E455.65207
G0 F7500 X14.440 Y-35.300
G0 X8.664 Y-35.300
G0 X8.664 Y-35.464
G1 F2220 X8.664 Y35.664 E458.21297
G0 F7500 X8.664 Y35.500
G0 X2.888 Y35.500
G0 X2.888 Y35.664
G1 F2220 X2.888 Y-35.464 E460.77387
G0 F7500 X2.888 Y-35.300
G0 X-2.888 Y-35.300
G0 X-2.888 Y-35.464
G1 F2220 X-2.888 Y35.664 E463.33477
G0 F7500 X-2.888 Y35.500
G0 X-8.664 Y35.500
G0 X-8.664 Y35.664
G1 F2220 X-8.664 Y-35.464 E465.89567
G0 F7500 X-8.664 Y-35.300
G0 X-14.440 Y-35.300
G0 X-14.440 Y-35.464
G1 F2220 X-14.440 Y35.664 E468.45657
G0 F7500 X-14.440 Y35.500
G0 X-20.216 Y35.500
G0 X-20.216 Y35.664
G1 F2220 X-20.216 Y-35.464 E471.01747
G0 F7500 X-20.216 Y-35.300
G0 X-25.992 Y-35.300
G0 X-25.992 Y-35.464
G1 F2220 X-25.992 Y35.664 E473.57837
G0 F7500 X-25.992 Y35.500
G0 X-31.768 Y35.500
G0 X-31.768 Y35.664
G1 F2220 X-31.768 Y-35.464 E476.13927
G0 F7500 X-31.768 Y-35.300
G0 X-37.544 Y-35.300
G0 X-37.544 Y-35.464
G1 F2220 X-37.544 Y35.664 E478.70017
G0 F7500 X-37.544 Y35.500
G0 X-43.320 Y35.500
G0 X-43.320 Y35.664
G1 F2220 X-43.320 Y-35.464 E481.26107
;LAYER:4
G1 F2400 E480.26107
G0 F7500 X0.216 Y0.216 Z1.100
;TYPE:WALL-OUTER
G1 F2400 E481.26107
G1 F2700 X0.284 Y0.216 E481.26351
G1 X0.284 Y0.284 E481.26596
G1 X0.216 Y0.284 E481.26841
G1 X0.216 Y0.216 E481.27086
G0 F7500 X-0.700 Y-0.700
;TYPE:SUPPORT
G1 F2400 X-0.700 Y1.200 E481.33927
G1 X1.200 Y1.200 E481.40767
G1 X1.200 Y-0.700 E481.47608
G1 X-0.700 Y-0.700 E481.54449
G0 F7500 X-0.690 Y-0.800
G0 X-50.500 Y-35.400
G1 F2400 X50.600 Y-35.400 E485.18450
G1 X50.600 Y35.600 E487.74079
G1 X-50.500 Y35.600 E491.38081
G1 X-50.500 Y-35.400 E493.93710
G0 F7500 X-49.096 Y-35.464
G1 F2400 X-49.096 Y35.664 E496.49800
G0 F7500 X-49.096 Y35.500
G0 X-50.400 Y31.767
G0 X-50.564 Y31.767
G1 F2400 X50.663 Y31.768 E500.14259
G0 F7500 X50.500 Y31.768
G0 X49.096 Y35.500
G0 X49.096 Y35.664
G1 F2400 X49.096 Y-35.464 E502.70348
G0 F7500 X49.096 Y-35.300
G0 X50.500 Y-31.767
G0 X50.664 Y-31.767
G1 F2400 X-50.563 Y-31.768 E506.34807
G0 F7500 X-50.400 Y-31.768
G0 X-50.400 Y-25.992
G0 X-50.563 Y-25.992
G1 F2400 X50.664 Y-25.991 E509.99266
G0 F7500 X50.500 Y-25.991
G0 X50.500 Y-20.215
G0 X50.664 Y-20.215
G1 F2400 X-50.563 Y-20.216 E513.63724
G0 F7500 X-50.400 Y-20.216
G0 X-43.320 Y-35.300
G0 X-43.320 Y-35.464
G1 F2400 X-43.320 Y35.664 E516.19814
G0 F7500 X-43.320 Y35.500
G0 X-50.400 Y25.991
G0 X-50.564 Y25.991
G1 F2400 X50.663 Y25.992 E519.84273
G0 F7500 X50.500 Y25.992
G0 X50.500 Y20.216
G0 X50.663 Y20.216
