;Generated with Cura_SteamEngine 15.04.6

;Layer count: 16
;LAYER:0
M107
G0 F7500 X-9.582 Y-9.482 Z0.300
;TYPE:SKIRT
G1 F1800 X9.682 Y-9.482 E1.04037
G1 X9.682 Y9.682 E2.07535
G1 X-9.582 Y9.682 E3.11572
G1 X-9.582 Y-9.482 E4.15070
G0 F7500 X-9.149 Y-9.049
G1 F1800 X9.249 Y-9.049 E5.14430
G1 X9.249 Y9.249 E6.13251
G1 X-9.149 Y9.249 E7.12611
G1 X-9.149 Y-9.049 E8.11432
G0 F7500 X-8.716 Y-8.616
G1 F1800 X8.816 Y-8.616 E9.06115
G1 X8.816 Y8.816 E10.00259
G1 X-8.716 Y8.816 E10.94942
G1 X-8.716 Y-8.616 E11.89086
G1 F2400 E10.89086
G0 F7500 X0.216 Y0.216
;TYPE:WALL-OUTER
G1 F2400 E11.89086
G1 F1800 X0.284 Y0.216 E11.89453
G1 X0.284 Y0.284 E11.89820
G1 X0.216 Y0.284 E11.90187
G1 X0.216 Y0.216 E11.90555
G0 F7500 X-0.700 Y-0.700
;TYPE:SUPPORT
G1 F1800 X-0.700 Y1.200 E12.00816
G1 X1.200 Y1.200 E12.11077
G1 X1.200 Y-0.700 E12.21338
G1 X-0.700 Y-0.700 E12.31599
G0 F7500 X-0.690 Y-0.800
G0 X-5.500 Y-5.400
G1 F1800 X5.600 Y-5.400 E12.91546
G1 X5.600 Y5.600 E13.50953
G1 X-5.500 Y5.600 E14.10900
G1 X-5.500 Y-5.400 E14.70306
G0 F7500 X-5.400 Y-2.888
G0 X-5.563 Y-2.888
G1 F1800 X5.664 Y-2.887 E15.30939
G0 F7500 X5.500 Y-2.887
G0 X2.888 Y-5.300
G0 X2.888 Y-5.464
G1 F1800 X2.888 Y5.664 E15.91037
G0 F7500 X2.888 Y5.500
G0 X5.500 Y2.888
G0 X5.663 Y2.888
G1 F1800 X-5.564 Y2.887 E16.51670
G0 F7500 X-5.400 Y2.887
G0 X-2.888 Y5.500
G0 X-2.888 Y5.664
G1 F1800 X-2.888 Y-5.464 E17.11768
;LAYER:1
M106 S109
G1 F2400 E16.11768
G0 F7500 X0.216 Y0.216 Z0.500
;TYPE:WALL-OUTER
G1 F2400 E17.11768
G1 F1200 X0.284 Y0.216 E17.12013
G1 X0.284 Y0.284 E17.12258
G1 X0.216 Y0.284 E17.12502
G1 X0.216 Y0.216 E17.12747
G0 F7500 X-0.700 Y-0.700
;TYPE:SUPPORT
G1 F1200 X-0.700 Y1.200 E17.19588
G1 X1.200 Y1.200 E17.26429
G1 X1.200 Y-0.700 E17.33270
G1 X-0.700 Y-0.700 E17.40110
G0 F7500 X-0.690 Y-0.800
G0 X-5.500 Y-5.400
G1 F1200 X5.600 Y-5.400 E17.80075
G1 X5.600 Y5.600 E18.19679
G1 X-5.500 Y5.600 E18.59644
G1 X-5.500 Y-5.400 E18.99248
G0 F7500 X-5.400 Y-2.888
G0 X-5.563 Y-2.888
G1 F1200 X5.664 Y-2.887 E19.39670
G0 F7500 X5.500 Y-2.887
G0 X2.888 Y-5.300
G0 X2.888 Y-5.464
G1 F1200 X2.888 Y5.664 E19.79736
G0 F7500 X2.888 Y5.500
G0 X5.500 Y2.888
G0 X5.663 Y2.888
G1 F1200 X-5.564 Y2.887 E20.20157
G0 F7500 X-5.400 Y2.887
G0 X-2.888 Y5.500
G0 X-2.888 Y5.664
G1 F1200 X-2.888 Y-5.464 E20.60223
;LAYER:2
M106 S237
G1 F2400 E19.60223
G0 F7500 X0.216 Y0.216 Z0.700
;TYPE:WALL-OUTER
G1 F2400 E20.60223
G1 F1260 X0.284 Y0.216 E20.60468
G1 X0.284 Y0.284 E20.60712
G1 X0.216 Y0.284 E20.60957
G1 X0.216 Y0.216 E20.61202
G0 F7500 X-0.700 Y-0.700
;TYPE:SUPPORT
G1 F1140 X-0.700 Y1.200 E20.68043
G1 X1.200 Y1.200 E20.74884
G1 X1.200 Y-0.700 E20.81724
G1 X-0.700 Y-0.700 E20.88565
G0 F7500 X-0.690 Y-0.800
G0 X-5.500 Y-5.400
G1 F1140 X5.600 Y-5.400 E21.28530
G1 X5.600 Y5.600 E21.68134
G1 X-5.500 Y5.600 E22.08099
G1 X-5.500 Y-5.400 E22.47703
G0 F7500 X-5.400 Y-2.888
G0 X-5.563 Y-2.888
G1 F1140 X5.664 Y-2.887 E22.88125
G0 F7500 X5.500 Y-2.887
G0 X2.888 Y-5.300
G0 X2.888 Y-5.464
G1 F1140 X2.888 Y5.664 E23.28190
G0 F7500 X2.888 Y5.500
G0 X5.500 Y2.888
G0 X5.663 Y2.888
G1 F1140 X-5.564 Y2.887 E23.68612
G0 F7500 X-5.400 Y2.887
G0 X-2.888 Y5.500
G0 X-2.888 Y5.664
G1 F1140 X-2.888 Y-5.464 E24.08678
;LAYER:3
M106 S244
G1 F2400 E23.08678
G0 F7500 X0.216 Y0.216 Z0.900
;TYPE:WALL-OUTER
G1 F2400 E24.08678
G1 F1260 X0.284 Y0.216 E24.08922
G1 X0.284 Y0.284 E24.09167
G1 X0.216 Y0.284 E24.09412
G1 X0.216 Y0.216 E24.09657
G0 F7500 X-0.700 Y-0.700
;TYPE:SUPPORT
G1 F1140 X-0.700 Y1.200 E24.16498
G1 X1.200 Y1.200 E24.23339
G1 X1.200 Y-0.700 E24.30179
G1 X-0.700 Y-0.700 E24.37020
G0 F7500 X-0.690 Y-0.800
G0 X-5.500 Y-5.400
G1 F1140 X5.600 Y-5.400 E24.76985
G1 X5.600 Y5.600 E25.16589
G1 X-5.500 Y5.600 E25.56554
G1 X-5.500 Y-5.400 E25.96158
G0 F7500 X-5.400 Y-2.888
G0 X-5.563 Y-2.888
G1 F1140 X5.664 Y-2.887 E26.36580
G0 F7500 X5.500 Y-2.887
G0 X2.888 Y-5.300
G0 X2.888 Y-5.464
G1 F1140 X2.888 Y5.664 E26.76645
G0 F7500 X2.888 Y5.500
G0 X5.500 Y2.888
G0 X5.663 Y2.888
G1 F1140 X-5.564 Y2.887 E27.17067
G0 F7500 X-5.400 Y2.887
G0 X-2.888 Y5.500
G0 X-2.888 Y5.664
G1 F1140 X-2.888 Y-5.464 E27.57132
;LAYER:4
M106 S255
G1 F2400 E26.57132
G0 F7500 X0.216 Y0.216 Z1.100
;TYPE:WALL-OUTER
G1 F2400 E27.57132
G1 F1320 X0.284 Y0.216 E27.57377
G1 X0.284 Y0.284 E27.57622
G1 X0.216 Y0.284 E27.57867
G1 X0.216 Y0.216 E27.58112
G0 F7500 X-0.700 Y-0.700
;TYPE:SUPPORT
G1 F1200 X-0.700 Y1.200 E27.64953
G1 X1.200 Y1.200 E27.71793
G1 X1.200 Y-0.700 E27.78634
G1 X-0.700 Y-0.700 E27.85475
G0 F7500 X-0.690 Y-0.800
G0 X-5.500 Y-5.400
G1 F1200 X5.600 Y-5.400 E28.25439
G1 X5.600 Y5.600 E28.65044
G1 X-5.500 Y5.600 E29.05009
G1 X-5.500 Y-5.400 E29.44613
G0 F7500 X-5.400 Y-2.888
G0 X-5.563 Y-2.888
G1 F1200 X5.664 Y-2.887 E29.85035
G0 F7500 X5.500 Y-2.887
G0 X2.888 Y-5.300
G0 X2.888 Y-5.464
G1 F1200 X2.888 Y5.664 E30.25100
G0 F7500 X2.888 Y5.500
G0 X5.500 Y2.888
G0 X5.663 Y2.888
G1 F1200 X-5.564 Y2.887 E30.65522
G0 F7500 X-5.400 Y2.887
G0 X-2.888 Y5.500
G0 X-2.888 Y5.664
G1 F1200 X-2.888 Y-5.464 E31.05587
;LAYER:5
G1 F2400 E30.05587
G0 F7500 X0.216 Y0.216 Z1.300
;TYPE:WALL-OUTER
G1 F2400 E31.05587
G1 F1320 X0.284 Y0.216 E31.05832
G1 X0.284 Y0.284 E31.06077
G1 X0.216 Y0.284 E31.06322
G1 X0.216 Y0.216 E31.06567
G0 F7500 X-0.700 Y-0.700
;TYPE:SUPPORT
G1 F1200 X-0.700 Y1.200 E31.13407
G1 X1.200 Y1.200 E31.20248
G1 X1.200 Y-0.700 E31.27089
G1 X-0.700 Y-0.700 E31.33930
G0 F7500 X-0.690 Y-0.800
G0 X-5.500 Y-5.400
G1 F1200 X5.600 Y-5.400 E31.73894
G1 X5.600 Y5.600 E32.13499
G1 X-5.500 Y5.600 E32.53463
G1 X-5.500 Y-5.400 E32.93068
G0 F7500 X-5.400 Y-2.888
G0 X-5.563 Y-2.888
G1 F1200 X5.664 Y-2.887 E33.33490
G0 F7500 X5.500 Y-2.887
G0 X2.888 Y-5.300
G0 X2.888 Y-5.464
G1 F1200 X2.888 Y5.664 E33.73555
G0 F7500 X2.888 Y5.500
G0 X5.500 Y2.888
G0 X5.663 Y2.888
G1 F1200 X-5.564 Y2.887 E34.13977
G0 F7500 X-5.400 Y2.887
G0 X-2.888 Y5.500
G0 X-2.888 Y5.664
G1 F1200 X-2.888 Y-5.464 E34.54042
;LAYER:6
G1 F2400 E33.54042
G0 F7500 X0.216 Y0.216 Z1.500
;TYPE:WALL-OUTER
G1 F2400 E34.54042
G1 F1320 X0.284 Y0.216 E34.54287
G1 X0.284 Y0.284 E34.54532
G1 X0.216 Y0.284 E34.54777
G1 X0.216 Y0.216 E34.55021
G0 F7500 X-0.700 Y-0.700
;TYPE:SUPPORT
G1 F1200 X-0.700 Y1.200 E34.61862
G1 X1.200 Y1.200 E34.68703
G1 X1.200 Y-0.700 E34.75544
G1 X-0.700 Y-0.700 E34.82385
G0 F7500 X-0.690 Y-0.800
G0 X-5.500 Y-5.400
G1 F1200 X5.600 Y-5.400 E35.22349
G1 X5.600 Y5.600 E35.61954
G1 X-5.500 Y5.600 E36.01918
G1 X-5.500 Y-5.400 E36.41523
G0 F7500 X-5.400 Y-2.888
G0 X-5.563 Y-2.888
G1 F1200 X5.664 Y-2.887 E36.81944
G0 F7500 X5.500 Y-2.887
G0 X2.888 Y-5.300
G0 X2.888 Y-5.464
G1 F1200 X2.888 Y5.664 E37.22010
G0 F7500 X2.888 Y5.500
G0 X5.500 Y2.888
G0 X5.663 Y2.888
G1 F1200 X-5.564 Y2.887 E37.62432
G0 F7500 X-5.400 Y2.887
G0 X-2.888 Y5.500
G0 X-2.888 Y5.664
G1 F1200 X-2.888 Y-5.464 E38.02497
;LAYER:7
G1 F2400 E37.02497
G0 F7500 X0.216 Y0.216 Z1.700
;TYPE:WALL-OUTER
G1 F2400 E38.02497
G1 F1320 X0.284 Y0.216 E38.02742
G1 X0.284 Y0.284 E38.02987
G1 X0.216 Y0.284 E38.03231
G1 X0.216 Y0.216 E38.03476
G0 F7500 X-0.700 Y-0.700
;TYPE:SUPPORT
G1 F1200 X-0.700 Y1.200 E38.10317
G1 X1.200 Y1.200 E38.17158
G1 X1.200 Y-0.700 E38.23999
G1 X-0.700 Y-0.700 E38.30839
G0 F7500 X-0.690 Y-0.800
G0 X-5.500 Y-5.400
G1 F1200 X5.600 Y-5.400 E38.70804
G1 X5.600 Y5.600 E39.10408
G1 X-5.500 Y5.600 E39.50373
G1 X-5.500 Y-5.400 E39.89978
G0 F7500 X-5.400 Y-2.888
G0 X-5.563 Y-2.888
G1 F1200 X5.664 Y-2.887 E40.30399
G0 F7500 X5.500 Y-2.887
G0 X2.888 Y-5.300
G0 X2.888 Y-5.464
G1 F1200 X2.888 Y5.664 E40.70465
G0 F7500 X2.888 Y5.500
G0 X5.500 Y2.888
G0 X5.663 Y2.888
G1 F1200 X-5.564 Y2.887 E41.10886
G0 F7500 X-5.400 Y2.887
G0 X-2.888 Y5.500
G0 X-2.888 Y5.664
G1 F1200 X-2.888 Y-5.464 E41.50952
;LAYER:8
G1 F2400 E40.50952
G0 F7500 X0.216 Y0.216 Z1.900
;TYPE:WALL-OUTER
G1 F2400 E41.50952
G1 F1320 X0.284 Y0.216 E41.51197
G1 X0.284 Y0.284 E41.51442
G1 X0.216 Y0.284 E41.51686
G1 X0.216 Y0.216 E41.51931
G0 F7500 X-0.700 Y-0.700
;TYPE:SUPPORT
G1 F1200 X-0.700 Y1.200 E41.58772
G1 X1.200 Y1.200 E41.65613
G1 X1.200 Y-0.700 E41.72454
G1 X-0.700 Y-0.700 E41.79294
G0 F7500 X-0.690 Y-0.800
G0 X-5.500 Y-5.400
G1 F1200 X5.600 Y-5.400 E42.19259
G1 X5.600 Y5.600 E42.58863
G1 X-5.500 Y5.600 E42.98828
G1 X-5.500 Y-5.400 E43.38432
G0 F7500 X-5.400 Y-2.888
G0 X-5.563 Y-2.888
G1 F1200 X5.664 Y-2.887 E43.78854
G0 F7500 X5.500 Y-2.887
G0 X2.888 Y-5.300
G0 X2.888 Y-5.464
G1 F1200 X2.888 Y5.664 E44.18920
G0 F7500 X2.888 Y5.500
G0 X5.500 Y2.888
G0 X5.663 Y2.888
G1 F1200 X-5.564 Y2.887 E44.59341
G0 F7500 X-5.400 Y2.887
G0 X-2.888 Y5.500
G0 X-2.888 Y5.664
G1 F1200 X-2.888 Y-5.464 E44.99407
;LAYER:9
G1 F2400 E43.99407
G0 F7500 X0.216 Y0.216 Z2.100
;TYPE:WALL-OUTER
G1 F2400 E44.99407
G1 F1320 X0.284 Y0.216 E44.99652
G1 X0.284 Y0.284 E44.99896
G1 X0.216 Y0.284 E45.00141
G1 X0.216 Y0.216 E45.00386
G0 F7500 X-0.700 Y-0.700
;TYPE:SUPPORT
G1 F1200 X-0.700 Y1.200 E45.07227
G1 X1.200 Y1.200 E45.14068
G1 X1.200 Y-0.700 E45.20908
G1 X-0.700 Y-0.700 E45.27749
G0 F7500 X-0.690 Y-0.800
G0 X-5.500 Y-5.400
G1 F1200 X5.600 Y-5.400 E45.67714
G1 X5.600 Y5.600 E46.07318
G1 X-5.500 Y5.600 E46.47283
G1 X-5.500 Y-5.400 E46.86887
G0 F7500 X-5.400 Y-2.888
G0 X-5.563 Y-2.888
G1 F1200 X5.664 Y-2.887 E47.27309
G0 F7500 X5.500 Y-2.887
G0 X2.888 Y-5.300
G0 X2.888 Y-5.464
G1 F1200 X2.888 Y5.664 E47.67374
G0 F7500 X2.888 Y5.500
G0 X5.500 Y2.888
G0 X5.663 Y2.888
G1 F1200 X-5.564 Y2.887 E48.07796
G0 F7500 X-5.400 Y2.887
G0 X-2.888 Y5.500
G0 X-2.888 Y5.664
G1 F1200 X-2.888 Y-5.464 E48.47862
;LAYER:10
G1 F2400 E47.47862
G0 F7500 X0.216 Y0.216 Z2.300
;TYPE:WALL-OUTER
G1 F2400 E48.47862
G1 F1320 X0.284 Y0.216 E48.48106
G1 X0.284 Y0.284 E48.48351
G1 X0.216 Y0.284 E48.48596
G1 X0.216 Y0.216 E48.48841
G0 F7500 X-0.700 Y-0.700
;TYPE:SUPPORT
G1 F1200 X-0.700 Y1.200 E48.55682
G1 X1.200 Y1.200 E48.62522
G1 X1.200 Y-0.700 E48.69363
G1 X-0.700 Y-0.700 E48.76204
G0 F7500 X-0.690 Y-0.800
G0 X-5.500 Y-5.400
G1 F1200 X5.600 Y-5.400 E49.16169
G1 X5.600 Y5.600 E49.55773
G1 X-5.500 Y5.600 E49.95738
G1 X-5.500 Y-5.400 E50.35342
G0 F7500 X-5.400 Y-2.888
G0 X-5.563 Y-2.888
G1 F1200 X5.664 Y-2.887 E50.75764
G0 F7500 X5.500 Y-2.887
G0 X2.888 Y-5.300
G0 X2.888 Y-5.464
G1 F1200 X2.888 Y5.664 E51.15829
G0 F7500 X2.888 Y5.500
G0 X5.500 Y2.888
G0 X5.663 Y2.888
G1 F1200 X-5.564 Y2.887 E51.56251
G0 F7500 X-5.400 Y2.887
G0 X-2.888 Y5.500
G0 X-2.888 Y5.664
G1 F1200 X-2.888 Y-5.464 E51.96316
;LAYER:11
G1 F2400 E50.96316
G0 F7500 X0.216 Y0.216 Z2.500
;TYPE:WALL-OUTER
G1 F2400 E51.96316
G1 F1320 X0.284 Y0.216 E51.96561
G1 X0.284 Y0.284 E51.96806
G1 X0.216 Y0.284 E51.97051
G1 X0.216 Y0.216 E51.97296
G0 F7500 X-0.700 Y-0.700
;TYPE:SUPPORT
G1 F1200 X-0.700 Y1.200 E52.04136
G1 X1.200 Y1.200 E52.10977
G1 X1.200 Y-0.700 E52.17818
G1 X-0.700 Y-0.700 E52.24659
G0 F7500 X-0.690 Y-0.800
G0 X-5.500 Y-5.400
G1 F1200 X5.600 Y-5.400 E52.64623
G1 X5.600 Y5.600 E53.04228
G1 X-5.500 Y5.600 E53.44192
G1 X-5.500 Y-5.400 E53.83797
G0 F7500 X-5.400 Y-2.888
G0 X-5.563 Y-2.888
G1 F1200 X5.664 Y-2.887 E54.24219
G0 F7500 X5.500 Y-2.887
G0 X2.888 Y-5.300
G0 X2.888 Y-5.464
G1 F1200 X2.888 Y5.664 E54.64284
G0 F7500 X2.888 Y5.500
G0 X5.500 Y2.888
G0 X5.663 Y2.888
G1 F1200 X-5.564 Y2.887 E55.04706
G0 F7500 X-5.400 Y2.887
G0 X-2.888 Y5.500
G0 X-2.888 Y5.664
G1 F1200 X-2.888 Y-5.464 E55.44771
;LAYER:12
G1 F2400 E54.44771
G0 F7500 X0.216 Y0.216 Z2.700
;TYPE:WALL-OUTER
G1 F2400 E55.44771
G1 F540 X0.284 Y0.216 E55.45016
G1 X0.284 Y0.284 E55.45261
G1 X0.216 Y0.284 E55.45506
G1 X0.216 Y0.216 E55.45751
;LAYER:13
M106 S127
G0 F7500 X3.918 Y3.918 Z2.900
;TYPE:WALL-INNER
G1 F3600 X-3.918 Y3.918 E55.73963
G1 X-3.918 Y-3.918 E56.02176
G1 X3.918 Y-3.918 E56.30389
G1 X3.918 Y3.918 E56.58602
G0 F7500 X4.351 Y4.351
G1 F3600 X-4.351 Y4.351 E56.89933
G1 X-4.351 Y-4.351 E57.21263
G1 X4.351 Y-4.351 E57.52594
G1 X4.351 Y4.351 E57.83925
G0 F7500 X4.784 Y4.784
;TYPE:WALL-OUTER
G1 F2700 X-4.784 Y4.784 E58.18374
G1 X-4.784 Y-4.784 E58.52822
G1 X4.784 Y-4.784 E58.87271
G1 X4.784 Y4.784 E59.21720
G0 F7500 X4.467 Y4.557
G0 X3.277 Y3.765
;TYPE:SKIN
G1 F2700 X3.765 Y3.277 E59.24204
G0 F7500 X3.765 Y2.665
G1 F2700 X2.665 Y3.765 E59.29805
G0 F7500 X2.052 Y3.765
G1 F2700 X3.765 Y2.052 E59.38528
G0 F7500 X3.765 Y1.440
G1 F2700 X1.440 Y3.765 E59.50366
G0 F7500 X0.828 Y3.765
G1 F2700 X3.765 Y0.828 E59.65320
G0 F7500 X3.765 Y0.215
G1 F2700 X0.215 Y3.765 E59.83396
G0 F7500 X-0.396 Y3.765
G1 F2700 X3.765 Y-0.396 E60.04583
G0 F7500 X3.765 Y-1.009
G1 F2700 X-1.009 Y3.765 E60.28891
G0 F7500 X-1.621 Y3.765
G1 F2700 X3.765 Y-1.621 E60.56315
G0 F7500 X3.765 Y-2.233
G1 F2700 X-2.233 Y3.765 E60.86855
G0 F7500 X-2.846 Y3.765
G1 F2700 X3.765 Y-2.846 E61.20517
G0 F7500 X3.765 Y-3.458
G1 F2700 X-3.458 Y3.765 E61.57295
G0 F7500 X-3.765 Y3.459
G1 F2700 X3.459 Y-3.765 E61.94077
G0 F7500 X2.847 Y-3.765
G1 F2700 X-3.765 Y2.847 E62.27744
G0 F7500 X-3.765 Y2.235
G1 F2700 X2.235 Y-3.765 E62.58294
G0 F7500 X1.622 Y-3.765
G1 F2700 X-3.765 Y1.622 E62.85724
G0 F7500 X-3.765 Y1.010
G1 F2700 X1.010 Y-3.765 E63.10037
G0 F7500 X0.398 Y-3.765
G1 F2700 X-3.765 Y0.398 E63.31234
G0 F7500 X-3.765 Y-0.214
G1 F2700 X-0.214 Y-3.765 E63.49315
G0 F7500 X-0.826 Y-3.765
G1 F2700 X-3.765 Y-0.826 E63.64279
G0 F7500 X-3.765 Y-1.438
G1 F2700 X-1.438 Y-3.765 E63.76128
G0 F7500 X-2.051 Y-3.765
G1 F2700 X-3.765 Y-2.051 E63.84855
G0 F7500 X-3.765 Y-2.663
G1 F2700 X-2.663 Y-3.765 E63.90466
G0 F7500 X-3.276 Y-3.765
G1 F2700 X-3.765 Y-3.276 E63.92956
;LAYER:14
G0 F7500 X-3.918 Y-3.918 Z3.100
;TYPE:WALL-INNER
G1 F3600 X3.918 Y-3.918 E64.21169
G1 X3.918 Y3.918 E64.49382
G1 X-3.918 Y3.918 E64.77594
G1 X-3.918 Y-3.918 E65.05807
G0 F7500 X-4.351 Y-4.351
G1 F3600 X4.351 Y-4.351 E65.37138
G1 X4.351 Y4.351 E65.68469
G1 X-4.351 Y4.351 E65.99799
G1 X-4.351 Y-4.351 E66.31130
G0 F7500 X-4.784 Y-4.784
;TYPE:WALL-OUTER
G1 F2700 X4.784 Y-4.784 E66.65579
G1 X4.784 Y4.784 E67.00028
G1 X-4.784 Y4.784 E67.34476
G1 X-4.784 Y-4.784 E67.68925
G0 F7500 X-4.467 Y-4.557
G0 X-3.459 Y-3.765
;TYPE:SKIN
G1 F2700 X3.765 Y3.459 E68.05708
G0 F7500 X3.458 Y3.765
G1 F2700 X-3.765 Y-3.458 E68.42486
G0 F7500 X-3.765 Y-2.846
G1 F2700 X2.846 Y3.765 E68.76147
G0 F7500 X2.233 Y3.765
G1 F2700 X-3.765 Y-2.233 E69.06687
G0 F7500 X-3.765 Y-1.621
G1 F2700 X1.621 Y3.765 E69.34112
G0 F7500 X1.009 Y3.765
G1 F2700 X-3.765 Y-1.009 E69.58420
G0 F7500 X-3.765 Y-0.396
G1 F2700 X0.396 Y3.765 E69.79606
G0 F7500 X-0.215 Y3.765
G1 F2700 X-3.765 Y0.215 E69.97682
G0 F7500 X-3.765 Y0.828
G1 F2700 X-0.828 Y3.765 E70.12637
G0 F7500 X-1.440 Y3.765
G1 F2700 X-3.765 Y1.440 E70.24475
G0 F7500 X-3.765 Y2.052
G1 F2700 X-2.052 Y3.765 E70.33197
G0 F7500 X-2.665 Y3.765
G1 F2700 X-3.765 Y2.665 E70.38798
G0 F7500 X-3.765 Y3.277
G1 F2700 X-3.277 Y3.765 E70.41283
G0 F7500 X3.765 Y2.847
G1 F2700 X-2.847 Y-3.765 E70.74949
G0 F7500 X-2.235 Y-3.765
G1 F2700 X3.765 Y2.235 E71.05500
G0 F7500 X3.765 Y1.622
G1 F2700 X-1.622 Y-3.765 E71.32929
G0 F7500 X-1.010 Y-3.765
G1 F2700 X3.765 Y1.010 E71.57242
G0 F7500 X3.765 Y0.398
G1 F2700 X-0.398 Y-3.765 E71.78439
G0 F7500 X0.214 Y-3.765
G1 F2700 X3.765 Y-0.214 E71.96520
G0 F7500 X3.765 Y-0.826
G1 F2700 X0.826 Y-3.765 E72.11485
G0 F7500 X1.438 Y-3.765
G1 F2700 X3.765 Y-1.438 E72.23333
G0 F7500 X3.765 Y-2.051
G1 F2700 X2.051 Y-3.765 E72.32060
G0 F7500 X2.663 Y-3.765
G1 F2700 X3.765 Y-2.663 E72.37671
G0 F7500 X3.765 Y-3.276
G1 F2700 X3.276 Y-3.765 E72.40161
;LAYER:15
G0 F7500 X3.918 Y-3.918 Z3.300
;TYPE:WALL-INNER
G1 F3600 X3.918 Y3.918 E72.68374
G1 X-3.918 Y3.918 E72.96587
G1 X-3.918 Y-3.918 E73.24800
G1 X3.918 Y-3.918 E73.53013
G0 F7500 X4.351 Y-4.351
G1 F3600 X4.351 Y4.351 E73.84343
G1 X-4.351 Y4.351 E74.15674
G1 X-4.351 Y-4.351 E74.47005
G1 X4.351 Y-4.351 E74.78336
G0 F7500 X4.784 Y-4.784
;TYPE:WALL-OUTER
G1 F2700 X4.784 Y4.784 E75.12784
G1 X-4.784 Y4.784 E75.47233
G1 X-4.784 Y-4.784 E75.81682
G1 X4.784 Y-4.784 E76.16130
G0 F7500 X4.467 Y-4.557
G0 X3.459 Y-3.765
;TYPE:SKIN
G1 F2700 X-3.765 Y3.459 E76.52913
G0 F7500 X-3.458 Y3.765
G1 F2700 X3.765 Y-3.458 E76.89691
G0 F7500 X3.765 Y-2.846
G1 F2700 X-2.846 Y3.765 E77.23352
G0 F7500 X-2.233 Y3.765
G1 F2700 X3.765 Y-2.233 E77.53893
G0 F7500 X3.765 Y-1.621
G1 F2700 X-1.621 Y3.765 E77.81317
G0 F7500 X-1.009 Y3.765
