;Generated with Cura_SteamEngine 15.04.6

;Layer count: 16
;LAYER:0
M107
G0 F7500 X-8.716 Y-53.616 Z0.300
;TYPE:SKIRT
G1 F1800 X8.816 Y-53.616 E0.94684
G1 X8.816 Y53.816 E6.74882
G1 X-8.716 Y53.816 E7.69566
G1 X-8.716 Y-53.616 E13.49765
G1 F2400 E12.49765
G0 F7500 X0.216 Y0.216
;TYPE:WALL-OUTER
G1 F2400 E13.49765
G1 F1800 X0.284 Y0.216 E13.50132
G1 X0.284 Y0.284 E13.50499
G1 X0.216 Y0.284 E13.50866
G1 X0.216 Y0.216 E13.51234
G0 F7500 X-0.700 Y-0.700
;TYPE:SUPPORT
G1 F1800 X-0.700 Y1.200 E13.61495
G1 X1.200 Y1.200 E13.71756
G1 X1.200 Y-0.700 E13.82017
G1 X-0.700 Y-0.700 E13.92278
G0 F7500 X-0.690 Y-0.800
G0 X-5.500 Y-50.400
G1 F1800 X5.600 Y-50.400 E14.52225
G1 X5.600 Y50.600 E19.97687
G1 X-5.500 Y50.600 E20.57634
G1 X-5.500 Y-50.400 E26.03096
G0 F7500 X-5.563 Y-49.096
G1 F1800 X5.664 Y-49.095 E26.63729
G0 F7500 X5.500 Y-49.095
G0 X2.888 Y-50.300
G0 X2.888 Y-50.464
G1 F1800 X2.888 Y50.664 E32.09882
G0 F7500 X2.888 Y50.500
G0 X5.500 Y49.096
G0 X5.663 Y49.096
G1 F1800 X-5.564 Y49.095 E32.70515
G0 F7500 X-5.400 Y49.095
G0 X-2.888 Y50.500
G0 X-2.888 Y50.664
G1 F1800 X-2.888 Y-50.464 E38.16668
G0 F7500 X-2.888 Y-50.300
G0 X-5.400 Y-43.320
G0 X-5.563 Y-43.320
G1 F1800 X5.664 Y-43.319 E38.77301
G0 F7500 X5.500 Y-43.319
G0 X5.500 Y-37.543
G0 X5.664 Y-37.543
G1 F1800 X-5.563 Y-37.544 E39.37934
G0 F7500 X-5.400 Y-37.544
G0 X-5.400 Y-31.768
G0 X-5.563 Y-31.768
G1 F1800 X5.664 Y-31.767 E39.98566
G0 F7500 X5.500 Y-31.767
G0 X5.500 Y-25.991
G0 X5.664 Y-25.991
G1 F1800 X-5.563 Y-25.992 E40.59199
G0 F7500 X-5.400 Y-25.992
G0 X-5.400 Y-20.216
G0 X-5.563 Y-20.216
G1 F1800 X5.664 Y-20.215 E41.19832
G0 F7500 X5.500 Y-20.215
G0 X5.500 Y-14.439
G0 X5.664 Y-14.439
G1 F1800 X-5.563 Y-14.440 E41.80464
G0 F7500 X-5.400 Y-14.440
G0 X-5.400 Y-8.664
G0 X-5.563 Y-8.664
G1 F1800 X5.664 Y-8.663 E42.41097
G0 F7500 X5.500 Y-8.663
G0 X5.500 Y-2.887
G0 X5.664 Y-2.887
G1 F1800 X-5.563 Y-2.888 E43.01730
G0 F7500 X-5.400 Y-2.888
G0 X-5.400 Y2.887
G0 X-5.564 Y2.887
G1 F1800 X5.663 Y2.888 E43.62363
G0 F7500 X5.500 Y2.888
G0 X5.500 Y8.664
G0 X5.663 Y8.664
G1 F1800 X-5.564 Y8.663 E44.22995
G0 F7500 X-5.400 Y8.663
G0 X-5.400 Y14.439
G0 X-5.564 Y14.439
G1 F1800 X5.663 Y14.440 E44.83628
G0 F7500 X5.500 Y14.440
G0 X5.500 Y20.216
G0 X5.663 Y20.216
G1 F1800 X-5.564 Y20.215 E45.44261
G0 F7500 X-5.400 Y20.215
G0 X-5.400 Y25.991
G0 X-5.564 Y25.991
G1 F1800 X5.663 Y25.992 E46.04893
G0 F7500 X5.500 Y25.992
G0 X5.500 Y31.768
G0 X5.663 Y31.768
G1 F1800 X-5.564 Y31.767 E46.65526
G0 F7500 X-5.400 Y31.767
G0 X-5.400 Y37.543
G0 X-5.564 Y37.543
G1 F1800 X5.663 Y37.544 E47.26159
G0 F7500 X5.500 Y37.544
G0 X5.500 Y43.320
G0 X5.663 Y43.320
G1 F1800 X-5.564 Y43.319 E47.86791
;LAYER:1
M106 S63
G1 F2400 E46.86791
G0 F7500 X0.216 Y0.284 Z0.500
;TYPE:WALL-OUTER
G1 F2400 E47.86791
G1 F1980 X0.216 Y0.216 E47.87036
G1 X0.284 Y0.216 E47.87281
G1 X0.284 Y0.284 E47.87526
G1 X0.216 Y0.284 E47.87771
G0 F7500 X-0.700 Y1.200
;TYPE:SUPPORT
G1 F1920 X1.200 Y1.200 E47.94611
G1 X1.200 Y-0.700 E48.01452
G1 X-0.700 Y-0.700 E48.08293
G1 X-0.700 Y1.200 E48.15134
G0 F7500 X-0.800 Y1.190
G0 X-5.500 Y50.600
G1 F1920 X-5.500 Y-50.400 E51.78775
G1 X5.600 Y-50.400 E52.18740
G1 X5.600 Y50.600 E55.82381
G1 X-5.500 Y50.600 E56.22346
G0 F7500 X-5.400 Y49.095
G0 X-5.564 Y49.095
G1 F1920 X5.663 Y49.096 E56.62767
G0 F7500 X5.500 Y49.096
G0 X2.888 Y50.500
G0 X2.888 Y50.664
G1 F1920 X2.888 Y-50.464 E60.26870
G0 F7500 X2.888 Y-50.300
G0 X5.500 Y-49.095
G0 X5.664 Y-49.095
G1 F1920 X-5.563 Y-49.096 E60.67291
G0 F7500 X-5.400 Y-49.096
G0 X-2.888 Y-50.300
G0 X-2.888 Y-50.464
G1 F1920 X-2.888 Y50.664 E64.31394
G0 F7500 X-2.888 Y50.500
G0 X-5.400 Y43.319
G0 X-5.564 Y43.319
G1 F1920 X5.663 Y43.320 E64.71816
G0 F7500 X5.500 Y43.320
G0 X5.500 Y37.544
G0 X5.663 Y37.544
G1 F1920 X-5.564 Y37.543 E65.12237
G0 F7500 X-5.400 Y37.543
G0 X-5.400 Y31.767
G0 X-5.564 Y31.767
G1 F1920 X5.663 Y31.768 E65.52659
G0 F7500 X5.500 Y31.768
G0 X5.500 Y25.992
G0 X5.663 Y25.992
G1 F1920 X-5.564 Y25.991 E65.93081
G0 F7500 X-5.400 Y25.991
G0 X-5.400 Y20.215
G0 X-5.564 Y20.215
G1 F1920 X5.663 Y20.216 E66.33503
G0 F7500 X5.500 Y20.216
G0 X5.500 Y14.440
G0 X5.663 Y14.440
G1 F1920 X-5.564 Y14.439 E66.73924
G0 F7500 X-5.400 Y14.439
G0 X-5.400 Y8.663
G0 X-5.564 Y8.663
G1 F1920 X5.663 Y8.664 E67.14346
G0 F7500 X5.500 Y8.664
G0 X5.500 Y2.888
G0 X5.663 Y2.888
G1 F1920 X-5.564 Y2.887 E67.54768
G0 F7500 X-5.400 Y2.887
G0 X-5.400 Y-2.888
G0 X-5.563 Y-2.888
G1 F1920 X5.664 Y-2.887 E67.95190
G0 F7500 X5.500 Y-2.887
G0 X5.500 Y-8.663
G0 X5.664 Y-8.663
G1 F1920 X-5.563 Y-8.664 E68.35612
G0 F7500 X-5.400 Y-8.664
G0 X-5.400 Y-14.440
G0 X-5.563 Y-14.440
G1 F1920 X5.664 Y-14.439 E68.76033
G0 F7500 X5.500 Y-14.439
G0 X5.500 Y-20.215
G0 X5.664 Y-20.215
G1 F1920 X-5.563 Y-20.216 E69.16455
G0 F7500 X-5.400 Y-20.216
G0 X-5.400 Y-25.992
G0 X-5.563 Y-25.992
G1 F1920 X5.664 Y-25.991 E69.56877
G0 F7500 X5.500 Y-25.991
G0 X5.500 Y-31.767
G0 X5.664 Y-31.767
G1 F1920 X-5.563 Y-31.768 E69.97299
G0 F7500 X-5.400 Y-31.768
G0 X-5.400 Y-37.544
G0 X-5.563 Y-37.544
G1 F1920 X5.664 Y-37.543 E70.37721
G0 F7500 X5.500 Y-37.543
G0 X5.500 Y-43.319
G0 X5.664 Y-43.319
G1 F1920 X-5.563 Y-43.320 E70.78142
;LAYER:2
M106 S127
G1 F2400 E69.78142
G0 F7500 X0.216 Y0.216 Z0.700
;TYPE:WALL-OUTER
G1 F2400 E70.78142
G1 F2220 X0.284 Y0.216 E70.78387
G1 X0.284 Y0.284 E70.78632
G1 X0.216 Y0.284 E70.78877
G1 X0.216 Y0.216 E70.79122
G0 F7500 X-0.700 Y-0.700
;TYPE:SUPPORT
G1 F2100 X-0.700 Y1.200 E70.85963
G1 X1.200 Y1.200 E70.92803
G1 X1.200 Y-0.700 E70.99644
G1 X-0.700 Y-0.700 E71.06485
G0 F7500 X-0.690 Y-0.800
G0 X-5.500 Y-50.400
G1 F2100 X5.600 Y-50.400 E71.46449
G1 X5.600 Y50.600 E75.10091
G1 X-5.500 Y50.600 E75.50055
G1 X-5.500 Y-50.400 E79.13697
G0 F7500 X-5.563 Y-49.096
G1 F2100 X5.664 Y-49.095 E79.54119
G0 F7500 X5.500 Y-49.095
G0 X2.888 Y-50.300
G0 X2.888 Y-50.464
G1 F2100 X2.888 Y50.664 E83.18221
G0 F7500 X2.888 Y50.500
G0 X5.500 Y49.096
G0 X5.663 Y49.096
G1 F2100 X-5.564 Y49.095 E83.58643
G0 F7500 X-5.400 Y49.095
G0 X-2.888 Y50.500
G0 X-2.888 Y50.664
G1 F2100 X-2.888 Y-50.464 E87.22745
G0 F7500 X-2.888 Y-50.300
G0 X-5.400 Y-43.320
G0 X-5.563 Y-43.320
G1 F2100 X5.664 Y-43.319 E87.63167
G0 F7500 X5.500 Y-43.319
G0 X5.500 Y-37.543
G0 X5.664 Y-37.543
G1 F2100 X-5.563 Y-37.544 E88.03588
G0 F7500 X-5.400 Y-37.544
G0 X-5.400 Y-31.768
G0 X-5.563 Y-31.768
G1 F2100 X5.664 Y-31.767 E88.44010
G0 F7500 X5.500 Y-31.767
G0 X5.500 Y-25.991
G0 X5.664 Y-25.991
G1 F2100 X-5.563 Y-25.992 E88.84432
G0 F7500 X-5.400 Y-25.992
G0 X-5.400 Y-20.216
G0 X-5.563 Y-20.216
G1 F2100 X5.664 Y-20.215 E89.24854
G0 F7500 X5.500 Y-20.215
G0 X5.500 Y-14.439
G0 X5.664 Y-14.439
G1 F2100 X-5.563 Y-14.440 E89.65276
G0 F7500 X-5.400 Y-14.440
G0 X-5.400 Y-8.664
G0 X-5.563 Y-8.664
G1 F2100 X5.664 Y-8.663 E90.05697
G0 F7500 X5.500 Y-8.663
G0 X5.500 Y-2.887
G0 X5.664 Y-2.887
G1 F2100 X-5.563 Y-2.888 E90.46119
G0 F7500 X-5.400 Y-2.888
G0 X-5.400 Y2.887
G0 X-5.564 Y2.887
G1 F2100 X5.663 Y2.888 E90.86541
G0 F7500 X5.500 Y2.888
G0 X5.500 Y8.664
G0 X5.663 Y8.664
G1 F2100 X-5.564 Y8.663 E91.26963
G0 F7500 X-5.400 Y8.663
G0 X-5.400 Y14.439
G0 X-5.564 Y14.439
G1 F2100 X5.663 Y14.440 E91.67385
G0 F7500 X5.500 Y14.440
G0 X5.500 Y20.216
G0 X5.663 Y20.216
G1 F2100 X-5.564 Y20.215 E92.07806
G0 F7500 X-5.400 Y20.215
G0 X-5.400 Y25.991
G0 X-5.564 Y25.991
G1 F2100 X5.663 Y25.992 E92.48228
G0 F7500 X5.500 Y25.992
G0 X5.500 Y31.768
G0 X5.663 Y31.768
G1 F2100 X-5.564 Y31.767 E92.88650
G0 F7500 X-5.400 Y31.767
G0 X-5.400 Y37.543
G0 X-5.564 Y37.543
G1 F2100 X5.663 Y37.544 E93.29072
G0 F7500 X5.500 Y37.544
G0 X5.500 Y43.320
G0 X5.663 Y43.320
G1 F2100 X-5.564 Y43.319 E93.69494
;LAYER:3
G1 F2400 E92.69494
G0 F7500 X0.216 Y0.284 Z0.900
;TYPE:WALL-OUTER
G1 F2400 E93.69494
G1 X0.216 Y0.216 E93.69738
G1 X0.284 Y0.216 E93.69983
G1 X0.284 Y0.284 E93.70228
G1 X0.216 Y0.284 E93.70473
G0 F7500 X-0.700 Y1.200
;TYPE:SUPPORT
G1 F2220 X1.200 Y1.200 E93.77314
G1 X1.200 Y-0.700 E93.84154
G1 X-0.700 Y-0.700 E93.90995
G1 X-0.700 Y1.200 E93.97836
G0 F7500 X-0.800 Y1.190
G0 X-5.500 Y50.600
G1 F2220 X-5.500 Y-50.400 E97.61477
G1 X5.600 Y-50.400 E98.01442
G1 X5.600 Y50.600 E101.65083
G1 X-5.500 Y50.600 E102.05048
G0 F7500 X-5.400 Y49.095
G0 X-5.564 Y49.095
G1 F2220 X5.663 Y49.096 E102.45470
G0 F7500 X5.500 Y49.096
G0 X2.888 Y50.500
G0 X2.888 Y50.664
G1 F2220 X2.888 Y-50.464 E106.09572
G0 F7500 X2.888 Y-50.300
G0 X5.500 Y-49.095
G0 X5.664 Y-49.095
G1 F2220 X-5.563 Y-49.096 E106.49994
G0 F7500 X-5.400 Y-49.096
G0 X-2.888 Y-50.300
G0 X-2.888 Y-50.464
G1 F2220 X-2.888 Y50.664 E110.14096
G0 F7500 X-2.888 Y50.500
G0 X-5.400 Y43.319
G0 X-5.564 Y43.319
G1 F2220 X5.663 Y43.320 E110.54518
G0 F7500 X5.500 Y43.320
G0 X5.500 Y37.544
G0 X5.663 Y37.544
G1 F2220 X-5.564 Y37.543 E110.94939
G0 F7500 X-5.400 Y37.543
G0 X-5.400 Y31.767
G0 X-5.564 Y31.767
G1 F2220 X5.663 Y31.768 E111.35361
G0 F7500 X5.500 Y31.768
G0 X5.500 Y25.992
G0 X5.663 Y25.992
G1 F2220 X-5.564 Y25.991 E111.75783
G0 F7500 X-5.400 Y25.991
G0 X-5.400 Y20.215
G0 X-5.564 Y20.215
G1 F2220 X5.663 Y20.216 E112.16205
G0 F7500 X5.500 Y20.216
G0 X5.500 Y14.440
G0 X5.663 Y14.440
G1 F2220 X-5.564 Y14.439 E112.56627
G0 F7500 X-5.400 Y14.439
G0 X-5.400 Y8.663
G0 X-5.564 Y8.663
G1 F2220 X5.663 Y8.664 E112.97048
G0 F7500 X5.500 Y8.664
G0 X5.500 Y2.888
G0 X5.663 Y2.888
G1 F2220 X-5.564 Y2.887 E113.37470
G0 F7500 X-5.400 Y2.887
G0 X-5.400 Y-2.888
G0 X-5.563 Y-2.888
G1 F2220 X5.664 Y-2.887 E113.77892
G0 F7500 X5.500 Y-2.887
G0 X5.500 Y-8.663
G0 X5.664 Y-8.663
G1 F2220 X-5.563 Y-8.664 E114.18314
G0 F7500 X-5.400 Y-8.664
G0 X-5.400 Y-14.440
G0 X-5.563 Y-14.440
G1 F2220 X5.664 Y-14.439 E114.58736
G0 F7500 X5.500 Y-14.439
G0 X5.500 Y-20.215
G0 X5.664 Y-20.215
G1 F2220 X-5.563 Y-20.216 E114.99157
G0 F7500 X-5.400 Y-20.216
G0 X-5.400 Y-25.992
G0 X-5.563 Y-25.992
G1 F2220 X5.664 Y-25.991 E115.39579
G0 F7500 X5.500 Y-25.991
G0 X5.500 Y-31.767
G0 X5.664 Y-31.767
G1 F2220 X-5.563 Y-31.768 E115.80001
G0 F7500 X-5.400 Y-31.768
G0 X-5.400 Y-37.544
G0 X-5.563 Y-37.544
G1 F2220 X5.664 Y-37.543 E116.20423
G0 F7500 X5.500 Y-37.543
G0 X5.500 Y-43.319
G0 X5.664 Y-43.319
G1 F2220 X-5.563 Y-43.320 E116.60845
;LAYER:4
G1 F2400 E115.60845
G0 F7500 X0.216 Y0.216 Z1.100
;TYPE:WALL-OUTER
G1 F2400 E116.60845
G1 F2700 X0.284 Y0.216 E116.61089
G1 X0.284 Y0.284 E116.61334
G1 X0.216 Y0.284 E116.61579
G1 X0.216 Y0.216 E116.61824
G0 F7500 X-0.700 Y-0.700
;TYPE:SUPPORT
G1 F2400 X-0.700 Y1.200 E116.68665
G1 X1.200 Y1.200 E116.75506
G1 X1.200 Y-0.700 E116.82346
G1 X-0.700 Y-0.700 E116.89187
G0 F7500 X-0.690 Y-0.800
G0 X-5.500 Y-50.400
G1 F2400 X5.600 Y-50.400 E117.29152
G1 X5.600 Y50.600 E120.92793
G1 X-5.500 Y50.600 E121.32758
G1 X-5.500 Y-50.400 E124.96399
G0 F7500 X-5.563 Y-49.096
G1 F2400 X5.664 Y-49.095 E125.36821
G0 F7500 X5.500 Y-49.095
G0 X2.888 Y-50.300
G0 X2.888 Y-50.464
G1 F2400 X2.888 Y50.664 E129.00923
G0 F7500 X2.888 Y50.500
G0 X5.500 Y49.096
G0 X5.663 Y49.096
G1 F2400 X-5.564 Y49.095 E129.41345
G0 F7500 X-5.400 Y49.095
G0 X-2.888 Y50.500
G0 X-2.888 Y50.664
G1 F2400 X-2.888 Y-50.464 E133.05447
G0 F7500 X-2.888 Y-50.300
G0 X-5.400 Y-43.320
G0 X-5.563 Y-43.320
G1 F2400 X5.664 Y-43.319 E133.45869
G0 F7500 X5.500 Y-43.319
G0 X5.500 Y-37.543
G0 X5.664 Y-37.543
G1 F2400 X-5.563 Y-37.544 E133.86291
G0 F7500 X-5.400 Y-37.544
G0 X-5.400 Y-31.768
G0 X-5.563 Y-31.768
G1 F2400 X5.664 Y-31.767 E134.26712
G0 F7500 X5.500 Y-31.767
G0 X5.500 Y-25.991
G0 X5.664 Y-25.991
G1 F2400 X-5.563 Y-25.992 E134.67134
G0 F7500 X-5.400 Y-25.992
G0 X-5.400 Y-20.216
G0 X-5.563 Y-20.216
G1 F2400 X5.664 Y-20.215 E135.07556
G0 F7500 X5.500 Y-20.215
G0 X5.500 Y-14.439
G0 X5.664 Y-14.439
G1 F2400 X-5.563 Y-14.440 E135.47978
G0 F7500 X-5.400 Y-14.440
G0 X-5.400 Y-8.664
G0 X-5.563 Y-8.664
G1 F2400 X5.664 Y-8.663 E135.88400
G0 F7500 X5.500 Y-8.663
G0 X5.500 Y-2.887
G0 X5.664 Y-2.887
G1 F2400 X-5.563 Y-2.888 E136.28821
G0 F7500 X-5.400 Y-2.888
G0 X-5.400 Y2.887
G0 X-5.564 Y2.887
G1 F2400 X5.663 Y2.888 E136.69243
G0 F7500 X5.500 Y2.888
G0 X5.500 Y8.664
G0 X5.663 Y8.664
G1 F2400 X-5.564 Y8.663 E137.09665
G0 F7500 X-5.400 Y8.663
G0 X-5.400 Y14.439
G0 X-5.564 Y14.439
G1 F2400 X5.663 Y14.440 E137.50087
G0 F7500 X5.500 Y14.440
G0 X5.500 Y20.216
G0 X5.663 Y20.216
G1 F2400 X-5.564 Y20.215 E137.90509
G0 F7500 X-5.400 Y20.215
G0 X-5.400 Y25.991
G0 X-5.564 Y25.991
G1 F2400 X5.663 Y25.992 E138.30930
G0 F7500 X5.500 Y25.992
G0 X5.500 Y31.768
G0 X5.663 Y31.768
G1 F2400 X-5.564 Y31.767 E138.71352
G0 F7500 X-5.400 Y31.767
G0 X-5.400 Y37.543
G0 X-5.564 Y37.543
G1 F2400 X5.663 Y37.544 E139.11774
G0 F7500 X5.500 Y37.544
G0 X5.500 Y43.320
G0 X5.663 Y43.320
G1 F2400 X-5.564 Y43.319 E139.52196
;LAYER:5
G1 F2400 E138.52196
G0 F7500 X0.216 Y0.284 Z1.300
;TYPE:WALL-OUTER
G1 F2400 E139.52196
G1 F2700 X0.216 Y0.216 E139.52441
G1 X0.284 Y0.216 E139.52685
G1 X0.284 Y0.284 E139.52930
G1 X0.216 Y0.284 E139.53175
G0 F7500 X-0.700 Y1.200
;TYPE:SUPPORT
G1 F2400 X1.200 Y1.200 E139.60016
G1 X1.200 Y-0.700 E139.66857
G1 X-0.700 Y-0.700 E139.73697
G1 X-0.700 Y1.200 E139.80538
G0 F7500 X-0.800 Y1.190
G0 X-5.500 Y50.600
G1 F2400 X-5.500 Y-50.400 E143.44180
G1 X5.600 Y-50.400 E143.84144
G1 X5.600 Y50.600 E147.47785
G1 X-5.500 Y50.600 E147.87750
G0 F7500 X-5.400 Y49.095
G0 X-5.564 Y49.095
G1 F2400 X5.663 Y49.096 E148.28172
G0 F7500 X5.500 Y49.096
G0 X2.888 Y50.500
G0 X2.888 Y50.664
G1 F2400 X2.888 Y-50.464 E151.92274
G0 F7500 X2.888 Y-50.300
G0 X5.500 Y-49.095
G0 X5.664 Y-49.095
G1 F2400 X-5.563 Y-49.096 E152.32696
G0 F7500 X-5.400 Y-49.096
G0 X-2.888 Y-50.300
G0 X-2.888 Y-50.464
G1 F2400 X-2.888 Y50.664 E155.96798
G0 F7500 X-2.888 Y50.500
G0 X-5.400 Y43.319
G0 X-5.564 Y43.319
G1 F2400 X5.663 Y43.320 E156.37220
G0 F7500 X5.500 Y43.320
G0 X5.500 Y37.544
G0 X5.663 Y37.544
G1 F2400 X-5.564 Y37.543 E156.77642
G0 F7500 X-5.400 Y37.543
G0 X-5.400 Y31.767
G0 X-5.564 Y31.767
G1 F2400 X5.663 Y31.768 E157.18063
G0 F7500 X5.500 Y31.768
G0 X5.500 Y25.992
G0 X5.663 Y25.992
G1 F2400 X-5.564 Y25.991 E157.58485
G0 F7500 X-5.400 Y25.991
G0 X-5.400 Y20.215
G0 X-5.564 Y20.215
G1 F2400 X5.663 Y20.216 E157.98907
G0 F7500 X5.500 Y20.216
G0 X5.500 Y14.440
G0 X5.663 Y14.440
G1 F2400 X-5.564 Y14.439 E158.39329
G0 F7500 X-5.400 Y14.439
G0 X-5.400 Y8.663
G0 X-5.564 Y8.663
G1 F2400 X5.663 Y8.664 E158.79751
G0 F7500 X5.500 Y8.664
G0 X5.500 Y2.888
G0 X5.663 Y2.888
G1 F2400 X-5.564 Y2.887 E159.20172
G0 F7500 X-5.400 Y2.887
G0 X-5.400 Y-2.888
G0 X-5.563 Y-2.888
G1 F2400 X5.664 Y-2.887 E159.60594
G0 F7500 X5.500 Y-2.887
G0 X5.500 Y-8.663
G0 X5.664 Y-8.663
G1 F2400 X-5.563 Y-8.664 E160.01016
G0 F7500 X-5.400 Y-8.664
G0 X-5.400 Y-14.440
G0 X-5.563 Y-14.440
G1 F2400 X5.664 Y-14.439 E160.41438
G0 F7500 X5.500 Y-14.439
G0 X5.500 Y-20.215
G0 X5.664 Y-20.215
G1 F2400 X-5.563 Y-20.216 E160.81860
G0 F7500 X-5.400 Y-20.216
G0 X-5.400 Y-25.992
G0 X-5.563 Y-25.992
G1 F2400 X5.664 Y-25.991 E161.22281
G0 F7500 X5.500 Y-25.991
G0 X5.500 Y-31.767
G0 X5.664 Y-31.767
G1 F2400 X-5.563 Y-31.768 E161.62703
G0 F7500 X-5.400 Y-31.768
G0 X-5.400 Y-37.544
G0 X-5.563 Y-37.544
G1 F2400 X5.664 Y-37.543 E162.03125
G0 F7500 X5.500 Y-37.543
G0 X5.500 Y-43.319
G0 X5.664 Y-43.319
G1 F2400 X-5.563 Y-43.320 E162.43547
;LAYER:6
G1 F2400 E161.43547
G0 F7500 X0.216 Y0.216 Z1.500
;TYPE:WALL-OUTER
G1 F2400 E162.43547
G1 F2700 X0.284 Y0.216 E162.43792
G1 X0.284 Y0.284 E162.44037
G1 X0.216 Y0.284 E162.44281
G1 X0.216 Y0.216 E162.44526
G0 F7500 X-0.700 Y-0.700
;TYPE:SUPPORT
G1 F2400 X-0.700 Y1.200 E162.51367
G1 X1.200 Y1.200 E162.58208
G1 X1.200 Y-0.700 E162.65048
G1 X-0.700 Y-0.700 E162.71889
G0 F7500 X-0.690 Y-0.800
G0 X-5.500 Y-50.400
G1 F2400 X5.600 Y-50.400 E163.11854
G1 X5.600 Y50.600 E166.75495
G1 X-5.500 Y50.600 E167.15460
G1 X-5.500 Y-50.400 E170.79101
G0 F7500 X-5.563 Y-49.096
G1 F2400 X5.664 Y-49.095 E171.19523
G0 F7500 X5.500 Y-49.095
G0 X2.888 Y-50.300
G0 X2.888 Y-50.464
G1 F2400 X2.888 Y50.664 E174.83625
G0 F7500 X2.888 Y50.500
G0 X5.500 Y49.096
G0 X5.663 Y49.096
G1 F2400 X-5.564 Y49.095 E175.24047
G0 F7500 X-5.400 Y49.095
G0 X-2.888 Y50.500
G0 X-2.888 Y50.664
G1 F2400 X-2.888 Y-50.464 E178.88149
G0 F7500 X-2.888 Y-50.300
G0 X-5.400 Y-43.320
G0 X-5.563 Y-43.320
G1 F2400 X5.664 Y-43.319 E179.28571
