;Generated with Cura_SteamEngine 15.04.6

;Layer count: 16
;LAYER:0
M107
G0 F7500 X-9.149 Y-14.049 Z0.300
;TYPE:SKIRT
G1 F1800 X9.249 Y-14.049 E0.99361
G1 X9.249 Y14.249 E2.52187
G1 X-9.149 Y14.249 E3.51548
G1 X-9.149 Y-14.049 E5.04374
G0 F7500 X-8.716 Y-13.616
G1 F1800 X8.816 Y-13.616 E5.99058
G1 X8.816 Y13.816 E7.47207
G1 X-8.716 Y13.816 E8.41891
G1 X-8.716 Y-13.616 E9.90041
G1 F2400 E8.90041
G0 F7500 X0.216 Y0.216
;TYPE:WALL-OUTER
G1 F2400 E9.90041
G1 F1800 X0.284 Y0.216 E9.90408
G1 X0.284 Y0.284 E9.90775
G1 X0.216 Y0.284 E9.91142
G1 X0.216 Y0.216 E9.91510
G0 F7500 X-0.700 Y-0.700
;TYPE:SUPPORT
G1 F1800 X-0.700 Y1.200 E10.01771
G1 X1.200 Y1.200 E10.12032
G1 X1.200 Y-0.700 E10.22293
G1 X-0.700 Y-0.700 E10.32554
G0 F7500 X-0.690 Y-0.800
G0 X-5.500 Y-10.400
G1 F1800 X5.600 Y-10.400 E10.92501
G1 X5.600 Y10.600 E12.05914
G1 X-5.500 Y10.600 E12.65861
G1 X-5.500 Y-10.400 E13.79274
G0 F7500 X-5.400 Y-8.664
G0 X-5.563 Y-8.664
G1 F1800 X5.664 Y-8.663 E14.39906
G0 F7500 X5.500 Y-8.663
G0 X2.888 Y-10.300
G0 X2.888 Y-10.464
G1 F1800 X2.888 Y10.664 E15.54011
G0 F7500 X2.888 Y10.500
G0 X5.500 Y8.664
G0 X5.663 Y8.664
G1 F1800 X-5.564 Y8.663 E16.14643
G0 F7500 X-5.400 Y8.663
G0 X-2.888 Y10.500
G0 X-2.888 Y10.664
G1 F1800 X-2.888 Y-10.464 E17.28747
G0 F7500 X-2.888 Y-10.300
G0 X-5.400 Y-2.888
G0 X-5.563 Y-2.888
G1 F1800 X5.664 Y-2.887 E17.89380
G0 F7500 X5.500 Y-2.887
G0 X5.500 Y2.888
G0 X5.663 Y2.888
G1 F1800 X-5.564 Y2.887 E18.50013
;LAYER:1
M106 S63
G1 F2400 E17.50013
G0 F7500 X0.216 Y0.284 Z0.500
;TYPE:WALL-OUTER
G1 F2400 E18.50013
G1 F1980 X0.216 Y0.216 E18.50258
G1 X0.284 Y0.216 E18.50503
G1 X0.284 Y0.284 E18.50747
G1 X0.216 Y0.284 E18.50992
G0 F7500 X-0.700 Y1.200
;TYPE:SUPPORT
G1 F1920 X1.200 Y1.200 E18.57833
G1 X1.200 Y-0.700 E18.64674
G1 X-0.700 Y-0.700 E18.71515
G1 X-0.700 Y1.200 E18.78355
G0 F7500 X-0.800 Y1.190
G0 X-5.500 Y10.600
G1 F1920 X-5.500 Y-10.400 E19.53964
G1 X5.600 Y-10.400 E19.93928
G1 X5.600 Y10.600 E20.69537
G1 X-5.500 Y10.600 E21.09502
G0 F7500 X-5.400 Y8.663
G0 X-5.564 Y8.663
G1 F1920 X5.663 Y8.664 E21.49923
G0 F7500 X5.500 Y8.664
G0 X2.888 Y10.500
G0 X2.888 Y10.664
G1 F1920 X2.888 Y-10.464 E22.25993
G0 F7500 X2.888 Y-10.300
G0 X5.500 Y-8.663
G0 X5.664 Y-8.663
G1 F1920 X-5.563 Y-8.664 E22.66415
G0 F7500 X-5.400 Y-8.664
G0 X-2.888 Y-10.300
G0 X-2.888 Y-10.464
G1 F1920 X-2.888 Y10.664 E23.42484
G0 F7500 X-2.888 Y10.500
G0 X-5.400 Y2.887
G0 X-5.564 Y2.887
G1 F1920 X5.663 Y2.888 E23.82906
G0 F7500 X5.500 Y2.888
G0 X5.500 Y-2.887
G0 X5.664 Y-2.887
G1 F1920 X-5.563 Y-2.888 E24.23328
;LAYER:2
M106 S132
G1 F2400 E23.23328
G0 F7500 X0.216 Y0.216 Z0.700
;TYPE:WALL-OUTER
G1 F2400 E24.23328
G1 F2160 X0.284 Y0.216 E24.23573
G1 X0.284 Y0.284 E24.23817
G1 X0.216 Y0.284 E24.24062
G1 X0.216 Y0.216 E24.24307
G0 F7500 X-0.700 Y-0.700
;TYPE:SUPPORT
G1 F2040 X-0.700 Y1.200 E24.31148
G1 X1.200 Y1.200 E24.37989
G1 X1.200 Y-0.700 E24.44829
G1 X-0.700 Y-0.700 E24.51670
G0 F7500 X-0.690 Y-0.800
G0 X-5.500 Y-10.400
G1 F2040 X5.600 Y-10.400 E24.91635
G1 X5.600 Y10.600 E25.67243
G1 X-5.500 Y10.600 E26.07208
G1 X-5.500 Y-10.400 E26.82816
G0 F7500 X-5.400 Y-8.664
G0 X-5.563 Y-8.664
G1 F2040 X5.664 Y-8.663 E27.23238
G0 F7500 X5.500 Y-8.663
G0 X2.888 Y-10.300
G0 X2.888 Y-10.464
G1 F2040 X2.888 Y10.664 E27.99308
G0 F7500 X2.888 Y10.500
G0 X5.500 Y8.664
G0 X5.663 Y8.664
G1 F2040 X-5.564 Y8.663 E28.39729
G0 F7500 X-5.400 Y8.663
G0 X-2.888 Y10.500
G0 X-2.888 Y10.664
G1 F2040 X-2.888 Y-10.464 E29.15799
G0 F7500 X-2.888 Y-10.300
G0 X-5.400 Y-2.888
G0 X-5.563 Y-2.888
G1 F2040 X5.664 Y-2.887 E29.56221
G0 F7500 X5.500 Y-2.887
G0 X5.500 Y2.888
G0 X5.663 Y2.888
G1 F2040 X-5.564 Y2.887 E29.96643
;LAYER:3
M106 S147
G1 F2400 E28.96643
G0 F7500 X0.216 Y0.284 Z0.900
;TYPE:WALL-OUTER
G1 F2400 E29.96643
G1 F2160 X0.216 Y0.216 E29.96887
G1 X0.284 Y0.216 E29.97132
G1 X0.284 Y0.284 E29.97377
G1 X0.216 Y0.284 E29.97622
G0 F7500 X-0.700 Y1.200
;TYPE:SUPPORT
G1 F2040 X1.200 Y1.200 E30.04463
G1 X1.200 Y-0.700 E30.11303
G1 X-0.700 Y-0.700 E30.18144
G1 X-0.700 Y1.200 E30.24985
G0 F7500 X-0.800 Y1.190
G0 X-5.500 Y10.600
G1 F2040 X-5.500 Y-10.400 E31.00594
G1 X5.600 Y-10.400 E31.40558
G1 X5.600 Y10.600 E32.16167
G1 X-5.500 Y10.600 E32.56131
G0 F7500 X-5.400 Y8.663
G0 X-5.564 Y8.663
G1 F2040 X5.663 Y8.664 E32.96553
G0 F7500 X5.500 Y8.664
G0 X2.888 Y10.500
G0 X2.888 Y10.664
G1 F2040 X2.888 Y-10.464 E33.72623
G0 F7500 X2.888 Y-10.300
G0 X5.500 Y-8.663
G0 X5.664 Y-8.663
G1 F2040 X-5.563 Y-8.664 E34.13044
G0 F7500 X-5.400 Y-8.664
G0 X-2.888 Y-10.300
G0 X-2.888 Y-10.464
G1 F2040 X-2.888 Y10.664 E34.89114
G0 F7500 X-2.888 Y10.500
G0 X-5.400 Y2.887
G0 X-5.564 Y2.887
G1 F2040 X5.663 Y2.888 E35.29536
G0 F7500 X5.500 Y2.888
G0 X5.500 Y-2.887
G0 X5.664 Y-2.887
G1 F2040 X-5.563 Y-2.888 E35.69957
;LAYER:4
M106 S165
G1 F2400 E34.69957
G0 F7500 X0.216 Y0.216 Z1.100
;TYPE:WALL-OUTER
G1 F2400 E35.69957
G1 F2280 X0.284 Y0.216 E35.70202
G1 X0.284 Y0.284 E35.70447
G1 X0.216 Y0.284 E35.70692
G1 X0.216 Y0.216 E35.70937
G0 F7500 X-0.700 Y-0.700
;TYPE:SUPPORT
G1 F2040 X-0.700 Y1.200 E35.77777
G1 X1.200 Y1.200 E35.84618
G1 X1.200 Y-0.700 E35.91459
G1 X-0.700 Y-0.700 E35.98300
G0 F7500 X-0.690 Y-0.800
G0 X-5.500 Y-10.400
G1 F2040 X5.600 Y-10.400 E36.38264
G1 X5.600 Y10.600 E37.13873
G1 X-5.500 Y10.600 E37.53837
G1 X-5.500 Y-10.400 E38.29446
G0 F7500 X-5.400 Y-8.664
G0 X-5.563 Y-8.664
G1 F2040 X5.664 Y-8.663 E38.69868
G0 F7500 X5.500 Y-8.663
G0 X2.888 Y-10.300
G0 X2.888 Y-10.464
G1 F2040 X2.888 Y10.664 E39.45937
G0 F7500 X2.888 Y10.500
G0 X5.500 Y8.664
G0 X5.663 Y8.664
G1 F2040 X-5.564 Y8.663 E39.86359
G0 F7500 X-5.400 Y8.663
G0 X-2.888 Y10.500
G0 X-2.888 Y10.664
G1 F2040 X-2.888 Y-10.464 E40.62429
G0 F7500 X-2.888 Y-10.300
G0 X-5.400 Y-2.888
G0 X-5.563 Y-2.888
G1 F2040 X5.664 Y-2.887 E41.02850
G0 F7500 X5.500 Y-2.887
G0 X5.500 Y2.888
G0 X5.663 Y2.888
G1 F2040 X-5.564 Y2.887 E41.43272
;LAYER:5
G1 F2400 E40.43272
G0 F7500 X0.216 Y0.284 Z1.300
;TYPE:WALL-OUTER
G1 F2400 E41.43272
G1 F2280 X0.216 Y0.216 E41.43517
G1 X0.284 Y0.216 E41.43762
G1 X0.284 Y0.284 E41.44007
G1 X0.216 Y0.284 E41.44251
G0 F7500 X-0.700 Y1.200
;TYPE:SUPPORT
G1 F2040 X1.200 Y1.200 E41.51092
G1 X1.200 Y-0.700 E41.57933
G1 X-0.700 Y-0.700 E41.64774
G1 X-0.700 Y1.200 E41.71615
G0 F7500 X-0.800 Y1.190
G0 X-5.500 Y10.600
G1 F2040 X-5.500 Y-10.400 E42.47223
G1 X5.600 Y-10.400 E42.87188
G1 X5.600 Y10.600 E43.62796
G1 X-5.500 Y10.600 E44.02761
G0 F7500 X-5.400 Y8.663
G0 X-5.564 Y8.663
G1 F2040 X5.663 Y8.664 E44.43183
G0 F7500 X5.500 Y8.664
G0 X2.888 Y10.500
G0 X2.888 Y10.664
G1 F2040 X2.888 Y-10.464 E45.19252
G0 F7500 X2.888 Y-10.300
G0 X5.500 Y-8.663
G0 X5.664 Y-8.663
G1 F2040 X-5.563 Y-8.664 E45.59674
G0 F7500 X-5.400 Y-8.664
G0 X-2.888 Y-10.300
G0 X-2.888 Y-10.464
G1 F2040 X-2.888 Y10.664 E46.35743
G0 F7500 X-2.888 Y10.500
G0 X-5.400 Y2.887
G0 X-5.564 Y2.887
G1 F2040 X5.663 Y2.888 E46.76165
G0 F7500 X5.500 Y2.888
G0 X5.500 Y-2.887
G0 X5.664 Y-2.887
G1 F2040 X-5.563 Y-2.888 E47.16587
;LAYER:6
G1 F2400 E46.16587
G0 F7500 X0.216 Y0.216 Z1.500
;TYPE:WALL-OUTER
G1 F2400 E47.16587
G1 F2280 X0.284 Y0.216 E47.16832
G1 X0.284 Y0.284 E47.17077
G1 X0.216 Y0.284 E47.17321
G1 X0.216 Y0.216 E47.17566
G0 F7500 X-0.700 Y-0.700
;TYPE:SUPPORT
G1 F2040 X-0.700 Y1.200 E47.24407
G1 X1.200 Y1.200 E47.31248
G1 X1.200 Y-0.700 E47.38089
G1 X-0.700 Y-0.700 E47.44929
G0 F7500 X-0.690 Y-0.800
G0 X-5.500 Y-10.400
G1 F2040 X5.600 Y-10.400 E47.84894
G1 X5.600 Y10.600 E48.60503
G1 X-5.500 Y10.600 E49.00467
G1 X-5.500 Y-10.400 E49.76076
G0 F7500 X-5.400 Y-8.664
G0 X-5.563 Y-8.664
G1 F2040 X5.664 Y-8.663 E50.16498
G0 F7500 X5.500 Y-8.663
G0 X2.888 Y-10.300
G0 X2.888 Y-10.464
G1 F2040 X2.888 Y10.664 E50.92567
G0 F7500 X2.888 Y10.500
G0 X5.500 Y8.664
G0 X5.663 Y8.664
G1 F2040 X-5.564 Y8.663 E51.32989
G0 F7500 X-5.400 Y8.663
G0 X-2.888 Y10.500
G0 X-2.888 Y10.664
G1 F2040 X-2.888 Y-10.464 E52.09058
G0 F7500 X-2.888 Y-10.300
G0 X-5.400 Y-2.888
G0 X-5.563 Y-2.888
G1 F2040 X5.664 Y-2.887 E52.49480
G0 F7500 X5.500 Y-2.887
G0 X5.500 Y2.888
G0 X5.663 Y2.888
G1 F2040 X-5.564 Y2.887 E52.89902
;LAYER:7
G1 F2400 E51.89902
G0 F7500 X0.216 Y0.284 Z1.700
;TYPE:WALL-OUTER
G1 F2400 E52.89902
G1 F2280 X0.216 Y0.216 E52.90147
G1 X0.284 Y0.216 E52.90391
G1 X0.284 Y0.284 E52.90636
G1 X0.216 Y0.284 E52.90881
G0 F7500 X-0.700 Y1.200
;TYPE:SUPPORT
G1 F2040 X1.200 Y1.200 E52.97722
G1 X1.200 Y-0.700 E53.04563
G1 X-0.700 Y-0.700 E53.11403
G1 X-0.700 Y1.200 E53.18244
G0 F7500 X-0.800 Y1.190
G0 X-5.500 Y10.600
G1 F2040 X-5.500 Y-10.400 E53.93853
G1 X5.600 Y-10.400 E54.33817
G1 X5.600 Y10.600 E55.09426
G1 X-5.500 Y10.600 E55.49391
G0 F7500 X-5.400 Y8.663
G0 X-5.564 Y8.663
G1 F2040 X5.663 Y8.664 E55.89812
G0 F7500 X5.500 Y8.664
G0 X2.888 Y10.500
G0 X2.888 Y10.664
G1 F2040 X2.888 Y-10.464 E56.65882
G0 F7500 X2.888 Y-10.300
G0 X5.500 Y-8.663
G0 X5.664 Y-8.663
G1 F2040 X-5.563 Y-8.664 E57.06304
G0 F7500 X-5.400 Y-8.664
G0 X-2.888 Y-10.300
G0 X-2.888 Y-10.464
G1 F2040 X-2.888 Y10.664 E57.82373
G0 F7500 X-2.888 Y10.500
G0 X-5.400 Y2.887
G0 X-5.564 Y2.887
G1 F2040 X5.663 Y2.888 E58.22795
G0 F7500 X5.500 Y2.888
G0 X5.500 Y-2.887
G0 X5.664 Y-2.887
G1 F2040 X-5.563 Y-2.888 E58.63217
;LAYER:8
G1 F2400 E57.63217
G0 F7500 X0.216 Y0.216 Z1.900
;TYPE:WALL-OUTER
G1 F2400 E58.63217
G1 F2280 X0.284 Y0.216 E58.63461
G1 X0.284 Y0.284 E58.63706
G1 X0.216 Y0.284 E58.63951
G1 X0.216 Y0.216 E58.64196
G0 F7500 X-0.700 Y-0.700
;TYPE:SUPPORT
G1 F2040 X-0.700 Y1.200 E58.71037
G1 X1.200 Y1.200 E58.77878
G1 X1.200 Y-0.700 E58.84718
G1 X-0.700 Y-0.700 E58.91559
G0 F7500 X-0.690 Y-0.800
G0 X-5.500 Y-10.400
G1 F2040 X5.600 Y-10.400 E59.31524
G1 X5.600 Y10.600 E60.07132
G1 X-5.500 Y10.600 E60.47097
G1 X-5.500 Y-10.400 E61.22705
G0 F7500 X-5.400 Y-8.664
G0 X-5.563 Y-8.664
G1 F2040 X5.664 Y-8.663 E61.63127
G0 F7500 X5.500 Y-8.663
G0 X2.888 Y-10.300
G0 X2.888 Y-10.464
G1 F2040 X2.888 Y10.664 E62.39197
G0 F7500 X2.888 Y10.500
G0 X5.500 Y8.664
G0 X5.663 Y8.664
G1 F2040 X-5.564 Y8.663 E62.79618
G0 F7500 X-5.400 Y8.663
G0 X-2.888 Y10.500
G0 X-2.888 Y10.664
G1 F2040 X-2.888 Y-10.464 E63.55688
G0 F7500 X-2.888 Y-10.300
G0 X-5.400 Y-2.888
G0 X-5.563 Y-2.888
G1 F2040 X5.664 Y-2.887 E63.96110
G0 F7500 X5.500 Y-2.887
G0 X5.500 Y2.888
G0 X5.663 Y2.888
G1 F2040 X-5.564 Y2.887 E64.36531
;LAYER:9
G1 F2400 E63.36531
G0 F7500 X0.216 Y0.284 Z2.100
;TYPE:WALL-OUTER
G1 F2400 E64.36531
G1 F2280 X0.216 Y0.216 E64.36776
G1 X0.284 Y0.216 E64.37021
G1 X0.284 Y0.284 E64.37266
G1 X0.216 Y0.284 E64.37511
G0 F7500 X-0.700 Y1.200
;TYPE:SUPPORT
G1 F2040 X1.200 Y1.200 E64.44352
G1 X1.200 Y-0.700 E64.51192
G1 X-0.700 Y-0.700 E64.58033
G1 X-0.700 Y1.200 E64.64874
G0 F7500 X-0.800 Y1.190
G0 X-5.500 Y10.600
G1 F2040 X-5.500 Y-10.400 E65.40483
G1 X5.600 Y-10.400 E65.80447
G1 X5.600 Y10.600 E66.56056
G1 X-5.500 Y10.600 E66.96020
G0 F7500 X-5.400 Y8.663
G0 X-5.564 Y8.663
G1 F2040 X5.663 Y8.664 E67.36442
G0 F7500 X5.500 Y8.664
G0 X2.888 Y10.500
G0 X2.888 Y10.664
G1 F2040 X2.888 Y-10.464 E68.12511
G0 F7500 X2.888 Y-10.300
G0 X5.500 Y-8.663
G0 X5.664 Y-8.663
G1 F2040 X-5.563 Y-8.664 E68.52933
G0 F7500 X-5.400 Y-8.664
G0 X-2.888 Y-10.300
G0 X-2.888 Y-10.464
G1 F2040 X-2.888 Y10.664 E69.29003
G0 F7500 X-2.888 Y10.500
G0 X-5.400 Y2.887
G0 X-5.564 Y2.887
G1 F2040 X5.663 Y2.888 E69.69425
G0 F7500 X5.500 Y2.888
G0 X5.500 Y-2.887
G0 X5.664 Y-2.887
G1 F2040 X-5.563 Y-2.888 E70.09846
;LAYER:10
G1 F2400 E69.09846
G0 F7500 X0.216 Y0.216 Z2.300
;TYPE:WALL-OUTER
G1 F2400 E70.09846
G1 F2280 X0.284 Y0.216 E70.10091
G1 X0.284 Y0.284 E70.10336
G1 X0.216 Y0.284 E70.10581
G1 X0.216 Y0.216 E70.10826
G0 F7500 X-0.700 Y-0.700
;TYPE:SUPPORT
G1 F2040 X-0.700 Y1.200 E70.17666
G1 X1.200 Y1.200 E70.24507
G1 X1.200 Y-0.700 E70.31348
G1 X-0.700 Y-0.700 E70.38189
G0 F7500 X-0.690 Y-0.800
G0 X-5.500 Y-10.400
G1 F2040 X5.600 Y-10.400 E70.78153
G1 X5.600 Y10.600 E71.53762
G1 X-5.500 Y10.600 E71.93726
G1 X-5.500 Y-10.400 E72.69335
G0 F7500 X-5.400 Y-8.664
G0 X-5.563 Y-8.664
G1 F2040 X5.664 Y-8.663 E73.09757
G0 F7500 X5.500 Y-8.663
G0 X2.888 Y-10.300
G0 X2.888 Y-10.464
G1 F2040 X2.888 Y10.664 E73.85826
G0 F7500 X2.888 Y10.500
G0 X5.500 Y8.664
G0 X5.663 Y8.664
G1 F2040 X-5.564 Y8.663 E74.26248
G0 F7500 X-5.400 Y8.663
G0 X-2.888 Y10.500
G0 X-2.888 Y10.664
G1 F2040 X-2.888 Y-10.464 E75.02318
G0 F7500 X-2.888 Y-10.300
G0 X-5.400 Y-2.888
G0 X-5.563 Y-2.888
G1 F2040 X5.664 Y-2.887 E75.42739
G0 F7500 X5.500 Y-2.887
G0 X5.500 Y2.888
G0 X5.663 Y2.888
G1 F2040 X-5.564 Y2.887 E75.83161
;LAYER:11
G1 F2400 E74.83161
G0 F7500 X0.216 Y0.284 Z2.500
;TYPE:WALL-OUTER
G1 F2400 E75.83161
G1 F2280 X0.216 Y0.216 E75.83406
G1 X0.284 Y0.216 E75.83651
G1 X0.284 Y0.284 E75.83896
G1 X0.216 Y0.284 E75.84140
G0 F7500 X-0.700 Y1.200
;TYPE:SUPPORT
G1 F2040 X1.200 Y1.200 E75.90981
G1 X1.200 Y-0.700 E75.97822
G1 X-0.700 Y-0.700 E76.04663
G1 X-0.700 Y1.200 E76.11504
G0 F7500 X-0.800 Y1.190
G0 X-5.500 Y10.600
G1 F2040 X-5.500 Y-10.400 E76.87112
G1 X5.600 Y-10.400 E77.27077
G1 X5.600 Y10.600 E78.02685
G1 X-5.500 Y10.600 E78.42650
G0 F7500 X-5.400 Y8.663
G0 X-5.564 Y8.663
G1 F2040 X5.663 Y8.664 E78.83072
G0 F7500 X5.500 Y8.664
G0 X2.888 Y10.500
G0 X2.888 Y10.664
G1 F2040 X2.888 Y-10.464 E79.59141
G0 F7500 X2.888 Y-10.300
G0 X5.500 Y-8.663
G0 X5.664 Y-8.663
G1 F2040 X-5.563 Y-8.664 E79.99563
G0 F7500 X-5.400 Y-8.664
G0 X-2.888 Y-10.300
G0 X-2.888 Y-10.464
G1 F2040 X-2.888 Y10.664 E80.75632
G0 F7500 X-2.888 Y10.500
G0 X-5.400 Y2.887
G0 X-5.564 Y2.887
G1 F2040 X5.663 Y2.888 E81.16054
G0 F7500 X5.500 Y2.888
G0 X5.500 Y-2.887
G0 X5.664 Y-2.887
G1 F2040 X-5.563 Y-2.888 E81.56476
;LAYER:12
M106 S255
G1 F2400 E80.56476
G0 F7500 X0.216 Y0.216 Z2.700
;TYPE:WALL-OUTER
G1 F2400 E81.56476
G1 F540 X0.284 Y0.216 E81.56721
G1 X0.284 Y0.284 E81.56966
G1 X0.216 Y0.284 E81.57210
G1 X0.216 Y0.216 E81.57455
;LAYER:13
M106 S127
G0 F7500 X3.918 Y8.918 Z2.900
;TYPE:WALL-INNER
G1 F3600 X-3.918 Y8.918 E81.85668
G1 X-3.918 Y-8.918 E82.49885
G1 X3.918 Y-8.918 E82.78098
G1 X3.918 Y8.918 E83.42315
G0 F7500 X4.351 Y9.351
G1 F3600 X-4.351 Y9.351 E83.73645
G1 X-4.351 Y-9.351 E84.40980
G1 X4.351 Y-9.351 E84.72311
G1 X4.351 Y9.351 E85.39646
G0 F7500 X4.784 Y9.784
;TYPE:WALL-OUTER
G1 F2700 X-4.784 Y9.784 E85.74095
G1 X-4.784 Y-9.784 E86.44547
G1 X4.784 Y-9.784 E86.78996
G1 X4.784 Y9.784 E87.49449
G0 F7500 X4.467 Y9.557
G0 X3.176 Y8.765
;TYPE:SKIN
G1 F2700 X3.766 Y8.175 E87.52453
G0 F7500 X3.766 Y7.563
G1 F2700 X2.563 Y8.765 E87.58576
G0 F7500 X1.951 Y8.765
G1 F2700 X3.766 Y6.950 E87.67818
G0 F7500 X3.766 Y6.338
G1 F2700 X1.339 Y8.765 E87.80175
G0 F7500 X0.726 Y8.765
G1 F2700 X3.766 Y5.726 E87.95652
G0 F7500 X3.766 Y5.113
G1 F2700 X0.114 Y8.765 E88.14247
G0 F7500 X-0.497 Y8.765
G1 F2700 X3.766 Y4.501 E88.35955
G0 F7500 X3.766 Y3.889
G1 F2700 X-1.110 Y8.765 E88.60783
G0 F7500 X-1.722 Y8.765
G1 F2700 X3.766 Y3.276 E88.88729
G0 F7500 X3.766 Y2.664
G1 F2700 X-2.334 Y8.765 E89.19791
G0 F7500 X-2.947 Y8.765
G1 F2700 X3.766 Y2.052 E89.53972
G0 F7500 X3.766 Y1.439
G1 F2700 X-3.559 Y8.765 E89.91271
G0 F7500 X-3.766 Y8.359
G1 F2700 X3.766 Y0.827 E90.29622
G0 F7500 X3.766 Y0.214
G1 F2700 X-3.766 Y7.747 E90.67976
G0 F7500 X-3.766 Y7.134
G1 F2700 X3.766 Y-0.397 E91.06325
G0 F7500 X3.766 Y-1.009
G1 F2700 X-3.766 Y6.522 E91.44673
G0 F7500 X-3.766 Y5.909
G1 F2700 X3.766 Y-1.622 E91.83022
G0 F7500 X3.766 Y-2.234
G1 F2700 X-3.766 Y5.297 E92.21370
G0 F7500 X-3.766 Y4.685
G1 F2700 X3.766 Y-2.846 E92.59719
G0 F7500 X3.766 Y-3.459
G1 F2700 X-3.766 Y4.072 E92.98067
G0 F7500 X-3.766 Y3.460
G1 F2700 X3.766 Y-4.071 E93.36416
G0 F7500 X3.766 Y-4.683
G1 F2700 X-3.766 Y2.848 E93.74764
G0 F7500 X-3.766 Y2.235
G1 F2700 X3.766 Y-5.296 E94.13113
G0 F7500 X3.766 Y-5.908
G1 F2700 X-3.766 Y1.623 E94.51461
G0 F7500 X-3.766 Y1.011
G1 F2700 X3.766 Y-6.520 E94.89810
G0 F7500 X3.766 Y-7.133
G1 F2700 X-3.766 Y0.398 E95.28158
G0 F7500 X-3.766 Y-0.213
G1 F2700 X3.766 Y-7.745 E95.66509
G0 F7500 X3.766 Y-8.358
G1 F2700 X-3.766 Y-0.825 E96.04863
G0 F7500 X-3.766 Y-1.438
G1 F2700 X3.560 Y-8.765 E96.42167
G0 F7500 X2.948 Y-8.765
G1 F2700 X-3.766 Y-2.050 E96.76356
G0 F7500 X-3.766 Y-2.662
G1 F2700 X2.336 Y-8.765 E97.07428
G0 F7500 X1.723 Y-8.765
G1 F2700 X-3.766 Y-3.275 E97.35379
