;Generated with Cura_SteamEngine 15.04.6

;Layer count: 16
;LAYER:0
M107
G0 F7500 X-9.149 Y-19.049 Z0.300
;TYPE:SKIRT
G1 F1800 X9.249 Y-19.049 E0.99361
G1 X9.249 Y19.249 E3.06193
G1 X-9.149 Y19.249 E4.05554
G1 X-9.149 Y-19.049 E6.12386
G0 F7500 X-8.716 Y-18.616
G1 F1800 X8.816 Y-18.616 E7.07070
G1 X8.816 Y18.816 E9.09226
G1 X-8.716 Y18.816 E10.03909
G1 X-8.716 Y-18.616 E12.06065
G1 F2400 E11.06065
G0 F7500 X0.216 Y0.216
;TYPE:WALL-OUTER
G1 F2400 E12.06065
G1 F1800 X0.284 Y0.216 E12.06432
G1 X0.284 Y0.284 E12.06800
G1 X0.216 Y0.284 E12.07167
G1 X0.216 Y0.216 E12.07534
G0 F7500 X-0.700 Y-0.700
;TYPE:SUPPORT
G1 F1800 X-0.700 Y1.200 E12.17795
G1 X1.200 Y1.200 E12.28057
G1 X1.200 Y-0.700 E12.38318
G1 X-0.700 Y-0.700 E12.48579
G0 F7500 X-0.690 Y-0.800
G0 X-5.500 Y-15.400
G1 F1800 X5.600 Y-15.400 E13.08526
G1 X5.600 Y15.600 E14.75945
G1 X-5.500 Y15.600 E15.35892
G1 X-5.500 Y-15.400 E17.03311
G0 F7500 X-5.563 Y-14.440
G1 F1800 X5.664 Y-14.439 E17.63943
G0 F7500 X5.500 Y-14.439
G0 X2.888 Y-15.300
G0 X2.888 Y-15.464
G1 F1800 X2.888 Y15.664 E19.32054
G0 F7500 X2.888 Y15.500
G0 X5.500 Y14.440
G0 X5.663 Y14.440
G1 F1800 X-5.564 Y14.439 E19.92686
G0 F7500 X-5.400 Y14.439
G0 X-2.888 Y15.500
G0 X-2.888 Y15.664
G1 F1800 X-2.888 Y-15.464 E21.60797
G0 F7500 X-2.888 Y-15.300
G0 X-5.400 Y-8.664
G0 X-5.563 Y-8.664
G1 F1800 X5.664 Y-8.663 E22.21429
G0 F7500 X5.500 Y-8.663
G0 X5.500 Y-2.887
G0 X5.664 Y-2.887
G1 F1800 X-5.563 Y-2.888 E22.82062
G0 F7500 X-5.400 Y-2.888
G0 X-5.400 Y2.887
G0 X-5.564 Y2.887
G1 F1800 X5.663 Y2.888 E23.42695
G0 F7500 X5.500 Y2.888
G0 X5.500 Y8.664
G0 X5.663 Y8.664
G1 F1800 X-5.564 Y8.663 E24.03327
;LAYER:1
M106 S63
G1 F2400 E23.03327
G0 F7500 X0.216 Y0.284 Z0.500
;TYPE:WALL-OUTER
G1 F2400 E24.03327
G1 F1980 X0.216 Y0.216 E24.03572
G1 X0.284 Y0.216 E24.03817
G1 X0.284 Y0.284 E24.04062
G1 X0.216 Y0.284 E24.04307
G0 F7500 X-0.700 Y1.200
;TYPE:SUPPORT
G1 F1920 X1.200 Y1.200 E24.11148
G1 X1.200 Y-0.700 E24.17988
G1 X-0.700 Y-0.700 E24.24829
G1 X-0.700 Y1.200 E24.31670
G0 F7500 X-0.800 Y1.190
G0 X-5.500 Y15.600
G1 F1920 X-5.500 Y-15.400 E25.43283
G1 X5.600 Y-15.400 E25.83247
G1 X5.600 Y15.600 E26.94860
G1 X-5.500 Y15.600 E27.34824
G0 F7500 X-5.564 Y14.439
G1 F1920 X5.663 Y14.440 E27.75246
G0 F7500 X5.500 Y14.440
G0 X2.888 Y15.500
G0 X2.888 Y15.664
G1 F1920 X2.888 Y-15.464 E28.87320
G0 F7500 X2.888 Y-15.300
G0 X5.500 Y-14.439
G0 X5.664 Y-14.439
G1 F1920 X-5.563 Y-14.440 E29.27741
G0 F7500 X-5.400 Y-14.440
G0 X-2.888 Y-15.300
G0 X-2.888 Y-15.464
G1 F1920 X-2.888 Y15.664 E30.39815
G0 F7500 X-2.888 Y15.500
G0 X-5.400 Y8.663
G0 X-5.564 Y8.663
G1 F1920 X5.663 Y8.664 E30.80237
G0 F7500 X5.500 Y8.664
G0 X5.500 Y2.888
G0 X5.663 Y2.888
G1 F1920 X-5.564 Y2.887 E31.20659
G0 F7500 X-5.400 Y2.887
G0 X-5.400 Y-2.888
G0 X-5.563 Y-2.888
G1 F1920 X5.664 Y-2.887 E31.61080
G0 F7500 X5.500 Y-2.887
G0 X5.500 Y-8.663
G0 X5.664 Y-8.663
G1 F1920 X-5.563 Y-8.664 E32.01502
;LAYER:2
M106 S127
G1 F2400 E31.01502
G0 F7500 X0.216 Y0.216 Z0.700
;TYPE:WALL-OUTER
G1 F2400 E32.01502
G1 F2220 X0.284 Y0.216 E32.01747
G1 X0.284 Y0.284 E32.01992
G1 X0.216 Y0.284 E32.02237
G1 X0.216 Y0.216 E32.02482
G0 F7500 X-0.700 Y-0.700
;TYPE:SUPPORT
G1 F2100 X-0.700 Y1.200 E32.09322
G1 X1.200 Y1.200 E32.16163
G1 X1.200 Y-0.700 E32.23004
G1 X-0.700 Y-0.700 E32.29845
G0 F7500 X-0.690 Y-0.800
G0 X-5.500 Y-15.400
G1 F2100 X5.600 Y-15.400 E32.69809
G1 X5.600 Y15.600 E33.81422
G1 X-5.500 Y15.600 E34.21386
G1 X-5.500 Y-15.400 E35.32999
G0 F7500 X-5.563 Y-14.440
G1 F2100 X5.664 Y-14.439 E35.73421
G0 F7500 X5.500 Y-14.439
G0 X2.888 Y-15.300
G0 X2.888 Y-15.464
G1 F2100 X2.888 Y15.664 E36.85495
G0 F7500 X2.888 Y15.500
G0 X5.500 Y14.440
G0 X5.663 Y14.440
G1 F2100 X-5.564 Y14.439 E37.25916
G0 F7500 X-5.400 Y14.439
G0 X-2.888 Y15.500
G0 X-2.888 Y15.664
G1 F2100 X-2.888 Y-15.464 E38.37990
G0 F7500 X-2.888 Y-15.300
G0 X-5.400 Y-8.664
G0 X-5.563 Y-8.664
G1 F2100 X5.664 Y-8.663 E38.78412
G0 F7500 X5.500 Y-8.663
G0 X5.500 Y-2.887
G0 X5.664 Y-2.887
G1 F2100 X-5.563 Y-2.888 E39.18833
G0 F7500 X-5.400 Y-2.888
G0 X-5.400 Y2.887
G0 X-5.564 Y2.887
G1 F2100 X5.663 Y2.888 E39.59255
G0 F7500 X5.500 Y2.888
G0 X5.500 Y8.664
G0 X5.663 Y8.664
G1 F2100 X-5.564 Y8.663 E39.99677
;LAYER:3
G1 F2400 E38.99677
G0 F7500 X0.216 Y0.284 Z0.900
;TYPE:WALL-OUTER
G1 F2400 E39.99677
G1 X0.216 Y0.216 E39.99922
G1 X0.284 Y0.216 E40.00167
G1 X0.284 Y0.284 E40.00412
G1 X0.216 Y0.284 E40.00656
G0 F7500 X-0.700 Y1.200
;TYPE:SUPPORT
G1 F2220 X1.200 Y1.200 E40.07497
G1 X1.200 Y-0.700 E40.14338
G1 X-0.700 Y-0.700 E40.21179
G1 X-0.700 Y1.200 E40.28019
G0 F7500 X-0.800 Y1.190
G0 X-5.500 Y15.600
G1 F2220 X-5.500 Y-15.400 E41.39632
G1 X5.600 Y-15.400 E41.79597
G1 X5.600 Y15.600 E42.91209
G1 X-5.500 Y15.600 E43.31174
G0 F7500 X-5.564 Y14.439
G1 F2220 X5.663 Y14.440 E43.71596
G0 F7500 X5.500 Y14.440
G0 X2.888 Y15.500
G0 X2.888 Y15.664
G1 F2220 X2.888 Y-15.464 E44.83669
G0 F7500 X2.888 Y-15.300
G0 X5.500 Y-14.439
G0 X5.664 Y-14.439
G1 F2220 X-5.563 Y-14.440 E45.24091
G0 F7500 X-5.400 Y-14.440
G0 X-2.888 Y-15.300
G0 X-2.888 Y-15.464
G1 F2220 X-2.888 Y15.664 E46.36165
G0 F7500 X-2.888 Y15.500
G0 X-5.400 Y8.663
G0 X-5.564 Y8.663
G1 F2220 X5.663 Y8.664 E46.76586
G0 F7500 X5.500 Y8.664
G0 X5.500 Y2.888
G0 X5.663 Y2.888
G1 F2220 X-5.564 Y2.887 E47.17008
G0 F7500 X-5.400 Y2.887
G0 X-5.400 Y-2.888
G0 X-5.563 Y-2.888
G1 F2220 X5.664 Y-2.887 E47.57430
G0 F7500 X5.500 Y-2.887
G0 X5.500 Y-8.663
G0 X5.664 Y-8.663
G1 F2220 X-5.563 Y-8.664 E47.97852
;LAYER:4
G1 F2400 E46.97852
G0 F7500 X0.216 Y0.216 Z1.100
;TYPE:WALL-OUTER
G1 F2400 E47.97852
G1 F2700 X0.284 Y0.216 E47.98097
G1 X0.284 Y0.284 E47.98342
G1 X0.216 Y0.284 E47.98586
G1 X0.216 Y0.216 E47.98831
G0 F7500 X-0.700 Y-0.700
;TYPE:SUPPORT
G1 F2400 X-0.700 Y1.200 E48.05672
G1 X1.200 Y1.200 E48.12513
G1 X1.200 Y-0.700 E48.19354
G1 X-0.700 Y-0.700 E48.26194
G0 F7500 X-0.690 Y-0.800
G0 X-5.500 Y-15.400
G1 F2400 X5.600 Y-15.400 E48.66159
G1 X5.600 Y15.600 E49.77772
G1 X-5.500 Y15.600 E50.17736
G1 X-5.500 Y-15.400 E51.29349
G0 F7500 X-5.563 Y-14.440
G1 F2400 X5.664 Y-14.439 E51.69771
G0 F7500 X5.500 Y-14.439
G0 X2.888 Y-15.300
G0 X2.888 Y-15.464
G1 F2400 X2.888 Y15.664 E52.81844
G0 F7500 X2.888 Y15.500
G0 X5.500 Y14.440
G0 X5.663 Y14.440
G1 F2400 X-5.564 Y14.439 E53.22266
G0 F7500 X-5.400 Y14.439
G0 X-2.888 Y15.500
G0 X-2.888 Y15.664
G1 F2400 X-2.888 Y-15.464 E54.34339
G0 F7500 X-2.888 Y-15.300
G0 X-5.400 Y-8.664
G0 X-5.563 Y-8.664
G1 F2400 X5.664 Y-8.663 E54.74761
G0 F7500 X5.500 Y-8.663
G0 X5.500 Y-2.887
G0 X5.664 Y-2.887
G1 F2400 X-5.563 Y-2.888 E55.15183
G0 F7500 X-5.400 Y-2.888
G0 X-5.400 Y2.887
G0 X-5.564 Y2.887
G1 F2400 X5.663 Y2.888 E55.55605
G0 F7500 X5.500 Y2.888
G0 X5.500 Y8.664
G0 X5.663 Y8.664
G1 F2400 X-5.564 Y8.663 E55.96027
;LAYER:5
G1 F2400 E54.96027
G0 F7500 X0.216 Y0.284 Z1.300
;TYPE:WALL-OUTER
G1 F2400 E55.96027
G1 F2700 X0.216 Y0.216 E55.96271
G1 X0.284 Y0.216 E55.96516
G1 X0.284 Y0.284 E55.96761
G1 X0.216 Y0.284 E55.97006
G0 F7500 X-0.700 Y1.200
;TYPE:SUPPORT
G1 F2400 X1.200 Y1.200 E56.03847
G1 X1.200 Y-0.700 E56.10688
G1 X-0.700 Y-0.700 E56.17528
G1 X-0.700 Y1.200 E56.24369
G0 F7500 X-0.800 Y1.190
G0 X-5.500 Y15.600
G1 F2400 X-5.500 Y-15.400 E57.35982
G1 X5.600 Y-15.400 E57.75946
G1 X5.600 Y15.600 E58.87559
G1 X-5.500 Y15.600 E59.27524
G0 F7500 X-5.564 Y14.439
G1 F2400 X5.663 Y14.440 E59.67945
G0 F7500 X5.500 Y14.440
G0 X2.888 Y15.500
G0 X2.888 Y15.664
G1 F2400 X2.888 Y-15.464 E60.80019
G0 F7500 X2.888 Y-15.300
G0 X5.500 Y-14.439
G0 X5.664 Y-14.439
G1 F2400 X-5.563 Y-14.440 E61.20441
G0 F7500 X-5.400 Y-14.440
G0 X-2.888 Y-15.300
G0 X-2.888 Y-15.464
G1 F2400 X-2.888 Y15.664 E62.32514
G0 F7500 X-2.888 Y15.500
G0 X-5.400 Y8.663
G0 X-5.564 Y8.663
G1 F2400 X5.663 Y8.664 E62.72936
G0 F7500 X5.500 Y8.664
G0 X5.500 Y2.888
G0 X5.663 Y2.888
G1 F2400 X-5.564 Y2.887 E63.13358
G0 F7500 X-5.400 Y2.887
G0 X-5.400 Y-2.888
G0 X-5.563 Y-2.888
G1 F2400 X5.664 Y-2.887 E63.53780
G0 F7500 X5.500 Y-2.887
G0 X5.500 Y-8.663
G0 X5.664 Y-8.663
G1 F2400 X-5.563 Y-8.664 E63.94201
;LAYER:6
G1 F2400 E62.94201
G0 F7500 X0.216 Y0.216 Z1.500
;TYPE:WALL-OUTER
G1 F2400 E63.94201
G1 F2700 X0.284 Y0.216 E63.94446
G1 X0.284 Y0.284 E63.94691
G1 X0.216 Y0.284 E63.94936
G1 X0.216 Y0.216 E63.95181
G0 F7500 X-0.700 Y-0.700
;TYPE:SUPPORT
G1 F2400 X-0.700 Y1.200 E64.02022
G1 X1.200 Y1.200 E64.08862
G1 X1.200 Y-0.700 E64.15703
G1 X-0.700 Y-0.700 E64.22544
G0 F7500 X-0.690 Y-0.800
G0 X-5.500 Y-15.400
G1 F2400 X5.600 Y-15.400 E64.62508
G1 X5.600 Y15.600 E65.74121
G1 X-5.500 Y15.600 E66.14086
G1 X-5.500 Y-15.400 E67.25698
G0 F7500 X-5.563 Y-14.440
G1 F2400 X5.664 Y-14.439 E67.66120
G0 F7500 X5.500 Y-14.439
G0 X2.888 Y-15.300
G0 X2.888 Y-15.464
G1 F2400 X2.888 Y15.664 E68.78194
G0 F7500 X2.888 Y15.500
G0 X5.500 Y14.440
G0 X5.663 Y14.440
G1 F2400 X-5.564 Y14.439 E69.18616
G0 F7500 X-5.400 Y14.439
G0 X-2.888 Y15.500
G0 X-2.888 Y15.664
G1 F2400 X-2.888 Y-15.464 E70.30689
G0 F7500 X-2.888 Y-15.300
G0 X-5.400 Y-8.664
G0 X-5.563 Y-8.664
G1 F2400 X5.664 Y-8.663 E70.71111
G0 F7500 X5.500 Y-8.663
G0 X5.500 Y-2.887
G0 X5.664 Y-2.887
G1 F2400 X-5.563 Y-2.888 E71.11533
G0 F7500 X-5.400 Y-2.888
G0 X-5.400 Y2.887
G0 X-5.564 Y2.887
G1 F2400 X5.663 Y2.888 E71.51954
G0 F7500 X5.500 Y2.888
G0 X5.500 Y8.664
G0 X5.663 Y8.664
G1 F2400 X-5.564 Y8.663 E71.92376
;LAYER:7
G1 F2400 E70.92376
G0 F7500 X0.216 Y0.284 Z1.700
;TYPE:WALL-OUTER
G1 F2400 E71.92376
G1 F2700 X0.216 Y0.216 E71.92621
G1 X0.284 Y0.216 E71.92866
G1 X0.284 Y0.284 E71.93111
G1 X0.216 Y0.284 E71.93356
G0 F7500 X-0.700 Y1.200
;TYPE:SUPPORT
G1 F2400 X1.200 Y1.200 E72.00196
G1 X1.200 Y-0.700 E72.07037
G1 X-0.700 Y-0.700 E72.13878
G1 X-0.700 Y1.200 E72.20719
G0 F7500 X-0.800 Y1.190
G0 X-5.500 Y15.600
G1 F2400 X-5.500 Y-15.400 E73.32331
G1 X5.600 Y-15.400 E73.72296
G1 X5.600 Y15.600 E74.83909
G1 X-5.500 Y15.600 E75.23873
G0 F7500 X-5.564 Y14.439
G1 F2400 X5.663 Y14.440 E75.64295
G0 F7500 X5.500 Y14.440
G0 X2.888 Y15.500
G0 X2.888 Y15.664
G1 F2400 X2.888 Y-15.464 E76.76369
G0 F7500 X2.888 Y-15.300
G0 X5.500 Y-14.439
G0 X5.664 Y-14.439
G1 F2400 X-5.563 Y-14.440 E77.16790
G0 F7500 X-5.400 Y-14.440
G0 X-2.888 Y-15.300
G0 X-2.888 Y-15.464
G1 F2400 X-2.888 Y15.664 E78.28864
G0 F7500 X-2.888 Y15.500
G0 X-5.400 Y8.663
G0 X-5.564 Y8.663
G1 F2400 X5.663 Y8.664 E78.69286
G0 F7500 X5.500 Y8.664
G0 X5.500 Y2.888
G0 X5.663 Y2.888
G1 F2400 X-5.564 Y2.887 E79.09707
G0 F7500 X-5.400 Y2.887
G0 X-5.400 Y-2.888
G0 X-5.563 Y-2.888
G1 F2400 X5.664 Y-2.887 E79.50129
G0 F7500 X5.500 Y-2.887
G0 X5.500 Y-8.663
G0 X5.664 Y-8.663
G1 F2400 X-5.563 Y-8.664 E79.90551
;LAYER:8
G1 F2400 E78.90551
G0 F7500 X0.216 Y0.216 Z1.900
;TYPE:WALL-OUTER
G1 F2400 E79.90551
G1 F2700 X0.284 Y0.216 E79.90796
G1 X0.284 Y0.284 E79.91041
G1 X0.216 Y0.284 E79.91286
G1 X0.216 Y0.216 E79.91530
G0 F7500 X-0.700 Y-0.700
;TYPE:SUPPORT
G1 F2400 X-0.700 Y1.200 E79.98371
G1 X1.200 Y1.200 E80.05212
G1 X1.200 Y-0.700 E80.12053
G1 X-0.700 Y-0.700 E80.18894
G0 F7500 X-0.690 Y-0.800
G0 X-5.500 Y-15.400
G1 F2400 X5.600 Y-15.400 E80.58858
G1 X5.600 Y15.600 E81.70471
G1 X-5.500 Y15.600 E82.10435
G1 X-5.500 Y-15.400 E83.22048
G0 F7500 X-5.563 Y-14.440
G1 F2400 X5.664 Y-14.439 E83.62470
G0 F7500 X5.500 Y-14.439
G0 X2.888 Y-15.300
G0 X2.888 Y-15.464
G1 F2400 X2.888 Y15.664 E84.74543
G0 F7500 X2.888 Y15.500
G0 X5.500 Y14.440
G0 X5.663 Y14.440
G1 F2400 X-5.564 Y14.439 E85.14965
G0 F7500 X-5.400 Y14.439
G0 X-2.888 Y15.500
G0 X-2.888 Y15.664
G1 F2400 X-2.888 Y-15.464 E86.27039
G0 F7500 X-2.888 Y-15.300
G0 X-5.400 Y-8.664
G0 X-5.563 Y-8.664
G1 F2400 X5.664 Y-8.663 E86.67461
G0 F7500 X5.500 Y-8.663
G0 X5.500 Y-2.887
G0 X5.664 Y-2.887
G1 F2400 X-5.563 Y-2.888 E87.07882
G0 F7500 X-5.400 Y-2.888
G0 X-5.400 Y2.887
G0 X-5.564 Y2.887
G1 F2400 X5.663 Y2.888 E87.48304
G0 F7500 X5.500 Y2.888
G0 X5.500 Y8.664
G0 X5.663 Y8.664
G1 F2400 X-5.564 Y8.663 E87.88726
;LAYER:9
G1 F2400 E86.88726
G0 F7500 X0.216 Y0.284 Z2.100
;TYPE:WALL-OUTER
G1 F2400 E87.88726
G1 F2700 X0.216 Y0.216 E87.88971
G1 X0.284 Y0.216 E87.89216
G1 X0.284 Y0.284 E87.89460
G1 X0.216 Y0.284 E87.89705
G0 F7500 X-0.700 Y1.200
;TYPE:SUPPORT
G1 F2400 X1.200 Y1.200 E87.96546
G1 X1.200 Y-0.700 E88.03387
G1 X-0.700 Y-0.700 E88.10228
G1 X-0.700 Y1.200 E88.17068
G0 F7500 X-0.800 Y1.190
G0 X-5.500 Y15.600
G1 F2400 X-5.500 Y-15.400 E89.28681
G1 X5.600 Y-15.400 E89.68646
G1 X5.600 Y15.600 E90.80258
G1 X-5.500 Y15.600 E91.20223
G0 F7500 X-5.564 Y14.439
G1 F2400 X5.663 Y14.440 E91.60645
G0 F7500 X5.500 Y14.440
G0 X2.888 Y15.500
G0 X2.888 Y15.664
G1 F2400 X2.888 Y-15.464 E92.72718
G0 F7500 X2.888 Y-15.300
G0 X5.500 Y-14.439
G0 X5.664 Y-14.439
G1 F2400 X-5.563 Y-14.440 E93.13140
G0 F7500 X-5.400 Y-14.440
G0 X-2.888 Y-15.300
G0 X-2.888 Y-15.464
G1 F2400 X-2.888 Y15.664 E94.25214
G0 F7500 X-2.888 Y15.500
G0 X-5.400 Y8.663
G0 X-5.564 Y8.663
G1 F2400 X5.663 Y8.664 E94.65635
G0 F7500 X5.500 Y8.664
G0 X5.500 Y2.888
G0 X5.663 Y2.888
G1 F2400 X-5.564 Y2.887 E95.06057
G0 F7500 X-5.400 Y2.887
G0 X-5.400 Y-2.888
G0 X-5.563 Y-2.888
G1 F2400 X5.664 Y-2.887 E95.46479
G0 F7500 X5.500 Y-2.887
G0 X5.500 Y-8.663
G0 X5.664 Y-8.663
G1 F2400 X-5.563 Y-8.664 E95.86901
;LAYER:10
G1 F2400 E94.86901
G0 F7500 X0.216 Y0.216 Z2.300
;TYPE:WALL-OUTER
G1 F2400 E95.86901
G1 F2700 X0.284 Y0.216 E95.87146
G1 X0.284 Y0.284 E95.87390
G1 X0.216 Y0.284 E95.87635
G1 X0.216 Y0.216 E95.87880
G0 F7500 X-0.700 Y-0.700
;TYPE:SUPPORT
G1 F2400 X-0.700 Y1.200 E95.94721
G1 X1.200 Y1.200 E96.01562
G1 X1.200 Y-0.700 E96.08402
G1 X-0.700 Y-0.700 E96.15243
G0 F7500 X-0.690 Y-0.800
G0 X-5.500 Y-15.400
G1 F2400 X5.600 Y-15.400 E96.55208
G1 X5.600 Y15.600 E97.66820
G1 X-5.500 Y15.600 E98.06785
G1 X-5.500 Y-15.400 E99.18398
G0 F7500 X-5.563 Y-14.440
G1 F2400 X5.664 Y-14.439 E99.58819
G0 F7500 X5.500 Y-14.439
G0 X2.888 Y-15.300
G0 X2.888 Y-15.464
G1 F2400 X2.888 Y15.664 E100.70893
G0 F7500 X2.888 Y15.500
G0 X5.500 Y14.440
G0 X5.663 Y14.440
G1 F2400 X-5.564 Y14.439 E101.11315
G0 F7500 X-5.400 Y14.439
G0 X-2.888 Y15.500
G0 X-2.888 Y15.664
G1 F2400 X-2.888 Y-15.464 E102.23388
G0 F7500 X-2.888 Y-15.300
G0 X-5.400 Y-8.664
G0 X-5.563 Y-8.664
G1 F2400 X5.664 Y-8.663 E102.63810
G0 F7500 X5.500 Y-8.663
G0 X5.500 Y-2.887
G0 X5.664 Y-2.887
G1 F2400 X-5.563 Y-2.888 E103.04232
G0 F7500 X-5.400 Y-2.888
G0 X-5.400 Y2.887
G0 X-5.564 Y2.887
G1 F2400 X5.663 Y2.888 E103.44654
G0 F7500 X5.500 Y2.888
G0 X5.500 Y8.664
G0 X5.663 Y8.664
G1 F2400 X-5.564 Y8.663 E103.85076
;LAYER:11
G1 F2400 E102.85076
G0 F7500 X0.216 Y0.284 Z2.500
;TYPE:WALL-OUTER
G1 F2400 E103.85076
G1 F2700 X0.216 Y0.216 E103.85320
G1 X0.284 Y0.216 E103.85565
G1 X0.284 Y0.284 E103.85810
G1 X0.216 Y0.284 E103.86055
G0 F7500 X-0.700 Y1.200
;TYPE:SUPPORT
G1 F2400 X1.200 Y1.200 E103.92896
G1 X1.200 Y-0.700 E103.99736
G1 X-0.700 Y-0.700 E104.06577
G1 X-0.700 Y1.200 E104.13418
G0 F7500 X-0.800 Y1.190
G0 X-5.500 Y15.600
G1 F2400 X-5.500 Y-15.400 E105.25031
G1 X5.600 Y-15.400 E105.64995
G1 X5.600 Y15.600 E106.76608
G1 X-5.500 Y15.600 E107.16572
G0 F7500 X-5.564 Y14.439
G1 F2400 X5.663 Y14.440 E107.56994
G0 F7500 X5.500 Y14.440
G0 X2.888 Y15.500
G0 X2.888 Y15.664
G1 F2400 X2.888 Y-15.464 E108.69068
G0 F7500 X2.888 Y-15.300
G0 X5.500 Y-14.439
G0 X5.664 Y-14.439
G1 F2400 X-5.563 Y-14.440 E109.09490
G0 F7500 X-5.400 Y-14.440
G0 X-2.888 Y-15.300
G0 X-2.888 Y-15.464
G1 F2400 X-2.888 Y15.664 E110.21563
G0 F7500 X-2.888 Y15.500
G0 X-5.400 Y8.663
G0 X-5.564 Y8.663
G1 F2400 X5.663 Y8.664 E110.61985
G0 F7500 X5.500 Y8.664
G0 X5.500 Y2.888
G0 X5.663 Y2.888
G1 F2400 X-5.564 Y2.887 E111.02407
G0 F7500 X-5.400 Y2.887
G0 X-5.400 Y-2.888
G0 X-5.563 Y-2.888
G1 F2400 X5.664 Y-2.887 E111.42829
G0 F7500 X5.500 Y-2.887
G0 X5.500 Y-8.663
G0 X5.664 Y-8.663
G1 F2400 X-5.563 Y-8.664 E111.83250
;LAYER:12
M106 S255
G1 F2400 E110.83250
G0 F7500 X0.216 Y0.216 Z2.700
;TYPE:WALL-OUTER
G1 F2400 E111.83250
G1 F540 X0.284 Y0.216 E111.83495
G1 X0.284 Y0.284 E111.83740
G1 X0.216 Y0.284 E111.83985
G1 X0.216 Y0.216 E111.84230
;LAYER:13
M106 S127
G0 F7500 X3.918 Y13.918 Z2.900
;TYPE:WALL-INNER
G1 F3600 X-3.918 Y13.918 E112.12442
G1 X-3.918 Y-13.918 E113.12663
G1 X3.918 Y-13.918 E113.40876
G1 X3.918 Y13.918 E114.41097
G0 F7500 X4.351 Y14.351
