;Generated with Cura_SteamEngine 15.04.6

;Layer count: 16
;LAYER:0
M107
G0 F7500 X-9.149 Y-24.049 Z0.300
;TYPE:SKIRT
G1 F1800 X9.249 Y-24.049 E0.99361
G1 X9.249 Y24.249 E3.60199
G1 X-9.149 Y24.249 E4.59560
G1 X-9.149 Y-24.049 E7.20399
G0 F7500 X-8.716 Y-23.616
G1 F1800 X8.816 Y-23.616 E8.15082
G1 X8.816 Y23.816 E10.71244
G1 X-8.716 Y23.816 E11.65928
G1 X-8.716 Y-23.616 E14.22090
G1 F2400 E13.22090
G0 F7500 X0.216 Y0.216
;TYPE:WALL-OUTER
G1 F2400 E14.22090
G1 F1800 X0.284 Y0.216 E14.22457
G1 X0.284 Y0.284 E14.22824
G1 X0.216 Y0.284 E14.23192
G1 X0.216 Y0.216 E14.23559
G0 F7500 X-0.700 Y-0.700
;TYPE:SUPPORT
G1 F1800 X-0.700 Y1.200 E14.33820
G1 X1.200 Y1.200 E14.44081
G1 X1.200 Y-0.700 E14.54342
G1 X-0.700 Y-0.700 E14.64603
G0 F7500 X-0.690 Y-0.800
G0 X-5.500 Y-20.400
G1 F1800 X5.600 Y-20.400 E15.24550
G1 X5.600 Y20.600 E17.45975
G1 X-5.500 Y20.600 E18.05922
G1 X-5.500 Y-20.400 E20.27347
G0 F7500 X-5.563 Y-20.216
G1 F1800 X5.664 Y-20.215 E20.87980
G0 F7500 X5.500 Y-20.215
G0 X2.888 Y-20.300
G0 X2.888 Y-20.464
G1 F1800 X2.888 Y20.664 E23.10097
G0 F7500 X2.888 Y20.500
G0 X5.500 Y20.216
G0 X5.663 Y20.216
G1 F1800 X-5.564 Y20.215 E23.70729
G0 F7500 X-5.400 Y20.215
G0 X-2.888 Y20.500
G0 X-2.888 Y20.664
G1 F1800 X-2.888 Y-20.464 E25.92846
G0 F7500 X-2.888 Y-20.300
G0 X-5.400 Y-14.440
G0 X-5.563 Y-14.440
G1 F1800 X5.664 Y-14.439 E26.53478
G0 F7500 X5.500 Y-14.439
G0 X5.500 Y-8.663
G0 X5.664 Y-8.663
G1 F1800 X-5.563 Y-8.664 E27.14111
G0 F7500 X-5.400 Y-8.664
G0 X-5.400 Y-2.888
G0 X-5.563 Y-2.888
G1 F1800 X5.664 Y-2.887 E27.74744
G0 F7500 X5.500 Y-2.887
G0 X5.500 Y2.888
G0 X5.663 Y2.888
G1 F1800 X-5.564 Y2.887 E28.35377
G0 F7500 X-5.400 Y2.887
G0 X-5.400 Y8.663
G0 X-5.564 Y8.663
G1 F1800 X5.663 Y8.664 E28.96009
G0 F7500 X5.500 Y8.664
G0 X5.500 Y14.440
G0 X5.663 Y14.440
G1 F1800 X-5.564 Y14.439 E29.56642
;LAYER:1
M106 S63
G1 F2400 E28.56642
G0 F7500 X0.216 Y0.284 Z0.500
;TYPE:WALL-OUTER
G1 F2400 E29.56642
G1 F1980 X0.216 Y0.216 E29.56887
G1 X0.284 Y0.216 E29.57132
G1 X0.284 Y0.284 E29.57376
G1 X0.216 Y0.284 E29.57621
G0 F7500 X-0.700 Y1.200
;TYPE:SUPPORT
G1 F1920 X1.200 Y1.200 E29.64462
G1 X1.200 Y-0.700 E29.71303
G1 X-0.700 Y-0.700 E29.78144
G1 X-0.700 Y1.200 E29.84984
G0 F7500 X-0.800 Y1.190
G0 X-5.500 Y20.600
G1 F1920 X-5.500 Y-20.400 E31.32601
G1 X5.600 Y-20.400 E31.72566
G1 X5.600 Y20.600 E33.20183
G1 X-5.500 Y20.600 E33.60147
G0 F7500 X-5.564 Y20.215
G1 F1920 X5.663 Y20.216 E34.00569
G0 F7500 X5.500 Y20.216
G0 X2.888 Y20.500
G0 X2.888 Y20.664
G1 F1920 X2.888 Y-20.464 E35.48647
G0 F7500 X2.888 Y-20.300
G0 X5.500 Y-20.215
G0 X5.664 Y-20.215
G1 F1920 X-5.563 Y-20.216 E35.89068
G0 F7500 X-5.400 Y-20.216
G0 X-2.888 Y-20.300
G0 X-2.888 Y-20.464
G1 F1920 X-2.888 Y20.664 E37.37146
G0 F7500 X-2.888 Y20.500
G0 X-5.400 Y14.439
G0 X-5.564 Y14.439
G1 F1920 X5.663 Y14.440 E37.77568
G0 F7500 X5.500 Y14.440
G0 X5.500 Y8.664
G0 X5.663 Y8.664
G1 F1920 X-5.564 Y8.663 E38.17990
G0 F7500 X-5.400 Y8.663
G0 X-5.400 Y2.887
G0 X-5.564 Y2.887
G1 F1920 X5.663 Y2.888 E38.58411
G0 F7500 X5.500 Y2.888
G0 X5.500 Y-2.887
G0 X5.664 Y-2.887
G1 F1920 X-5.563 Y-2.888 E38.98833
G0 F7500 X-5.400 Y-2.888
G0 X-5.400 Y-8.664
G0 X-5.563 Y-8.664
G1 F1920 X5.664 Y-8.663 E39.39255
G0 F7500 X5.500 Y-8.663
G0 X5.500 Y-14.439
G0 X5.664 Y-14.439
G1 F1920 X-5.563 Y-14.440 E39.79677
;LAYER:2
M106 S127
G1 F2400 E38.79677
G0 F7500 X0.216 Y0.216 Z0.700
;TYPE:WALL-OUTER
G1 F2400 E39.79677
G1 F2220 X0.284 Y0.216 E39.79922
G1 X0.284 Y0.284 E39.80166
G1 X0.216 Y0.284 E39.80411
G1 X0.216 Y0.216 E39.80656
G0 F7500 X-0.700 Y-0.700
;TYPE:SUPPORT
G1 F2100 X-0.700 Y1.200 E39.87497
G1 X1.200 Y1.200 E39.94338
G1 X1.200 Y-0.700 E40.01178
G1 X-0.700 Y-0.700 E40.08019
G0 F7500 X-0.690 Y-0.800
G0 X-5.500 Y-20.400
G1 F2100 X5.600 Y-20.400 E40.47984
G1 X5.600 Y20.600 E41.95601
G1 X-5.500 Y20.600 E42.35565
G1 X-5.500 Y-20.400 E43.83182
G0 F7500 X-5.563 Y-20.216
G1 F2100 X5.664 Y-20.215 E44.23604
G0 F7500 X5.500 Y-20.215
G0 X2.888 Y-20.300
G0 X2.888 Y-20.464
G1 F2100 X2.888 Y20.664 E45.71681
G0 F7500 X2.888 Y20.500
G0 X5.500 Y20.216
G0 X5.663 Y20.216
G1 F2100 X-5.564 Y20.215 E46.12103
G0 F7500 X-5.400 Y20.215
G0 X-2.888 Y20.500
G0 X-2.888 Y20.664
G1 F2100 X-2.888 Y-20.464 E47.60181
G0 F7500 X-2.888 Y-20.300
G0 X-5.400 Y-14.440
G0 X-5.563 Y-14.440
G1 F2100 X5.664 Y-14.439 E48.00603
G0 F7500 X5.500 Y-14.439
G0 X5.500 Y-8.663
G0 X5.664 Y-8.663
G1 F2100 X-5.563 Y-8.664 E48.41024
G0 F7500 X-5.400 Y-8.664
G0 X-5.400 Y-2.888
G0 X-5.563 Y-2.888
G1 F2100 X5.664 Y-2.887 E48.81446
G0 F7500 X5.500 Y-2.887
G0 X5.500 Y2.888
G0 X5.663 Y2.888
G1 F2100 X-5.564 Y2.887 E49.21868
G0 F7500 X-5.400 Y2.887
G0 X-5.400 Y8.663
G0 X-5.564 Y8.663
G1 F2100 X5.663 Y8.664 E49.62290
G0 F7500 X5.500 Y8.664
G0 X5.500 Y14.440
G0 X5.663 Y14.440
G1 F2100 X-5.564 Y14.439 E50.02712
;LAYER:3
G1 F2400 E49.02712
G0 F7500 X0.216 Y0.284 Z0.900
;TYPE:WALL-OUTER
G1 F2400 E50.02712
G1 X0.216 Y0.216 E50.02956
G1 X0.284 Y0.216 E50.03201
G1 X0.284 Y0.284 E50.03446
G1 X0.216 Y0.284 E50.03691
G0 F7500 X-0.700 Y1.200
;TYPE:SUPPORT
G1 F2220 X1.200 Y1.200 E50.10532
G1 X1.200 Y-0.700 E50.17372
G1 X-0.700 Y-0.700 E50.24213
G1 X-0.700 Y1.200 E50.31054
G0 F7500 X-0.800 Y1.190
G0 X-5.500 Y20.600
G1 F2220 X-5.500 Y-20.400 E51.78671
G1 X5.600 Y-20.400 E52.18635
G1 X5.600 Y20.600 E53.66252
G1 X-5.500 Y20.600 E54.06217
G0 F7500 X-5.564 Y20.215
G1 F2220 X5.663 Y20.216 E54.46638
G0 F7500 X5.500 Y20.216
G0 X2.888 Y20.500
G0 X2.888 Y20.664
G1 F2220 X2.888 Y-20.464 E55.94716
G0 F7500 X2.888 Y-20.300
G0 X5.500 Y-20.215
G0 X5.664 Y-20.215
G1 F2220 X-5.563 Y-20.216 E56.35138
G0 F7500 X-5.400 Y-20.216
G0 X-2.888 Y-20.300
G0 X-2.888 Y-20.464
G1 F2220 X-2.888 Y20.664 E57.83216
G0 F7500 X-2.888 Y20.500
G0 X-5.400 Y14.439
G0 X-5.564 Y14.439
G1 F2220 X5.663 Y14.440 E58.23637
G0 F7500 X5.500 Y14.440
G0 X5.500 Y8.664
G0 X5.663 Y8.664
G1 F2220 X-5.564 Y8.663 E58.64059
G0 F7500 X-5.400 Y8.663
G0 X-5.400 Y2.887
G0 X-5.564 Y2.887
G1 F2220 X5.663 Y2.888 E59.04481
G0 F7500 X5.500 Y2.888
G0 X5.500 Y-2.887
G0 X5.664 Y-2.887
G1 F2220 X-5.563 Y-2.888 E59.44903
G0 F7500 X-5.400 Y-2.888
G0 X-5.400 Y-8.664
G0 X-5.563 Y-8.664
G1 F2220 X5.664 Y-8.663 E59.85325
G0 F7500 X5.500 Y-8.663
G0 X5.500 Y-14.439
G0 X5.664 Y-14.439
G1 F2220 X-5.563 Y-14.440 E60.25746
;LAYER:4
G1 F2400 E59.25746
G0 F7500 X0.216 Y0.216 Z1.100
;TYPE:WALL-OUTER
G1 F2400 E60.25746
G1 F2700 X0.284 Y0.216 E60.25991
G1 X0.284 Y0.284 E60.26236
G1 X0.216 Y0.284 E60.26481
G1 X0.216 Y0.216 E60.26726
G0 F7500 X-0.700 Y-0.700
;TYPE:SUPPORT
G1 F2400 X-0.700 Y1.200 E60.33566
G1 X1.200 Y1.200 E60.40407
G1 X1.200 Y-0.700 E60.47248
G1 X-0.700 Y-0.700 E60.54089
G0 F7500 X-0.690 Y-0.800
G0 X-5.500 Y-20.400
G1 F2400 X5.600 Y-20.400 E60.94053
G1 X5.600 Y20.600 E62.41670
G1 X-5.500 Y20.600 E62.81635
G1 X-5.500 Y-20.400 E64.29251
G0 F7500 X-5.563 Y-20.216
G1 F2400 X5.664 Y-20.215 E64.69673
G0 F7500 X5.500 Y-20.215
G0 X2.888 Y-20.300
G0 X2.888 Y-20.464
G1 F2400 X2.888 Y20.664 E66.17751
G0 F7500 X2.888 Y20.500
G0 X5.500 Y20.216
G0 X5.663 Y20.216
G1 F2400 X-5.564 Y20.215 E66.58173
G0 F7500 X-5.400 Y20.215
G0 X-2.888 Y20.500
G0 X-2.888 Y20.664
G1 F2400 X-2.888 Y-20.464 E68.06250
G0 F7500 X-2.888 Y-20.300
G0 X-5.400 Y-14.440
G0 X-5.563 Y-14.440
G1 F2400 X5.664 Y-14.439 E68.46672
G0 F7500 X5.500 Y-14.439
G0 X5.500 Y-8.663
G0 X5.664 Y-8.663
G1 F2400 X-5.563 Y-8.664 E68.87094
G0 F7500 X-5.400 Y-8.664
G0 X-5.400 Y-2.888
G0 X-5.563 Y-2.888
G1 F2400 X5.664 Y-2.887 E69.27516
G0 F7500 X5.500 Y-2.887
G0 X5.500 Y2.888
G0 X5.663 Y2.888
G1 F2400 X-5.564 Y2.887 E69.67938
G0 F7500 X-5.400 Y2.887
G0 X-5.400 Y8.663
G0 X-5.564 Y8.663
G1 F2400 X5.663 Y8.664 E70.08359
G0 F7500 X5.500 Y8.664
G0 X5.500 Y14.440
G0 X5.663 Y14.440
G1 F2400 X-5.564 Y14.439 E70.48781
;LAYER:5
G1 F2400 E69.48781
G0 F7500 X0.216 Y0.284 Z1.300
;TYPE:WALL-OUTER
G1 F2400 E70.48781
G1 F2700 X0.216 Y0.216 E70.49026
G1 X0.284 Y0.216 E70.49271
G1 X0.284 Y0.284 E70.49516
G1 X0.216 Y0.284 E70.49760
G0 F7500 X-0.700 Y1.200
;TYPE:SUPPORT
G1 F2400 X1.200 Y1.200 E70.56601
G1 X1.200 Y-0.700 E70.63442
G1 X-0.700 Y-0.700 E70.70283
G1 X-0.700 Y1.200 E70.77124
G0 F7500 X-0.800 Y1.190
G0 X-5.500 Y20.600
G1 F2400 X-5.500 Y-20.400 E72.24740
G1 X5.600 Y-20.400 E72.64705
G1 X5.600 Y20.600 E74.12322
G1 X-5.500 Y20.600 E74.52286
G0 F7500 X-5.564 Y20.215
G1 F2400 X5.663 Y20.216 E74.92708
G0 F7500 X5.500 Y20.216
G0 X2.888 Y20.500
G0 X2.888 Y20.664
G1 F2400 X2.888 Y-20.464 E76.40786
G0 F7500 X2.888 Y-20.300
G0 X5.500 Y-20.215
G0 X5.664 Y-20.215
G1 F2400 X-5.563 Y-20.216 E76.81207
G0 F7500 X-5.400 Y-20.216
G0 X-2.888 Y-20.300
G0 X-2.888 Y-20.464
G1 F2400 X-2.888 Y20.664 E78.29285
G0 F7500 X-2.888 Y20.500
G0 X-5.400 Y14.439
G0 X-5.564 Y14.439
G1 F2400 X5.663 Y14.440 E78.69707
G0 F7500 X5.500 Y14.440
G0 X5.500 Y8.664
G0 X5.663 Y8.664
G1 F2400 X-5.564 Y8.663 E79.10129
G0 F7500 X-5.400 Y8.663
G0 X-5.400 Y2.887
G0 X-5.564 Y2.887
G1 F2400 X5.663 Y2.888 E79.50551
G0 F7500 X5.500 Y2.888
G0 X5.500 Y-2.887
G0 X5.664 Y-2.887
G1 F2400 X-5.563 Y-2.888 E79.90972
G0 F7500 X-5.400 Y-2.888
G0 X-5.400 Y-8.664
G0 X-5.563 Y-8.664
G1 F2400 X5.664 Y-8.663 E80.31394
G0 F7500 X5.500 Y-8.663
G0 X5.500 Y-14.439
G0 X5.664 Y-14.439
G1 F2400 X-5.563 Y-14.440 E80.71816
;LAYER:6
G1 F2400 E79.71816
G0 F7500 X0.216 Y0.216 Z1.500
;TYPE:WALL-OUTER
G1 F2400 E80.71816
G1 F2700 X0.284 Y0.216 E80.72061
G1 X0.284 Y0.284 E80.72306
G1 X0.216 Y0.284 E80.72550
G1 X0.216 Y0.216 E80.72795
G0 F7500 X-0.700 Y-0.700
;TYPE:SUPPORT
G1 F2400 X-0.700 Y1.200 E80.79636
G1 X1.200 Y1.200 E80.86477
G1 X1.200 Y-0.700 E80.93318
G1 X-0.700 Y-0.700 E81.00158
G0 F7500 X-0.690 Y-0.800
G0 X-5.500 Y-20.400
G1 F2400 X5.600 Y-20.400 E81.40123
G1 X5.600 Y20.600 E82.87740
G1 X-5.500 Y20.600 E83.27704
G1 X-5.500 Y-20.400 E84.75321
G0 F7500 X-5.563 Y-20.216
G1 F2400 X5.664 Y-20.215 E85.15743
G0 F7500 X5.500 Y-20.215
G0 X2.888 Y-20.300
G0 X2.888 Y-20.464
G1 F2400 X2.888 Y20.664 E86.63820
G0 F7500 X2.888 Y20.500
G0 X5.500 Y20.216
G0 X5.663 Y20.216
G1 F2400 X-5.564 Y20.215 E87.04242
G0 F7500 X-5.400 Y20.215
G0 X-2.888 Y20.500
G0 X-2.888 Y20.664
G1 F2400 X-2.888 Y-20.464 E88.52320
G0 F7500 X-2.888 Y-20.300
G0 X-5.400 Y-14.440
G0 X-5.563 Y-14.440
G1 F2400 X5.664 Y-14.439 E88.92742
G0 F7500 X5.500 Y-14.439
G0 X5.500 Y-8.663
G0 X5.664 Y-8.663
G1 F2400 X-5.563 Y-8.664 E89.33164
G0 F7500 X-5.400 Y-8.664
G0 X-5.400 Y-2.888
G0 X-5.563 Y-2.888
G1 F2400 X5.664 Y-2.887 E89.73585
G0 F7500 X5.500 Y-2.887
G0 X5.500 Y2.888
G0 X5.663 Y2.888
G1 F2400 X-5.564 Y2.887 E90.14007
G0 F7500 X-5.400 Y2.887
G0 X-5.400 Y8.663
G0 X-5.564 Y8.663
G1 F2400 X5.663 Y8.664 E90.54429
G0 F7500 X5.500 Y8.664
G0 X5.500 Y14.440
G0 X5.663 Y14.440
G1 F2400 X-5.564 Y14.439 E90.94851
;LAYER:7
G1 F2400 E89.94851
G0 F7500 X0.216 Y0.284 Z1.700
;TYPE:WALL-OUTER
G1 F2400 E90.94851
G1 F2700 X0.216 Y0.216 E90.95096
G1 X0.284 Y0.216 E90.95340
G1 X0.284 Y0.284 E90.95585
G1 X0.216 Y0.284 E90.95830
G0 F7500 X-0.700 Y1.200
;TYPE:SUPPORT
G1 F2400 X1.200 Y1.200 E91.02671
G1 X1.200 Y-0.700 E91.09512
G1 X-0.700 Y-0.700 E91.16352
G1 X-0.700 Y1.200 E91.23193
G0 F7500 X-0.800 Y1.190
G0 X-5.500 Y20.600
G1 F2400 X-5.500 Y-20.400 E92.70810
G1 X5.600 Y-20.400 E93.10774
G1 X5.600 Y20.600 E94.58391
G1 X-5.500 Y20.600 E94.98356
G0 F7500 X-5.564 Y20.215
G1 F2400 X5.663 Y20.216 E95.38778
G0 F7500 X5.500 Y20.216
G0 X2.888 Y20.500
G0 X2.888 Y20.664
G1 F2400 X2.888 Y-20.464 E96.86855
G0 F7500 X2.888 Y-20.300
G0 X5.500 Y-20.215
G0 X5.664 Y-20.215
G1 F2400 X-5.563 Y-20.216 E97.27277
G0 F7500 X-5.400 Y-20.216
G0 X-2.888 Y-20.300
G0 X-2.888 Y-20.464
G1 F2400 X-2.888 Y20.664 E98.75355
G0 F7500 X-2.888 Y20.500
G0 X-5.400 Y14.439
G0 X-5.564 Y14.439
G1 F2400 X5.663 Y14.440 E99.15777
G0 F7500 X5.500 Y14.440
G0 X5.500 Y8.664
G0 X5.663 Y8.664
G1 F2400 X-5.564 Y8.663 E99.56198
G0 F7500 X-5.400 Y8.663
G0 X-5.400 Y2.887
G0 X-5.564 Y2.887
G1 F2400 X5.663 Y2.888 E99.96620
G0 F7500 X5.500 Y2.888
G0 X5.500 Y-2.887
G0 X5.664 Y-2.887
G1 F2400 X-5.563 Y-2.888 E100.37042
G0 F7500 X-5.400 Y-2.888
G0 X-5.400 Y-8.664
G0 X-5.563 Y-8.664
G1 F2400 X5.664 Y-8.663 E100.77464
G0 F7500 X5.500 Y-8.663
G0 X5.500 Y-14.439
G0 X5.664 Y-14.439
G1 F2400 X-5.563 Y-14.440 E101.17886
;LAYER:8
G1 F2400 E100.17886
G0 F7500 X0.216 Y0.216 Z1.900
;TYPE:WALL-OUTER
G1 F2400 E101.17886
G1 F2700 X0.284 Y0.216 E101.18130
G1 X0.284 Y0.284 E101.18375
G1 X0.216 Y0.284 E101.18620
G1 X0.216 Y0.216 E101.18865
G0 F7500 X-0.700 Y-0.700
;TYPE:SUPPORT
G1 F2400 X-0.700 Y1.200 E101.25706
G1 X1.200 Y1.200 E101.32546
G1 X1.200 Y-0.700 E101.39387
G1 X-0.700 Y-0.700 E101.46228
G0 F7500 X-0.690 Y-0.800
G0 X-5.500 Y-20.400
G1 F2400 X5.600 Y-20.400 E101.86192
G1 X5.600 Y20.600 E103.33809
G1 X-5.500 Y20.600 E103.73774
G1 X-5.500 Y-20.400 E105.21391
G0 F7500 X-5.563 Y-20.216
G1 F2400 X5.664 Y-20.215 E105.61812
G0 F7500 X5.500 Y-20.215
G0 X2.888 Y-20.300
G0 X2.888 Y-20.464
G1 F2400 X2.888 Y20.664 E107.09890
G0 F7500 X2.888 Y20.500
G0 X5.500 Y20.216
G0 X5.663 Y20.216
G1 F2400 X-5.564 Y20.215 E107.50312
G0 F7500 X-5.400 Y20.215
G0 X-2.888 Y20.500
G0 X-2.888 Y20.664
G1 F2400 X-2.888 Y-20.464 E108.98390
G0 F7500 X-2.888 Y-20.300
G0 X-5.400 Y-14.440
G0 X-5.563 Y-14.440
G1 F2400 X5.664 Y-14.439 E109.38811
G0 F7500 X5.500 Y-14.439
G0 X5.500 Y-8.663
G0 X5.664 Y-8.663
G1 F2400 X-5.563 Y-8.664 E109.79233
G0 F7500 X-5.400 Y-8.664
G0 X-5.400 Y-2.888
G0 X-5.563 Y-2.888
G1 F2400 X5.664 Y-2.887 E110.19655
G0 F7500 X5.500 Y-2.887
G0 X5.500 Y2.888
G0 X5.663 Y2.888
G1 F2400 X-5.564 Y2.887 E110.60077
G0 F7500 X-5.400 Y2.887
G0 X-5.400 Y8.663
G0 X-5.564 Y8.663
G1 F2400 X5.663 Y8.664 E111.00499
G0 F7500 X5.500 Y8.664
G0 X5.500 Y14.440
G0 X5.663 Y14.440
G1 F2400 X-5.564 Y14.439 E111.40920
;LAYER:9
G1 F2400 E110.40920
G0 F7500 X0.216 Y0.284 Z2.100
;TYPE:WALL-OUTER
G1 F2400 E111.40920
G1 F2700 X0.216 Y0.216 E111.41165
G1 X0.284 Y0.216 E111.41410
G1 X0.284 Y0.284 E111.41655
G1 X0.216 Y0.284 E111.41900
G0 F7500 X-0.700 Y1.200
;TYPE:SUPPORT
G1 F2400 X1.200 Y1.200 E111.48740
G1 X1.200 Y-0.700 E111.55581
G1 X-0.700 Y-0.700 E111.62422
G1 X-0.700 Y1.200 E111.69263
G0 F7500 X-0.800 Y1.190
G0 X-5.500 Y20.600
G1 F2400 X-5.500 Y-20.400 E113.16880
G1 X5.600 Y-20.400 E113.56844
G1 X5.600 Y20.600 E115.04461
G1 X-5.500 Y20.600 E115.44425
G0 F7500 X-5.564 Y20.215
G1 F2400 X5.663 Y20.216 E115.84847
G0 F7500 X5.500 Y20.216
G0 X2.888 Y20.500
G0 X2.888 Y20.664
G1 F2400 X2.888 Y-20.464 E117.32925
G0 F7500 X2.888 Y-20.300
G0 X5.500 Y-20.215
G0 X5.664 Y-20.215
G1 F2400 X-5.563 Y-20.216 E117.73347
G0 F7500 X-5.400 Y-20.216
G0 X-2.888 Y-20.300
G0 X-2.888 Y-20.464
G1 F2400 X-2.888 Y20.664 E119.21424
G0 F7500 X-2.888 Y20.500
G0 X-5.400 Y14.439
G0 X-5.564 Y14.439
G1 F2400 X5.663 Y14.440 E119.61846
G0 F7500 X5.500 Y14.440
G0 X5.500 Y8.664
G0 X5.663 Y8.664
G1 F2400 X-5.564 Y8.663 E120.02268
G0 F7500 X-5.400 Y8.663
G0 X-5.400 Y2.887
G0 X-5.564 Y2.887
G1 F2400 X5.663 Y2.888 E120.42690
G0 F7500 X5.500 Y2.888
G0 X5.500 Y-2.887
G0 X5.664 Y-2.887
G1 F2400 X-5.563 Y-2.888 E120.83112
G0 F7500 X-5.400 Y-2.888
G0 X-5.400 Y-8.664
G0 X-5.563 Y-8.664
G1 F2400 X5.664 Y-8.663 E121.23533
G0 F7500 X5.500 Y-8.663
G0 X5.500 Y-14.439
G0 X5.664 Y-14.439
G1 F2400 X-5.563 Y-14.440 E121.63955
;LAYER:10
G1 F2400 E120.63955
G0 F7500 X0.216 Y0.216 Z2.300
;TYPE:WALL-OUTER
G1 F2400 E121.63955
G1 F2700 X0.284 Y0.216 E121.64200
G1 X0.284 Y0.284 E121.64445
G1 X0.216 Y0.284 E121.64690
G1 X0.216 Y0.216 E121.64934
G0 F7500 X-0.700 Y-0.700
;TYPE:SUPPORT
G1 F2400 X-0.700 Y1.200 E121.71775
G1 X1.200 Y1.200 E121.78616
G1 X1.200 Y-0.700 E121.85457
G1 X-0.700 Y-0.700 E121.92298
G0 F7500 X-0.690 Y-0.800
G0 X-5.500 Y-20.400
G1 F2400 X5.600 Y-20.400 E122.32262
G1 X5.600 Y20.600 E123.79879
G1 X-5.500 Y20.600 E124.19843
G1 X-5.500 Y-20.400 E125.67460
G0 F7500 X-5.563 Y-20.216
G1 F2400 X5.664 Y-20.215 E126.07882
G0 F7500 X5.500 Y-20.215
G0 X2.888 Y-20.300
G0 X2.888 Y-20.464
G1 F2400 X2.888 Y20.664 E127.55960
G0 F7500 X2.888 Y20.500
G0 X5.500 Y20.216
G0 X5.663 Y20.216
G1 F2400 X-5.564 Y20.215 E127.96381
G0 F7500 X-5.400 Y20.215
G0 X-2.888 Y20.500
G0 X-2.888 Y20.664
G1 F2400 X-2.888 Y-20.464 E129.44459
G0 F7500 X-2.888 Y-20.300
G0 X-5.400 Y-14.440
G0 X-5.563 Y-14.440
G1 F2400 X5.664 Y-14.439 E129.84881
