;Generated with Cura_SteamEngine 15.04.6

;Layer count: 16
;LAYER:0
M107
G0 F7500 X-9.149 Y-29.049 Z0.300
;TYPE:SKIRT
G1 F1800 X9.249 Y-29.049 E0.99361
G1 X9.249 Y29.249 E4.14206
G1 X-9.149 Y29.249 E5.13566
G1 X-9.149 Y-29.049 E8.28411
G0 F7500 X-8.716 Y-28.616
G1 F1800 X8.816 Y-28.616 E9.23095
G1 X8.816 Y28.816 E12.33263
G1 X-8.716 Y28.816 E13.27946
G1 X-8.716 Y-28.616 E16.38114
G1 F2400 E15.38114
G0 F7500 X0.216 Y0.216
;TYPE:WALL-OUTER
G1 F2400 E16.38114
G1 F1800 X0.284 Y0.216 E16.38482
G1 X0.284 Y0.284 E16.38849
G1 X0.216 Y0.284 E16.39216
G1 X0.216 Y0.216 E16.39583
G0 F7500 X-0.700 Y-0.700
;TYPE:SUPPORT
G1 F1800 X-0.700 Y1.200 E16.49845
G1 X1.200 Y1.200 E16.60106
G1 X1.200 Y-0.700 E16.70367
G1 X-0.700 Y-0.700 E16.80628
G0 F7500 X-0.690 Y-0.800
G0 X-5.500 Y-25.400
G1 F1800 X5.600 Y-25.400 E17.40575
G1 X5.600 Y25.600 E20.16006
G1 X-5.500 Y25.600 E20.75953
G1 X-5.500 Y-25.400 E23.51384
G0 F7500 X-2.888 Y-25.300
G0 X-2.888 Y-25.464
G1 F1800 X-2.888 Y25.664 E26.27507
G0 F7500 X-2.888 Y25.500
G0 X2.888 Y25.500
G0 X2.888 Y25.664
G1 F1800 X2.888 Y-25.464 E29.03630
G0 F7500 X2.888 Y-25.300
G0 X5.500 Y-20.215
G0 X5.664 Y-20.215
G1 F1800 X-5.563 Y-20.216 E29.64262
G0 F7500 X-5.400 Y-20.216
G0 X-5.400 Y-14.440
G0 X-5.563 Y-14.440
G1 F1800 X5.664 Y-14.439 E30.24895
G0 F7500 X5.500 Y-14.439
G0 X5.500 Y-8.663
G0 X5.664 Y-8.663
G1 F1800 X-5.563 Y-8.664 E30.85528
G0 F7500 X-5.400 Y-8.664
G0 X-5.400 Y-2.888
G0 X-5.563 Y-2.888
G1 F1800 X5.664 Y-2.887 E31.46160
G0 F7500 X5.500 Y-2.887
G0 X5.500 Y2.888
G0 X5.663 Y2.888
G1 F1800 X-5.564 Y2.887 E32.06793
G0 F7500 X-5.400 Y2.887
G0 X-5.400 Y8.663
G0 X-5.564 Y8.663
G1 F1800 X5.663 Y8.664 E32.67426
G0 F7500 X5.500 Y8.664
G0 X5.500 Y14.440
G0 X5.663 Y14.440
G1 F1800 X-5.564 Y14.439 E33.28058
G0 F7500 X-5.400 Y14.439
G0 X-5.400 Y20.215
G0 X-5.564 Y20.215
G1 F1800 X5.663 Y20.216 E33.88691
;LAYER:1
M106 S63
G1 F2400 E32.88691
G0 F7500 X0.284 Y0.284 Z0.500
;TYPE:WALL-OUTER
G1 F2400 E33.88691
G1 F1980 X0.216 Y0.284 E33.88936
G1 X0.216 Y0.216 E33.89181
G1 X0.284 Y0.216 E33.89426
G1 X0.284 Y0.284 E33.89670
G0 F7500 X1.200 Y1.200
;TYPE:SUPPORT
G1 F1920 X1.200 Y-0.700 E33.96511
G1 X-0.700 Y-0.700 E34.03352
G1 X-0.700 Y1.200 E34.10193
G1 X1.200 Y1.200 E34.17034
G0 F7500 X1.190 Y1.300
G0 X5.500 Y25.590
G0 X5.600 Y25.600
G1 F1920 X-5.500 Y25.600 E34.56998
G1 X-5.500 Y-25.400 E36.40619
G1 X5.600 Y-25.400 E36.80584
G1 X5.600 Y25.600 E38.64204
G0 F7500 X5.500 Y25.590
G0 X2.888 Y25.500
G0 X2.888 Y25.664
G1 F1920 X2.888 Y-25.464 E40.48286
G0 F7500 X2.888 Y-25.300
G0 X-2.888 Y-25.300
G0 X-2.888 Y-25.464
G1 F1920 X-2.888 Y25.664 E42.32368
G0 F7500 X-2.888 Y25.500
G0 X-5.400 Y20.215
G0 X-5.564 Y20.215
G1 F1920 X5.663 Y20.216 E42.72790
G0 F7500 X5.500 Y20.216
G0 X5.500 Y14.440
G0 X5.663 Y14.440
G1 F1920 X-5.564 Y14.439 E43.13212
G0 F7500 X-5.400 Y14.439
G0 X-5.400 Y8.663
G0 X-5.564 Y8.663
G1 F1920 X5.663 Y8.664 E43.53633
G0 F7500 X5.500 Y8.664
G0 X5.500 Y2.888
G0 X5.663 Y2.888
G1 F1920 X-5.564 Y2.887 E43.94055
G0 F7500 X-5.400 Y2.887
G0 X-5.400 Y-2.888
G0 X-5.563 Y-2.888
G1 F1920 X5.664 Y-2.887 E44.34477
G0 F7500 X5.500 Y-2.887
G0 X5.500 Y-8.663
G0 X5.664 Y-8.663
G1 F1920 X-5.563 Y-8.664 E44.74899
G0 F7500 X-5.400 Y-8.664
G0 X-5.400 Y-14.440
G0 X-5.563 Y-14.440
G1 F1920 X5.664 Y-14.439 E45.15321
G0 F7500 X5.500 Y-14.439
G0 X5.500 Y-20.215
G0 X5.664 Y-20.215
G1 F1920 X-5.563 Y-20.216 E45.55742
;LAYER:2
M106 S127
G1 F2400 E44.55742
G0 F7500 X0.216 Y0.216 Z0.700
;TYPE:WALL-OUTER
G1 F2400 E45.55742
G1 F2220 X0.284 Y0.216 E45.55987
G1 X0.284 Y0.284 E45.56232
G1 X0.216 Y0.284 E45.56477
G1 X0.216 Y0.216 E45.56722
G0 F7500 X-0.700 Y-0.700
;TYPE:SUPPORT
G1 F2100 X-0.700 Y1.200 E45.63562
G1 X1.200 Y1.200 E45.70403
G1 X1.200 Y-0.700 E45.77244
G1 X-0.700 Y-0.700 E45.84085
G0 F7500 X-0.690 Y-0.800
G0 X-5.500 Y-25.400
G1 F2100 X5.600 Y-25.400 E46.24049
G1 X5.600 Y25.600 E48.07670
G1 X-5.500 Y25.600 E48.47635
G1 X-5.500 Y-25.400 E50.31256
G0 F7500 X-2.888 Y-25.300
G0 X-2.888 Y-25.464
G1 F2100 X-2.888 Y25.664 E52.15337
G0 F7500 X-2.888 Y25.500
G0 X2.888 Y25.500
G0 X2.888 Y25.664
G1 F2100 X2.888 Y-25.464 E53.99419
G0 F7500 X2.888 Y-25.300
G0 X5.500 Y-20.215
G0 X5.664 Y-20.215
G1 F2100 X-5.563 Y-20.216 E54.39841
G0 F7500 X-5.400 Y-20.216
G0 X-5.400 Y-14.440
G0 X-5.563 Y-14.440
G1 F2100 X5.664 Y-14.439 E54.80263
G0 F7500 X5.500 Y-14.439
G0 X5.500 Y-8.663
G0 X5.664 Y-8.663
G1 F2100 X-5.563 Y-8.664 E55.20684
G0 F7500 X-5.400 Y-8.664
G0 X-5.400 Y-2.888
G0 X-5.563 Y-2.888
G1 F2100 X5.664 Y-2.887 E55.61106
G0 F7500 X5.500 Y-2.887
G0 X5.500 Y2.888
G0 X5.663 Y2.888
G1 F2100 X-5.564 Y2.887 E56.01528
G0 F7500 X-5.400 Y2.887
G0 X-5.400 Y8.663
G0 X-5.564 Y8.663
G1 F2100 X5.663 Y8.664 E56.41950
G0 F7500 X5.500 Y8.664
G0 X5.500 Y14.440
G0 X5.663 Y14.440
G1 F2100 X-5.564 Y14.439 E56.82372
G0 F7500 X-5.400 Y14.439
G0 X-5.400 Y20.215
G0 X-5.564 Y20.215
G1 F2100 X5.663 Y20.216 E57.22793
;LAYER:3
G1 F2400 E56.22793
G0 F7500 X0.284 Y0.284 Z0.900
;TYPE:WALL-OUTER
G1 F2400 E57.22793
G1 X0.216 Y0.284 E57.23038
G1 X0.216 Y0.216 E57.23283
G1 X0.284 Y0.216 E57.23528
G1 X0.284 Y0.284 E57.23773
G0 F7500 X1.200 Y1.200
;TYPE:SUPPORT
G1 F2220 X1.200 Y-0.700 E57.30614
G1 X-0.700 Y-0.700 E57.37454
G1 X-0.700 Y1.200 E57.44295
G1 X1.200 Y1.200 E57.51136
G0 F7500 X1.190 Y1.300
G0 X5.500 Y25.590
G0 X5.600 Y25.600
G1 F2220 X-5.500 Y25.600 E57.91100
G1 X-5.500 Y-25.400 E59.74721
G1 X5.600 Y-25.400 E60.14686
G1 X5.600 Y25.600 E61.98307
G0 F7500 X5.500 Y25.590
G0 X2.888 Y25.500
G0 X2.888 Y25.664
G1 F2220 X2.888 Y-25.464 E63.82389
G0 F7500 X2.888 Y-25.300
G0 X-2.888 Y-25.300
G0 X-2.888 Y-25.464
G1 F2220 X-2.888 Y25.664 E65.66470
G0 F7500 X-2.888 Y25.500
G0 X-5.400 Y20.215
G0 X-5.564 Y20.215
G1 F2220 X5.663 Y20.216 E66.06892
G0 F7500 X5.500 Y20.216
G0 X5.500 Y14.440
G0 X5.663 Y14.440
G1 F2220 X-5.564 Y14.439 E66.47314
G0 F7500 X-5.400 Y14.439
G0 X-5.400 Y8.663
G0 X-5.564 Y8.663
G1 F2220 X5.663 Y8.664 E66.87736
G0 F7500 X5.500 Y8.664
G0 X5.500 Y2.888
G0 X5.663 Y2.888
G1 F2220 X-5.564 Y2.887 E67.28157
G0 F7500 X-5.400 Y2.887
G0 X-5.400 Y-2.888
G0 X-5.563 Y-2.888
G1 F2220 X5.664 Y-2.887 E67.68579
G0 F7500 X5.500 Y-2.887
G0 X5.500 Y-8.663
G0 X5.664 Y-8.663
G1 F2220 X-5.563 Y-8.664 E68.09001
G0 F7500 X-5.400 Y-8.664
G0 X-5.400 Y-14.440
G0 X-5.563 Y-14.440
G1 F2220 X5.664 Y-14.439 E68.49423
G0 F7500 X5.500 Y-14.439
G0 X5.500 Y-20.215
G0 X5.664 Y-20.215
G1 F2220 X-5.563 Y-20.216 E68.89845
;LAYER:4
G1 F2400 E67.89845
G0 F7500 X0.216 Y0.216 Z1.100
;TYPE:WALL-OUTER
G1 F2400 E68.89845
G1 F2700 X0.284 Y0.216 E68.90089
G1 X0.284 Y0.284 E68.90334
G1 X0.216 Y0.284 E68.90579
G1 X0.216 Y0.216 E68.90824
G0 F7500 X-0.700 Y-0.700
;TYPE:SUPPORT
G1 F2400 X-0.700 Y1.200 E68.97665
G1 X1.200 Y1.200 E69.04506
G1 X1.200 Y-0.700 E69.11346
G1 X-0.700 Y-0.700 E69.18187
G0 F7500 X-0.690 Y-0.800
G0 X-5.500 Y-25.400
G1 F2400 X5.600 Y-25.400 E69.58152
G1 X5.600 Y25.600 E71.41773
G1 X-5.500 Y25.600 E71.81737
G1 X-5.500 Y-25.400 E73.65358
G0 F7500 X-2.888 Y-25.300
G0 X-2.888 Y-25.464
G1 F2400 X-2.888 Y25.664 E75.49440
G0 F7500 X-2.888 Y25.500
G0 X2.888 Y25.500
G0 X2.888 Y25.664
G1 F2400 X2.888 Y-25.464 E77.33521
G0 F7500 X2.888 Y-25.300
G0 X5.500 Y-20.215
G0 X5.664 Y-20.215
G1 F2400 X-5.563 Y-20.216 E77.73943
G0 F7500 X-5.400 Y-20.216
G0 X-5.400 Y-14.440
G0 X-5.563 Y-14.440
G1 F2400 X5.664 Y-14.439 E78.14365
G0 F7500 X5.500 Y-14.439
G0 X5.500 Y-8.663
G0 X5.664 Y-8.663
G1 F2400 X-5.563 Y-8.664 E78.54787
G0 F7500 X-5.400 Y-8.664
G0 X-5.400 Y-2.888
G0 X-5.563 Y-2.888
G1 F2400 X5.664 Y-2.887 E78.95209
G0 F7500 X5.500 Y-2.887
G0 X5.500 Y2.888
G0 X5.663 Y2.888
G1 F2400 X-5.564 Y2.887 E79.35630
G0 F7500 X-5.400 Y2.887
G0 X-5.400 Y8.663
G0 X-5.564 Y8.663
G1 F2400 X5.663 Y8.664 E79.76052
G0 F7500 X5.500 Y8.664
G0 X5.500 Y14.440
G0 X5.663 Y14.440
G1 F2400 X-5.564 Y14.439 E80.16474
G0 F7500 X-5.400 Y14.439
G0 X-5.400 Y20.215
G0 X-5.564 Y20.215
G1 F2400 X5.663 Y20.216 E80.56896
;LAYER:5
G1 F2400 E79.56896
G0 F7500 X0.284 Y0.284 Z1.300
;TYPE:WALL-OUTER
G1 F2400 E80.56896
G1 F2700 X0.216 Y0.284 E80.57141
G1 X0.216 Y0.216 E80.57385
G1 X0.284 Y0.216 E80.57630
G1 X0.284 Y0.284 E80.57875
G0 F7500 X1.200 Y1.200
;TYPE:SUPPORT
G1 F2400 X1.200 Y-0.700 E80.64716
G1 X-0.700 Y-0.700 E80.71557
G1 X-0.700 Y1.200 E80.78397
G1 X1.200 Y1.200 E80.85238
G0 F7500 X1.190 Y1.300
G0 X5.500 Y25.590
G0 X5.600 Y25.600
G1 F2400 X-5.500 Y25.600 E81.25203
G1 X-5.500 Y-25.400 E83.08824
G1 X5.600 Y-25.400 E83.48788
G1 X5.600 Y25.600 E85.32409
G0 F7500 X5.500 Y25.590
G0 X2.888 Y25.500
G0 X2.888 Y25.664
G1 F2400 X2.888 Y-25.464 E87.16491
G0 F7500 X2.888 Y-25.300
G0 X-2.888 Y-25.300
G0 X-2.888 Y-25.464
G1 F2400 X-2.888 Y25.664 E89.00573
G0 F7500 X-2.888 Y25.500
G0 X-5.400 Y20.215
G0 X-5.564 Y20.215
G1 F2400 X5.663 Y20.216 E89.40994
G0 F7500 X5.500 Y20.216
G0 X5.500 Y14.440
G0 X5.663 Y14.440
G1 F2400 X-5.564 Y14.439 E89.81416
G0 F7500 X-5.400 Y14.439
G0 X-5.400 Y8.663
G0 X-5.564 Y8.663
G1 F2400 X5.663 Y8.664 E90.21838
G0 F7500 X5.500 Y8.664
G0 X5.500 Y2.888
G0 X5.663 Y2.888
G1 F2400 X-5.564 Y2.887 E90.62260
G0 F7500 X-5.400 Y2.887
G0 X-5.400 Y-2.888
G0 X-5.563 Y-2.888
G1 F2400 X5.664 Y-2.887 E91.02682
G0 F7500 X5.500 Y-2.887
G0 X5.500 Y-8.663
G0 X5.664 Y-8.663
G1 F2400 X-5.563 Y-8.664 E91.43103
G0 F7500 X-5.400 Y-8.664
G0 X-5.400 Y-14.440
G0 X-5.563 Y-14.440
G1 F2400 X5.664 Y-14.439 E91.83525
G0 F7500 X5.500 Y-14.439
G0 X5.500 Y-20.215
G0 X5.664 Y-20.215
G1 F2400 X-5.563 Y-20.216 E92.23947
;LAYER:6
G1 F2400 E91.23947
G0 F7500 X0.216 Y0.216 Z1.500
;TYPE:WALL-OUTER
G1 F2400 E92.23947
G1 F2700 X0.284 Y0.216 E92.24192
G1 X0.284 Y0.284 E92.24437
G1 X0.216 Y0.284 E92.24682
G1 X0.216 Y0.216 E92.24926
G0 F7500 X-0.700 Y-0.700
;TYPE:SUPPORT
G1 F2400 X-0.700 Y1.200 E92.31767
G1 X1.200 Y1.200 E92.38608
G1 X1.200 Y-0.700 E92.45449
G1 X-0.700 Y-0.700 E92.52289
G0 F7500 X-0.690 Y-0.800
G0 X-5.500 Y-25.400
G1 F2400 X5.600 Y-25.400 E92.92254
G1 X5.600 Y25.600 E94.75875
G1 X-5.500 Y25.600 E95.15839
G1 X-5.500 Y-25.400 E96.99460
G0 F7500 X-2.888 Y-25.300
G0 X-2.888 Y-25.464
G1 F2400 X-2.888 Y25.664 E98.83542
G0 F7500 X-2.888 Y25.500
G0 X2.888 Y25.500
G0 X2.888 Y25.664
G1 F2400 X2.888 Y-25.464 E100.67624
G0 F7500 X2.888 Y-25.300
G0 X5.500 Y-20.215
G0 X5.664 Y-20.215
G1 F2400 X-5.563 Y-20.216 E101.08046
G0 F7500 X-5.400 Y-20.216
G0 X-5.400 Y-14.440
G0 X-5.563 Y-14.440
G1 F2400 X5.664 Y-14.439 E101.48467
G0 F7500 X5.500 Y-14.439
G0 X5.500 Y-8.663
G0 X5.664 Y-8.663
G1 F2400 X-5.563 Y-8.664 E101.88889
G0 F7500 X-5.400 Y-8.664
G0 X-5.400 Y-2.888
G0 X-5.563 Y-2.888
G1 F2400 X5.664 Y-2.887 E102.29311
G0 F7500 X5.500 Y-2.887
G0 X5.500 Y2.888
G0 X5.663 Y2.888
G1 F2400 X-5.564 Y2.887 E102.69733
G0 F7500 X-5.400 Y2.887
G0 X-5.400 Y8.663
G0 X-5.564 Y8.663
G1 F2400 X5.663 Y8.664 E103.10155
G0 F7500 X5.500 Y8.664
G0 X5.500 Y14.440
G0 X5.663 Y14.440
G1 F2400 X-5.564 Y14.439 E103.50576
G0 F7500 X-5.400 Y14.439
G0 X-5.400 Y20.215
G0 X-5.564 Y20.215
G1 F2400 X5.663 Y20.216 E103.90998
;LAYER:7
G1 F2400 E102.90998
G0 F7500 X0.284 Y0.284 Z1.700
;TYPE:WALL-OUTER
G1 F2400 E103.90998
G1 F2700 X0.216 Y0.284 E103.91243
G1 X0.216 Y0.216 E103.91488
G1 X0.284 Y0.216 E103.91733
G1 X0.284 Y0.284 E103.91978
G0 F7500 X1.200 Y1.200
;TYPE:SUPPORT
G1 F2400 X1.200 Y-0.700 E103.98818
G1 X-0.700 Y-0.700 E104.05659
G1 X-0.700 Y1.200 E104.12500
G1 X1.200 Y1.200 E104.19341
G0 F7500 X1.190 Y1.300
G0 X5.500 Y25.590
G0 X5.600 Y25.600
G1 F2400 X-5.500 Y25.600 E104.59305
G1 X-5.500 Y-25.400 E106.42926
G1 X5.600 Y-25.400 E106.82891
G1 X5.600 Y25.600 E108.66511
G0 F7500 X5.500 Y25.590
G0 X2.888 Y25.500
G0 X2.888 Y25.664
G1 F2400 X2.888 Y-25.464 E110.50593
G0 F7500 X2.888 Y-25.300
G0 X-2.888 Y-25.300
G0 X-2.888 Y-25.464
G1 F2400 X-2.888 Y25.664 E112.34675
G0 F7500 X-2.888 Y25.500
G0 X-5.400 Y20.215
G0 X-5.564 Y20.215
G1 F2400 X5.663 Y20.216 E112.75097
G0 F7500 X5.500 Y20.216
G0 X5.500 Y14.440
G0 X5.663 Y14.440
G1 F2400 X-5.564 Y14.439 E113.15519
G0 F7500 X-5.400 Y14.439
G0 X-5.400 Y8.663
G0 X-5.564 Y8.663
G1 F2400 X5.663 Y8.664 E113.55940
G0 F7500 X5.500 Y8.664
G0 X5.500 Y2.888
G0 X5.663 Y2.888
G1 F2400 X-5.564 Y2.887 E113.96362
G0 F7500 X-5.400 Y2.887
G0 X-5.400 Y-2.888
G0 X-5.563 Y-2.888
G1 F2400 X5.664 Y-2.887 E114.36784
G0 F7500 X5.500 Y-2.887
G0 X5.500 Y-8.663
G0 X5.664 Y-8.663
G1 F2400 X-5.563 Y-8.664 E114.77206
G0 F7500 X-5.400 Y-8.664
G0 X-5.400 Y-14.440
G0 X-5.563 Y-14.440
G1 F2400 X5.664 Y-14.439 E115.17628
G0 F7500 X5.500 Y-14.439
G0 X5.500 Y-20.215
G0 X5.664 Y-20.215
G1 F2400 X-5.563 Y-20.216 E115.58049
;LAYER:8
G1 F2400 E114.58049
G0 F7500 X0.216 Y0.216 Z1.900
;TYPE:WALL-OUTER
G1 F2400 E115.58049
G1 F2700 X0.284 Y0.216 E115.58294
G1 X0.284 Y0.284 E115.58539
G1 X0.216 Y0.284 E115.58784
G1 X0.216 Y0.216 E115.59029
G0 F7500 X-0.700 Y-0.700
;TYPE:SUPPORT
G1 F2400 X-0.700 Y1.200 E115.65869
G1 X1.200 Y1.200 E115.72710
G1 X1.200 Y-0.700 E115.79551
G1 X-0.700 Y-0.700 E115.86392
G0 F7500 X-0.690 Y-0.800
G0 X-5.500 Y-25.400
G1 F2400 X5.600 Y-25.400 E116.26356
G1 X5.600 Y25.600 E118.09977
G1 X-5.500 Y25.600 E118.49942
G1 X-5.500 Y-25.400 E120.33563
G0 F7500 X-2.888 Y-25.300
G0 X-2.888 Y-25.464
G1 F2400 X-2.888 Y25.664 E122.17644
G0 F7500 X-2.888 Y25.500
G0 X2.888 Y25.500
G0 X2.888 Y25.664
G1 F2400 X2.888 Y-25.464 E124.01726
G0 F7500 X2.888 Y-25.300
G0 X5.500 Y-20.215
G0 X5.664 Y-20.215
G1 F2400 X-5.563 Y-20.216 E124.42148
G0 F7500 X-5.400 Y-20.216
G0 X-5.400 Y-14.440
G0 X-5.563 Y-14.440
G1 F2400 X5.664 Y-14.439 E124.82570
G0 F7500 X5.500 Y-14.439
G0 X5.500 Y-8.663
G0 X5.664 Y-8.663
G1 F2400 X-5.563 Y-8.664 E125.22992
G0 F7500 X-5.400 Y-8.664
G0 X-5.400 Y-2.888
G0 X-5.563 Y-2.888
G1 F2400 X5.664 Y-2.887 E125.63413
G0 F7500 X5.500 Y-2.887
G0 X5.500 Y2.888
G0 X5.663 Y2.888
G1 F2400 X-5.564 Y2.887 E126.03835
G0 F7500 X-5.400 Y2.887
G0 X-5.400 Y8.663
G0 X-5.564 Y8.663
G1 F2400 X5.663 Y8.664 E126.44257
G0 F7500 X5.500 Y8.664
G0 X5.500 Y14.440
G0 X5.663 Y14.440
G1 F2400 X-5.564 Y14.439 E126.84679
G0 F7500 X-5.400 Y14.439
G0 X-5.400 Y20.215
G0 X-5.564 Y20.215
G1 F2400 X5.663 Y20.216 E127.25101
;LAYER:9
G1 F2400 E126.25101
G0 F7500 X0.284 Y0.284 Z2.100
;TYPE:WALL-OUTER
G1 F2400 E127.25101
G1 F2700 X0.216 Y0.284 E127.25345
G1 X0.216 Y0.216 E127.25590
G1 X0.284 Y0.216 E127.25835
G1 X0.284 Y0.284 E127.26080
G0 F7500 X1.200 Y1.200
;TYPE:SUPPORT
G1 F2400 X1.200 Y-0.700 E127.32921
G1 X-0.700 Y-0.700 E127.39761
G1 X-0.700 Y1.200 E127.46602
G1 X1.200 Y1.200 E127.53443
G0 F7500 X1.190 Y1.300
G0 X5.500 Y25.590
G0 X5.600 Y25.600
G1 F2400 X-5.500 Y25.600 E127.93408
G1 X-5.500 Y-25.400 E129.77028
G1 X5.600 Y-25.400 E130.16993
G1 X5.600 Y25.600 E132.00614
G0 F7500 X5.500 Y25.590
G0 X2.888 Y25.500
G0 X2.888 Y25.664
G1 F2400 X2.888 Y-25.464 E133.84696
G0 F7500 X2.888 Y-25.300
G0 X-2.888 Y-25.300
G0 X-2.888 Y-25.464
G1 F2400 X-2.888 Y25.664 E135.68777
G0 F7500 X-2.888 Y25.500
G0 X-5.400 Y20.215
G0 X-5.564 Y20.215
G1 F2400 X5.663 Y20.216 E136.09199
G0 F7500 X5.500 Y20.216
G0 X5.500 Y14.440
G0 X5.663 Y14.440
G1 F2400 X-5.564 Y14.439 E136.49621
G0 F7500 X-5.400 Y14.439
G0 X-5.400 Y8.663
G0 X-5.564 Y8.663
G1 F2400 X5.663 Y8.664 E136.90043
G0 F7500 X5.500 Y8.664
G0 X5.500 Y2.888
G0 X5.663 Y2.888
G1 F2400 X-5.564 Y2.887 E137.30465
G0 F7500 X-5.400 Y2.887
G0 X-5.400 Y-2.888
G0 X-5.563 Y-2.888
G1 F2400 X5.664 Y-2.887 E137.70886
G0 F7500 X5.500 Y-2.887
G0 X5.500 Y-8.663
G0 X5.664 Y-8.663
G1 F2400 X-5.563 Y-8.664 E138.11308
G0 F7500 X-5.400 Y-8.664
G0 X-5.400 Y-14.440
G0 X-5.563 Y-14.440
G1 F2400 X5.664 Y-14.439 E138.51730
G0 F7500 X5.500 Y-14.439
G0 X5.500 Y-20.215
G0 X5.664 Y-20.215
G1 F2400 X-5.563 Y-20.216 E138.92152
;LAYER:10
G1 F2400 E137.92152
G0 F7500 X0.216 Y0.216 Z2.300
;TYPE:WALL-OUTER
G1 F2400 E138.92152
G1 F2700 X0.284 Y0.216 E138.92397
G1 X0.284 Y0.284 E138.92641
G1 X0.216 Y0.284 E138.92886
G1 X0.216 Y0.216 E138.93131
G0 F7500 X-0.700 Y-0.700
;TYPE:SUPPORT
G1 F2400 X-0.700 Y1.200 E138.99972
G1 X1.200 Y1.200 E139.06813
G1 X1.200 Y-0.700 E139.13653
G1 X-0.700 Y-0.700 E139.20494
G0 F7500 X-0.690 Y-0.800
G0 X-5.500 Y-25.400
G1 F2400 X5.600 Y-25.400 E139.60459
G1 X5.600 Y25.600 E141.44080
G1 X-5.500 Y25.600 E141.84044
G1 X-5.500 Y-25.400 E143.67665
G0 F7500 X-2.888 Y-25.300
G0 X-2.888 Y-25.464
