;Generated with Cura_SteamEngine 15.04.6

;Layer count: 16
;LAYER:0
M107
G0 F7500 X-8.716 Y-33.616 Z0.300
;TYPE:SKIRT
G1 F1800 X8.816 Y-33.616 E0.94684
G1 X8.816 Y33.816 E4.58858
G1 X-8.716 Y33.816 E5.53541
G1 X-8.716 Y-33.616 E9.17716
G1 F2400 E8.17716
G0 F7500 X0.216 Y0.216
;TYPE:WALL-OUTER
G1 F2400 E9.17716
G1 F1800 X0.284 Y0.216 E9.18083
G1 X0.284 Y0.284 E9.18450
G1 X0.216 Y0.284 E9.18817
G1 X0.216 Y0.216 E9.19185
G0 F7500 X-0.700 Y-0.700
;TYPE:SUPPORT
G1 F1800 X-0.700 Y1.200 E9.29446
G1 X1.200 Y1.200 E9.39707
G1 X1.200 Y-0.700 E9.49968
G1 X-0.700 Y-0.700 E9.60229
G0 F7500 X-0.690 Y-0.800
G0 X-5.500 Y-30.400
G1 F1800 X5.600 Y-30.400 E10.20176
G1 X5.600 Y30.600 E13.49614
G1 X-5.500 Y30.600 E14.09560
G1 X-5.500 Y-30.400 E17.38998
G0 F7500 X-2.888 Y-30.300
G0 X-2.888 Y-30.464
G1 F1800 X-2.888 Y30.664 E20.69127
G0 F7500 X-2.888 Y30.500
G0 X-5.400 Y25.991
G0 X-5.564 Y25.991
G1 F1800 X5.663 Y25.992 E21.29759
G0 F7500 X5.500 Y25.992
G0 X2.888 Y30.500
G0 X2.888 Y30.664
G1 F1800 X2.888 Y-30.464 E24.59888
G0 F7500 X2.888 Y-30.300
G0 X5.500 Y-25.991
G0 X5.664 Y-25.991
G1 F1800 X-5.563 Y-25.992 E25.20521
G0 F7500 X-5.400 Y-25.992
G0 X-5.400 Y-20.216
G0 X-5.563 Y-20.216
G1 F1800 X5.664 Y-20.215 E25.81153
G0 F7500 X5.500 Y-20.215
G0 X5.500 Y-14.439
G0 X5.664 Y-14.439
G1 F1800 X-5.563 Y-14.440 E26.41786
G0 F7500 X-5.400 Y-14.440
G0 X-5.400 Y-8.664
G0 X-5.563 Y-8.664
G1 F1800 X5.664 Y-8.663 E27.02419
G0 F7500 X5.500 Y-8.663
G0 X5.500 Y-2.887
G0 X5.664 Y-2.887
G1 F1800 X-5.563 Y-2.888 E27.63052
G0 F7500 X-5.400 Y-2.888
G0 X-5.400 Y2.887
G0 X-5.564 Y2.887
G1 F1800 X5.663 Y2.888 E28.23684
G0 F7500 X5.500 Y2.888
G0 X5.500 Y8.664
G0 X5.663 Y8.664
G1 F1800 X-5.564 Y8.663 E28.84317
G0 F7500 X-5.400 Y8.663
G0 X-5.400 Y14.439
G0 X-5.564 Y14.439
G1 F1800 X5.663 Y14.440 E29.44950
G0 F7500 X5.500 Y14.440
G0 X5.500 Y20.216
G0 X5.663 Y20.216
G1 F1800 X-5.564 Y20.215 E30.05582
;LAYER:1
M106 S63
G1 F2400 E29.05582
G0 F7500 X0.216 Y0.284 Z0.500
;TYPE:WALL-OUTER
G1 F2400 E30.05582
G1 F1980 X0.216 Y0.216 E30.05827
G1 X0.284 Y0.216 E30.06072
G1 X0.284 Y0.284 E30.06317
G1 X0.216 Y0.284 E30.06562
G0 F7500 X-0.700 Y1.200
;TYPE:SUPPORT
G1 F1920 X1.200 Y1.200 E30.13402
G1 X1.200 Y-0.700 E30.20243
G1 X-0.700 Y-0.700 E30.27084
G1 X-0.700 Y1.200 E30.33925
G0 F7500 X-0.800 Y1.190
G0 X-5.500 Y30.600
G1 F1920 X-5.500 Y-30.400 E32.53550
G1 X5.600 Y-30.400 E32.93514
G1 X5.600 Y30.600 E35.13139
G1 X-5.500 Y30.600 E35.53104
G0 F7500 X-2.888 Y30.500
G0 X-2.888 Y30.664
G1 F1920 X-2.888 Y-30.464 E37.73190
G0 F7500 X-2.888 Y-30.300
G0 X-5.400 Y-25.992
G0 X-5.563 Y-25.992
G1 F1920 X5.664 Y-25.991 E38.13611
G0 F7500 X5.500 Y-25.991
G0 X2.888 Y-30.300
G0 X2.888 Y-30.464
G1 F1920 X2.888 Y30.664 E40.33697
G0 F7500 X2.888 Y30.500
G0 X5.500 Y25.992
G0 X5.663 Y25.992
G1 F1920 X-5.564 Y25.991 E40.74119
G0 F7500 X-5.400 Y25.991
G0 X-5.400 Y20.215
G0 X-5.564 Y20.215
G1 F1920 X5.663 Y20.216 E41.14541
G0 F7500 X5.500 Y20.216
G0 X5.500 Y14.440
G0 X5.663 Y14.440
G1 F1920 X-5.564 Y14.439 E41.54963
G0 F7500 X-5.400 Y14.439
G0 X-5.400 Y8.663
G0 X-5.564 Y8.663
G1 F1920 X5.663 Y8.664 E41.95385
G0 F7500 X5.500 Y8.664
G0 X5.500 Y2.888
G0 X5.663 Y2.888
G1 F1920 X-5.564 Y2.887 E42.35806
G0 F7500 X-5.400 Y2.887
G0 X-5.400 Y-2.888
G0 X-5.563 Y-2.888
G1 F1920 X5.664 Y-2.887 E42.76228
G0 F7500 X5.500 Y-2.887
G0 X5.500 Y-8.663
G0 X5.664 Y-8.663
G1 F1920 X-5.563 Y-8.664 E43.16650
G0 F7500 X-5.400 Y-8.664
G0 X-5.400 Y-14.440
G0 X-5.563 Y-14.440
G1 F1920 X5.664 Y-14.439 E43.57072
G0 F7500 X5.500 Y-14.439
G0 X5.500 Y-20.215
G0 X5.664 Y-20.215
G1 F1920 X-5.563 Y-20.216 E43.97494
;LAYER:2
M106 S127
G1 F2400 E42.97494
G0 F7500 X0.216 Y0.216 Z0.700
;TYPE:WALL-OUTER
G1 F2400 E43.97494
G1 F2220 X0.284 Y0.216 E43.97738
G1 X0.284 Y0.284 E43.97983
G1 X0.216 Y0.284 E43.98228
G1 X0.216 Y0.216 E43.98473
G0 F7500 X-0.700 Y-0.700
;TYPE:SUPPORT
G1 F2100 X-0.700 Y1.200 E44.05314
G1 X1.200 Y1.200 E44.12154
G1 X1.200 Y-0.700 E44.18995
G1 X-0.700 Y-0.700 E44.25836
G0 F7500 X-0.690 Y-0.800
G0 X-5.500 Y-30.400
G1 F2100 X5.600 Y-30.400 E44.65800
G1 X5.600 Y30.600 E46.85425
G1 X-5.500 Y30.600 E47.25390
G1 X-5.500 Y-30.400 E49.45015
G0 F7500 X-2.888 Y-30.300
G0 X-2.888 Y-30.464
G1 F2100 X-2.888 Y30.664 E51.65101
G0 F7500 X-2.888 Y30.500
G0 X-5.400 Y25.991
G0 X-5.564 Y25.991
G1 F2100 X5.663 Y25.992 E52.05523
G0 F7500 X5.500 Y25.992
G0 X2.888 Y30.500
G0 X2.888 Y30.664
G1 F2100 X2.888 Y-30.464 E54.25608
G0 F7500 X2.888 Y-30.300
G0 X5.500 Y-25.991
G0 X5.664 Y-25.991
G1 F2100 X-5.563 Y-25.992 E54.66030
G0 F7500 X-5.400 Y-25.992
G0 X-5.400 Y-20.216
G0 X-5.563 Y-20.216
G1 F2100 X5.664 Y-20.215 E55.06452
G0 F7500 X5.500 Y-20.215
G0 X5.500 Y-14.439
G0 X5.664 Y-14.439
G1 F2100 X-5.563 Y-14.440 E55.46874
G0 F7500 X-5.400 Y-14.440
G0 X-5.400 Y-8.664
G0 X-5.563 Y-8.664
G1 F2100 X5.664 Y-8.663 E55.87296
G0 F7500 X5.500 Y-8.663
G0 X5.500 Y-2.887
G0 X5.664 Y-2.887
G1 F2100 X-5.563 Y-2.888 E56.27717
G0 F7500 X-5.400 Y-2.888
G0 X-5.400 Y2.887
G0 X-5.564 Y2.887
G1 F2100 X5.663 Y2.888 E56.68139
G0 F7500 X5.500 Y2.888
G0 X5.500 Y8.664
G0 X5.663 Y8.664
G1 F2100 X-5.564 Y8.663 E57.08561
G0 F7500 X-5.400 Y8.663
G0 X-5.400 Y14.439
G0 X-5.564 Y14.439
G1 F2100 X5.663 Y14.440 E57.48983
G0 F7500 X5.500 Y14.440
G0 X5.500 Y20.216
G0 X5.663 Y20.216
G1 F2100 X-5.564 Y20.215 E57.89405
;LAYER:3
G1 F2400 E56.89405
G0 F7500 X0.216 Y0.284 Z0.900
;TYPE:WALL-OUTER
G1 F2400 E57.89405
G1 X0.216 Y0.216 E57.89649
G1 X0.284 Y0.216 E57.89894
G1 X0.284 Y0.284 E57.90139
G1 X0.216 Y0.284 E57.90384
G0 F7500 X-0.700 Y1.200
;TYPE:SUPPORT
G1 F2220 X1.200 Y1.200 E57.97225
G1 X1.200 Y-0.700 E58.04066
G1 X-0.700 Y-0.700 E58.10906
G1 X-0.700 Y1.200 E58.17747
G0 F7500 X-0.800 Y1.190
G0 X-5.500 Y30.600
G1 F2220 X-5.500 Y-30.400 E60.37372
G1 X5.600 Y-30.400 E60.77337
G1 X5.600 Y30.600 E62.96962
G1 X-5.500 Y30.600 E63.36926
G0 F7500 X-2.888 Y30.500
G0 X-2.888 Y30.664
G1 F2220 X-2.888 Y-30.464 E65.57012
G0 F7500 X-2.888 Y-30.300
G0 X-5.400 Y-25.992
G0 X-5.563 Y-25.992
G1 F2220 X5.664 Y-25.991 E65.97434
G0 F7500 X5.500 Y-25.991
G0 X2.888 Y-30.300
G0 X2.888 Y-30.464
G1 F2220 X2.888 Y30.664 E68.17520
G0 F7500 X2.888 Y30.500
G0 X5.500 Y25.992
G0 X5.663 Y25.992
G1 F2220 X-5.564 Y25.991 E68.57941
G0 F7500 X-5.400 Y25.991
G0 X-5.400 Y20.215
G0 X-5.564 Y20.215
G1 F2220 X5.663 Y20.216 E68.98363
G0 F7500 X5.500 Y20.216
G0 X5.500 Y14.440
G0 X5.663 Y14.440
G1 F2220 X-5.564 Y14.439 E69.38785
G0 F7500 X-5.400 Y14.439
G0 X-5.400 Y8.663
G0 X-5.564 Y8.663
G1 F2220 X5.663 Y8.664 E69.79207
G0 F7500 X5.500 Y8.664
G0 X5.500 Y2.888
G0 X5.663 Y2.888
G1 F2220 X-5.564 Y2.887 E70.19629
G0 F7500 X-5.400 Y2.887
G0 X-5.400 Y-2.888
G0 X-5.563 Y-2.888
G1 F2220 X5.664 Y-2.887 E70.60050
G0 F7500 X5.500 Y-2.887
G0 X5.500 Y-8.663
G0 X5.664 Y-8.663
G1 F2220 X-5.563 Y-8.664 E71.00472
G0 F7500 X-5.400 Y-8.664
G0 X-5.400 Y-14.440
G0 X-5.563 Y-14.440
G1 F2220 X5.664 Y-14.439 E71.40894
G0 F7500 X5.500 Y-14.439
G0 X5.500 Y-20.215
G0 X5.664 Y-20.215
G1 F2220 X-5.563 Y-20.216 E71.81316
;LAYER:4
G1 F2400 E70.81316
G0 F7500 X0.216 Y0.216 Z1.100
;TYPE:WALL-OUTER
G1 F2400 E71.81316
G1 F2700 X0.284 Y0.216 E71.81561
G1 X0.284 Y0.284 E71.81805
G1 X0.216 Y0.284 E71.82050
G1 X0.216 Y0.216 E71.82295
G0 F7500 X-0.700 Y-0.700
;TYPE:SUPPORT
G1 F2400 X-0.700 Y1.200 E71.89136
G1 X1.200 Y1.200 E71.95977
G1 X1.200 Y-0.700 E72.02817
G1 X-0.700 Y-0.700 E72.09658
G0 F7500 X-0.690 Y-0.800
G0 X-5.500 Y-30.400
G1 F2400 X5.600 Y-30.400 E72.49623
G1 X5.600 Y30.600 E74.69248
G1 X-5.500 Y30.600 E75.09212
G1 X-5.500 Y-30.400 E77.28837
G0 F7500 X-2.888 Y-30.300
G0 X-2.888 Y-30.464
G1 F2400 X-2.888 Y30.664 E79.48923
G0 F7500 X-2.888 Y30.500
G0 X-5.400 Y25.991
G0 X-5.564 Y25.991
G1 F2400 X5.663 Y25.992 E79.89345
G0 F7500 X5.500 Y25.992
G0 X2.888 Y30.500
G0 X2.888 Y30.664
G1 F2400 X2.888 Y-30.464 E82.09431
G0 F7500 X2.888 Y-30.300
G0 X5.500 Y-25.991
G0 X5.664 Y-25.991
G1 F2400 X-5.563 Y-25.992 E82.49853
G0 F7500 X-5.400 Y-25.992
G0 X-5.400 Y-20.216
G0 X-5.563 Y-20.216
G1 F2400 X5.664 Y-20.215 E82.90274
G0 F7500 X5.500 Y-20.215
G0 X5.500 Y-14.439
G0 X5.664 Y-14.439
G1 F2400 X-5.563 Y-14.440 E83.30696
G0 F7500 X-5.400 Y-14.440
G0 X-5.400 Y-8.664
G0 X-5.563 Y-8.664
G1 F2400 X5.664 Y-8.663 E83.71118
G0 F7500 X5.500 Y-8.663
G0 X5.500 Y-2.887
G0 X5.664 Y-2.887
G1 F2400 X-5.563 Y-2.888 E84.11540
G0 F7500 X-5.400 Y-2.888
G0 X-5.400 Y2.887
G0 X-5.564 Y2.887
G1 F2400 X5.663 Y2.888 E84.51962
G0 F7500 X5.500 Y2.888
G0 X5.500 Y8.664
G0 X5.663 Y8.664
G1 F2400 X-5.564 Y8.663 E84.92383
G0 F7500 X-5.400 Y8.663
G0 X-5.400 Y14.439
G0 X-5.564 Y14.439
G1 F2400 X5.663 Y14.440 E85.32805
G0 F7500 X5.500 Y14.440
G0 X5.500 Y20.216
G0 X5.663 Y20.216
G1 F2400 X-5.564 Y20.215 E85.73227
;LAYER:5
G1 F2400 E84.73227
G0 F7500 X0.216 Y0.284 Z1.300
;TYPE:WALL-OUTER
G1 F2400 E85.73227
G1 F2700 X0.216 Y0.216 E85.73472
G1 X0.284 Y0.216 E85.73717
G1 X0.284 Y0.284 E85.73961
G1 X0.216 Y0.284 E85.74206
G0 F7500 X-0.700 Y1.200
;TYPE:SUPPORT
G1 F2400 X1.200 Y1.200 E85.81047
G1 X1.200 Y-0.700 E85.87888
G1 X-0.700 Y-0.700 E85.94729
G1 X-0.700 Y1.200 E86.01569
G0 F7500 X-0.800 Y1.190
G0 X-5.500 Y30.600
G1 F2400 X-5.500 Y-30.400 E88.21194
G1 X5.600 Y-30.400 E88.61159
G1 X5.600 Y30.600 E90.80784
G1 X-5.500 Y30.600 E91.20748
G0 F7500 X-2.888 Y30.500
G0 X-2.888 Y30.664
G1 F2400 X-2.888 Y-30.464 E93.40834
G0 F7500 X-2.888 Y-30.300
G0 X-5.400 Y-25.992
G0 X-5.563 Y-25.992
G1 F2400 X5.664 Y-25.991 E93.81256
G0 F7500 X5.500 Y-25.991
G0 X2.888 Y-30.300
G0 X2.888 Y-30.464
G1 F2400 X2.888 Y30.664 E96.01342
G0 F7500 X2.888 Y30.500
G0 X5.500 Y25.992
G0 X5.663 Y25.992
G1 F2400 X-5.564 Y25.991 E96.41764
G0 F7500 X-5.400 Y25.991
G0 X-5.400 Y20.215
G0 X-5.564 Y20.215
G1 F2400 X5.663 Y20.216 E96.82186
G0 F7500 X5.500 Y20.216
G0 X5.500 Y14.440
G0 X5.663 Y14.440
G1 F2400 X-5.564 Y14.439 E97.22607
G0 F7500 X-5.400 Y14.439
G0 X-5.400 Y8.663
G0 X-5.564 Y8.663
G1 F2400 X5.663 Y8.664 E97.63029
G0 F7500 X5.500 Y8.664
G0 X5.500 Y2.888
G0 X5.663 Y2.888
G1 F2400 X-5.564 Y2.887 E98.03451
G0 F7500 X-5.400 Y2.887
G0 X-5.400 Y-2.888
G0 X-5.563 Y-2.888
G1 F2400 X5.664 Y-2.887 E98.43873
G0 F7500 X5.500 Y-2.887
G0 X5.500 Y-8.663
G0 X5.664 Y-8.663
G1 F2400 X-5.563 Y-8.664 E98.84295
G0 F7500 X-5.400 Y-8.664
G0 X-5.400 Y-14.440
G0 X-5.563 Y-14.440
G1 F2400 X5.664 Y-14.439 E99.24716
G0 F7500 X5.500 Y-14.439
G0 X5.500 Y-20.215
G0 X5.664 Y-20.215
G1 F2400 X-5.563 Y-20.216 E99.65138
;LAYER:6
G1 F2400 E98.65138
G0 F7500 X0.216 Y0.216 Z1.500
;TYPE:WALL-OUTER
G1 F2400 E99.65138
G1 F2700 X0.284 Y0.216 E99.65383
G1 X0.284 Y0.284 E99.65628
G1 X0.216 Y0.284 E99.65873
G1 X0.216 Y0.216 E99.66117
G0 F7500 X-0.700 Y-0.700
;TYPE:SUPPORT
G1 F2400 X-0.700 Y1.200 E99.72958
G1 X1.200 Y1.200 E99.79799
G1 X1.200 Y-0.700 E99.86640
G1 X-0.700 Y-0.700 E99.93481
G0 F7500 X-0.690 Y-0.800
G0 X-5.500 Y-30.400
G1 F2400 X5.600 Y-30.400 E100.33445
G1 X5.600 Y30.600 E102.53070
G1 X-5.500 Y30.600 E102.93035
G1 X-5.500 Y-30.400 E105.12660
G0 F7500 X-2.888 Y-30.300
G0 X-2.888 Y-30.464
G1 F2400 X-2.888 Y30.664 E107.32745
G0 F7500 X-2.888 Y30.500
G0 X-5.400 Y25.991
G0 X-5.564 Y25.991
G1 F2400 X5.663 Y25.992 E107.73167
G0 F7500 X5.500 Y25.992
G0 X2.888 Y30.500
G0 X2.888 Y30.664
G1 F2400 X2.888 Y-30.464 E109.93253
G0 F7500 X2.888 Y-30.300
G0 X5.500 Y-25.991
G0 X5.664 Y-25.991
G1 F2400 X-5.563 Y-25.992 E110.33675
G0 F7500 X-5.400 Y-25.992
G0 X-5.400 Y-20.216
G0 X-5.563 Y-20.216
G1 F2400 X5.664 Y-20.215 E110.74097
G0 F7500 X5.500 Y-20.215
G0 X5.500 Y-14.439
G0 X5.664 Y-14.439
G1 F2400 X-5.563 Y-14.440 E111.14519
G0 F7500 X-5.400 Y-14.440
G0 X-5.400 Y-8.664
G0 X-5.563 Y-8.664
G1 F2400 X5.664 Y-8.663 E111.54940
G0 F7500 X5.500 Y-8.663
G0 X5.500 Y-2.887
G0 X5.664 Y-2.887
G1 F2400 X-5.563 Y-2.888 E111.95362
G0 F7500 X-5.400 Y-2.888
G0 X-5.400 Y2.887
G0 X-5.564 Y2.887
G1 F2400 X5.663 Y2.888 E112.35784
G0 F7500 X5.500 Y2.888
G0 X5.500 Y8.664
G0 X5.663 Y8.664
G1 F2400 X-5.564 Y8.663 E112.76206
G0 F7500 X-5.400 Y8.663
G0 X-5.400 Y14.439
G0 X-5.564 Y14.439
G1 F2400 X5.663 Y14.440 E113.16628
G0 F7500 X5.500 Y14.440
G0 X5.500 Y20.216
G0 X5.663 Y20.216
G1 F2400 X-5.564 Y20.215 E113.57049
;LAYER:7
G1 F2400 E112.57049
G0 F7500 X0.216 Y0.284 Z1.700
;TYPE:WALL-OUTER
G1 F2400 E113.57049
G1 F2700 X0.216 Y0.216 E113.57294
G1 X0.284 Y0.216 E113.57539
G1 X0.284 Y0.284 E113.57784
G1 X0.216 Y0.284 E113.58029
G0 F7500 X-0.700 Y1.200
;TYPE:SUPPORT
G1 F2400 X1.200 Y1.200 E113.64869
G1 X1.200 Y-0.700 E113.71710
G1 X-0.700 Y-0.700 E113.78551
G1 X-0.700 Y1.200 E113.85392
G0 F7500 X-0.800 Y1.190
G0 X-5.500 Y30.600
G1 F2400 X-5.500 Y-30.400 E116.05017
G1 X5.600 Y-30.400 E116.44981
G1 X5.600 Y30.600 E118.64606
G1 X-5.500 Y30.600 E119.04571
G0 F7500 X-2.888 Y30.500
G0 X-2.888 Y30.664
G1 F2400 X-2.888 Y-30.464 E121.24657
G0 F7500 X-2.888 Y-30.300
G0 X-5.400 Y-25.992
G0 X-5.563 Y-25.992
G1 F2400 X5.664 Y-25.991 E121.65078
G0 F7500 X5.500 Y-25.991
G0 X2.888 Y-30.300
G0 X2.888 Y-30.464
G1 F2400 X2.888 Y30.664 E123.85164
G0 F7500 X2.888 Y30.500
G0 X5.500 Y25.992
G0 X5.663 Y25.992
G1 F2400 X-5.564 Y25.991 E124.25586
G0 F7500 X-5.400 Y25.991
G0 X-5.400 Y20.215
G0 X-5.564 Y20.215
G1 F2400 X5.663 Y20.216 E124.66008
G0 F7500 X5.500 Y20.216
G0 X5.500 Y14.440
G0 X5.663 Y14.440
G1 F2400 X-5.564 Y14.439 E125.06430
G0 F7500 X-5.400 Y14.439
G0 X-5.400 Y8.663
G0 X-5.564 Y8.663
G1 F2400 X5.663 Y8.664 E125.46851
G0 F7500 X5.500 Y8.664
G0 X5.500 Y2.888
G0 X5.663 Y2.888
G1 F2400 X-5.564 Y2.887 E125.87273
G0 F7500 X-5.400 Y2.887
G0 X-5.400 Y-2.888
G0 X-5.563 Y-2.888
G1 F2400 X5.664 Y-2.887 E126.27695
G0 F7500 X5.500 Y-2.887
G0 X5.500 Y-8.663
G0 X5.664 Y-8.663
G1 F2400 X-5.563 Y-8.664 E126.68117
G0 F7500 X-5.400 Y-8.664
G0 X-5.400 Y-14.440
G0 X-5.563 Y-14.440
G1 F2400 X5.664 Y-14.439 E127.08539
G0 F7500 X5.500 Y-14.439
G0 X5.500 Y-20.215
G0 X5.664 Y-20.215
G1 F2400 X-5.563 Y-20.216 E127.48960
;LAYER:8
G1 F2400 E126.48960
G0 F7500 X0.216 Y0.216 Z1.900
;TYPE:WALL-OUTER
G1 F2400 E127.48960
G1 F2700 X0.284 Y0.216 E127.49205
G1 X0.284 Y0.284 E127.49450
G1 X0.216 Y0.284 E127.49695
G1 X0.216 Y0.216 E127.49940
G0 F7500 X-0.700 Y-0.700
;TYPE:SUPPORT
G1 F2400 X-0.700 Y1.200 E127.56781
G1 X1.200 Y1.200 E127.63621
G1 X1.200 Y-0.700 E127.70462
G1 X-0.700 Y-0.700 E127.77303
G0 F7500 X-0.690 Y-0.800
G0 X-5.500 Y-30.400
G1 F2400 X5.600 Y-30.400 E128.17267
G1 X5.600 Y30.600 E130.36892
G1 X-5.500 Y30.600 E130.76857
G1 X-5.500 Y-30.400 E132.96482
G0 F7500 X-2.888 Y-30.300
G0 X-2.888 Y-30.464
G1 F2400 X-2.888 Y30.664 E135.16568
G0 F7500 X-2.888 Y30.500
G0 X-5.400 Y25.991
G0 X-5.564 Y25.991
G1 F2400 X5.663 Y25.992 E135.56990
G0 F7500 X5.500 Y25.992
G0 X2.888 Y30.500
G0 X2.888 Y30.664
G1 F2400 X2.888 Y-30.464 E137.77075
G0 F7500 X2.888 Y-30.300
G0 X5.500 Y-25.991
G0 X5.664 Y-25.991
G1 F2400 X-5.563 Y-25.992 E138.17497
G0 F7500 X-5.400 Y-25.992
G0 X-5.400 Y-20.216
G0 X-5.563 Y-20.216
G1 F2400 X5.664 Y-20.215 E138.57919
G0 F7500 X5.500 Y-20.215
G0 X5.500 Y-14.439
G0 X5.664 Y-14.439
G1 F2400 X-5.563 Y-14.440 E138.98341
G0 F7500 X-5.400 Y-14.440
G0 X-5.400 Y-8.664
G0 X-5.563 Y-8.664
G1 F2400 X5.664 Y-8.663 E139.38763
G0 F7500 X5.500 Y-8.663
G0 X5.500 Y-2.887
G0 X5.664 Y-2.887
G1 F2400 X-5.563 Y-2.888 E139.79184
G0 F7500 X-5.400 Y-2.888
G0 X-5.400 Y2.887
G0 X-5.564 Y2.887
G1 F2400 X5.663 Y2.888 E140.19606
G0 F7500 X5.500 Y2.888
G0 X5.500 Y8.664
G0 X5.663 Y8.664
G1 F2400 X-5.564 Y8.663 E140.60028
G0 F7500 X-5.400 Y8.663
G0 X-5.400 Y14.439
G0 X-5.564 Y14.439
G1 F2400 X5.663 Y14.440 E141.00450
G0 F7500 X5.500 Y14.440
G0 X5.500 Y20.216
G0 X5.663 Y20.216
G1 F2400 X-5.564 Y20.215 E141.40872
;LAYER:9
G1 F2400 E140.40872
G0 F7500 X0.216 Y0.284 Z2.100
;TYPE:WALL-OUTER
G1 F2400 E141.40872
G1 F2700 X0.216 Y0.216 E141.41116
G1 X0.284 Y0.216 E141.41361
G1 X0.284 Y0.284 E141.41606
G1 X0.216 Y0.284 E141.41851
G0 F7500 X-0.700 Y1.200
;TYPE:SUPPORT
G1 F2400 X1.200 Y1.200 E141.48692
G1 X1.200 Y-0.700 E141.55532
G1 X-0.700 Y-0.700 E141.62373
G1 X-0.700 Y1.200 E141.69214
G0 F7500 X-0.800 Y1.190
G0 X-5.500 Y30.600
G1 F2400 X-5.500 Y-30.400 E143.88839
G1 X5.600 Y-30.400 E144.28804
G1 X5.600 Y30.600 E146.48429
G1 X-5.500 Y30.600 E146.88393
G0 F7500 X-2.888 Y30.500
G0 X-2.888 Y30.664
G1 F2400 X-2.888 Y-30.464 E149.08479
G0 F7500 X-2.888 Y-30.300
