;Generated with Cura_SteamEngine 15.04.6

;Layer count: 16
;LAYER:0
M107
G0 F7500 X-8.716 Y-38.616 Z0.300
;TYPE:SKIRT
G1 F1800 X8.816 Y-38.616 E0.94684
G1 X8.816 Y38.816 E5.12864
G1 X-8.716 Y38.816 E6.07548
G1 X-8.716 Y-38.616 E10.25728
G1 F2400 E9.25728
G0 F7500 X0.216 Y0.216
;TYPE:WALL-OUTER
G1 F2400 E10.25728
G1 F1800 X0.284 Y0.216 E10.26095
G1 X0.284 Y0.284 E10.26462
G1 X0.216 Y0.284 E10.26830
G1 X0.216 Y0.216 E10.27197
G0 F7500 X-0.700 Y-0.700
;TYPE:SUPPORT
G1 F1800 X-0.700 Y1.200 E10.37458
G1 X1.200 Y1.200 E10.47719
G1 X1.200 Y-0.700 E10.57980
G1 X-0.700 Y-0.700 E10.68242
G0 F7500 X-0.690 Y-0.800
G0 X-5.500 Y-35.400
G1 F1800 X5.600 Y-35.400 E11.28188
G1 X5.600 Y35.600 E15.11632
G1 X-5.500 Y35.600 E15.71579
G1 X-5.500 Y-35.400 E19.55022
G0 F7500 X-2.888 Y-35.300
G0 X-2.888 Y-35.464
G1 F1800 X-2.888 Y35.664 E23.39157
G0 F7500 X-2.888 Y35.500
G0 X-5.400 Y31.767
G0 X-5.564 Y31.767
G1 F1800 X5.663 Y31.768 E23.99790
G0 F7500 X5.500 Y31.768
G0 X2.888 Y35.500
G0 X2.888 Y35.664
G1 F1800 X2.888 Y-35.464 E27.83925
G0 F7500 X2.888 Y-35.300
G0 X5.500 Y-31.767
G0 X5.664 Y-31.767
G1 F1800 X-5.563 Y-31.768 E28.44558
G0 F7500 X-5.400 Y-31.768
G0 X-5.400 Y-25.992
G0 X-5.563 Y-25.992
G1 F1800 X5.664 Y-25.991 E29.05190
G0 F7500 X5.500 Y-25.991
G0 X5.500 Y-20.215
G0 X5.664 Y-20.215
G1 F1800 X-5.563 Y-20.216 E29.65823
G0 F7500 X-5.400 Y-20.216
G0 X-5.400 Y-14.440
G0 X-5.563 Y-14.440
G1 F1800 X5.664 Y-14.439 E30.26456
G0 F7500 X5.500 Y-14.439
G0 X5.500 Y-8.663
G0 X5.664 Y-8.663
G1 F1800 X-5.563 Y-8.664 E30.87088
G0 F7500 X-5.400 Y-8.664
G0 X-5.400 Y-2.888
G0 X-5.563 Y-2.888
G1 F1800 X5.664 Y-2.887 E31.47721
G0 F7500 X5.500 Y-2.887
G0 X5.500 Y2.888
G0 X5.663 Y2.888
G1 F1800 X-5.564 Y2.887 E32.08354
G0 F7500 X-5.400 Y2.887
G0 X-5.400 Y8.663
G0 X-5.564 Y8.663
G1 F1800 X5.663 Y8.664 E32.68987
G0 F7500 X5.500 Y8.664
G0 X5.500 Y14.440
G0 X5.663 Y14.440
G1 F1800 X-5.564 Y14.439 E33.29619
G0 F7500 X-5.400 Y14.439
G0 X-5.400 Y20.215
G0 X-5.564 Y20.215
G1 F1800 X5.663 Y20.216 E33.90252
G0 F7500 X5.500 Y20.216
G0 X5.500 Y25.992
G0 X5.663 Y25.992
G1 F1800 X-5.564 Y25.991 E34.50885
;LAYER:1
M106 S63
G1 F2400 E33.50885
G0 F7500 X0.216 Y0.284 Z0.500
;TYPE:WALL-OUTER
G1 F2400 E34.50885
G1 F1980 X0.216 Y0.216 E34.51129
G1 X0.284 Y0.216 E34.51374
G1 X0.284 Y0.284 E34.51619
G1 X0.216 Y0.284 E34.51864
G0 F7500 X-0.700 Y1.200
;TYPE:SUPPORT
G1 F1920 X1.200 Y1.200 E34.58705
G1 X1.200 Y-0.700 E34.65545
G1 X-0.700 Y-0.700 E34.72386
G1 X-0.700 Y1.200 E34.79227
G0 F7500 X-0.800 Y1.190
G0 X-5.500 Y35.600
G1 F1920 X-5.500 Y-35.400 E37.34856
G1 X5.600 Y-35.400 E37.74821
G1 X5.600 Y35.600 E40.30450
G1 X-5.500 Y35.600 E40.70414
G0 F7500 X-2.888 Y35.500
G0 X-2.888 Y35.664
G1 F1920 X-2.888 Y-35.464 E43.26504
G0 F7500 X-2.888 Y-35.300
G0 X-5.400 Y-31.768
G0 X-5.563 Y-31.768
G1 F1920 X5.664 Y-31.767 E43.66926
G0 F7500 X5.500 Y-31.767
G0 X2.888 Y-35.300
G0 X2.888 Y-35.464
G1 F1920 X2.888 Y35.664 E46.23016
G0 F7500 X2.888 Y35.500
G0 X5.500 Y31.768
G0 X5.663 Y31.768
G1 F1920 X-5.564 Y31.767 E46.63438
G0 F7500 X-5.400 Y31.767
G0 X-5.400 Y25.991
G0 X-5.564 Y25.991
G1 F1920 X5.663 Y25.992 E47.03860
G0 F7500 X5.500 Y25.992
G0 X5.500 Y20.216
G0 X5.663 Y20.216
G1 F1920 X-5.564 Y20.215 E47.44281
G0 F7500 X-5.400 Y20.215
G0 X-5.400 Y14.439
G0 X-5.564 Y14.439
G1 F1920 X5.663 Y14.440 E47.84703
G0 F7500 X5.500 Y14.440
G0 X5.500 Y8.664
G0 X5.663 Y8.664
G1 F1920 X-5.564 Y8.663 E48.25125
G0 F7500 X-5.400 Y8.663
G0 X-5.400 Y2.887
G0 X-5.564 Y2.887
G1 F1920 X5.663 Y2.888 E48.65547
G0 F7500 X5.500 Y2.888
G0 X5.500 Y-2.887
G0 X5.664 Y-2.887
G1 F1920 X-5.563 Y-2.888 E49.05969
G0 F7500 X-5.400 Y-2.888
G0 X-5.400 Y-8.664
G0 X-5.563 Y-8.664
G1 F1920 X5.664 Y-8.663 E49.46390
G0 F7500 X5.500 Y-8.663
G0 X5.500 Y-14.439
G0 X5.664 Y-14.439
G1 F1920 X-5.563 Y-14.440 E49.86812
G0 F7500 X-5.400 Y-14.440
G0 X-5.400 Y-20.216
G0 X-5.563 Y-20.216
G1 F1920 X5.664 Y-20.215 E50.27234
G0 F7500 X5.500 Y-20.215
G0 X5.500 Y-25.991
G0 X5.664 Y-25.991
G1 F1920 X-5.563 Y-25.992 E50.67656
;LAYER:2
M106 S127
G1 F2400 E49.67656
G0 F7500 X0.216 Y0.216 Z0.700
;TYPE:WALL-OUTER
G1 F2400 E50.67656
G1 F2220 X0.284 Y0.216 E50.67901
G1 X0.284 Y0.284 E50.68145
G1 X0.216 Y0.284 E50.68390
G1 X0.216 Y0.216 E50.68635
G0 F7500 X-0.700 Y-0.700
;TYPE:SUPPORT
G1 F2100 X-0.700 Y1.200 E50.75476
G1 X1.200 Y1.200 E50.82317
G1 X1.200 Y-0.700 E50.89157
G1 X-0.700 Y-0.700 E50.95998
G0 F7500 X-0.690 Y-0.800
G0 X-5.500 Y-35.400
G1 F2100 X5.600 Y-35.400 E51.35963
G1 X5.600 Y35.600 E53.91592
G1 X-5.500 Y35.600 E54.31556
G1 X-5.500 Y-35.400 E56.87185
G0 F7500 X-2.888 Y-35.300
G0 X-2.888 Y-35.464
G1 F2100 X-2.888 Y35.664 E59.43275
G0 F7500 X-2.888 Y35.500
G0 X-5.400 Y31.767
G0 X-5.564 Y31.767
G1 F2100 X5.663 Y31.768 E59.83697
G0 F7500 X5.500 Y31.768
G0 X2.888 Y35.500
G0 X2.888 Y35.664
G1 F2100 X2.888 Y-35.464 E62.39787
G0 F7500 X2.888 Y-35.300
G0 X5.500 Y-31.767
G0 X5.664 Y-31.767
G1 F2100 X-5.563 Y-31.768 E62.80209
G0 F7500 X-5.400 Y-31.768
G0 X-5.400 Y-25.992
G0 X-5.563 Y-25.992
G1 F2100 X5.664 Y-25.991 E63.20631
G0 F7500 X5.500 Y-25.991
G0 X5.500 Y-20.215
G0 X5.664 Y-20.215
G1 F2100 X-5.563 Y-20.216 E63.61053
G0 F7500 X-5.400 Y-20.216
G0 X-5.400 Y-14.440
G0 X-5.563 Y-14.440
G1 F2100 X5.664 Y-14.439 E64.01474
G0 F7500 X5.500 Y-14.439
G0 X5.500 Y-8.663
G0 X5.664 Y-8.663
G1 F2100 X-5.563 Y-8.664 E64.41896
G0 F7500 X-5.400 Y-8.664
G0 X-5.400 Y-2.888
G0 X-5.563 Y-2.888
G1 F2100 X5.664 Y-2.887 E64.82318
G0 F7500 X5.500 Y-2.887
G0 X5.500 Y2.888
G0 X5.663 Y2.888
G1 F2100 X-5.564 Y2.887 E65.22740
G0 F7500 X-5.400 Y2.887
G0 X-5.400 Y8.663
G0 X-5.564 Y8.663
G1 F2100 X5.663 Y8.664 E65.63161
G0 F7500 X5.500 Y8.664
G0 X5.500 Y14.440
G0 X5.663 Y14.440
G1 F2100 X-5.564 Y14.439 E66.03583
G0 F7500 X-5.400 Y14.439
G0 X-5.400 Y20.215
G0 X-5.564 Y20.215
G1 F2100 X5.663 Y20.216 E66.44005
G0 F7500 X5.500 Y20.216
G0 X5.500 Y25.992
G0 X5.663 Y25.992
G1 F2100 X-5.564 Y25.991 E66.84427
;LAYER:3
G1 F2400 E65.84427
G0 F7500 X0.216 Y0.284 Z0.900
;TYPE:WALL-OUTER
G1 F2400 E66.84427
G1 X0.216 Y0.216 E66.84672
G1 X0.284 Y0.216 E66.84917
G1 X0.284 Y0.284 E66.85161
G1 X0.216 Y0.284 E66.85406
G0 F7500 X-0.700 Y1.200
;TYPE:SUPPORT
G1 F2220 X1.200 Y1.200 E66.92247
G1 X1.200 Y-0.700 E66.99088
G1 X-0.700 Y-0.700 E67.05929
G1 X-0.700 Y1.200 E67.12769
G0 F7500 X-0.800 Y1.190
G0 X-5.500 Y35.600
G1 F2220 X-5.500 Y-35.400 E69.68398
G1 X5.600 Y-35.400 E70.08363
G1 X5.600 Y35.600 E72.63992
G1 X-5.500 Y35.600 E73.03957
G0 F7500 X-2.888 Y35.500
G0 X-2.888 Y35.664
G1 F2220 X-2.888 Y-35.464 E75.60047
G0 F7500 X-2.888 Y-35.300
G0 X-5.400 Y-31.768
G0 X-5.563 Y-31.768
G1 F2220 X5.664 Y-31.767 E76.00468
G0 F7500 X5.500 Y-31.767
G0 X2.888 Y-35.300
G0 X2.888 Y-35.464
G1 F2220 X2.888 Y35.664 E78.56558
G0 F7500 X2.888 Y35.500
G0 X5.500 Y31.768
G0 X5.663 Y31.768
G1 F2220 X-5.564 Y31.767 E78.96980
G0 F7500 X-5.400 Y31.767
G0 X-5.400 Y25.991
G0 X-5.564 Y25.991
G1 F2220 X5.663 Y25.992 E79.37402
G0 F7500 X5.500 Y25.992
G0 X5.500 Y20.216
G0 X5.663 Y20.216
G1 F2220 X-5.564 Y20.215 E79.77824
G0 F7500 X-5.400 Y20.215
G0 X-5.400 Y14.439
G0 X-5.564 Y14.439
G1 F2220 X5.663 Y14.440 E80.18245
G0 F7500 X5.500 Y14.440
G0 X5.500 Y8.664
G0 X5.663 Y8.664
G1 F2220 X-5.564 Y8.663 E80.58667
G0 F7500 X-5.400 Y8.663
G0 X-5.400 Y2.887
G0 X-5.564 Y2.887
G1 F2220 X5.663 Y2.888 E80.99089
G0 F7500 X5.500 Y2.888
G0 X5.500 Y-2.887
G0 X5.664 Y-2.887
G1 F2220 X-5.563 Y-2.888 E81.39511
G0 F7500 X-5.400 Y-2.888
G0 X-5.400 Y-8.664
G0 X-5.563 Y-8.664
G1 F2220 X5.664 Y-8.663 E81.79933
G0 F7500 X5.500 Y-8.663
G0 X5.500 Y-14.439
G0 X5.664 Y-14.439
G1 F2220 X-5.563 Y-14.440 E82.20354
G0 F7500 X-5.400 Y-14.440
G0 X-5.400 Y-20.216
G0 X-5.563 Y-20.216
G1 F2220 X5.664 Y-20.215 E82.60776
G0 F7500 X5.500 Y-20.215
G0 X5.500 Y-25.991
G0 X5.664 Y-25.991
G1 F2220 X-5.563 Y-25.992 E83.01198
;LAYER:4
G1 F2400 E82.01198
G0 F7500 X0.216 Y0.216 Z1.100
;TYPE:WALL-OUTER
G1 F2400 E83.01198
G1 F2700 X0.284 Y0.216 E83.01443
G1 X0.284 Y0.284 E83.01688
G1 X0.216 Y0.284 E83.01933
G1 X0.216 Y0.216 E83.02177
G0 F7500 X-0.700 Y-0.700
;TYPE:SUPPORT
G1 F2400 X-0.700 Y1.200 E83.09018
G1 X1.200 Y1.200 E83.15859
G1 X1.200 Y-0.700 E83.22700
G1 X-0.700 Y-0.700 E83.29540
G0 F7500 X-0.690 Y-0.800
G0 X-5.500 Y-35.400
G1 F2400 X5.600 Y-35.400 E83.69505
G1 X5.600 Y35.600 E86.25134
G1 X-5.500 Y35.600 E86.65099
G1 X-5.500 Y-35.400 E89.20728
G0 F7500 X-2.888 Y-35.300
G0 X-2.888 Y-35.464
G1 F2400 X-2.888 Y35.664 E91.76818
G0 F7500 X-2.888 Y35.500
G0 X-5.400 Y31.767
G0 X-5.564 Y31.767
G1 F2400 X5.663 Y31.768 E92.17239
G0 F7500 X5.500 Y31.768
G0 X2.888 Y35.500
G0 X2.888 Y35.664
G1 F2400 X2.888 Y-35.464 E94.73329
G0 F7500 X2.888 Y-35.300
G0 X5.500 Y-31.767
G0 X5.664 Y-31.767
G1 F2400 X-5.563 Y-31.768 E95.13751
G0 F7500 X-5.400 Y-31.768
G0 X-5.400 Y-25.992
G0 X-5.563 Y-25.992
G1 F2400 X5.664 Y-25.991 E95.54173
G0 F7500 X5.500 Y-25.991
G0 X5.500 Y-20.215
G0 X5.664 Y-20.215
G1 F2400 X-5.563 Y-20.216 E95.94595
G0 F7500 X-5.400 Y-20.216
G0 X-5.400 Y-14.440
G0 X-5.563 Y-14.440
G1 F2400 X5.664 Y-14.439 E96.35017
G0 F7500 X5.500 Y-14.439
G0 X5.500 Y-8.663
G0 X5.664 Y-8.663
G1 F2400 X-5.563 Y-8.664 E96.75438
G0 F7500 X-5.400 Y-8.664
G0 X-5.400 Y-2.888
G0 X-5.563 Y-2.888
G1 F2400 X5.664 Y-2.887 E97.15860
G0 F7500 X5.500 Y-2.887
G0 X5.500 Y2.888
G0 X5.663 Y2.888
G1 F2400 X-5.564 Y2.887 E97.56282
G0 F7500 X-5.400 Y2.887
G0 X-5.400 Y8.663
G0 X-5.564 Y8.663
G1 F2400 X5.663 Y8.664 E97.96704
G0 F7500 X5.500 Y8.664
G0 X5.500 Y14.440
G0 X5.663 Y14.440
G1 F2400 X-5.564 Y14.439 E98.37126
G0 F7500 X-5.400 Y14.439
G0 X-5.400 Y20.215
G0 X-5.564 Y20.215
G1 F2400 X5.663 Y20.216 E98.77547
G0 F7500 X5.500 Y20.216
G0 X5.500 Y25.992
G0 X5.663 Y25.992
G1 F2400 X-5.564 Y25.991 E99.17969
;LAYER:5
G1 F2400 E98.17969
G0 F7500 X0.216 Y0.284 Z1.300
;TYPE:WALL-OUTER
G1 F2400 E99.17969
G1 F2700 X0.216 Y0.216 E99.18214
G1 X0.284 Y0.216 E99.18459
G1 X0.284 Y0.284 E99.18704
G1 X0.216 Y0.284 E99.18948
G0 F7500 X-0.700 Y1.200
;TYPE:SUPPORT
G1 F2400 X1.200 Y1.200 E99.25789
G1 X1.200 Y-0.700 E99.32630
G1 X-0.700 Y-0.700 E99.39471
G1 X-0.700 Y1.200 E99.46312
G0 F7500 X-0.800 Y1.190
G0 X-5.500 Y35.600
G1 F2400 X-5.500 Y-35.400 E102.01941
G1 X5.600 Y-35.400 E102.41905
G1 X5.600 Y35.600 E104.97534
G1 X-5.500 Y35.600 E105.37499
G0 F7500 X-2.888 Y35.500
G0 X-2.888 Y35.664
G1 F2400 X-2.888 Y-35.464 E107.93589
G0 F7500 X-2.888 Y-35.300
G0 X-5.400 Y-31.768
G0 X-5.563 Y-31.768
G1 F2400 X5.664 Y-31.767 E108.34011
G0 F7500 X5.500 Y-31.767
G0 X2.888 Y-35.300
G0 X2.888 Y-35.464
G1 F2400 X2.888 Y35.664 E110.90101
G0 F7500 X2.888 Y35.500
G0 X5.500 Y31.768
G0 X5.663 Y31.768
G1 F2400 X-5.564 Y31.767 E111.30522
G0 F7500 X-5.400 Y31.767
G0 X-5.400 Y25.991
G0 X-5.564 Y25.991
G1 F2400 X5.663 Y25.992 E111.70944
G0 F7500 X5.500 Y25.992
G0 X5.500 Y20.216
G0 X5.663 Y20.216
G1 F2400 X-5.564 Y20.215 E112.11366
G0 F7500 X-5.400 Y20.215
G0 X-5.400 Y14.439
G0 X-5.564 Y14.439
G1 F2400 X5.663 Y14.440 E112.51788
G0 F7500 X5.500 Y14.440
G0 X5.500 Y8.664
G0 X5.663 Y8.664
G1 F2400 X-5.564 Y8.663 E112.92210
G0 F7500 X-5.400 Y8.663
G0 X-5.400 Y2.887
G0 X-5.564 Y2.887
G1 F2400 X5.663 Y2.888 E113.32631
G0 F7500 X5.500 Y2.888
G0 X5.500 Y-2.887
G0 X5.664 Y-2.887
G1 F2400 X-5.563 Y-2.888 E113.73053
G0 F7500 X-5.400 Y-2.888
G0 X-5.400 Y-8.664
G0 X-5.563 Y-8.664
G1 F2400 X5.664 Y-8.663 E114.13475
G0 F7500 X5.500 Y-8.663
G0 X5.500 Y-14.439
G0 X5.664 Y-14.439
G1 F2400 X-5.563 Y-14.440 E114.53897
G0 F7500 X-5.400 Y-14.440
G0 X-5.400 Y-20.216
G0 X-5.563 Y-20.216
G1 F2400 X5.664 Y-20.215 E114.94319
G0 F7500 X5.500 Y-20.215
G0 X5.500 Y-25.991
G0 X5.664 Y-25.991
G1 F2400 X-5.563 Y-25.992 E115.34740
;LAYER:6
G1 F2400 E114.34740
G0 F7500 X0.216 Y0.216 Z1.500
;TYPE:WALL-OUTER
G1 F2400 E115.34740
G1 F2700 X0.284 Y0.216 E115.34985
G1 X0.284 Y0.284 E115.35230
G1 X0.216 Y0.284 E115.35475
G1 X0.216 Y0.216 E115.35720
G0 F7500 X-0.700 Y-0.700
;TYPE:SUPPORT
G1 F2400 X-0.700 Y1.200 E115.42560
G1 X1.200 Y1.200 E115.49401
G1 X1.200 Y-0.700 E115.56242
G1 X-0.700 Y-0.700 E115.63083
G0 F7500 X-0.690 Y-0.800
G0 X-5.500 Y-35.400
G1 F2400 X5.600 Y-35.400 E116.03047
G1 X5.600 Y35.600 E118.58676
G1 X-5.500 Y35.600 E118.98641
G1 X-5.500 Y-35.400 E121.54270
G0 F7500 X-2.888 Y-35.300
G0 X-2.888 Y-35.464
G1 F2400 X-2.888 Y35.664 E124.10360
G0 F7500 X-2.888 Y35.500
G0 X-5.400 Y31.767
G0 X-5.564 Y31.767
G1 F2400 X5.663 Y31.768 E124.50782
G0 F7500 X5.500 Y31.768
G0 X2.888 Y35.500
G0 X2.888 Y35.664
G1 F2400 X2.888 Y-35.464 E127.06872
G0 F7500 X2.888 Y-35.300
G0 X5.500 Y-31.767
G0 X5.664 Y-31.767
G1 F2400 X-5.563 Y-31.768 E127.47293
G0 F7500 X-5.400 Y-31.768
G0 X-5.400 Y-25.992
G0 X-5.563 Y-25.992
G1 F2400 X5.664 Y-25.991 E127.87715
G0 F7500 X5.500 Y-25.991
G0 X5.500 Y-20.215
G0 X5.664 Y-20.215
G1 F2400 X-5.563 Y-20.216 E128.28137
G0 F7500 X-5.400 Y-20.216
G0 X-5.400 Y-14.440
G0 X-5.563 Y-14.440
G1 F2400 X5.664 Y-14.439 E128.68559
G0 F7500 X5.500 Y-14.439
G0 X5.500 Y-8.663
G0 X5.664 Y-8.663
G1 F2400 X-5.563 Y-8.664 E129.08981
G0 F7500 X-5.400 Y-8.664
G0 X-5.400 Y-2.888
G0 X-5.563 Y-2.888
G1 F2400 X5.664 Y-2.887 E129.49402
G0 F7500 X5.500 Y-2.887
G0 X5.500 Y2.888
G0 X5.663 Y2.888
G1 F2400 X-5.564 Y2.887 E129.89824
G0 F7500 X-5.400 Y2.887
G0 X-5.400 Y8.663
G0 X-5.564 Y8.663
G1 F2400 X5.663 Y8.664 E130.30246
G0 F7500 X5.500 Y8.664
G0 X5.500 Y14.440
G0 X5.663 Y14.440
G1 F2400 X-5.564 Y14.439 E130.70668
G0 F7500 X-5.400 Y14.439
G0 X-5.400 Y20.215
G0 X-5.564 Y20.215
G1 F2400 X5.663 Y20.216 E131.11090
G0 F7500 X5.500 Y20.216
G0 X5.500 Y25.992
G0 X5.663 Y25.992
G1 F2400 X-5.564 Y25.991 E131.51511
;LAYER:7
G1 F2400 E130.51511
G0 F7500 X0.216 Y0.284 Z1.700
;TYPE:WALL-OUTER
G1 F2400 E131.51511
G1 F2700 X0.216 Y0.216 E131.51756
G1 X0.284 Y0.216 E131.52001
G1 X0.284 Y0.284 E131.52246
G1 X0.216 Y0.284 E131.52491
G0 F7500 X-0.700 Y1.200
;TYPE:SUPPORT
G1 F2400 X1.200 Y1.200 E131.59332
G1 X1.200 Y-0.700 E131.66172
G1 X-0.700 Y-0.700 E131.73013
G1 X-0.700 Y1.200 E131.79854
G0 F7500 X-0.800 Y1.190
G0 X-5.500 Y35.600
G1 F2400 X-5.500 Y-35.400 E134.35483
G1 X5.600 Y-35.400 E134.75448
G1 X5.600 Y35.600 E137.31077
G1 X-5.500 Y35.600 E137.71041
G0 F7500 X-2.888 Y35.500
G0 X-2.888 Y35.664
G1 F2400 X-2.888 Y-35.464 E140.27131
G0 F7500 X-2.888 Y-35.300
G0 X-5.400 Y-31.768
G0 X-5.563 Y-31.768
G1 F2400 X5.664 Y-31.767 E140.67553
G0 F7500 X5.500 Y-31.767
G0 X2.888 Y-35.300
G0 X2.888 Y-35.464
G1 F2400 X2.888 Y35.664 E143.23643
G0 F7500 X2.888 Y35.500
G0 X5.500 Y31.768
G0 X5.663 Y31.768
G1 F2400 X-5.564 Y31.767 E143.64065
G0 F7500 X-5.400 Y31.767
G0 X-5.400 Y25.991
G0 X-5.564 Y25.991
G1 F2400 X5.663 Y25.992 E144.04486
G0 F7500 X5.500 Y25.992
G0 X5.500 Y20.216
G0 X5.663 Y20.216
G1 F2400 X-5.564 Y20.215 E144.44908
G0 F7500 X-5.400 Y20.215
G0 X-5.400 Y14.439
G0 X-5.564 Y14.439
G1 F2400 X5.663 Y14.440 E144.85330
G0 F7500 X5.500 Y14.440
G0 X5.500 Y8.664
G0 X5.663 Y8.664
G1 F2400 X-5.564 Y8.663 E145.25752
G0 F7500 X-5.400 Y8.663
G0 X-5.400 Y2.887
G0 X-5.564 Y2.887
G1 F2400 X5.663 Y2.888 E145.66174
G0 F7500 X5.500 Y2.888
G0 X5.500 Y-2.887
G0 X5.664 Y-2.887
G1 F2400 X-5.563 Y-2.888 E146.06595
G0 F7500 X-5.400 Y-2.888
G0 X-5.400 Y-8.664
G0 X-5.563 Y-8.664
G1 F2400 X5.664 Y-8.663 E146.47017
G0 F7500 X5.500 Y-8.663
G0 X5.500 Y-14.439
G0 X5.664 Y-14.439
G1 F2400 X-5.563 Y-14.440 E146.87439
G0 F7500 X-5.400 Y-14.440
G0 X-5.400 Y-20.216
G0 X-5.563 Y-20.216
G1 F2400 X5.664 Y-20.215 E147.27861
G0 F7500 X5.500 Y-20.215
G0 X5.500 Y-25.991
G0 X5.664 Y-25.991
G1 F2400 X-5.563 Y-25.992 E147.68283
;LAYER:8
G1 F2400 E146.68283
G0 F7500 X0.216 Y0.216 Z1.900
;TYPE:WALL-OUTER
G1 F2400 E147.68283
G1 F2700 X0.284 Y0.216 E147.68527
G1 X0.284 Y0.284 E147.68772
G1 X0.216 Y0.284 E147.69017
G1 X0.216 Y0.216 E147.69262
G0 F7500 X-0.700 Y-0.700
;TYPE:SUPPORT
G1 F2400 X-0.700 Y1.200 E147.76103
G1 X1.200 Y1.200 E147.82943
G1 X1.200 Y-0.700 E147.89784
G1 X-0.700 Y-0.700 E147.96625
G0 F7500 X-0.690 Y-0.800
G0 X-5.500 Y-35.400
G1 F2400 X5.600 Y-35.400 E148.36590
G1 X5.600 Y35.600 E150.92219
G1 X-5.500 Y35.600 E151.32183
G1 X-5.500 Y-35.400 E153.87812
G0 F7500 X-2.888 Y-35.300
G0 X-2.888 Y-35.464
G1 F2400 X-2.888 Y35.664 E156.43902
G0 F7500 X-2.888 Y35.500
G0 X-5.400 Y31.767
G0 X-5.564 Y31.767
G1 F2400 X5.663 Y31.768 E156.84324
G0 F7500 X5.500 Y31.768
