;Generated with Cura_SteamEngine 15.04.6

;Layer count: 16
;LAYER:0
M107
G0 F7500 X-8.716 Y-43.616 Z0.300
;TYPE:SKIRT
G1 F1800 X8.816 Y-43.616 E0.94684
G1 X8.816 Y43.816 E5.66870
G1 X-8.716 Y43.816 E6.61554
G1 X-8.716 Y-43.616 E11.33740
G1 F2400 E10.33740
G0 F7500 X0.216 Y0.216
;TYPE:WALL-OUTER
G1 F2400 E11.33740
G1 F1800 X0.284 Y0.216 E11.34107
G1 X0.284 Y0.284 E11.34475
G1 X0.216 Y0.284 E11.34842
G1 X0.216 Y0.216 E11.35209
G0 F7500 X-0.700 Y-0.700
;TYPE:SUPPORT
G1 F1800 X-0.700 Y1.200 E11.45470
G1 X1.200 Y1.200 E11.55731
G1 X1.200 Y-0.700 E11.65993
G1 X-0.700 Y-0.700 E11.76254
G0 F7500 X-0.690 Y-0.800
G0 X-5.500 Y-40.400
G1 F1800 X5.600 Y-40.400 E12.36201
G1 X5.600 Y40.600 E16.73650
G1 X-5.500 Y40.600 E17.33597
G1 X-5.500 Y-40.400 E21.71047
G0 F7500 X-2.888 Y-40.300
G0 X-2.888 Y-40.464
G1 F1800 X-2.888 Y40.664 E26.09188
G0 F7500 X-2.888 Y40.500
G0 X2.888 Y40.500
G0 X2.888 Y40.664
G1 F1800 X2.888 Y-40.464 E30.47329
G0 F7500 X2.888 Y-40.300
G0 X5.500 Y-37.543
G0 X5.664 Y-37.543
G1 F1800 X-5.563 Y-37.544 E31.07962
G0 F7500 X-5.400 Y-37.544
G0 X-5.400 Y-31.768
G0 X-5.563 Y-31.768
G1 F1800 X5.664 Y-31.767 E31.68594
G0 F7500 X5.500 Y-31.767
G0 X5.500 Y-25.991
G0 X5.664 Y-25.991
G1 F1800 X-5.563 Y-25.992 E32.29227
G0 F7500 X-5.400 Y-25.992
G0 X-5.400 Y-20.216
G0 X-5.563 Y-20.216
G1 F1800 X5.664 Y-20.215 E32.89860
G0 F7500 X5.500 Y-20.215
G0 X5.500 Y-14.439
G0 X5.664 Y-14.439
G1 F1800 X-5.563 Y-14.440 E33.50493
G0 F7500 X-5.400 Y-14.440
G0 X-5.400 Y-8.664
G0 X-5.563 Y-8.664
G1 F1800 X5.664 Y-8.663 E34.11125
G0 F7500 X5.500 Y-8.663
G0 X5.500 Y-2.887
G0 X5.664 Y-2.887
G1 F1800 X-5.563 Y-2.888 E34.71758
G0 F7500 X-5.400 Y-2.888
G0 X-5.400 Y2.887
G0 X-5.564 Y2.887
G1 F1800 X5.663 Y2.888 E35.32391
G0 F7500 X5.500 Y2.888
G0 X5.500 Y8.664
G0 X5.663 Y8.664
G1 F1800 X-5.564 Y8.663 E35.93023
G0 F7500 X-5.400 Y8.663
G0 X-5.400 Y14.439
G0 X-5.564 Y14.439
G1 F1800 X5.663 Y14.440 E36.53656
G0 F7500 X5.500 Y14.440
G0 X5.500 Y20.216
G0 X5.663 Y20.216
G1 F1800 X-5.564 Y20.215 E37.14289
G0 F7500 X-5.400 Y20.215
G0 X-5.400 Y25.991
G0 X-5.564 Y25.991
G1 F1800 X5.663 Y25.992 E37.74921
G0 F7500 X5.500 Y25.992
G0 X5.500 Y31.768
G0 X5.663 Y31.768
G1 F1800 X-5.564 Y31.767 E38.35554
G0 F7500 X-5.400 Y31.767
G0 X-5.400 Y37.543
G0 X-5.564 Y37.543
G1 F1800 X5.663 Y37.544 E38.96187
;LAYER:1
M106 S63
G1 F2400 E37.96187
G0 F7500 X0.284 Y0.284 Z0.500
;TYPE:WALL-OUTER
G1 F2400 E38.96187
G1 F1980 X0.216 Y0.284 E38.96432
G1 X0.216 Y0.216 E38.96677
G1 X0.284 Y0.216 E38.96921
G1 X0.284 Y0.284 E38.97166
G0 F7500 X1.200 Y1.200
;TYPE:SUPPORT
G1 F1920 X1.200 Y-0.700 E39.04007
G1 X-0.700 Y-0.700 E39.10848
G1 X-0.700 Y1.200 E39.17689
G1 X1.200 Y1.200 E39.24529
G0 F7500 X1.190 Y1.300
G0 X5.500 Y40.590
G0 X5.600 Y40.600
G1 F1920 X-5.500 Y40.600 E39.64494
G1 X-5.500 Y-40.400 E42.56127
G1 X5.600 Y-40.400 E42.96092
G1 X5.600 Y40.600 E45.87725
G0 F7500 X5.500 Y40.590
G0 X2.888 Y40.500
G0 X2.888 Y40.664
G1 F1920 X2.888 Y-40.464 E48.79819
G0 F7500 X2.888 Y-40.300
G0 X-2.888 Y-40.300
G0 X-2.888 Y-40.464
G1 F1920 X-2.888 Y40.664 E51.71913
G0 F7500 X-2.888 Y40.500
G0 X-5.400 Y37.543
G0 X-5.564 Y37.543
G1 F1920 X5.663 Y37.544 E52.12335
G0 F7500 X5.500 Y37.544
G0 X5.500 Y31.768
G0 X5.663 Y31.768
G1 F1920 X-5.564 Y31.767 E52.52756
G0 F7500 X-5.400 Y31.767
G0 X-5.400 Y25.991
G0 X-5.564 Y25.991
G1 F1920 X5.663 Y25.992 E52.93178
G0 F7500 X5.500 Y25.992
G0 X5.500 Y20.216
G0 X5.663 Y20.216
G1 F1920 X-5.564 Y20.215 E53.33600
G0 F7500 X-5.400 Y20.215
G0 X-5.400 Y14.439
G0 X-5.564 Y14.439
G1 F1920 X5.663 Y14.440 E53.74022
G0 F7500 X5.500 Y14.440
G0 X5.500 Y8.664
G0 X5.663 Y8.664
G1 F1920 X-5.564 Y8.663 E54.14444
G0 F7500 X-5.400 Y8.663
G0 X-5.400 Y2.887
G0 X-5.564 Y2.887
G1 F1920 X5.663 Y2.888 E54.54865
G0 F7500 X5.500 Y2.888
G0 X5.500 Y-2.887
G0 X5.664 Y-2.887
G1 F1920 X-5.563 Y-2.888 E54.95287
G0 F7500 X-5.400 Y-2.888
G0 X-5.400 Y-8.664
G0 X-5.563 Y-8.664
G1 F1920 X5.664 Y-8.663 E55.35709
G0 F7500 X5.500 Y-8.663
G0 X5.500 Y-14.439
G0 X5.664 Y-14.439
G1 F1920 X-5.563 Y-14.440 E55.76131
G0 F7500 X-5.400 Y-14.440
G0 X-5.400 Y-20.216
G0 X-5.563 Y-20.216
G1 F1920 X5.664 Y-20.215 E56.16553
G0 F7500 X5.500 Y-20.215
G0 X5.500 Y-25.991
G0 X5.664 Y-25.991
G1 F1920 X-5.563 Y-25.992 E56.56974
G0 F7500 X-5.400 Y-25.992
G0 X-5.400 Y-31.768
G0 X-5.563 Y-31.768
G1 F1920 X5.664 Y-31.767 E56.97396
G0 F7500 X5.500 Y-31.767
G0 X5.500 Y-37.543
G0 X5.664 Y-37.543
G1 F1920 X-5.563 Y-37.544 E57.37818
;LAYER:2
M106 S127
G1 F2400 E56.37818
G0 F7500 X0.216 Y0.216 Z0.700
;TYPE:WALL-OUTER
G1 F2400 E57.37818
G1 F2220 X0.284 Y0.216 E57.38063
G1 X0.284 Y0.284 E57.38308
G1 X0.216 Y0.284 E57.38552
G1 X0.216 Y0.216 E57.38797
G0 F7500 X-0.700 Y-0.700
;TYPE:SUPPORT
G1 F2100 X-0.700 Y1.200 E57.45638
G1 X1.200 Y1.200 E57.52479
G1 X1.200 Y-0.700 E57.59320
G1 X-0.700 Y-0.700 E57.66160
G0 F7500 X-0.690 Y-0.800
G0 X-5.500 Y-40.400
G1 F2100 X5.600 Y-40.400 E58.06125
G1 X5.600 Y40.600 E60.97758
G1 X-5.500 Y40.600 E61.37723
G1 X-5.500 Y-40.400 E64.29356
G0 F7500 X-2.888 Y-40.300
G0 X-2.888 Y-40.464
G1 F2100 X-2.888 Y40.664 E67.21450
G0 F7500 X-2.888 Y40.500
G0 X2.888 Y40.500
G0 X2.888 Y40.664
G1 F2100 X2.888 Y-40.464 E70.13544
G0 F7500 X2.888 Y-40.300
G0 X5.500 Y-37.543
G0 X5.664 Y-37.543
G1 F2100 X-5.563 Y-37.544 E70.53966
G0 F7500 X-5.400 Y-37.544
G0 X-5.400 Y-31.768
G0 X-5.563 Y-31.768
G1 F2100 X5.664 Y-31.767 E70.94388
G0 F7500 X5.500 Y-31.767
G0 X5.500 Y-25.991
G0 X5.664 Y-25.991
G1 F2100 X-5.563 Y-25.992 E71.34809
G0 F7500 X-5.400 Y-25.992
G0 X-5.400 Y-20.216
G0 X-5.563 Y-20.216
G1 F2100 X5.664 Y-20.215 E71.75231
G0 F7500 X5.500 Y-20.215
G0 X5.500 Y-14.439
G0 X5.664 Y-14.439
G1 F2100 X-5.563 Y-14.440 E72.15653
G0 F7500 X-5.400 Y-14.440
G0 X-5.400 Y-8.664
G0 X-5.563 Y-8.664
G1 F2100 X5.664 Y-8.663 E72.56075
G0 F7500 X5.500 Y-8.663
G0 X5.500 Y-2.887
G0 X5.664 Y-2.887
G1 F2100 X-5.563 Y-2.888 E72.96497
G0 F7500 X-5.400 Y-2.888
G0 X-5.400 Y2.887
G0 X-5.564 Y2.887
G1 F2100 X5.663 Y2.888 E73.36918
G0 F7500 X5.500 Y2.888
G0 X5.500 Y8.664
G0 X5.663 Y8.664
G1 F2100 X-5.564 Y8.663 E73.77340
G0 F7500 X-5.400 Y8.663
G0 X-5.400 Y14.439
G0 X-5.564 Y14.439
G1 F2100 X5.663 Y14.440 E74.17762
G0 F7500 X5.500 Y14.440
G0 X5.500 Y20.216
G0 X5.663 Y20.216
G1 F2100 X-5.564 Y20.215 E74.58184
G0 F7500 X-5.400 Y20.215
G0 X-5.400 Y25.991
G0 X-5.564 Y25.991
G1 F2100 X5.663 Y25.992 E74.98606
G0 F7500 X5.500 Y25.992
G0 X5.500 Y31.768
G0 X5.663 Y31.768
G1 F2100 X-5.564 Y31.767 E75.39027
G0 F7500 X-5.400 Y31.767
G0 X-5.400 Y37.543
G0 X-5.564 Y37.543
G1 F2100 X5.663 Y37.544 E75.79449
;LAYER:3
G1 F2400 E74.79449
G0 F7500 X0.284 Y0.284 Z0.900
;TYPE:WALL-OUTER
G1 F2400 E75.79449
G1 X0.216 Y0.284 E75.79694
G1 X0.216 Y0.216 E75.79939
G1 X0.284 Y0.216 E75.80184
G1 X0.284 Y0.284 E75.80428
G0 F7500 X1.200 Y1.200
;TYPE:SUPPORT
G1 F2220 X1.200 Y-0.700 E75.87269
G1 X-0.700 Y-0.700 E75.94110
G1 X-0.700 Y1.200 E76.00951
G1 X1.200 Y1.200 E76.07792
G0 F7500 X1.190 Y1.300
G0 X5.500 Y40.590
G0 X5.600 Y40.600
G1 F2220 X-5.500 Y40.600 E76.47756
G1 X-5.500 Y-40.400 E79.39389
G1 X5.600 Y-40.400 E79.79354
G1 X5.600 Y40.600 E82.70987
G0 F7500 X5.500 Y40.590
G0 X2.888 Y40.500
G0 X2.888 Y40.664
G1 F2220 X2.888 Y-40.464 E85.63081
G0 F7500 X2.888 Y-40.300
G0 X-2.888 Y-40.300
G0 X-2.888 Y-40.464
G1 F2220 X-2.888 Y40.664 E88.55175
G0 F7500 X-2.888 Y40.500
G0 X-5.400 Y37.543
G0 X-5.564 Y37.543
G1 F2220 X5.663 Y37.544 E88.95597
G0 F7500 X5.500 Y37.544
G0 X5.500 Y31.768
G0 X5.663 Y31.768
G1 F2220 X-5.564 Y31.767 E89.36019
G0 F7500 X-5.400 Y31.767
G0 X-5.400 Y25.991
G0 X-5.564 Y25.991
G1 F2220 X5.663 Y25.992 E89.76440
G0 F7500 X5.500 Y25.992
G0 X5.500 Y20.216
G0 X5.663 Y20.216
G1 F2220 X-5.564 Y20.215 E90.16862
G0 F7500 X-5.400 Y20.215
G0 X-5.400 Y14.439
G0 X-5.564 Y14.439
G1 F2220 X5.663 Y14.440 E90.57284
G0 F7500 X5.500 Y14.440
G0 X5.500 Y8.664
G0 X5.663 Y8.664
G1 F2220 X-5.564 Y8.663 E90.97706
G0 F7500 X-5.400 Y8.663
G0 X-5.400 Y2.887
G0 X-5.564 Y2.887
G1 F2220 X5.663 Y2.888 E91.38128
G0 F7500 X5.500 Y2.888
G0 X5.500 Y-2.887
G0 X5.664 Y-2.887
G1 F2220 X-5.563 Y-2.888 E91.78549
G0 F7500 X-5.400 Y-2.888
G0 X-5.400 Y-8.664
G0 X-5.563 Y-8.664
G1 F2220 X5.664 Y-8.663 E92.18971
G0 F7500 X5.500 Y-8.663
G0 X5.500 Y-14.439
G0 X5.664 Y-14.439
G1 F2220 X-5.563 Y-14.440 E92.59393
G0 F7500 X-5.400 Y-14.440
G0 X-5.400 Y-20.216
G0 X-5.563 Y-20.216
G1 F2220 X5.664 Y-20.215 E92.99815
G0 F7500 X5.500 Y-20.215
G0 X5.500 Y-25.991
G0 X5.664 Y-25.991
G1 F2220 X-5.563 Y-25.992 E93.40237
G0 F7500 X-5.400 Y-25.992
G0 X-5.400 Y-31.768
G0 X-5.563 Y-31.768
G1 F2220 X5.664 Y-31.767 E93.80658
G0 F7500 X5.500 Y-31.767
G0 X5.500 Y-37.543
G0 X5.664 Y-37.543
G1 F2220 X-5.563 Y-37.544 E94.21080
;LAYER:4
G1 F2400 E93.21080
G0 F7500 X0.216 Y0.216 Z1.100
;TYPE:WALL-OUTER
G1 F2400 E94.21080
G1 F2700 X0.284 Y0.216 E94.21325
G1 X0.284 Y0.284 E94.21570
G1 X0.216 Y0.284 E94.21815
G1 X0.216 Y0.216 E94.22060
G0 F7500 X-0.700 Y-0.700
;TYPE:SUPPORT
G1 F2400 X-0.700 Y1.200 E94.28900
G1 X1.200 Y1.200 E94.35741
G1 X1.200 Y-0.700 E94.42582
G1 X-0.700 Y-0.700 E94.49423
G0 F7500 X-0.690 Y-0.800
G0 X-5.500 Y-40.400
G1 F2400 X5.600 Y-40.400 E94.89387
G1 X5.600 Y40.600 E97.81020
G1 X-5.500 Y40.600 E98.20985
G1 X-5.500 Y-40.400 E101.12618
G0 F7500 X-2.888 Y-40.300
G0 X-2.888 Y-40.464
G1 F2400 X-2.888 Y40.664 E104.04712
G0 F7500 X-2.888 Y40.500
G0 X2.888 Y40.500
G0 X2.888 Y40.664
G1 F2400 X2.888 Y-40.464 E106.96806
G0 F7500 X2.888 Y-40.300
G0 X5.500 Y-37.543
G0 X5.664 Y-37.543
G1 F2400 X-5.563 Y-37.544 E107.37228
G0 F7500 X-5.400 Y-37.544
G0 X-5.400 Y-31.768
G0 X-5.563 Y-31.768
G1 F2400 X5.664 Y-31.767 E107.77650
G0 F7500 X5.500 Y-31.767
G0 X5.500 Y-25.991
G0 X5.664 Y-25.991
G1 F2400 X-5.563 Y-25.992 E108.18072
G0 F7500 X-5.400 Y-25.992
G0 X-5.400 Y-20.216
G0 X-5.563 Y-20.216
G1 F2400 X5.664 Y-20.215 E108.58493
G0 F7500 X5.500 Y-20.215
G0 X5.500 Y-14.439
G0 X5.664 Y-14.439
G1 F2400 X-5.563 Y-14.440 E108.98915
G0 F7500 X-5.400 Y-14.440
G0 X-5.400 Y-8.664
G0 X-5.563 Y-8.664
G1 F2400 X5.664 Y-8.663 E109.39337
G0 F7500 X5.500 Y-8.663
G0 X5.500 Y-2.887
G0 X5.664 Y-2.887
G1 F2400 X-5.563 Y-2.888 E109.79759
G0 F7500 X-5.400 Y-2.888
G0 X-5.400 Y2.887
G0 X-5.564 Y2.887
G1 F2400 X5.663 Y2.888 E110.20181
G0 F7500 X5.500 Y2.888
G0 X5.500 Y8.664
G0 X5.663 Y8.664
G1 F2400 X-5.564 Y8.663 E110.60602
G0 F7500 X-5.400 Y8.663
G0 X-5.400 Y14.439
G0 X-5.564 Y14.439
G1 F2400 X5.663 Y14.440 E111.01024
G0 F7500 X5.500 Y14.440
G0 X5.500 Y20.216
G0 X5.663 Y20.216
G1 F2400 X-5.564 Y20.215 E111.41446
G0 F7500 X-5.400 Y20.215
G0 X-5.400 Y25.991
G0 X-5.564 Y25.991
G1 F2400 X5.663 Y25.992 E111.81868
G0 F7500 X5.500 Y25.992
G0 X5.500 Y31.768
G0 X5.663 Y31.768
G1 F2400 X-5.564 Y31.767 E112.22290
G0 F7500 X-5.400 Y31.767
G0 X-5.400 Y37.543
G0 X-5.564 Y37.543
G1 F2400 X5.663 Y37.544 E112.62711
;LAYER:5
G1 F2400 E111.62711
G0 F7500 X0.284 Y0.284 Z1.300
;TYPE:WALL-OUTER
G1 F2400 E112.62711
G1 F2700 X0.216 Y0.284 E112.62956
G1 X0.216 Y0.216 E112.63201
G1 X0.284 Y0.216 E112.63446
G1 X0.284 Y0.284 E112.63691
G0 F7500 X1.200 Y1.200
;TYPE:SUPPORT
G1 F2400 X1.200 Y-0.700 E112.70531
G1 X-0.700 Y-0.700 E112.77372
G1 X-0.700 Y1.200 E112.84213
G1 X1.200 Y1.200 E112.91054
G0 F7500 X1.190 Y1.300
G0 X5.500 Y40.590
G0 X5.600 Y40.600
G1 F2400 X-5.500 Y40.600 E113.31018
G1 X-5.500 Y-40.400 E116.22652
G1 X5.600 Y-40.400 E116.62616
G1 X5.600 Y40.600 E119.54249
G0 F7500 X5.500 Y40.590
G0 X2.888 Y40.500
G0 X2.888 Y40.664
G1 F2400 X2.888 Y-40.464 E122.46343
G0 F7500 X2.888 Y-40.300
G0 X-2.888 Y-40.300
G0 X-2.888 Y-40.464
G1 F2400 X-2.888 Y40.664 E125.38437
G0 F7500 X-2.888 Y40.500
G0 X-5.400 Y37.543
G0 X-5.564 Y37.543
G1 F2400 X5.663 Y37.544 E125.78859
G0 F7500 X5.500 Y37.544
G0 X5.500 Y31.768
G0 X5.663 Y31.768
G1 F2400 X-5.564 Y31.767 E126.19281
G0 F7500 X-5.400 Y31.767
G0 X-5.400 Y25.991
G0 X-5.564 Y25.991
G1 F2400 X5.663 Y25.992 E126.59703
G0 F7500 X5.500 Y25.992
G0 X5.500 Y20.216
G0 X5.663 Y20.216
G1 F2400 X-5.564 Y20.215 E127.00125
G0 F7500 X-5.400 Y20.215
G0 X-5.400 Y14.439
G0 X-5.564 Y14.439
G1 F2400 X5.663 Y14.440 E127.40546
G0 F7500 X5.500 Y14.440
G0 X5.500 Y8.664
G0 X5.663 Y8.664
G1 F2400 X-5.564 Y8.663 E127.80968
G0 F7500 X-5.400 Y8.663
G0 X-5.400 Y2.887
G0 X-5.564 Y2.887
G1 F2400 X5.663 Y2.888 E128.21390
G0 F7500 X5.500 Y2.888
G0 X5.500 Y-2.887
G0 X5.664 Y-2.887
G1 F2400 X-5.563 Y-2.888 E128.61812
G0 F7500 X-5.400 Y-2.888
G0 X-5.400 Y-8.664
G0 X-5.563 Y-8.664
G1 F2400 X5.664 Y-8.663 E129.02234
G0 F7500 X5.500 Y-8.663
G0 X5.500 Y-14.439
G0 X5.664 Y-14.439
G1 F2400 X-5.563 Y-14.440 E129.42655
G0 F7500 X-5.400 Y-14.440
G0 X-5.400 Y-20.216
G0 X-5.563 Y-20.216
G1 F2400 X5.664 Y-20.215 E129.83077
G0 F7500 X5.500 Y-20.215
G0 X5.500 Y-25.991
G0 X5.664 Y-25.991
G1 F2400 X-5.563 Y-25.992 E130.23499
G0 F7500 X-5.400 Y-25.992
G0 X-5.400 Y-31.768
G0 X-5.563 Y-31.768
G1 F2400 X5.664 Y-31.767 E130.63921
G0 F7500 X5.500 Y-31.767
G0 X5.500 Y-37.543
G0 X5.664 Y-37.543
G1 F2400 X-5.563 Y-37.544 E131.04342
;LAYER:6
G1 F2400 E130.04342
G0 F7500 X0.216 Y0.216 Z1.500
;TYPE:WALL-OUTER
G1 F2400 E131.04342
G1 F2700 X0.284 Y0.216 E131.04587
G1 X0.284 Y0.284 E131.04832
G1 X0.216 Y0.284 E131.05077
G1 X0.216 Y0.216 E131.05322
G0 F7500 X-0.700 Y-0.700
;TYPE:SUPPORT
G1 F2400 X-0.700 Y1.200 E131.12163
G1 X1.200 Y1.200 E131.19003
G1 X1.200 Y-0.700 E131.25844
G1 X-0.700 Y-0.700 E131.32685
G0 F7500 X-0.690 Y-0.800
G0 X-5.500 Y-40.400
G1 F2400 X5.600 Y-40.400 E131.72649
G1 X5.600 Y40.600 E134.64283
G1 X-5.500 Y40.600 E135.04247
G1 X-5.500 Y-40.400 E137.95880
G0 F7500 X-2.888 Y-40.300
G0 X-2.888 Y-40.464
G1 F2400 X-2.888 Y40.664 E140.87974
G0 F7500 X-2.888 Y40.500
G0 X2.888 Y40.500
G0 X2.888 Y40.664
G1 F2400 X2.888 Y-40.464 E143.80068
G0 F7500 X2.888 Y-40.300
G0 X5.500 Y-37.543
G0 X5.664 Y-37.543
G1 F2400 X-5.563 Y-37.544 E144.20490
G0 F7500 X-5.400 Y-37.544
G0 X-5.400 Y-31.768
G0 X-5.563 Y-31.768
G1 F2400 X5.664 Y-31.767 E144.60912
G0 F7500 X5.500 Y-31.767
G0 X5.500 Y-25.991
G0 X5.664 Y-25.991
G1 F2400 X-5.563 Y-25.992 E145.01334
G0 F7500 X-5.400 Y-25.992
G0 X-5.400 Y-20.216
G0 X-5.563 Y-20.216
G1 F2400 X5.664 Y-20.215 E145.41756
G0 F7500 X5.500 Y-20.215
G0 X5.500 Y-14.439
G0 X5.664 Y-14.439
G1 F2400 X-5.563 Y-14.440 E145.82177
G0 F7500 X-5.400 Y-14.440
G0 X-5.400 Y-8.664
G0 X-5.563 Y-8.664
G1 F2400 X5.664 Y-8.663 E146.22599
G0 F7500 X5.500 Y-8.663
G0 X5.500 Y-2.887
G0 X5.664 Y-2.887
G1 F2400 X-5.563 Y-2.888 E146.63021
G0 F7500 X-5.400 Y-2.888
G0 X-5.400 Y2.887
G0 X-5.564 Y2.887
G1 F2400 X5.663 Y2.888 E147.03443
G0 F7500 X5.500 Y2.888
G0 X5.500 Y8.664
G0 X5.663 Y8.664
G1 F2400 X-5.564 Y8.663 E147.43865
G0 F7500 X-5.400 Y8.663
G0 X-5.400 Y14.439
G0 X-5.564 Y14.439
G1 F2400 X5.663 Y14.440 E147.84286
G0 F7500 X5.500 Y14.440
G0 X5.500 Y20.216
G0 X5.663 Y20.216
G1 F2400 X-5.564 Y20.215 E148.24708
G0 F7500 X-5.400 Y20.215
G0 X-5.400 Y25.991
G0 X-5.564 Y25.991
G1 F2400 X5.663 Y25.992 E148.65130
G0 F7500 X5.500 Y25.992
G0 X5.500 Y31.768
G0 X5.663 Y31.768
G1 F2400 X-5.564 Y31.767 E149.05552
G0 F7500 X-5.400 Y31.767
G0 X-5.400 Y37.543
G0 X-5.564 Y37.543
G1 F2400 X5.663 Y37.544 E149.45974
;LAYER:7
G1 F2400 E148.45974
G0 F7500 X0.284 Y0.284 Z1.700
;TYPE:WALL-OUTER
G1 F2400 E149.45974
G1 F2700 X0.216 Y0.284 E149.46218
G1 X0.216 Y0.216 E149.46463
G1 X0.284 Y0.216 E149.46708
G1 X0.284 Y0.284 E149.46953
G0 F7500 X1.200 Y1.200
;TYPE:SUPPORT
G1 F2400 X1.200 Y-0.700 E149.53794
G1 X-0.700 Y-0.700 E149.60634
G1 X-0.700 Y1.200 E149.67475
G1 X1.200 Y1.200 E149.74316
G0 F7500 X1.190 Y1.300
G0 X5.500 Y40.590
G0 X5.600 Y40.600
G1 F2400 X-5.500 Y40.600 E150.14281
G1 X-5.500 Y-40.400 E153.05914
G1 X5.600 Y-40.400 E153.45878
G1 X5.600 Y40.600 E156.37511
G0 F7500 X5.500 Y40.590
G0 X2.888 Y40.500
G0 X2.888 Y40.664
G1 F2400 X2.888 Y-40.464 E159.29606
G0 F7500 X2.888 Y-40.300
G0 X-2.888 Y-40.300
G0 X-2.888 Y-40.464
G1 F2400 X-2.888 Y40.664 E162.21700
G0 F7500 X-2.888 Y40.500
G0 X-5.400 Y37.543
G0 X-5.564 Y37.543
G1 F2400 X5.663 Y37.544 E162.62121
G0 F7500 X5.500 Y37.544
G0 X5.500 Y31.768
G0 X5.663 Y31.768
G1 F2400 X-5.564 Y31.767 E163.02543
G0 F7500 X-5.400 Y31.767
G0 X-5.400 Y25.991
G0 X-5.564 Y25.991
G1 F2400 X5.663 Y25.992 E163.42965
G0 F7500 X5.500 Y25.992
G0 X5.500 Y20.216
G0 X5.663 Y20.216
G1 F2400 X-5.564 Y20.215 E163.83387
