;Generated with Cura_SteamEngine 15.04.6

;Layer count: 16
;LAYER:0
M107
G0 F7500 X-8.716 Y-48.616 Z0.300
;TYPE:SKIRT
G1 F1800 X8.816 Y-48.616 E0.94684
G1 X8.816 Y48.816 E6.20876
G1 X-8.716 Y48.816 E7.15560
G1 X-8.716 Y-48.616 E12.41752
G1 F2400 E11.41752
G0 F7500 X0.216 Y0.216
;TYPE:WALL-OUTER
G1 F2400 E12.41752
G1 F1800 X0.284 Y0.216 E12.42120
G1 X0.284 Y0.284 E12.42487
G1 X0.216 Y0.284 E12.42854
G1 X0.216 Y0.216 E12.43221
G0 F7500 X-0.700 Y-0.700
;TYPE:SUPPORT
G1 F1800 X-0.700 Y1.200 E12.53483
G1 X1.200 Y1.200 E12.63744
G1 X1.200 Y-0.700 E12.74005
G1 X-0.700 Y-0.700 E12.84266
G0 F7500 X-0.690 Y-0.800
G0 X-5.500 Y-45.400
G1 F1800 X5.600 Y-45.400 E13.44213
G1 X5.600 Y45.600 E18.35669
G1 X-5.500 Y45.600 E18.95616
G1 X-5.500 Y-45.400 E23.87072
G0 F7500 X-5.400 Y-43.320
G0 X-5.563 Y-43.320
G1 F1800 X5.664 Y-43.319 E24.47704
G0 F7500 X5.500 Y-43.319
G0 X2.888 Y-45.300
G0 X2.888 Y-45.464
G1 F1800 X2.888 Y45.664 E29.39851
G0 F7500 X2.888 Y45.500
G0 X5.500 Y43.320
G0 X5.663 Y43.320
G1 F1800 X-5.564 Y43.319 E30.00484
G0 F7500 X-5.400 Y43.319
G0 X-2.888 Y45.500
G0 X-2.888 Y45.664
G1 F1800 X-2.888 Y-45.464 E34.92631
G0 F7500 X-2.888 Y-45.300
G0 X-5.400 Y-37.544
G0 X-5.563 Y-37.544
G1 F1800 X5.664 Y-37.543 E35.53264
G0 F7500 X5.500 Y-37.543
G0 X5.500 Y-31.767
G0 X5.664 Y-31.767
G1 F1800 X-5.563 Y-31.768 E36.13897
G0 F7500 X-5.400 Y-31.768
G0 X-5.400 Y-25.992
G0 X-5.563 Y-25.992
G1 F1800 X5.664 Y-25.991 E36.74529
G0 F7500 X5.500 Y-25.991
G0 X5.500 Y-20.215
G0 X5.664 Y-20.215
G1 F1800 X-5.563 Y-20.216 E37.35162
G0 F7500 X-5.400 Y-20.216
G0 X-5.400 Y-14.440
G0 X-5.563 Y-14.440
G1 F1800 X5.664 Y-14.439 E37.95795
G0 F7500 X5.500 Y-14.439
G0 X5.500 Y-8.663
G0 X5.664 Y-8.663
G1 F1800 X-5.563 Y-8.664 E38.56428
G0 F7500 X-5.400 Y-8.664
G0 X-5.400 Y-2.888
G0 X-5.563 Y-2.888
G1 F1800 X5.664 Y-2.887 E39.17060
G0 F7500 X5.500 Y-2.887
G0 X5.500 Y2.888
G0 X5.663 Y2.888
G1 F1800 X-5.564 Y2.887 E39.77693
G0 F7500 X-5.400 Y2.887
G0 X-5.400 Y8.663
G0 X-5.564 Y8.663
G1 F1800 X5.663 Y8.664 E40.38326
G0 F7500 X5.500 Y8.664
G0 X5.500 Y14.440
G0 X5.663 Y14.440
G1 F1800 X-5.564 Y14.439 E40.98958
G0 F7500 X-5.400 Y14.439
G0 X-5.400 Y20.215
G0 X-5.564 Y20.215
G1 F1800 X5.663 Y20.216 E41.59591
G0 F7500 X5.500 Y20.216
G0 X5.500 Y25.992
G0 X5.663 Y25.992
G1 F1800 X-5.564 Y25.991 E42.20224
G0 F7500 X-5.400 Y25.991
G0 X-5.400 Y31.767
G0 X-5.564 Y31.767
G1 F1800 X5.663 Y31.768 E42.80856
G0 F7500 X5.500 Y31.768
G0 X5.500 Y37.544
G0 X5.663 Y37.544
G1 F1800 X-5.564 Y37.543 E43.41489
;LAYER:1
M106 S63
G1 F2400 E42.41489
G0 F7500 X0.216 Y0.284 Z0.500
;TYPE:WALL-OUTER
G1 F2400 E43.41489
G1 F1980 X0.216 Y0.216 E43.41734
G1 X0.284 Y0.216 E43.41979
G1 X0.284 Y0.284 E43.42224
G1 X0.216 Y0.284 E43.42468
G0 F7500 X-0.700 Y1.200
;TYPE:SUPPORT
G1 F1920 X1.200 Y1.200 E43.49309
G1 X1.200 Y-0.700 E43.56150
G1 X-0.700 Y-0.700 E43.62991
G1 X-0.700 Y1.200 E43.69832
G0 F7500 X-0.800 Y1.190
G0 X-5.500 Y45.600
G1 F1920 X-5.500 Y-45.400 E46.97469
G1 X5.600 Y-45.400 E47.37433
G1 X5.600 Y45.600 E50.65071
G1 X-5.500 Y45.600 E51.05035
G0 F7500 X-5.400 Y43.319
G0 X-5.564 Y43.319
G1 F1920 X5.663 Y43.320 E51.45457
G0 F7500 X5.500 Y43.320
G0 X2.888 Y45.500
G0 X2.888 Y45.664
G1 F1920 X2.888 Y-45.464 E54.73555
G0 F7500 X2.888 Y-45.300
G0 X5.500 Y-43.319
G0 X5.664 Y-43.319
G1 F1920 X-5.563 Y-43.320 E55.13977
G0 F7500 X-5.400 Y-43.320
G0 X-2.888 Y-45.300
G0 X-2.888 Y-45.464
G1 F1920 X-2.888 Y45.664 E58.42075
G0 F7500 X-2.888 Y45.500
G0 X-5.400 Y37.543
G0 X-5.564 Y37.543
G1 F1920 X5.663 Y37.544 E58.82497
G0 F7500 X5.500 Y37.544
G0 X5.500 Y31.768
G0 X5.663 Y31.768
G1 F1920 X-5.564 Y31.767 E59.22919
G0 F7500 X-5.400 Y31.767
G0 X-5.400 Y25.991
G0 X-5.564 Y25.991
G1 F1920 X5.663 Y25.992 E59.63340
G0 F7500 X5.500 Y25.992
G0 X5.500 Y20.216
G0 X5.663 Y20.216
G1 F1920 X-5.564 Y20.215 E60.03762
G0 F7500 X-5.400 Y20.215
G0 X-5.400 Y14.439
G0 X-5.564 Y14.439
G1 F1920 X5.663 Y14.440 E60.44184
G0 F7500 X5.500 Y14.440
G0 X5.500 Y8.664
G0 X5.663 Y8.664
G1 F1920 X-5.564 Y8.663 E60.84606
G0 F7500 X-5.400 Y8.663
G0 X-5.400 Y2.887
G0 X-5.564 Y2.887
G1 F1920 X5.663 Y2.888 E61.25028
G0 F7500 X5.500 Y2.888
G0 X5.500 Y-2.887
G0 X5.664 Y-2.887
G1 F1920 X-5.563 Y-2.888 E61.65449
G0 F7500 X-5.400 Y-2.888
G0 X-5.400 Y-8.664
G0 X-5.563 Y-8.664
G1 F1920 X5.664 Y-8.663 E62.05871
G0 F7500 X5.500 Y-8.663
G0 X5.500 Y-14.439
G0 X5.664 Y-14.439
G1 F1920 X-5.563 Y-14.440 E62.46293
G0 F7500 X-5.400 Y-14.440
G0 X-5.400 Y-20.216
G0 X-5.563 Y-20.216
G1 F1920 X5.664 Y-20.215 E62.86715
G0 F7500 X5.500 Y-20.215
G0 X5.500 Y-25.991
G0 X5.664 Y-25.991
G1 F1920 X-5.563 Y-25.992 E63.27137
G0 F7500 X-5.400 Y-25.992
G0 X-5.400 Y-31.768
G0 X-5.563 Y-31.768
G1 F1920 X5.664 Y-31.767 E63.67558
G0 F7500 X5.500 Y-31.767
G0 X5.500 Y-37.543
G0 X5.664 Y-37.543
G1 F1920 X-5.563 Y-37.544 E64.07980
;LAYER:2
M106 S127
G1 F2400 E63.07980
G0 F7500 X0.216 Y0.216 Z0.700
;TYPE:WALL-OUTER
G1 F2400 E64.07980
G1 F2220 X0.284 Y0.216 E64.08225
G1 X0.284 Y0.284 E64.08470
G1 X0.216 Y0.284 E64.08715
G1 X0.216 Y0.216 E64.08960
G0 F7500 X-0.700 Y-0.700
;TYPE:SUPPORT
G1 F2100 X-0.700 Y1.200 E64.15800
G1 X1.200 Y1.200 E64.22641
G1 X1.200 Y-0.700 E64.29482
G1 X-0.700 Y-0.700 E64.36323
G0 F7500 X-0.690 Y-0.800
G0 X-5.500 Y-45.400
G1 F2100 X5.600 Y-45.400 E64.76287
G1 X5.600 Y45.600 E68.03924
G1 X-5.500 Y45.600 E68.43889
G1 X-5.500 Y-45.400 E71.71526
G0 F7500 X-5.400 Y-43.320
G0 X-5.563 Y-43.320
G1 F2100 X5.664 Y-43.319 E72.11948
G0 F7500 X5.500 Y-43.319
G0 X2.888 Y-45.300
G0 X2.888 Y-45.464
G1 F2100 X2.888 Y45.664 E75.40046
G0 F7500 X2.888 Y45.500
G0 X5.500 Y43.320
G0 X5.663 Y43.320
G1 F2100 X-5.564 Y43.319 E75.80468
G0 F7500 X-5.400 Y43.319
G0 X-2.888 Y45.500
G0 X-2.888 Y45.664
G1 F2100 X-2.888 Y-45.464 E79.08566
G0 F7500 X-2.888 Y-45.300
G0 X-5.400 Y-37.544
G0 X-5.563 Y-37.544
G1 F2100 X5.664 Y-37.543 E79.48988
G0 F7500 X5.500 Y-37.543
G0 X5.500 Y-31.767
G0 X5.664 Y-31.767
G1 F2100 X-5.563 Y-31.768 E79.89410
G0 F7500 X-5.400 Y-31.768
G0 X-5.400 Y-25.992
G0 X-5.563 Y-25.992
G1 F2100 X5.664 Y-25.991 E80.29832
G0 F7500 X5.500 Y-25.991
G0 X5.500 Y-20.215
G0 X5.664 Y-20.215
G1 F2100 X-5.563 Y-20.216 E80.70253
G0 F7500 X-5.400 Y-20.216
G0 X-5.400 Y-14.440
G0 X-5.563 Y-14.440
G1 F2100 X5.664 Y-14.439 E81.10675
G0 F7500 X5.500 Y-14.439
G0 X5.500 Y-8.663
G0 X5.664 Y-8.663
G1 F2100 X-5.563 Y-8.664 E81.51097
G0 F7500 X-5.400 Y-8.664
G0 X-5.400 Y-2.888
G0 X-5.563 Y-2.888
G1 F2100 X5.664 Y-2.887 E81.91519
G0 F7500 X5.500 Y-2.887
G0 X5.500 Y2.888
G0 X5.663 Y2.888
G1 F2100 X-5.564 Y2.887 E82.31941
G0 F7500 X-5.400 Y2.887
G0 X-5.400 Y8.663
G0 X-5.564 Y8.663
G1 F2100 X5.663 Y8.664 E82.72362
G0 F7500 X5.500 Y8.664
G0 X5.500 Y14.440
G0 X5.663 Y14.440
G1 F2100 X-5.564 Y14.439 E83.12784
G0 F7500 X-5.400 Y14.439
G0 X-5.400 Y20.215
G0 X-5.564 Y20.215
G1 F2100 X5.663 Y20.216 E83.53206
G0 F7500 X5.500 Y20.216
G0 X5.500 Y25.992
G0 X5.663 Y25.992
G1 F2100 X-5.564 Y25.991 E83.93628
G0 F7500 X-5.400 Y25.991
G0 X-5.400 Y31.767
G0 X-5.564 Y31.767
G1 F2100 X5.663 Y31.768 E84.34050
G0 F7500 X5.500 Y31.768
G0 X5.500 Y37.544
G0 X5.663 Y37.544
G1 F2100 X-5.564 Y37.543 E84.74471
;LAYER:3
G1 F2400 E83.74471
G0 F7500 X0.216 Y0.284 Z0.900
;TYPE:WALL-OUTER
G1 F2400 E84.74471
G1 X0.216 Y0.216 E84.74716
G1 X0.284 Y0.216 E84.74961
G1 X0.284 Y0.284 E84.75206
G1 X0.216 Y0.284 E84.75451
G0 F7500 X-0.700 Y1.200
;TYPE:SUPPORT
G1 F2220 X1.200 Y1.200 E84.82291
G1 X1.200 Y-0.700 E84.89132
G1 X-0.700 Y-0.700 E84.95973
G1 X-0.700 Y1.200 E85.02814
G0 F7500 X-0.800 Y1.190
G0 X-5.500 Y45.600
G1 F2220 X-5.500 Y-45.400 E88.30451
G1 X5.600 Y-45.400 E88.70416
G1 X5.600 Y45.600 E91.98053
G1 X-5.500 Y45.600 E92.38017
G0 F7500 X-5.400 Y43.319
G0 X-5.564 Y43.319
G1 F2220 X5.663 Y43.320 E92.78439
G0 F7500 X5.500 Y43.320
G0 X2.888 Y45.500
G0 X2.888 Y45.664
G1 F2220 X2.888 Y-45.464 E96.06537
G0 F7500 X2.888 Y-45.300
G0 X5.500 Y-43.319
G0 X5.664 Y-43.319
G1 F2220 X-5.563 Y-43.320 E96.46959
G0 F7500 X-5.400 Y-43.320
G0 X-2.888 Y-45.300
G0 X-2.888 Y-45.464
G1 F2220 X-2.888 Y45.664 E99.75057
G0 F7500 X-2.888 Y45.500
G0 X-5.400 Y37.543
G0 X-5.564 Y37.543
G1 F2220 X5.663 Y37.544 E100.15479
G0 F7500 X5.500 Y37.544
G0 X5.500 Y31.768
G0 X5.663 Y31.768
G1 F2220 X-5.564 Y31.767 E100.55901
G0 F7500 X-5.400 Y31.767
G0 X-5.400 Y25.991
G0 X-5.564 Y25.991
G1 F2220 X5.663 Y25.992 E100.96323
G0 F7500 X5.500 Y25.992
G0 X5.500 Y20.216
G0 X5.663 Y20.216
G1 F2220 X-5.564 Y20.215 E101.36744
G0 F7500 X-5.400 Y20.215
G0 X-5.400 Y14.439
G0 X-5.564 Y14.439
G1 F2220 X5.663 Y14.440 E101.77166
G0 F7500 X5.500 Y14.440
G0 X5.500 Y8.664
G0 X5.663 Y8.664
G1 F2220 X-5.564 Y8.663 E102.17588
G0 F7500 X-5.400 Y8.663
G0 X-5.400 Y2.887
G0 X-5.564 Y2.887
G1 F2220 X5.663 Y2.888 E102.58010
G0 F7500 X5.500 Y2.888
G0 X5.500 Y-2.887
G0 X5.664 Y-2.887
G1 F2220 X-5.563 Y-2.888 E102.98432
G0 F7500 X-5.400 Y-2.888
G0 X-5.400 Y-8.664
G0 X-5.563 Y-8.664
G1 F2220 X5.664 Y-8.663 E103.38853
G0 F7500 X5.500 Y-8.663
G0 X5.500 Y-14.439
G0 X5.664 Y-14.439
G1 F2220 X-5.563 Y-14.440 E103.79275
G0 F7500 X-5.400 Y-14.440
G0 X-5.400 Y-20.216
G0 X-5.563 Y-20.216
G1 F2220 X5.664 Y-20.215 E104.19697
G0 F7500 X5.500 Y-20.215
G0 X5.500 Y-25.991
G0 X5.664 Y-25.991
G1 F2220 X-5.563 Y-25.992 E104.60119
G0 F7500 X-5.400 Y-25.992
G0 X-5.400 Y-31.768
G0 X-5.563 Y-31.768
G1 F2220 X5.664 Y-31.767 E105.00541
G0 F7500 X5.500 Y-31.767
G0 X5.500 Y-37.543
G0 X5.664 Y-37.543
G1 F2220 X-5.563 Y-37.544 E105.40962
;LAYER:4
G1 F2400 E104.40962
G0 F7500 X0.216 Y0.216 Z1.100
;TYPE:WALL-OUTER
G1 F2400 E105.40962
G1 F2700 X0.284 Y0.216 E105.41207
G1 X0.284 Y0.284 E105.41452
G1 X0.216 Y0.284 E105.41697
G1 X0.216 Y0.216 E105.41942
G0 F7500 X-0.700 Y-0.700
;TYPE:SUPPORT
G1 F2400 X-0.700 Y1.200 E105.48783
G1 X1.200 Y1.200 E105.55623
G1 X1.200 Y-0.700 E105.62464
G1 X-0.700 Y-0.700 E105.69305
G0 F7500 X-0.690 Y-0.800
G0 X-5.500 Y-45.400
G1 F2400 X5.600 Y-45.400 E106.09269
G1 X5.600 Y45.600 E109.36907
G1 X-5.500 Y45.600 E109.76871
G1 X-5.500 Y-45.400 E113.04509
G0 F7500 X-5.400 Y-43.320
G0 X-5.563 Y-43.320
G1 F2400 X5.664 Y-43.319 E113.44930
G0 F7500 X5.500 Y-43.319
G0 X2.888 Y-45.300
G0 X2.888 Y-45.464
G1 F2400 X2.888 Y45.664 E116.73028
G0 F7500 X2.888 Y45.500
G0 X5.500 Y43.320
G0 X5.663 Y43.320
G1 F2400 X-5.564 Y43.319 E117.13450
G0 F7500 X-5.400 Y43.319
G0 X-2.888 Y45.500
G0 X-2.888 Y45.664
G1 F2400 X-2.888 Y-45.464 E120.41548
G0 F7500 X-2.888 Y-45.300
G0 X-5.400 Y-37.544
G0 X-5.563 Y-37.544
G1 F2400 X5.664 Y-37.543 E120.81970
G0 F7500 X5.500 Y-37.543
G0 X5.500 Y-31.767
G0 X5.664 Y-31.767
G1 F2400 X-5.563 Y-31.768 E121.22392
G0 F7500 X-5.400 Y-31.768
G0 X-5.400 Y-25.992
G0 X-5.563 Y-25.992
G1 F2400 X5.664 Y-25.991 E121.62814
G0 F7500 X5.500 Y-25.991
G0 X5.500 Y-20.215
G0 X5.664 Y-20.215
G1 F2400 X-5.563 Y-20.216 E122.03236
G0 F7500 X-5.400 Y-20.216
G0 X-5.400 Y-14.440
G0 X-5.563 Y-14.440
G1 F2400 X5.664 Y-14.439 E122.43657
G0 F7500 X5.500 Y-14.439
G0 X5.500 Y-8.663
G0 X5.664 Y-8.663
G1 F2400 X-5.563 Y-8.664 E122.84079
G0 F7500 X-5.400 Y-8.664
G0 X-5.400 Y-2.888
G0 X-5.563 Y-2.888
G1 F2400 X5.664 Y-2.887 E123.24501
G0 F7500 X5.500 Y-2.887
G0 X5.500 Y2.888
G0 X5.663 Y2.888
G1 F2400 X-5.564 Y2.887 E123.64923
G0 F7500 X-5.400 Y2.887
G0 X-5.400 Y8.663
G0 X-5.564 Y8.663
G1 F2400 X5.663 Y8.664 E124.05345
G0 F7500 X5.500 Y8.664
G0 X5.500 Y14.440
G0 X5.663 Y14.440
G1 F2400 X-5.564 Y14.439 E124.45766
G0 F7500 X-5.400 Y14.439
G0 X-5.400 Y20.215
G0 X-5.564 Y20.215
G1 F2400 X5.663 Y20.216 E124.86188
G0 F7500 X5.500 Y20.216
G0 X5.500 Y25.992
G0 X5.663 Y25.992
G1 F2400 X-5.564 Y25.991 E125.26610
G0 F7500 X-5.400 Y25.991
G0 X-5.400 Y31.767
G0 X-5.564 Y31.767
G1 F2400 X5.663 Y31.768 E125.67032
G0 F7500 X5.500 Y31.768
G0 X5.500 Y37.544
G0 X5.663 Y37.544
G1 F2400 X-5.564 Y37.543 E126.07454
;LAYER:5
G1 F2400 E125.07454
G0 F7500 X0.216 Y0.284 Z1.300
;TYPE:WALL-OUTER
G1 F2400 E126.07454
G1 F2700 X0.216 Y0.216 E126.07698
G1 X0.284 Y0.216 E126.07943
G1 X0.284 Y0.284 E126.08188
G1 X0.216 Y0.284 E126.08433
G0 F7500 X-0.700 Y1.200
;TYPE:SUPPORT
G1 F2400 X1.200 Y1.200 E126.15274
G1 X1.200 Y-0.700 E126.22114
G1 X-0.700 Y-0.700 E126.28955
G1 X-0.700 Y1.200 E126.35796
G0 F7500 X-0.800 Y1.190
G0 X-5.500 Y45.600
G1 F2400 X-5.500 Y-45.400 E129.63433
G1 X5.600 Y-45.400 E130.03398
G1 X5.600 Y45.600 E133.31035
G1 X-5.500 Y45.600 E133.71000
G0 F7500 X-5.400 Y43.319
G0 X-5.564 Y43.319
G1 F2400 X5.663 Y43.320 E134.11421
G0 F7500 X5.500 Y43.320
G0 X2.888 Y45.500
G0 X2.888 Y45.664
G1 F2400 X2.888 Y-45.464 E137.39520
G0 F7500 X2.888 Y-45.300
G0 X5.500 Y-43.319
G0 X5.664 Y-43.319
G1 F2400 X-5.563 Y-43.320 E137.79941
G0 F7500 X-5.400 Y-43.320
G0 X-2.888 Y-45.300
G0 X-2.888 Y-45.464
G1 F2400 X-2.888 Y45.664 E141.08039
G0 F7500 X-2.888 Y45.500
G0 X-5.400 Y37.543
G0 X-5.564 Y37.543
G1 F2400 X5.663 Y37.544 E141.48461
G0 F7500 X5.500 Y37.544
G0 X5.500 Y31.768
G0 X5.663 Y31.768
G1 F2400 X-5.564 Y31.767 E141.88883
G0 F7500 X-5.400 Y31.767
G0 X-5.400 Y25.991
G0 X-5.564 Y25.991
G1 F2400 X5.663 Y25.992 E142.29305
G0 F7500 X5.500 Y25.992
G0 X5.500 Y20.216
G0 X5.663 Y20.216
G1 F2400 X-5.564 Y20.215 E142.69727
G0 F7500 X-5.400 Y20.215
G0 X-5.400 Y14.439
G0 X-5.564 Y14.439
G1 F2400 X5.663 Y14.440 E143.10148
G0 F7500 X5.500 Y14.440
G0 X5.500 Y8.664
G0 X5.663 Y8.664
G1 F2400 X-5.564 Y8.663 E143.50570
G0 F7500 X-5.400 Y8.663
G0 X-5.400 Y2.887
G0 X-5.564 Y2.887
G1 F2400 X5.663 Y2.888 E143.90992
G0 F7500 X5.500 Y2.888
G0 X5.500 Y-2.887
G0 X5.664 Y-2.887
G1 F2400 X-5.563 Y-2.888 E144.31414
G0 F7500 X-5.400 Y-2.888
G0 X-5.400 Y-8.664
G0 X-5.563 Y-8.664
G1 F2400 X5.664 Y-8.663 E144.71836
G0 F7500 X5.500 Y-8.663
G0 X5.500 Y-14.439
G0 X5.664 Y-14.439
G1 F2400 X-5.563 Y-14.440 E145.12257
G0 F7500 X-5.400 Y-14.440
G0 X-5.400 Y-20.216
G0 X-5.563 Y-20.216
G1 F2400 X5.664 Y-20.215 E145.52679
G0 F7500 X5.500 Y-20.215
G0 X5.500 Y-25.991
G0 X5.664 Y-25.991
G1 F2400 X-5.563 Y-25.992 E145.93101
G0 F7500 X-5.400 Y-25.992
G0 X-5.400 Y-31.768
G0 X-5.563 Y-31.768
G1 F2400 X5.664 Y-31.767 E146.33523
G0 F7500 X5.500 Y-31.767
G0 X5.500 Y-37.543
G0 X5.664 Y-37.543
G1 F2400 X-5.563 Y-37.544 E146.73945
;LAYER:6
G1 F2400 E145.73945
G0 F7500 X0.216 Y0.216 Z1.500
;TYPE:WALL-OUTER
G1 F2400 E146.73945
G1 F2700 X0.284 Y0.216 E146.74189
G1 X0.284 Y0.284 E146.74434
G1 X0.216 Y0.284 E146.74679
G1 X0.216 Y0.216 E146.74924
G0 F7500 X-0.700 Y-0.700
;TYPE:SUPPORT
G1 F2400 X-0.700 Y1.200 E146.81765
G1 X1.200 Y1.200 E146.88606
G1 X1.200 Y-0.700 E146.95446
G1 X-0.700 Y-0.700 E147.02287
G0 F7500 X-0.690 Y-0.800
G0 X-5.500 Y-45.400
G1 F2400 X5.600 Y-45.400 E147.42252
G1 X5.600 Y45.600 E150.69889
G1 X-5.500 Y45.600 E151.09853
G1 X-5.500 Y-45.400 E154.37491
G0 F7500 X-5.400 Y-43.320
G0 X-5.563 Y-43.320
G1 F2400 X5.664 Y-43.319 E154.77913
G0 F7500 X5.500 Y-43.319
G0 X2.888 Y-45.300
G0 X2.888 Y-45.464
G1 F2400 X2.888 Y45.664 E158.06011
G0 F7500 X2.888 Y45.500
G0 X5.500 Y43.320
G0 X5.663 Y43.320
G1 F2400 X-5.564 Y43.319 E158.46432
G0 F7500 X-5.400 Y43.319
G0 X-2.888 Y45.500
G0 X-2.888 Y45.664
G1 F2400 X-2.888 Y-45.464 E161.74531
G0 F7500 X-2.888 Y-45.300
G0 X-5.400 Y-37.544
G0 X-5.563 Y-37.544
G1 F2400 X5.664 Y-37.543 E162.14952
G0 F7500 X5.500 Y-37.543
G0 X5.500 Y-31.767
G0 X5.664 Y-31.767
G1 F2400 X-5.563 Y-31.768 E162.55374
G0 F7500 X-5.400 Y-31.768
G0 X-5.400 Y-25.992
G0 X-5.563 Y-25.992
G1 F2400 X5.664 Y-25.991 E162.95796
G0 F7500 X5.500 Y-25.991
G0 X5.500 Y-20.215
G0 X5.664 Y-20.215
G1 F2400 X-5.563 Y-20.216 E163.36218
G0 F7500 X-5.400 Y-20.216
G0 X-5.400 Y-14.440
G0 X-5.563 Y-14.440
G1 F2400 X5.664 Y-14.439 E163.76640
G0 F7500 X5.500 Y-14.439
G0 X5.500 Y-8.663
G0 X5.664 Y-8.663
G1 F2400 X-5.563 Y-8.664 E164.17061
G0 F7500 X-5.400 Y-8.664
G0 X-5.400 Y-2.888
G0 X-5.563 Y-2.888
G1 F2400 X5.664 Y-2.887 E164.57483
G0 F7500 X5.500 Y-2.887
G0 X5.500 Y2.888
G0 X5.663 Y2.888
G1 F2400 X-5.564 Y2.887 E164.97905
G0 F7500 X-5.400 Y2.887
G0 X-5.400 Y8.663
G0 X-5.564 Y8.663
G1 F2400 X5.663 Y8.664 E165.38327
G0 F7500 X5.500 Y8.664
G0 X5.500 Y14.440
G0 X5.663 Y14.440
G1 F2400 X-5.564 Y14.439 E165.78749
G0 F7500 X-5.400 Y14.439
G0 X-5.400 Y20.215
G0 X-5.564 Y20.215
G1 F2400 X5.663 Y20.216 E166.19170
G0 F7500 X5.500 Y20.216
G0 X5.500 Y25.992
G0 X5.663 Y25.992
G1 F2400 X-5.564 Y25.991 E166.59592
G0 F7500 X-5.400 Y25.991
