;Generated with Cura_SteamEngine 15.04.6

;Layer count: 16
;LAYER:0
M107
G0 F7500 X-14.149 Y-9.049 Z0.300
;TYPE:SKIRT
G1 F1800 X14.249 Y-9.049 E1.53367
G1 X14.249 Y9.249 E2.52187
G1 X-14.149 Y9.249 E4.05554
G1 X-14.149 Y-9.049 E5.04374
G0 F7500 X-13.716 Y-8.616
G1 F1800 X13.816 Y-8.616 E6.53064
G1 X13.816 Y8.816 E7.47207
G1 X-13.716 Y8.816 E8.95897
G1 X-13.716 Y-8.616 E9.90041
G1 F2400 E8.90041
G0 F7500 X0.216 Y0.216
;TYPE:WALL-OUTER
G1 F2400 E9.90041
G1 F1800 X0.284 Y0.216 E9.90408
G1 X0.284 Y0.284 E9.90775
G1 X0.216 Y0.284 E9.91142
G1 X0.216 Y0.216 E9.91510
G0 F7500 X-0.700 Y-0.700
;TYPE:SUPPORT
G1 F1800 X-0.700 Y1.200 E10.01771
G1 X1.200 Y1.200 E10.12032
G1 X1.200 Y-0.700 E10.22293
G1 X-0.700 Y-0.700 E10.32554
G0 F7500 X-0.690 Y-0.800
G0 X-10.500 Y-5.400
G1 F1800 X10.600 Y-5.400 E11.46507
G1 X10.600 Y5.600 E12.05914
G1 X-10.500 Y5.600 E13.19867
G1 X-10.500 Y-5.400 E13.79274
G0 F7500 X-8.664 Y-5.300
G0 X-8.664 Y-5.464
G1 F1800 X-8.664 Y5.664 E14.39372
G0 F7500 X-8.664 Y5.500
G0 X-10.400 Y2.887
G0 X-10.564 Y2.887
G1 F1800 X10.663 Y2.888 E15.54011
G0 F7500 X10.500 Y2.888
G0 X8.664 Y5.500
G0 X8.664 Y5.664
G1 F1800 X8.664 Y-5.464 E16.14109
G0 F7500 X8.664 Y-5.300
G0 X10.500 Y-2.887
G0 X10.664 Y-2.887
G1 F1800 X-10.563 Y-2.888 E17.28747
G0 F7500 X-10.400 Y-2.888
G0 X-2.888 Y-5.300
G0 X-2.888 Y-5.464
G1 F1800 X-2.888 Y5.664 E17.88846
G0 F7500 X-2.888 Y5.500
G0 X2.888 Y5.500
G0 X2.888 Y5.664
G1 F1800 X2.888 Y-5.464 E18.48944
;LAYER:1
M106 S63
G1 F2400 E17.48944
G0 F7500 X0.284 Y0.216 Z0.500
;TYPE:WALL-OUTER
G1 F2400 E18.48944
G1 F1980 X0.284 Y0.284 E18.49188
G1 X0.216 Y0.284 E18.49433
G1 X0.216 Y0.216 E18.49678
G1 X0.284 Y0.216 E18.49923
G0 F7500 X1.200 Y-0.700
;TYPE:SUPPORT
G1 F1920 X-0.700 Y-0.700 E18.56764
G1 X-0.700 Y1.200 E18.63604
G1 X1.200 Y1.200 E18.70445
G1 X1.200 Y-0.700 E18.77286
G0 F7500 X10.600 Y-5.400
G1 F1920 X10.600 Y5.600 E19.16890
G1 X-10.500 Y5.600 E19.92859
G1 X-10.500 Y-5.400 E20.32464
G1 X10.600 Y-5.400 E21.08432
G0 F7500 X8.664 Y-5.300
G0 X8.664 Y-5.464
G1 F1920 X8.664 Y5.664 E21.48498
G0 F7500 X8.664 Y5.500
G0 X10.500 Y2.888
G0 X10.663 Y2.888
G1 F1920 X-10.564 Y2.887 E22.24924
G0 F7500 X-10.400 Y2.887
G0 X-8.664 Y5.500
G0 X-8.664 Y5.664
G1 F1920 X-8.664 Y-5.464 E22.64989
G0 F7500 X-8.664 Y-5.300
G0 X-10.400 Y-2.888
G0 X-10.563 Y-2.888
G1 F1920 X10.664 Y-2.887 E23.41415
G0 F7500 X10.500 Y-2.887
G0 X2.888 Y-5.300
G0 X2.888 Y-5.464
G1 F1920 X2.888 Y5.664 E23.81480
G0 F7500 X2.888 Y5.500
G0 X-2.888 Y5.500
G0 X-2.888 Y5.664
G1 F1920 X-2.888 Y-5.464 E24.21545
;LAYER:2
M106 S135
G1 F2400 E23.21545
G0 F7500 X0.216 Y0.216 Z0.700
;TYPE:WALL-OUTER
G1 F2400 E24.21545
G1 F2100 X0.284 Y0.216 E24.21790
G1 X0.284 Y0.284 E24.22035
G1 X0.216 Y0.284 E24.22280
G1 X0.216 Y0.216 E24.22525
G0 F7500 X-0.700 Y-0.700
;TYPE:SUPPORT
G1 F1980 X-0.700 Y1.200 E24.29366
G1 X1.200 Y1.200 E24.36206
G1 X1.200 Y-0.700 E24.43047
G1 X-0.700 Y-0.700 E24.49888
G0 F7500 X-0.690 Y-0.800
G0 X-10.500 Y-5.400
G1 F1980 X10.600 Y-5.400 E25.25857
G1 X10.600 Y5.600 E25.65461
G1 X-10.500 Y5.600 E26.41430
G1 X-10.500 Y-5.400 E26.81034
G0 F7500 X-8.664 Y-5.300
G0 X-8.664 Y-5.464
G1 F1980 X-8.664 Y5.664 E27.21100
G0 F7500 X-8.664 Y5.500
G0 X-10.400 Y2.887
G0 X-10.564 Y2.887
G1 F1980 X10.663 Y2.888 E27.97525
G0 F7500 X10.500 Y2.888
G0 X8.664 Y5.500
G0 X8.664 Y5.664
G1 F1980 X8.664 Y-5.464 E28.37591
G0 F7500 X8.664 Y-5.300
G0 X10.500 Y-2.887
G0 X10.664 Y-2.887
G1 F1980 X-10.563 Y-2.888 E29.14017
G0 F7500 X-10.400 Y-2.888
G0 X-2.888 Y-5.300
G0 X-2.888 Y-5.464
G1 F1980 X-2.888 Y5.664 E29.54082
G0 F7500 X-2.888 Y5.500
G0 X2.888 Y5.500
G0 X2.888 Y5.664
G1 F1980 X2.888 Y-5.464 E29.94147
;LAYER:3
M106 S147
G1 F2400 E28.94147
G0 F7500 X0.284 Y0.216 Z0.900
;TYPE:WALL-OUTER
G1 F2400 E29.94147
G1 F2160 X0.284 Y0.284 E29.94392
G1 X0.216 Y0.284 E29.94637
G1 X0.216 Y0.216 E29.94882
G1 X0.284 Y0.216 E29.95127
G0 F7500 X1.200 Y-0.700
;TYPE:SUPPORT
G1 F2040 X-0.700 Y-0.700 E30.01968
G1 X-0.700 Y1.200 E30.08808
G1 X1.200 Y1.200 E30.15649
G1 X1.200 Y-0.700 E30.22490
G0 F7500 X10.600 Y-5.400
G1 F2040 X10.600 Y5.600 E30.62094
G1 X-10.500 Y5.600 E31.38063
G1 X-10.500 Y-5.400 E31.77668
G1 X10.600 Y-5.400 E32.53636
G0 F7500 X8.664 Y-5.300
G0 X8.664 Y-5.464
G1 F2040 X8.664 Y5.664 E32.93702
G0 F7500 X8.664 Y5.500
G0 X10.500 Y2.888
G0 X10.663 Y2.888
G1 F2040 X-10.564 Y2.887 E33.70127
G0 F7500 X-10.400 Y2.887
G0 X-8.664 Y5.500
G0 X-8.664 Y5.664
G1 F2040 X-8.664 Y-5.464 E34.10193
G0 F7500 X-8.664 Y-5.300
G0 X-10.400 Y-2.888
G0 X-10.563 Y-2.888
G1 F2040 X10.664 Y-2.887 E34.86619
G0 F7500 X10.500 Y-2.887
G0 X2.888 Y-5.300
G0 X2.888 Y-5.464
G1 F2040 X2.888 Y5.664 E35.26684
G0 F7500 X2.888 Y5.500
G0 X-2.888 Y5.500
G0 X-2.888 Y5.664
G1 F2040 X-2.888 Y-5.464 E35.66749
;LAYER:4
M106 S165
G1 F2400 E34.66749
G0 F7500 X0.216 Y0.216 Z1.100
;TYPE:WALL-OUTER
G1 F2400 E35.66749
G1 F2280 X0.284 Y0.216 E35.66994
G1 X0.284 Y0.284 E35.67239
G1 X0.216 Y0.284 E35.67484
G1 X0.216 Y0.216 E35.67729
G0 F7500 X-0.700 Y-0.700
;TYPE:SUPPORT
G1 F2040 X-0.700 Y1.200 E35.74569
G1 X1.200 Y1.200 E35.81410
G1 X1.200 Y-0.700 E35.88251
G1 X-0.700 Y-0.700 E35.95092
G0 F7500 X-0.690 Y-0.800
G0 X-10.500 Y-5.400
G1 F2040 X10.600 Y-5.400 E36.71060
G1 X10.600 Y5.600 E37.10665
G1 X-10.500 Y5.600 E37.86634
G1 X-10.500 Y-5.400 E38.26238
G0 F7500 X-8.664 Y-5.300
G0 X-8.664 Y-5.464
G1 F2040 X-8.664 Y5.664 E38.66303
G0 F7500 X-8.664 Y5.500
G0 X-10.400 Y2.887
G0 X-10.564 Y2.887
G1 F2040 X10.663 Y2.888 E39.42729
G0 F7500 X10.500 Y2.888
G0 X8.664 Y5.500
G0 X8.664 Y5.664
G1 F2040 X8.664 Y-5.464 E39.82795
G0 F7500 X8.664 Y-5.300
G0 X10.500 Y-2.887
G0 X10.664 Y-2.887
G1 F2040 X-10.563 Y-2.888 E40.59221
G0 F7500 X-10.400 Y-2.888
G0 X-2.888 Y-5.300
G0 X-2.888 Y-5.464
G1 F2040 X-2.888 Y5.664 E40.99286
G0 F7500 X-2.888 Y5.500
G0 X2.888 Y5.500
G0 X2.888 Y5.664
G1 F2040 X2.888 Y-5.464 E41.39351
;LAYER:5
G1 F2400 E40.39351
G0 F7500 X0.284 Y0.216 Z1.300
;TYPE:WALL-OUTER
G1 F2400 E41.39351
G1 F2280 X0.284 Y0.284 E41.39596
G1 X0.216 Y0.284 E41.39841
G1 X0.216 Y0.216 E41.40086
G1 X0.284 Y0.216 E41.40331
G0 F7500 X1.200 Y-0.700
;TYPE:SUPPORT
G1 F2040 X-0.700 Y-0.700 E41.47171
G1 X-0.700 Y1.200 E41.54012
G1 X1.200 Y1.200 E41.60853
G1 X1.200 Y-0.700 E41.67694
G0 F7500 X10.600 Y-5.400
G1 F2040 X10.600 Y5.600 E42.07298
G1 X-10.500 Y5.600 E42.83267
G1 X-10.500 Y-5.400 E43.22871
G1 X10.600 Y-5.400 E43.98840
G0 F7500 X8.664 Y-5.300
G0 X8.664 Y-5.464
G1 F2040 X8.664 Y5.664 E44.38905
G0 F7500 X8.664 Y5.500
G0 X10.500 Y2.888
G0 X10.663 Y2.888
G1 F2040 X-10.564 Y2.887 E45.15331
G0 F7500 X-10.400 Y2.887
G0 X-8.664 Y5.500
G0 X-8.664 Y5.664
G1 F2040 X-8.664 Y-5.464 E45.55397
G0 F7500 X-8.664 Y-5.300
G0 X-10.400 Y-2.888
G0 X-10.563 Y-2.888
G1 F2040 X10.664 Y-2.887 E46.31823
G0 F7500 X10.500 Y-2.887
G0 X2.888 Y-5.300
G0 X2.888 Y-5.464
G1 F2040 X2.888 Y5.664 E46.71888
G0 F7500 X2.888 Y5.500
G0 X-2.888 Y5.500
G0 X-2.888 Y5.664
G1 F2040 X-2.888 Y-5.464 E47.11953
;LAYER:6
G1 F2400 E46.11953
G0 F7500 X0.216 Y0.216 Z1.500
;TYPE:WALL-OUTER
G1 F2400 E47.11953
G1 F2280 X0.284 Y0.216 E47.12198
G1 X0.284 Y0.284 E47.12443
G1 X0.216 Y0.284 E47.12688
G1 X0.216 Y0.216 E47.12933
G0 F7500 X-0.700 Y-0.700
;TYPE:SUPPORT
G1 F2040 X-0.700 Y1.200 E47.19773
G1 X1.200 Y1.200 E47.26614
G1 X1.200 Y-0.700 E47.33455
G1 X-0.700 Y-0.700 E47.40296
G0 F7500 X-0.690 Y-0.800
G0 X-10.500 Y-5.400
G1 F2040 X10.600 Y-5.400 E48.16264
G1 X10.600 Y5.600 E48.55869
G1 X-10.500 Y5.600 E49.31837
G1 X-10.500 Y-5.400 E49.71442
G0 F7500 X-8.664 Y-5.300
G0 X-8.664 Y-5.464
G1 F2040 X-8.664 Y5.664 E50.11507
G0 F7500 X-8.664 Y5.500
G0 X-10.400 Y2.887
G0 X-10.564 Y2.887
G1 F2040 X10.663 Y2.888 E50.87933
G0 F7500 X10.500 Y2.888
G0 X8.664 Y5.500
G0 X8.664 Y5.664
G1 F2040 X8.664 Y-5.464 E51.27999
G0 F7500 X8.664 Y-5.300
G0 X10.500 Y-2.887
G0 X10.664 Y-2.887
G1 F2040 X-10.563 Y-2.888 E52.04425
G0 F7500 X-10.400 Y-2.888
G0 X-2.888 Y-5.300
G0 X-2.888 Y-5.464
G1 F2040 X-2.888 Y5.664 E52.44490
G0 F7500 X-2.888 Y5.500
G0 X2.888 Y5.500
G0 X2.888 Y5.664
G1 F2040 X2.888 Y-5.464 E52.84555
;LAYER:7
G1 F2400 E51.84555
G0 F7500 X0.284 Y0.216 Z1.700
;TYPE:WALL-OUTER
G1 F2400 E52.84555
G1 F2280 X0.284 Y0.284 E52.84800
G1 X0.216 Y0.284 E52.85045
G1 X0.216 Y0.216 E52.85290
G1 X0.284 Y0.216 E52.85535
G0 F7500 X1.200 Y-0.700
;TYPE:SUPPORT
G1 F2040 X-0.700 Y-0.700 E52.92375
G1 X-0.700 Y1.200 E52.99216
G1 X1.200 Y1.200 E53.06057
G1 X1.200 Y-0.700 E53.12898
G0 F7500 X10.600 Y-5.400
G1 F2040 X10.600 Y5.600 E53.52502
G1 X-10.500 Y5.600 E54.28471
G1 X-10.500 Y-5.400 E54.68075
G1 X10.600 Y-5.400 E55.44044
G0 F7500 X8.664 Y-5.300
G0 X8.664 Y-5.464
G1 F2040 X8.664 Y5.664 E55.84109
G0 F7500 X8.664 Y5.500
G0 X10.500 Y2.888
G0 X10.663 Y2.888
G1 F2040 X-10.564 Y2.887 E56.60535
G0 F7500 X-10.400 Y2.887
G0 X-8.664 Y5.500
G0 X-8.664 Y5.664
G1 F2040 X-8.664 Y-5.464 E57.00601
G0 F7500 X-8.664 Y-5.300
G0 X-10.400 Y-2.888
G0 X-10.563 Y-2.888
G1 F2040 X10.664 Y-2.887 E57.77026
G0 F7500 X10.500 Y-2.887
G0 X2.888 Y-5.300
G0 X2.888 Y-5.464
G1 F2040 X2.888 Y5.664 E58.17092
G0 F7500 X2.888 Y5.500
G0 X-2.888 Y5.500
G0 X-2.888 Y5.664
G1 F2040 X-2.888 Y-5.464 E58.57157
;LAYER:8
G1 F2400 E57.57157
G0 F7500 X0.216 Y0.216 Z1.900
;TYPE:WALL-OUTER
G1 F2400 E58.57157
G1 F2280 X0.284 Y0.216 E58.57402
G1 X0.284 Y0.284 E58.57647
G1 X0.216 Y0.284 E58.57892
G1 X0.216 Y0.216 E58.58136
G0 F7500 X-0.700 Y-0.700
;TYPE:SUPPORT
G1 F2040 X-0.700 Y1.200 E58.64977
G1 X1.200 Y1.200 E58.71818
G1 X1.200 Y-0.700 E58.78659
G1 X-0.700 Y-0.700 E58.85500
G0 F7500 X-0.690 Y-0.800
G0 X-10.500 Y-5.400
G1 F2040 X10.600 Y-5.400 E59.61468
G1 X10.600 Y5.600 E60.01073
G1 X-10.500 Y5.600 E60.77041
G1 X-10.500 Y-5.400 E61.16646
G0 F7500 X-8.664 Y-5.300
G0 X-8.664 Y-5.464
G1 F2040 X-8.664 Y5.664 E61.56711
G0 F7500 X-8.664 Y5.500
G0 X-10.400 Y2.887
G0 X-10.564 Y2.887
G1 F2040 X10.663 Y2.888 E62.33137
G0 F7500 X10.500 Y2.888
G0 X8.664 Y5.500
G0 X8.664 Y5.664
G1 F2040 X8.664 Y-5.464 E62.73203
G0 F7500 X8.664 Y-5.300
G0 X10.500 Y-2.887
G0 X10.664 Y-2.887
G1 F2040 X-10.563 Y-2.888 E63.49628
G0 F7500 X-10.400 Y-2.888
G0 X-2.888 Y-5.300
G0 X-2.888 Y-5.464
G1 F2040 X-2.888 Y5.664 E63.89694
G0 F7500 X-2.888 Y5.500
G0 X2.888 Y5.500
G0 X2.888 Y5.664
G1 F2040 X2.888 Y-5.464 E64.29759
;LAYER:9
G1 F2400 E63.29759
G0 F7500 X0.284 Y0.216 Z2.100
;TYPE:WALL-OUTER
G1 F2400 E64.29759
G1 F2280 X0.284 Y0.284 E64.30004
G1 X0.216 Y0.284 E64.30249
G1 X0.216 Y0.216 E64.30494
G1 X0.284 Y0.216 E64.30738
G0 F7500 X1.200 Y-0.700
;TYPE:SUPPORT
G1 F2040 X-0.700 Y-0.700 E64.37579
G1 X-0.700 Y1.200 E64.44420
G1 X1.200 Y1.200 E64.51261
G1 X1.200 Y-0.700 E64.58102
G0 F7500 X10.600 Y-5.400
G1 F2040 X10.600 Y5.600 E64.97706
G1 X-10.500 Y5.600 E65.73675
G1 X-10.500 Y-5.400 E66.13279
G1 X10.600 Y-5.400 E66.89248
G0 F7500 X8.664 Y-5.300
G0 X8.664 Y-5.464
G1 F2040 X8.664 Y5.664 E67.29313
G0 F7500 X8.664 Y5.500
G0 X10.500 Y2.888
G0 X10.663 Y2.888
G1 F2040 X-10.564 Y2.887 E68.05739
G0 F7500 X-10.400 Y2.887
G0 X-8.664 Y5.500
G0 X-8.664 Y5.664
G1 F2040 X-8.664 Y-5.464 E68.45804
G0 F7500 X-8.664 Y-5.300
G0 X-10.400 Y-2.888
G0 X-10.563 Y-2.888
G1 F2040 X10.664 Y-2.887 E69.22230
G0 F7500 X10.500 Y-2.887
G0 X2.888 Y-5.300
G0 X2.888 Y-5.464
G1 F2040 X2.888 Y5.664 E69.62296
G0 F7500 X2.888 Y5.500
G0 X-2.888 Y5.500
G0 X-2.888 Y5.664
G1 F2040 X-2.888 Y-5.464 E70.02361
;LAYER:10
G1 F2400 E69.02361
G0 F7500 X0.216 Y0.216 Z2.300
;TYPE:WALL-OUTER
G1 F2400 E70.02361
G1 F2280 X0.284 Y0.216 E70.02606
G1 X0.284 Y0.284 E70.02851
G1 X0.216 Y0.284 E70.03096
G1 X0.216 Y0.216 E70.03340
G0 F7500 X-0.700 Y-0.700
;TYPE:SUPPORT
G1 F2040 X-0.700 Y1.200 E70.10181
G1 X1.200 Y1.200 E70.17022
G1 X1.200 Y-0.700 E70.23863
G1 X-0.700 Y-0.700 E70.30703
G0 F7500 X-0.690 Y-0.800
G0 X-10.500 Y-5.400
G1 F2040 X10.600 Y-5.400 E71.06672
G1 X10.600 Y5.600 E71.46277
G1 X-10.500 Y5.600 E72.22245
G1 X-10.500 Y-5.400 E72.61850
G0 F7500 X-8.664 Y-5.300
G0 X-8.664 Y-5.464
G1 F2040 X-8.664 Y5.664 E73.01915
G0 F7500 X-8.664 Y5.500
G0 X-10.400 Y2.887
G0 X-10.564 Y2.887
G1 F2040 X10.663 Y2.888 E73.78341
G0 F7500 X10.500 Y2.888
G0 X8.664 Y5.500
G0 X8.664 Y5.664
G1 F2040 X8.664 Y-5.464 E74.18406
G0 F7500 X8.664 Y-5.300
G0 X10.500 Y-2.887
G0 X10.664 Y-2.887
G1 F2040 X-10.563 Y-2.888 E74.94832
G0 F7500 X-10.400 Y-2.888
G0 X-2.888 Y-5.300
G0 X-2.888 Y-5.464
G1 F2040 X-2.888 Y5.664 E75.34898
G0 F7500 X-2.888 Y5.500
G0 X2.888 Y5.500
G0 X2.888 Y5.664
G1 F2040 X2.888 Y-5.464 E75.74963
;LAYER:11
G1 F2400 E74.74963
G0 F7500 X0.284 Y0.216 Z2.500
;TYPE:WALL-OUTER
G1 F2400 E75.74963
G1 F2280 X0.284 Y0.284 E75.75208
G1 X0.216 Y0.284 E75.75453
G1 X0.216 Y0.216 E75.75697
G1 X0.284 Y0.216 E75.75942
G0 F7500 X1.200 Y-0.700
;TYPE:SUPPORT
G1 F2040 X-0.700 Y-0.700 E75.82783
G1 X-0.700 Y1.200 E75.89624
G1 X1.200 Y1.200 E75.96465
G1 X1.200 Y-0.700 E76.03305
G0 F7500 X10.600 Y-5.400
G1 F2040 X10.600 Y5.600 E76.42910
G1 X-10.500 Y5.600 E77.18879
G1 X-10.500 Y-5.400 E77.58483
G1 X10.600 Y-5.400 E78.34452
G0 F7500 X8.664 Y-5.300
G0 X8.664 Y-5.464
G1 F2040 X8.664 Y5.664 E78.74517
G0 F7500 X8.664 Y5.500
G0 X10.500 Y2.888
G0 X10.663 Y2.888
G1 F2040 X-10.564 Y2.887 E79.50943
G0 F7500 X-10.400 Y2.887
G0 X-8.664 Y5.500
G0 X-8.664 Y5.664
G1 F2040 X-8.664 Y-5.464 E79.91008
G0 F7500 X-8.664 Y-5.300
G0 X-10.400 Y-2.888
G0 X-10.563 Y-2.888
G1 F2040 X10.664 Y-2.887 E80.67434
G0 F7500 X10.500 Y-2.887
G0 X2.888 Y-5.300
G0 X2.888 Y-5.464
G1 F2040 X2.888 Y5.664 E81.07500
G0 F7500 X2.888 Y5.500
G0 X-2.888 Y5.500
G0 X-2.888 Y5.664
G1 F2040 X-2.888 Y-5.464 E81.47565
;LAYER:12
M106 S255
G1 F2400 E80.47565
G0 F7500 X0.216 Y0.216 Z2.700
;TYPE:WALL-OUTER
G1 F2400 E81.47565
G1 F540 X0.284 Y0.216 E81.47810
G1 X0.284 Y0.284 E81.48055
G1 X0.216 Y0.284 E81.48299
G1 X0.216 Y0.216 E81.48544
;LAYER:13
M106 S127
G0 F7500 X8.918 Y3.918 Z2.900
;TYPE:WALL-INNER
G1 F3600 X-8.918 Y3.918 E82.12761
G1 X-8.918 Y-3.918 E82.40974
G1 X8.918 Y-3.918 E83.05191
G1 X8.918 Y3.918 E83.33404
G0 F7500 X9.351 Y4.351
G1 F3600 X-9.351 Y4.351 E84.00739
G1 X-9.351 Y-4.351 E84.32069
G1 X9.351 Y-4.351 E84.99404
G1 X9.351 Y4.351 E85.30735
G0 F7500 X9.784 Y4.784
;TYPE:WALL-OUTER
G1 F2700 X-9.784 Y4.784 E86.01188
G1 X-9.784 Y-4.784 E86.35636
G1 X9.784 Y-4.784 E87.06089
G1 X9.784 Y4.784 E87.40538
G0 F7500 X9.467 Y4.557
G0 X8.765 Y3.176
;TYPE:SKIN
G1 F2700 X8.175 Y3.766 E87.43542
G0 F7500 X7.563 Y3.766
G1 F2700 X8.765 Y2.563 E87.49665
G0 F7500 X8.765 Y1.951
G1 F2700 X6.950 Y3.766 E87.58906
G0 F7500 X6.338 Y3.766
G1 F2700 X8.765 Y1.339 E87.71264
G0 F7500 X8.765 Y0.726
G1 F2700 X5.726 Y3.766 E87.86741
G0 F7500 X5.113 Y3.766
G1 F2700 X8.765 Y0.114 E88.05336
G0 F7500 X8.765 Y-0.497
G1 F2700 X4.501 Y3.766 E88.27044
G0 F7500 X3.889 Y3.766
G1 F2700 X8.765 Y-1.110 E88.51872
G0 F7500 X8.765 Y-1.722
G1 F2700 X3.276 Y3.766 E88.79818
G0 F7500 X2.664 Y3.766
G1 F2700 X8.765 Y-2.334 E89.10880
G0 F7500 X8.765 Y-2.947
G1 F2700 X2.052 Y3.766 E89.45061
G0 F7500 X1.439 Y3.766
G1 F2700 X8.765 Y-3.559 E89.82360
G0 F7500 X8.359 Y-3.766
G1 F2700 X0.827 Y3.766 E90.20711
G0 F7500 X0.214 Y3.766
G1 F2700 X7.747 Y-3.766 E90.59065
G0 F7500 X7.134 Y-3.766
G1 F2700 X-0.397 Y3.766 E90.97414
G0 F7500 X-1.009 Y3.766
G1 F2700 X6.522 Y-3.766 E91.35762
G0 F7500 X5.909 Y-3.766
G1 F2700 X-1.622 Y3.766 E91.74111
G0 F7500 X-2.234 Y3.766
G1 F2700 X5.297 Y-3.766 E92.12459
G0 F7500 X4.685 Y-3.766
G1 F2700 X-2.846 Y3.766 E92.50808
G0 F7500 X-3.459 Y3.766
G1 F2700 X4.072 Y-3.766 E92.89156
G0 F7500 X3.460 Y-3.766
G1 F2700 X-4.071 Y3.766 E93.27505
G0 F7500 X-4.683 Y3.766
G1 F2700 X2.848 Y-3.766 E93.65853
G0 F7500 X2.235 Y-3.766
G1 F2700 X-5.296 Y3.766 E94.04202
G0 F7500 X-5.908 Y3.766
G1 F2700 X1.623 Y-3.766 E94.42550
G0 F7500 X1.011 Y-3.766
G1 F2700 X-6.520 Y3.766 E94.80899
G0 F7500 X-7.133 Y3.766
G1 F2700 X0.398 Y-3.766 E95.19247
G0 F7500 X-0.213 Y-3.766
G1 F2700 X-7.745 Y3.766 E95.57598
G0 F7500 X-8.358 Y3.766
G1 F2700 X-0.825 Y-3.766 E95.95952
G0 F7500 X-1.438 Y-3.766
G1 F2700 X-8.765 Y3.560 E96.33256
G0 F7500 X-8.765 Y2.948
G1 F2700 X-2.050 Y-3.766 E96.67445
G0 F7500 X-2.662 Y-3.766
G1 F2700 X-8.765 Y2.336 E96.98517
G0 F7500 X-8.765 Y1.723
G1 F2700 X-3.275 Y-3.766 E97.26468
G0 F7500 X-3.887 Y-3.766
G1 F2700 X-8.765 Y1.111 E97.51303
G0 F7500 X-8.765 Y0.499
G1 F2700 X-4.500 Y-3.766 E97.73020
