;Generated with Cura_SteamEngine 15.04.6

;Layer count: 16
;LAYER:0
M107
G0 F7500 X-13.716 Y-53.616 Z0.300
;TYPE:SKIRT
G1 F1800 X13.816 Y-53.616 E1.48690
G1 X13.816 Y53.816 E7.28889
G1 X-13.716 Y53.816 E8.77578
G1 X-13.716 Y-53.616 E14.57777
G1 F2400 E13.57777
G0 F7500 X0.216 Y0.216
;TYPE:WALL-OUTER
G1 F2400 E14.57777
G1 F1800 X0.284 Y0.216 E14.58144
G1 X0.284 Y0.284 E14.58512
G1 X0.216 Y0.284 E14.58879
G1 X0.216 Y0.216 E14.59246
G0 F7500 X-0.700 Y-0.700
;TYPE:SUPPORT
G1 F1800 X-0.700 Y1.200 E14.69507
G1 X1.200 Y1.200 E14.79768
G1 X1.200 Y-0.700 E14.90030
G1 X-0.700 Y-0.700 E15.00291
G0 F7500 X-0.690 Y-0.800
G0 X-10.500 Y-50.400
G1 F1800 X10.600 Y-50.400 E16.14244
G1 X10.600 Y50.600 E21.59706
G1 X-10.500 Y50.600 E22.73659
G1 X-10.500 Y-50.400 E28.19121
G0 F7500 X-10.563 Y-49.096
G1 F1800 X10.664 Y-49.095 E29.33760
G0 F7500 X10.500 Y-49.095
G0 X8.664 Y-50.300
G0 X8.664 Y-50.464
G1 F1800 X8.664 Y50.664 E34.79913
G0 F7500 X8.664 Y50.500
G0 X10.500 Y49.096
G0 X10.663 Y49.096
G1 F1800 X-10.564 Y49.095 E35.94552
G0 F7500 X-10.400 Y49.095
G0 X-8.664 Y50.500
G0 X-8.664 Y50.664
G1 F1800 X-8.664 Y-50.464 E41.40705
G0 F7500 X-8.664 Y-50.300
G0 X-2.888 Y-50.300
G0 X-2.888 Y-50.464
G1 F1800 X-2.888 Y50.664 E46.86858
G0 F7500 X-2.888 Y50.500
G0 X2.888 Y50.500
G0 X2.888 Y50.664
G1 F1800 X2.888 Y-50.464 E52.33012
G0 F7500 X2.888 Y-50.300
G0 X10.500 Y-43.319
G0 X10.664 Y-43.319
G1 F1800 X-10.563 Y-43.320 E53.47651
G0 F7500 X-10.400 Y-43.320
G0 X-10.400 Y-37.544
G0 X-10.563 Y-37.544
G1 F1800 X10.664 Y-37.543 E54.62289
G0 F7500 X10.500 Y-37.543
G0 X10.500 Y-31.767
G0 X10.664 Y-31.767
G1 F1800 X-10.563 Y-31.768 E55.76928
G0 F7500 X-10.400 Y-31.768
G0 X-10.400 Y-25.992
G0 X-10.563 Y-25.992
G1 F1800 X10.664 Y-25.991 E56.91567
G0 F7500 X10.500 Y-25.991
G0 X10.500 Y-20.215
G0 X10.664 Y-20.215
G1 F1800 X-10.563 Y-20.216 E58.06206
G0 F7500 X-10.400 Y-20.216
G0 X-10.400 Y-14.440
G0 X-10.563 Y-14.440
G1 F1800 X10.664 Y-14.439 E59.20845
G0 F7500 X10.500 Y-14.439
G0 X10.500 Y-8.663
G0 X10.664 Y-8.663
G1 F1800 X-10.563 Y-8.664 E60.35484
G0 F7500 X-10.400 Y-8.664
G0 X-10.400 Y-2.888
G0 X-10.563 Y-2.888
G1 F1800 X10.664 Y-2.887 E61.50123
G0 F7500 X10.500 Y-2.887
G0 X10.500 Y2.888
G0 X10.663 Y2.888
G1 F1800 X-10.564 Y2.887 E62.64761
G0 F7500 X-10.400 Y2.887
G0 X-10.400 Y8.663
G0 X-10.564 Y8.663
G1 F1800 X10.663 Y8.664 E63.79400
G0 F7500 X10.500 Y8.664
G0 X10.500 Y14.440
G0 X10.663 Y14.440
G1 F1800 X-10.564 Y14.439 E64.94039
G0 F7500 X-10.400 Y14.439
G0 X-10.400 Y20.215
G0 X-10.564 Y20.215
G1 F1800 X10.663 Y20.216 E66.08678
G0 F7500 X10.500 Y20.216
G0 X10.500 Y25.992
G0 X10.663 Y25.992
G1 F1800 X-10.564 Y25.991 E67.23317
G0 F7500 X-10.400 Y25.991
G0 X-10.400 Y31.767
G0 X-10.564 Y31.767
G1 F1800 X10.663 Y31.768 E68.37956
G0 F7500 X10.500 Y31.768
G0 X10.500 Y37.544
G0 X10.663 Y37.544
G1 F1800 X-10.564 Y37.543 E69.52594
G0 F7500 X-10.400 Y37.543
G0 X-10.400 Y43.319
G0 X-10.564 Y43.319
G1 F1800 X10.663 Y43.320 E70.67233
;LAYER:1
M106 S63
G1 F2400 E69.67233
G0 F7500 X0.284 Y0.284 Z0.500
;TYPE:WALL-OUTER
G1 F2400 E70.67233
G1 F1980 X0.216 Y0.284 E70.67478
G1 X0.216 Y0.216 E70.67723
G1 X0.284 Y0.216 E70.67968
G1 X0.284 Y0.284 E70.68213
G0 F7500 X1.200 Y1.200
;TYPE:SUPPORT
G1 F1920 X1.200 Y-0.700 E70.75053
G1 X-0.700 Y-0.700 E70.81894
G1 X-0.700 Y1.200 E70.88735
G1 X1.200 Y1.200 E70.95576
G0 F7500 X1.190 Y1.300
G0 X10.500 Y50.590
G0 X10.600 Y50.600
G1 F1920 X-10.500 Y50.600 E71.71544
G1 X-10.500 Y-50.400 E75.35186
G1 X10.600 Y-50.400 E76.11154
G1 X10.600 Y50.600 E79.74796
G0 F7500 X10.500 Y50.590
G0 X10.500 Y49.096
G0 X10.663 Y49.096
G1 F1920 X-10.564 Y49.095 E80.51222
G0 F7500 X-10.400 Y49.095
G0 X-8.664 Y50.500
G0 X-8.664 Y50.664
G1 F1920 X-8.664 Y-50.464 E84.15324
G0 F7500 X-8.664 Y-50.300
G0 X-10.400 Y-49.096
G0 X-10.563 Y-49.096
G1 F1920 X10.664 Y-49.095 E84.91750
G0 F7500 X10.500 Y-49.095
G0 X8.664 Y-50.300
G0 X8.664 Y-50.464
G1 F1920 X8.664 Y50.664 E88.55852
G0 F7500 X8.664 Y50.500
G0 X2.888 Y50.500
G0 X2.888 Y50.664
G1 F1920 X2.888 Y-50.464 E92.19954
G0 F7500 X2.888 Y-50.300
G0 X-2.888 Y-50.300
G0 X-2.888 Y-50.464
G1 F1920 X-2.888 Y50.664 E95.84056
G0 F7500 X-2.888 Y50.500
G0 X-10.400 Y43.319
G0 X-10.564 Y43.319
G1 F1920 X10.663 Y43.320 E96.60482
G0 F7500 X10.500 Y43.320
G0 X10.500 Y37.544
G0 X10.663 Y37.544
G1 F1920 X-10.564 Y37.543 E97.36908
G0 F7500 X-10.400 Y37.543
G0 X-10.400 Y31.767
G0 X-10.564 Y31.767
G1 F1920 X10.663 Y31.768 E98.13334
G0 F7500 X10.500 Y31.768
G0 X10.500 Y25.992
G0 X10.663 Y25.992
G1 F1920 X-10.564 Y25.991 E98.89760
G0 F7500 X-10.400 Y25.991
G0 X-10.400 Y20.215
G0 X-10.564 Y20.215
G1 F1920 X10.663 Y20.216 E99.66186
G0 F7500 X10.500 Y20.216
G0 X10.500 Y14.440
G0 X10.663 Y14.440
G1 F1920 X-10.564 Y14.439 E100.42612
G0 F7500 X-10.400 Y14.439
G0 X-10.400 Y8.663
G0 X-10.564 Y8.663
G1 F1920 X10.663 Y8.664 E101.19038
G0 F7500 X10.500 Y8.664
G0 X10.500 Y2.888
G0 X10.663 Y2.888
G1 F1920 X-10.564 Y2.887 E101.95464
G0 F7500 X-10.400 Y2.887
G0 X-10.400 Y-2.888
G0 X-10.563 Y-2.888
G1 F1920 X10.664 Y-2.887 E102.71889
G0 F7500 X10.500 Y-2.887
G0 X10.500 Y-8.663
G0 X10.664 Y-8.663
G1 F1920 X-10.563 Y-8.664 E103.48315
G0 F7500 X-10.400 Y-8.664
G0 X-10.400 Y-14.440
G0 X-10.563 Y-14.440
G1 F1920 X10.664 Y-14.439 E104.24741
G0 F7500 X10.500 Y-14.439
G0 X10.500 Y-20.215
G0 X10.664 Y-20.215
G1 F1920 X-10.563 Y-20.216 E105.01167
G0 F7500 X-10.400 Y-20.216
G0 X-10.400 Y-25.992
G0 X-10.563 Y-25.992
G1 F1920 X10.664 Y-25.991 E105.77593
G0 F7500 X10.500 Y-25.991
G0 X10.500 Y-31.767
G0 X10.664 Y-31.767
G1 F1920 X-10.563 Y-31.768 E106.54019
G0 F7500 X-10.400 Y-31.768
G0 X-10.400 Y-37.544
G0 X-10.563 Y-37.544
G1 F1920 X10.664 Y-37.543 E107.30445
G0 F7500 X10.500 Y-37.543
G0 X10.500 Y-43.319
G0 X10.664 Y-43.319
G1 F1920 X-10.563 Y-43.320 E108.06871
;LAYER:2
M106 S127
G1 F2400 E107.06871
G0 F7500 X0.216 Y0.216 Z0.700
;TYPE:WALL-OUTER
G1 F2400 E108.06871
G1 F2220 X0.284 Y0.216 E108.07116
G1 X0.284 Y0.284 E108.07360
G1 X0.216 Y0.284 E108.07605
G1 X0.216 Y0.216 E108.07850
G0 F7500 X-0.700 Y-0.700
;TYPE:SUPPORT
G1 F2100 X-0.700 Y1.200 E108.14691
G1 X1.200 Y1.200 E108.21532
G1 X1.200 Y-0.700 E108.28372
G1 X-0.700 Y-0.700 E108.35213
G0 F7500 X-0.690 Y-0.800
G0 X-10.500 Y-50.400
G1 F2100 X10.600 Y-50.400 E109.11182
G1 X10.600 Y50.600 E112.74823
G1 X-10.500 Y50.600 E113.50792
G1 X-10.500 Y-50.400 E117.14433
G0 F7500 X-10.563 Y-49.096
G1 F2100 X10.664 Y-49.095 E117.90859
G0 F7500 X10.500 Y-49.095
G0 X8.664 Y-50.300
G0 X8.664 Y-50.464
G1 F2100 X8.664 Y50.664 E121.54961
G0 F7500 X8.664 Y50.500
G0 X10.500 Y49.096
G0 X10.663 Y49.096
G1 F2100 X-10.564 Y49.095 E122.31387
G0 F7500 X-10.400 Y49.095
G0 X-8.664 Y50.500
G0 X-8.664 Y50.664
G1 F2100 X-8.664 Y-50.464 E125.95489
G0 F7500 X-8.664 Y-50.300
G0 X-2.888 Y-50.300
G0 X-2.888 Y-50.464
G1 F2100 X-2.888 Y50.664 E129.59592
G0 F7500 X-2.888 Y50.500
G0 X2.888 Y50.500
G0 X2.888 Y50.664
G1 F2100 X2.888 Y-50.464 E133.23694
G0 F7500 X2.888 Y-50.300
G0 X10.500 Y-43.319
G0 X10.664 Y-43.319
G1 F2100 X-10.563 Y-43.320 E134.00120
G0 F7500 X-10.400 Y-43.320
G0 X-10.400 Y-37.544
G0 X-10.563 Y-37.544
G1 F2100 X10.664 Y-37.543 E134.76546
G0 F7500 X10.500 Y-37.543
G0 X10.500 Y-31.767
G0 X10.664 Y-31.767
G1 F2100 X-10.563 Y-31.768 E135.52972
G0 F7500 X-10.400 Y-31.768
G0 X-10.400 Y-25.992
G0 X-10.563 Y-25.992
G1 F2100 X10.664 Y-25.991 E136.29397
G0 F7500 X10.500 Y-25.991
G0 X10.500 Y-20.215
G0 X10.664 Y-20.215
G1 F2100 X-10.563 Y-20.216 E137.05823
G0 F7500 X-10.400 Y-20.216
G0 X-10.400 Y-14.440
G0 X-10.563 Y-14.440
G1 F2100 X10.664 Y-14.439 E137.82249
G0 F7500 X10.500 Y-14.439
G0 X10.500 Y-8.663
G0 X10.664 Y-8.663
G1 F2100 X-10.563 Y-8.664 E138.58675
G0 F7500 X-10.400 Y-8.664
G0 X-10.400 Y-2.888
G0 X-10.563 Y-2.888
G1 F2100 X10.664 Y-2.887 E139.35101
G0 F7500 X10.500 Y-2.887
G0 X10.500 Y2.888
G0 X10.663 Y2.888
G1 F2100 X-10.564 Y2.887 E140.11527
G0 F7500 X-10.400 Y2.887
G0 X-10.400 Y8.663
G0 X-10.564 Y8.663
G1 F2100 X10.663 Y8.664 E140.87953
G0 F7500 X10.500 Y8.664
G0 X10.500 Y14.440
G0 X10.663 Y14.440
G1 F2100 X-10.564 Y14.439 E141.64379
G0 F7500 X-10.400 Y14.439
G0 X-10.400 Y20.215
G0 X-10.564 Y20.215
G1 F2100 X10.663 Y20.216 E142.40805
G0 F7500 X10.500 Y20.216
G0 X10.500 Y25.992
G0 X10.663 Y25.992
G1 F2100 X-10.564 Y25.991 E143.17230
G0 F7500 X-10.400 Y25.991
G0 X-10.400 Y31.767
G0 X-10.564 Y31.767
G1 F2100 X10.663 Y31.768 E143.93656
G0 F7500 X10.500 Y31.768
G0 X10.500 Y37.544
G0 X10.663 Y37.544
G1 F2100 X-10.564 Y37.543 E144.70082
G0 F7500 X-10.400 Y37.543
G0 X-10.400 Y43.319
G0 X-10.564 Y43.319
G1 F2100 X10.663 Y43.320 E145.46508
;LAYER:3
G1 F2400 E144.46508
G0 F7500 X0.284 Y0.284 Z0.900
;TYPE:WALL-OUTER
G1 F2400 E145.46508
G1 X0.216 Y0.284 E145.46753
G1 X0.216 Y0.216 E145.46998
G1 X0.284 Y0.216 E145.47243
G1 X0.284 Y0.284 E145.47487
G0 F7500 X1.200 Y1.200
;TYPE:SUPPORT
G1 F2220 X1.200 Y-0.700 E145.54328
G1 X-0.700 Y-0.700 E145.61169
G1 X-0.700 Y1.200 E145.68010
G1 X1.200 Y1.200 E145.74851
G0 F7500 X1.190 Y1.300
G0 X10.500 Y50.590
G0 X10.600 Y50.600
G1 F2220 X-10.500 Y50.600 E146.50819
G1 X-10.500 Y-50.400 E150.14461
G1 X10.600 Y-50.400 E150.90429
G1 X10.600 Y50.600 E154.54071
G0 F7500 X10.500 Y50.590
G0 X10.500 Y49.096
G0 X10.663 Y49.096
G1 F2220 X-10.564 Y49.095 E155.30497
G0 F7500 X-10.400 Y49.095
G0 X-8.664 Y50.500
G0 X-8.664 Y50.664
G1 F2220 X-8.664 Y-50.464 E158.94599
G0 F7500 X-8.664 Y-50.300
G0 X-10.400 Y-49.096
G0 X-10.563 Y-49.096
G1 F2220 X10.664 Y-49.095 E159.71025
G0 F7500 X10.500 Y-49.095
G0 X8.664 Y-50.300
G0 X8.664 Y-50.464
G1 F2220 X8.664 Y50.664 E163.35127
G0 F7500 X8.664 Y50.500
G0 X2.888 Y50.500
G0 X2.888 Y50.664
G1 F2220 X2.888 Y-50.464 E166.99229
G0 F7500 X2.888 Y-50.300
G0 X-2.888 Y-50.300
G0 X-2.888 Y-50.464
G1 F2220 X-2.888 Y50.664 E170.63331
G0 F7500 X-2.888 Y50.500
G0 X-10.400 Y43.319
G0 X-10.564 Y43.319
G1 F2220 X10.663 Y43.320 E171.39757
G0 F7500 X10.500 Y43.320
G0 X10.500 Y37.544
G0 X10.663 Y37.544
G1 F2220 X-10.564 Y37.543 E172.16183
G0 F7500 X-10.400 Y37.543
G0 X-10.400 Y31.767
G0 X-10.564 Y31.767
G1 F2220 X10.663 Y31.768 E172.92609
G0 F7500 X10.500 Y31.768
G0 X10.500 Y25.992
G0 X10.663 Y25.992
G1 F2220 X-10.564 Y25.991 E173.69035
G0 F7500 X-10.400 Y25.991
G0 X-10.400 Y20.215
G0 X-10.564 Y20.215
G1 F2220 X10.663 Y20.216 E174.45461
G0 F7500 X10.500 Y20.216
G0 X10.500 Y14.440
G0 X10.663 Y14.440
G1 F2220 X-10.564 Y14.439 E175.21887
G0 F7500 X-10.400 Y14.439
G0 X-10.400 Y8.663
G0 X-10.564 Y8.663
G1 F2220 X10.663 Y8.664 E175.98313
G0 F7500 X10.500 Y8.664
G0 X10.500 Y2.888
G0 X10.663 Y2.888
G1 F2220 X-10.564 Y2.887 E176.74738
G0 F7500 X-10.400 Y2.887
G0 X-10.400 Y-2.888
G0 X-10.563 Y-2.888
G1 F2220 X10.664 Y-2.887 E177.51164
G0 F7500 X10.500 Y-2.887
G0 X10.500 Y-8.663
G0 X10.664 Y-8.663
G1 F2220 X-10.563 Y-8.664 E178.27590
G0 F7500 X-10.400 Y-8.664
G0 X-10.400 Y-14.440
G0 X-10.563 Y-14.440
G1 F2220 X10.664 Y-14.439 E179.04016
G0 F7500 X10.500 Y-14.439
G0 X10.500 Y-20.215
G0 X10.664 Y-20.215
G1 F2220 X-10.563 Y-20.216 E179.80442
G0 F7500 X-10.400 Y-20.216
G0 X-10.400 Y-25.992
G0 X-10.563 Y-25.992
G1 F2220 X10.664 Y-25.991 E180.56868
G0 F7500 X10.500 Y-25.991
G0 X10.500 Y-31.767
G0 X10.664 Y-31.767
G1 F2220 X-10.563 Y-31.768 E181.33294
G0 F7500 X-10.400 Y-31.768
G0 X-10.400 Y-37.544
G0 X-10.563 Y-37.544
G1 F2220 X10.664 Y-37.543 E182.09720
G0 F7500 X10.500 Y-37.543
G0 X10.500 Y-43.319
G0 X10.664 Y-43.319
G1 F2220 X-10.563 Y-43.320 E182.86146
;LAYER:4
G1 F2400 E181.86146
G0 F7500 X0.216 Y0.216 Z1.100
;TYPE:WALL-OUTER
G1 F2400 E182.86146
G1 F2700 X0.284 Y0.216 E182.86390
G1 X0.284 Y0.284 E182.86635
G1 X0.216 Y0.284 E182.86880
G1 X0.216 Y0.216 E182.87125
G0 F7500 X-0.700 Y-0.700
;TYPE:SUPPORT
G1 F2400 X-0.700 Y1.200 E182.93966
G1 X1.200 Y1.200 E183.00806
G1 X1.200 Y-0.700 E183.07647
G1 X-0.700 Y-0.700 E183.14488
G0 F7500 X-0.690 Y-0.800
G0 X-10.500 Y-50.400
G1 F2400 X10.600 Y-50.400 E183.90457
G1 X10.600 Y50.600 E187.54098
G1 X-10.500 Y50.600 E188.30067
G1 X-10.500 Y-50.400 E191.93708
G0 F7500 X-10.563 Y-49.096
G1 F2400 X10.664 Y-49.095 E192.70134
G0 F7500 X10.500 Y-49.095
G0 X8.664 Y-50.300
G0 X8.664 Y-50.464
G1 F2400 X8.664 Y50.664 E196.34236
G0 F7500 X8.664 Y50.500
G0 X10.500 Y49.096
G0 X10.663 Y49.096
G1 F2400 X-10.564 Y49.095 E197.10662
G0 F7500 X-10.400 Y49.095
G0 X-8.664 Y50.500
G0 X-8.664 Y50.664
G1 F2400 X-8.664 Y-50.464 E200.74764
G0 F7500 X-8.664 Y-50.300
G0 X-2.888 Y-50.300
G0 X-2.888 Y-50.464
G1 F2400 X-2.888 Y50.664 E204.38867
G0 F7500 X-2.888 Y50.500
G0 X2.888 Y50.500
G0 X2.888 Y50.664
G1 F2400 X2.888 Y-50.464 E208.02969
G0 F7500 X2.888 Y-50.300
G0 X10.500 Y-43.319
G0 X10.664 Y-43.319
G1 F2400 X-10.563 Y-43.320 E208.79395
G0 F7500 X-10.400 Y-43.320
G0 X-10.400 Y-37.544
G0 X-10.563 Y-37.544
G1 F2400 X10.664 Y-37.543 E209.55821
G0 F7500 X10.500 Y-37.543
G0 X10.500 Y-31.767
G0 X10.664 Y-31.767
G1 F2400 X-10.563 Y-31.768 E210.32246
G0 F7500 X-10.400 Y-31.768
G0 X-10.400 Y-25.992
G0 X-10.563 Y-25.992
G1 F2400 X10.664 Y-25.991 E211.08672
G0 F7500 X10.500 Y-25.991
G0 X10.500 Y-20.215
G0 X10.664 Y-20.215
G1 F2400 X-10.563 Y-20.216 E211.85098
G0 F7500 X-10.400 Y-20.216
G0 X-10.400 Y-14.440
G0 X-10.563 Y-14.440
G1 F2400 X10.664 Y-14.439 E212.61524
G0 F7500 X10.500 Y-14.439
G0 X10.500 Y-8.663
G0 X10.664 Y-8.663
G1 F2400 X-10.563 Y-8.664 E213.37950
G0 F7500 X-10.400 Y-8.664
G0 X-10.400 Y-2.888
G0 X-10.563 Y-2.888
G1 F2400 X10.664 Y-2.887 E214.14376
G0 F7500 X10.500 Y-2.887
G0 X10.500 Y2.888
G0 X10.663 Y2.888
G1 F2400 X-10.564 Y2.887 E214.90802
G0 F7500 X-10.400 Y2.887
G0 X-10.400 Y8.663
G0 X-10.564 Y8.663
G1 F2400 X10.663 Y8.664 E215.67228
G0 F7500 X10.500 Y8.664
G0 X10.500 Y14.440
G0 X10.663 Y14.440
G1 F2400 X-10.564 Y14.439 E216.43654
G0 F7500 X-10.400 Y14.439
G0 X-10.400 Y20.215
G0 X-10.564 Y20.215
G1 F2400 X10.663 Y20.216 E217.20080
G0 F7500 X10.500 Y20.216
G0 X10.500 Y25.992
G0 X10.663 Y25.992
G1 F2400 X-10.564 Y25.991 E217.96505
G0 F7500 X-10.400 Y25.991
G0 X-10.400 Y31.767
G0 X-10.564 Y31.767
G1 F2400 X10.663 Y31.768 E218.72931
G0 F7500 X10.500 Y31.768
G0 X10.500 Y37.544
G0 X10.663 Y37.544
G1 F2400 X-10.564 Y37.543 E219.49357
G0 F7500 X-10.400 Y37.543
G0 X-10.400 Y43.319
G0 X-10.564 Y43.319
G1 F2400 X10.663 Y43.320 E220.25783
;LAYER:5
G1 F2400 E219.25783
G0 F7500 X0.284 Y0.284 Z1.300
;TYPE:WALL-OUTER
G1 F2400 E220.25783
G1 F2700 X0.216 Y0.284 E220.26028
G1 X0.216 Y0.216 E220.26273
G1 X0.284 Y0.216 E220.26518
G1 X0.284 Y0.284 E220.26762
G0 F7500 X1.200 Y1.200
;TYPE:SUPPORT
G1 F2400 X1.200 Y-0.700 E220.33603
G1 X-0.700 Y-0.700 E220.40444
G1 X-0.700 Y1.200 E220.47285
G1 X1.200 Y1.200 E220.54126
G0 F7500 X1.190 Y1.300
G0 X10.500 Y50.590
G0 X10.600 Y50.600
G1 F2400 X-10.500 Y50.600 E221.30094
G1 X-10.500 Y-50.400 E224.93736
G1 X10.600 Y-50.400 E225.69704
G1 X10.600 Y50.600 E229.33346
G0 F7500 X10.500 Y50.590
G0 X10.500 Y49.096
G0 X10.663 Y49.096
G1 F2400 X-10.564 Y49.095 E230.09771
G0 F7500 X-10.400 Y49.095
G0 X-8.664 Y50.500
G0 X-8.664 Y50.664
G1 F2400 X-8.664 Y-50.464 E233.73874
G0 F7500 X-8.664 Y-50.300
G0 X-10.400 Y-49.096
G0 X-10.563 Y-49.096
G1 F2400 X10.664 Y-49.095 E234.50300
G0 F7500 X10.500 Y-49.095
G0 X8.664 Y-50.300
G0 X8.664 Y-50.464
G1 F2400 X8.664 Y50.664 E238.14402
G0 F7500 X8.664 Y50.500
G0 X2.888 Y50.500
G0 X2.888 Y50.664
G1 F2400 X2.888 Y-50.464 E241.78504
G0 F7500 X2.888 Y-50.300
G0 X-2.888 Y-50.300
G0 X-2.888 Y-50.464
G1 F2400 X-2.888 Y50.664 E245.42606
G0 F7500 X-2.888 Y50.500
G0 X-10.400 Y43.319
G0 X-10.564 Y43.319
G1 F2400 X10.663 Y43.320 E246.19032
G0 F7500 X10.500 Y43.320
G0 X10.500 Y37.544
G0 X10.663 Y37.544
G1 F2400 X-10.564 Y37.543 E246.95458
G0 F7500 X-10.400 Y37.543
G0 X-10.400 Y31.767
G0 X-10.564 Y31.767
G1 F2400 X10.663 Y31.768 E247.71884
G0 F7500 X10.500 Y31.768
G0 X10.500 Y25.992
G0 X10.663 Y25.992
G1 F2400 X-10.564 Y25.991 E248.48310
G0 F7500 X-10.400 Y25.991
G0 X-10.400 Y20.215
G0 X-10.564 Y20.215
G1 F2400 X10.663 Y20.216 E249.24736
G0 F7500 X10.500 Y20.216
G0 X10.500 Y14.440
G0 X10.663 Y14.440
G1 F2400 X-10.564 Y14.439 E250.01162
G0 F7500 X-10.400 Y14.439
G0 X-10.400 Y8.663
G0 X-10.564 Y8.663
G1 F2400 X10.663 Y8.664 E250.77587
G0 F7500 X10.500 Y8.664
G0 X10.500 Y2.888
G0 X10.663 Y2.888
G1 F2400 X-10.564 Y2.887 E251.54013
G0 F7500 X-10.400 Y2.887
