;Generated with Cura_SteamEngine 15.04.6

;Layer count: 16
;LAYER:0
M107
G0 F7500 X-14.149 Y-14.049 Z0.300
;TYPE:SKIRT
G1 F1800 X14.249 Y-14.049 E1.53367
G1 X14.249 Y14.249 E3.06193
G1 X-14.149 Y14.249 E4.59560
G1 X-14.149 Y-14.049 E6.12386
G0 F7500 X-13.716 Y-13.616
G1 F1800 X13.816 Y-13.616 E7.61076
G1 X13.816 Y13.816 E9.09226
G1 X-13.716 Y13.816 E10.57916
G1 X-13.716 Y-13.616 E12.06065
G1 F2400 E11.06065
G0 F7500 X0.216 Y0.216
;TYPE:WALL-OUTER
G1 F2400 E12.06065
G1 F1800 X0.284 Y0.216 E12.06432
G1 X0.284 Y0.284 E12.06800
G1 X0.216 Y0.284 E12.07167
G1 X0.216 Y0.216 E12.07534
G0 F7500 X-0.700 Y-0.700
;TYPE:SUPPORT
G1 F1800 X-0.700 Y1.200 E12.17795
G1 X1.200 Y1.200 E12.28057
G1 X1.200 Y-0.700 E12.38318
G1 X-0.700 Y-0.700 E12.48579
G0 F7500 X-0.690 Y-0.800
G0 X-10.500 Y-10.400
G1 F1800 X10.600 Y-10.400 E13.62532
G1 X10.600 Y10.600 E14.75945
G1 X-10.500 Y10.600 E15.89898
G1 X-10.500 Y-10.400 E17.03311
G0 F7500 X-10.400 Y-8.664
G0 X-10.563 Y-8.664
G1 F1800 X10.664 Y-8.663 E18.17949
G0 F7500 X10.500 Y-8.663
G0 X8.664 Y-10.300
G0 X8.664 Y-10.464
G1 F1800 X8.664 Y10.664 E19.32054
G0 F7500 X8.664 Y10.500
G0 X10.500 Y8.664
G0 X10.663 Y8.664
G1 F1800 X-10.564 Y8.663 E20.46692
G0 F7500 X-10.400 Y8.663
G0 X-8.664 Y10.500
G0 X-8.664 Y10.664
G1 F1800 X-8.664 Y-10.464 E21.60797
G0 F7500 X-8.664 Y-10.300
G0 X-2.888 Y-10.300
G0 X-2.888 Y-10.464
G1 F1800 X-2.888 Y10.664 E22.74901
G0 F7500 X-2.888 Y10.500
G0 X2.888 Y10.500
G0 X2.888 Y10.664
G1 F1800 X2.888 Y-10.464 E23.89005
G0 F7500 X2.888 Y-10.300
G0 X10.500 Y-2.887
G0 X10.664 Y-2.887
G1 F1800 X-10.563 Y-2.888 E25.03644
G0 F7500 X-10.400 Y-2.888
G0 X-10.400 Y2.887
G0 X-10.564 Y2.887
G1 F1800 X10.663 Y2.888 E26.18283
;LAYER:1
M106 S63
G1 F2400 E25.18283
G0 F7500 X0.284 Y0.284 Z0.500
;TYPE:WALL-OUTER
G1 F2400 E26.18283
G1 F1980 X0.216 Y0.284 E26.18528
G1 X0.216 Y0.216 E26.18772
G1 X0.284 Y0.216 E26.19017
G1 X0.284 Y0.284 E26.19262
G0 F7500 X1.200 Y1.200
;TYPE:SUPPORT
G1 F1920 X1.200 Y-0.700 E26.26103
G1 X-0.700 Y-0.700 E26.32944
G1 X-0.700 Y1.200 E26.39784
G1 X1.200 Y1.200 E26.46625
G0 F7500 X1.190 Y1.300
G0 X10.500 Y10.590
G0 X10.600 Y10.600
G1 F1920 X-10.500 Y10.600 E27.22594
G1 X-10.500 Y-10.400 E27.98202
G1 X10.600 Y-10.400 E28.74171
G1 X10.600 Y10.600 E29.49780
G0 F7500 X10.500 Y10.590
G0 X10.500 Y8.664
G0 X10.663 Y8.664
G1 F1920 X-10.564 Y8.663 E30.26205
G0 F7500 X-10.400 Y8.663
G0 X-8.664 Y10.500
G0 X-8.664 Y10.664
G1 F1920 X-8.664 Y-10.464 E31.02275
G0 F7500 X-8.664 Y-10.300
G0 X-10.400 Y-8.664
G0 X-10.563 Y-8.664
G1 F1920 X10.664 Y-8.663 E31.78701
G0 F7500 X10.500 Y-8.663
G0 X8.664 Y-10.300
G0 X8.664 Y-10.464
G1 F1920 X8.664 Y10.664 E32.54770
G0 F7500 X8.664 Y10.500
G0 X2.888 Y10.500
G0 X2.888 Y10.664
G1 F1920 X2.888 Y-10.464 E33.30840
G0 F7500 X2.888 Y-10.300
G0 X-2.888 Y-10.300
G0 X-2.888 Y-10.464
G1 F1920 X-2.888 Y10.664 E34.06909
G0 F7500 X-2.888 Y10.500
G0 X-10.400 Y2.887
G0 X-10.564 Y2.887
G1 F1920 X10.663 Y2.888 E34.83335
G0 F7500 X10.500 Y2.888
G0 X10.500 Y-2.887
G0 X10.664 Y-2.887
G1 F1920 X-10.563 Y-2.888 E35.59761
;LAYER:2
M106 S127
G1 F2400 E34.59761
G0 F7500 X0.216 Y0.216 Z0.700
;TYPE:WALL-OUTER
G1 F2400 E35.59761
G1 F2220 X0.284 Y0.216 E35.60006
G1 X0.284 Y0.284 E35.60251
G1 X0.216 Y0.284 E35.60495
G1 X0.216 Y0.216 E35.60740
G0 F7500 X-0.700 Y-0.700
;TYPE:SUPPORT
G1 F2100 X-0.700 Y1.200 E35.67581
G1 X1.200 Y1.200 E35.74422
G1 X1.200 Y-0.700 E35.81263
G1 X-0.700 Y-0.700 E35.88103
G0 F7500 X-0.690 Y-0.800
G0 X-10.500 Y-10.400
G1 F2100 X10.600 Y-10.400 E36.64072
G1 X10.600 Y10.600 E37.39681
G1 X-10.500 Y10.600 E38.15649
G1 X-10.500 Y-10.400 E38.91258
G0 F7500 X-10.400 Y-8.664
G0 X-10.563 Y-8.664
G1 F2100 X10.664 Y-8.663 E39.67684
G0 F7500 X10.500 Y-8.663
G0 X8.664 Y-10.300
G0 X8.664 Y-10.464
G1 F2100 X8.664 Y10.664 E40.43753
G0 F7500 X8.664 Y10.500
G0 X10.500 Y8.664
G0 X10.663 Y8.664
G1 F2100 X-10.564 Y8.663 E41.20179
G0 F7500 X-10.400 Y8.663
G0 X-8.664 Y10.500
G0 X-8.664 Y10.664
G1 F2100 X-8.664 Y-10.464 E41.96249
G0 F7500 X-8.664 Y-10.300
G0 X-2.888 Y-10.300
G0 X-2.888 Y-10.464
G1 F2100 X-2.888 Y10.664 E42.72318
G0 F7500 X-2.888 Y10.500
G0 X2.888 Y10.500
G0 X2.888 Y10.664
G1 F2100 X2.888 Y-10.464 E43.48388
G0 F7500 X2.888 Y-10.300
G0 X10.500 Y-2.887
G0 X10.664 Y-2.887
G1 F2100 X-10.563 Y-2.888 E44.24813
G0 F7500 X-10.400 Y-2.888
G0 X-10.400 Y2.887
G0 X-10.564 Y2.887
G1 F2100 X10.663 Y2.888 E45.01239
;LAYER:3
G1 F2400 E44.01239
G0 F7500 X0.284 Y0.284 Z0.900
;TYPE:WALL-OUTER
G1 F2400 E45.01239
G1 X0.216 Y0.284 E45.01484
G1 X0.216 Y0.216 E45.01729
G1 X0.284 Y0.216 E45.01974
G1 X0.284 Y0.284 E45.02219
G0 F7500 X1.200 Y1.200
;TYPE:SUPPORT
G1 F2220 X1.200 Y-0.700 E45.09059
G1 X-0.700 Y-0.700 E45.15900
G1 X-0.700 Y1.200 E45.22741
G1 X1.200 Y1.200 E45.29582
G0 F7500 X1.190 Y1.300
G0 X10.500 Y10.590
G0 X10.600 Y10.600
G1 F2220 X-10.500 Y10.600 E46.05550
G1 X-10.500 Y-10.400 E46.81159
G1 X10.600 Y-10.400 E47.57128
G1 X10.600 Y10.600 E48.32736
G0 F7500 X10.500 Y10.590
G0 X10.500 Y8.664
G0 X10.663 Y8.664
G1 F2220 X-10.564 Y8.663 E49.09162
G0 F7500 X-10.400 Y8.663
G0 X-8.664 Y10.500
G0 X-8.664 Y10.664
G1 F2220 X-8.664 Y-10.464 E49.85232
G0 F7500 X-8.664 Y-10.300
G0 X-10.400 Y-8.664
G0 X-10.563 Y-8.664
G1 F2220 X10.664 Y-8.663 E50.61657
G0 F7500 X10.500 Y-8.663
G0 X8.664 Y-10.300
G0 X8.664 Y-10.464
G1 F2220 X8.664 Y10.664 E51.37727
G0 F7500 X8.664 Y10.500
G0 X2.888 Y10.500
G0 X2.888 Y10.664
G1 F2220 X2.888 Y-10.464 E52.13796
G0 F7500 X2.888 Y-10.300
G0 X-2.888 Y-10.300
G0 X-2.888 Y-10.464
G1 F2220 X-2.888 Y10.664 E52.89866
G0 F7500 X-2.888 Y10.500
G0 X-10.400 Y2.887
G0 X-10.564 Y2.887
G1 F2220 X10.663 Y2.888 E53.66292
G0 F7500 X10.500 Y2.888
G0 X10.500 Y-2.887
G0 X10.664 Y-2.887
G1 F2220 X-10.563 Y-2.888 E54.42718
;LAYER:4
G1 F2400 E53.42718
G0 F7500 X0.216 Y0.216 Z1.100
;TYPE:WALL-OUTER
G1 F2400 E54.42718
G1 F2700 X0.284 Y0.216 E54.42962
G1 X0.284 Y0.284 E54.43207
G1 X0.216 Y0.284 E54.43452
G1 X0.216 Y0.216 E54.43697
G0 F7500 X-0.700 Y-0.700
;TYPE:SUPPORT
G1 F2400 X-0.700 Y1.200 E54.50538
G1 X1.200 Y1.200 E54.57378
G1 X1.200 Y-0.700 E54.64219
G1 X-0.700 Y-0.700 E54.71060
G0 F7500 X-0.690 Y-0.800
G0 X-10.500 Y-10.400
G1 F2400 X10.600 Y-10.400 E55.47029
G1 X10.600 Y10.600 E56.22637
G1 X-10.500 Y10.600 E56.98606
G1 X-10.500 Y-10.400 E57.74215
G0 F7500 X-10.400 Y-8.664
G0 X-10.563 Y-8.664
G1 F2400 X10.664 Y-8.663 E58.50640
G0 F7500 X10.500 Y-8.663
G0 X8.664 Y-10.300
G0 X8.664 Y-10.464
G1 F2400 X8.664 Y10.664 E59.26710
G0 F7500 X8.664 Y10.500
G0 X10.500 Y8.664
G0 X10.663 Y8.664
G1 F2400 X-10.564 Y8.663 E60.03136
G0 F7500 X-10.400 Y8.663
G0 X-8.664 Y10.500
G0 X-8.664 Y10.664
G1 F2400 X-8.664 Y-10.464 E60.79205
G0 F7500 X-8.664 Y-10.300
G0 X-2.888 Y-10.300
G0 X-2.888 Y-10.464
G1 F2400 X-2.888 Y10.664 E61.55275
G0 F7500 X-2.888 Y10.500
G0 X2.888 Y10.500
G0 X2.888 Y10.664
G1 F2400 X2.888 Y-10.464 E62.31344
G0 F7500 X2.888 Y-10.300
G0 X10.500 Y-2.887
G0 X10.664 Y-2.887
G1 F2400 X-10.563 Y-2.888 E63.07770
G0 F7500 X-10.400 Y-2.888
G0 X-10.400 Y2.887
G0 X-10.564 Y2.887
G1 F2400 X10.663 Y2.888 E63.84196
;LAYER:5
G1 F2400 E62.84196
G0 F7500 X0.284 Y0.284 Z1.300
;TYPE:WALL-OUTER
G1 F2400 E63.84196
G1 F2700 X0.216 Y0.284 E63.84441
G1 X0.216 Y0.216 E63.84686
G1 X0.284 Y0.216 E63.84930
G1 X0.284 Y0.284 E63.85175
G0 F7500 X1.200 Y1.200
;TYPE:SUPPORT
G1 F2400 X1.200 Y-0.700 E63.92016
G1 X-0.700 Y-0.700 E63.98857
G1 X-0.700 Y1.200 E64.05698
G1 X1.200 Y1.200 E64.12538
G0 F7500 X1.190 Y1.300
G0 X10.500 Y10.590
G0 X10.600 Y10.600
G1 F2400 X-10.500 Y10.600 E64.88507
G1 X-10.500 Y-10.400 E65.64116
G1 X10.600 Y-10.400 E66.40084
G1 X10.600 Y10.600 E67.15693
G0 F7500 X10.500 Y10.590
G0 X10.500 Y8.664
G0 X10.663 Y8.664
G1 F2400 X-10.564 Y8.663 E67.92119
G0 F7500 X-10.400 Y8.663
G0 X-8.664 Y10.500
G0 X-8.664 Y10.664
G1 F2400 X-8.664 Y-10.464 E68.68188
G0 F7500 X-8.664 Y-10.300
G0 X-10.400 Y-8.664
G0 X-10.563 Y-8.664
G1 F2400 X10.664 Y-8.663 E69.44614
G0 F7500 X10.500 Y-8.663
G0 X8.664 Y-10.300
G0 X8.664 Y-10.464
G1 F2400 X8.664 Y10.664 E70.20684
G0 F7500 X8.664 Y10.500
G0 X2.888 Y10.500
G0 X2.888 Y10.664
G1 F2400 X2.888 Y-10.464 E70.96753
G0 F7500 X2.888 Y-10.300
G0 X-2.888 Y-10.300
G0 X-2.888 Y-10.464
G1 F2400 X-2.888 Y10.664 E71.72822
G0 F7500 X-2.888 Y10.500
G0 X-10.400 Y2.887
G0 X-10.564 Y2.887
G1 F2400 X10.663 Y2.888 E72.49248
G0 F7500 X10.500 Y2.888
G0 X10.500 Y-2.887
G0 X10.664 Y-2.887
G1 F2400 X-10.563 Y-2.888 E73.25674
;LAYER:6
G1 F2400 E72.25674
G0 F7500 X0.216 Y0.216 Z1.500
;TYPE:WALL-OUTER
G1 F2400 E73.25674
G1 F2700 X0.284 Y0.216 E73.25919
G1 X0.284 Y0.284 E73.26164
G1 X0.216 Y0.284 E73.26409
G1 X0.216 Y0.216 E73.26654
G0 F7500 X-0.700 Y-0.700
;TYPE:SUPPORT
G1 F2400 X-0.700 Y1.200 E73.33494
G1 X1.200 Y1.200 E73.40335
G1 X1.200 Y-0.700 E73.47176
G1 X-0.700 Y-0.700 E73.54017
G0 F7500 X-0.690 Y-0.800
G0 X-10.500 Y-10.400
G1 F2400 X10.600 Y-10.400 E74.29985
G1 X10.600 Y10.600 E75.05594
G1 X-10.500 Y10.600 E75.81563
G1 X-10.500 Y-10.400 E76.57171
G0 F7500 X-10.400 Y-8.664
G0 X-10.563 Y-8.664
G1 F2400 X10.664 Y-8.663 E77.33597
G0 F7500 X10.500 Y-8.663
G0 X8.664 Y-10.300
G0 X8.664 Y-10.464
G1 F2400 X8.664 Y10.664 E78.09667
G0 F7500 X8.664 Y10.500
G0 X10.500 Y8.664
G0 X10.663 Y8.664
G1 F2400 X-10.564 Y8.663 E78.86092
G0 F7500 X-10.400 Y8.663
G0 X-8.664 Y10.500
G0 X-8.664 Y10.664
G1 F2400 X-8.664 Y-10.464 E79.62162
G0 F7500 X-8.664 Y-10.300
G0 X-2.888 Y-10.300
G0 X-2.888 Y-10.464
G1 F2400 X-2.888 Y10.664 E80.38231
G0 F7500 X-2.888 Y10.500
G0 X2.888 Y10.500
G0 X2.888 Y10.664
G1 F2400 X2.888 Y-10.464 E81.14301
G0 F7500 X2.888 Y-10.300
G0 X10.500 Y-2.887
G0 X10.664 Y-2.887
G1 F2400 X-10.563 Y-2.888 E81.90727
G0 F7500 X-10.400 Y-2.888
G0 X-10.400 Y2.887
G0 X-10.564 Y2.887
G1 F2400 X10.663 Y2.888 E82.67153
;LAYER:7
G1 F2400 E81.67153
G0 F7500 X0.284 Y0.284 Z1.700
;TYPE:WALL-OUTER
G1 F2400 E82.67153
G1 F2700 X0.216 Y0.284 E82.67397
G1 X0.216 Y0.216 E82.67642
G1 X0.284 Y0.216 E82.67887
G1 X0.284 Y0.284 E82.68132
G0 F7500 X1.200 Y1.200
;TYPE:SUPPORT
G1 F2400 X1.200 Y-0.700 E82.74973
G1 X-0.700 Y-0.700 E82.81813
G1 X-0.700 Y1.200 E82.88654
G1 X1.200 Y1.200 E82.95495
G0 F7500 X1.190 Y1.300
G0 X10.500 Y10.590
G0 X10.600 Y10.600
G1 F2400 X-10.500 Y10.600 E83.71464
G1 X-10.500 Y-10.400 E84.47072
G1 X10.600 Y-10.400 E85.23041
G1 X10.600 Y10.600 E85.98649
G0 F7500 X10.500 Y10.590
G0 X10.500 Y8.664
G0 X10.663 Y8.664
G1 F2400 X-10.564 Y8.663 E86.75075
G0 F7500 X-10.400 Y8.663
G0 X-8.664 Y10.500
G0 X-8.664 Y10.664
G1 F2400 X-8.664 Y-10.464 E87.51145
G0 F7500 X-8.664 Y-10.300
G0 X-10.400 Y-8.664
G0 X-10.563 Y-8.664
G1 F2400 X10.664 Y-8.663 E88.27571
G0 F7500 X10.500 Y-8.663
G0 X8.664 Y-10.300
G0 X8.664 Y-10.464
G1 F2400 X8.664 Y10.664 E89.03640
G0 F7500 X8.664 Y10.500
G0 X2.888 Y10.500
G0 X2.888 Y10.664
G1 F2400 X2.888 Y-10.464 E89.79710
G0 F7500 X2.888 Y-10.300
G0 X-2.888 Y-10.300
G0 X-2.888 Y-10.464
G1 F2400 X-2.888 Y10.664 E90.55779
G0 F7500 X-2.888 Y10.500
G0 X-10.400 Y2.887
G0 X-10.564 Y2.887
G1 F2400 X10.663 Y2.888 E91.32205
G0 F7500 X10.500 Y2.888
G0 X10.500 Y-2.887
G0 X10.664 Y-2.887
G1 F2400 X-10.563 Y-2.888 E92.08631
;LAYER:8
G1 F2400 E91.08631
G0 F7500 X0.216 Y0.216 Z1.900
;TYPE:WALL-OUTER
G1 F2400 E92.08631
G1 F2700 X0.284 Y0.216 E92.08876
G1 X0.284 Y0.284 E92.09121
G1 X0.216 Y0.284 E92.09365
G1 X0.216 Y0.216 E92.09610
G0 F7500 X-0.700 Y-0.700
;TYPE:SUPPORT
G1 F2400 X-0.700 Y1.200 E92.16451
G1 X1.200 Y1.200 E92.23292
G1 X1.200 Y-0.700 E92.30133
G1 X-0.700 Y-0.700 E92.36973
G0 F7500 X-0.690 Y-0.800
G0 X-10.500 Y-10.400
G1 F2400 X10.600 Y-10.400 E93.12942
G1 X10.600 Y10.600 E93.88551
G1 X-10.500 Y10.600 E94.64519
G1 X-10.500 Y-10.400 E95.40128
G0 F7500 X-10.400 Y-8.664
G0 X-10.563 Y-8.664
G1 F2400 X10.664 Y-8.663 E96.16554
G0 F7500 X10.500 Y-8.663
G0 X8.664 Y-10.300
G0 X8.664 Y-10.464
G1 F2400 X8.664 Y10.664 E96.92623
G0 F7500 X8.664 Y10.500
G0 X10.500 Y8.664
G0 X10.663 Y8.664
G1 F2400 X-10.564 Y8.663 E97.69049
G0 F7500 X-10.400 Y8.663
G0 X-8.664 Y10.500
G0 X-8.664 Y10.664
G1 F2400 X-8.664 Y-10.464 E98.45118
G0 F7500 X-8.664 Y-10.300
G0 X-2.888 Y-10.300
G0 X-2.888 Y-10.464
G1 F2400 X-2.888 Y10.664 E99.21188
G0 F7500 X-2.888 Y10.500
G0 X2.888 Y10.500
G0 X2.888 Y10.664
G1 F2400 X2.888 Y-10.464 E99.97257
G0 F7500 X2.888 Y-10.300
G0 X10.500 Y-2.887
G0 X10.664 Y-2.887
G1 F2400 X-10.563 Y-2.888 E100.73683
G0 F7500 X-10.400 Y-2.888
G0 X-10.400 Y2.887
G0 X-10.564 Y2.887
G1 F2400 X10.663 Y2.888 E101.50109
;LAYER:9
G1 F2400 E100.50109
G0 F7500 X0.284 Y0.284 Z2.100
;TYPE:WALL-OUTER
G1 F2400 E101.50109
G1 F2700 X0.216 Y0.284 E101.50354
G1 X0.216 Y0.216 E101.50599
G1 X0.284 Y0.216 E101.50844
G1 X0.284 Y0.284 E101.51088
G0 F7500 X1.200 Y1.200
;TYPE:SUPPORT
G1 F2400 X1.200 Y-0.700 E101.57929
G1 X-0.700 Y-0.700 E101.64770
G1 X-0.700 Y1.200 E101.71611
G1 X1.200 Y1.200 E101.78452
G0 F7500 X1.190 Y1.300
G0 X10.500 Y10.590
G0 X10.600 Y10.600
G1 F2400 X-10.500 Y10.600 E102.54420
G1 X-10.500 Y-10.400 E103.30029
G1 X10.600 Y-10.400 E104.05997
G1 X10.600 Y10.600 E104.81606
G0 F7500 X10.500 Y10.590
G0 X10.500 Y8.664
G0 X10.663 Y8.664
G1 F2400 X-10.564 Y8.663 E105.58032
G0 F7500 X-10.400 Y8.663
G0 X-8.664 Y10.500
G0 X-8.664 Y10.664
G1 F2400 X-8.664 Y-10.464 E106.34101
G0 F7500 X-8.664 Y-10.300
G0 X-10.400 Y-8.664
G0 X-10.563 Y-8.664
G1 F2400 X10.664 Y-8.663 E107.10527
G0 F7500 X10.500 Y-8.663
G0 X8.664 Y-10.300
G0 X8.664 Y-10.464
G1 F2400 X8.664 Y10.664 E107.86597
G0 F7500 X8.664 Y10.500
G0 X2.888 Y10.500
G0 X2.888 Y10.664
G1 F2400 X2.888 Y-10.464 E108.62666
G0 F7500 X2.888 Y-10.300
G0 X-2.888 Y-10.300
G0 X-2.888 Y-10.464
G1 F2400 X-2.888 Y10.664 E109.38736
G0 F7500 X-2.888 Y10.500
G0 X-10.400 Y2.887
G0 X-10.564 Y2.887
G1 F2400 X10.663 Y2.888 E110.15162
G0 F7500 X10.500 Y2.888
G0 X10.500 Y-2.887
G0 X10.664 Y-2.887
G1 F2400 X-10.563 Y-2.888 E110.91587
;LAYER:10
G1 F2400 E109.91587
G0 F7500 X0.216 Y0.216 Z2.300
;TYPE:WALL-OUTER
G1 F2400 E110.91587
G1 F2700 X0.284 Y0.216 E110.91832
G1 X0.284 Y0.284 E110.92077
G1 X0.216 Y0.284 E110.92322
G1 X0.216 Y0.216 E110.92567
G0 F7500 X-0.700 Y-0.700
;TYPE:SUPPORT
G1 F2400 X-0.700 Y1.200 E110.99408
G1 X1.200 Y1.200 E111.06248
G1 X1.200 Y-0.700 E111.13089
G1 X-0.700 Y-0.700 E111.19930
G0 F7500 X-0.690 Y-0.800
G0 X-10.500 Y-10.400
G1 F2400 X10.600 Y-10.400 E111.95899
G1 X10.600 Y10.600 E112.71507
G1 X-10.500 Y10.600 E113.47476
G1 X-10.500 Y-10.400 E114.23084
G0 F7500 X-10.400 Y-8.664
G0 X-10.563 Y-8.664
G1 F2400 X10.664 Y-8.663 E114.99510
G0 F7500 X10.500 Y-8.663
G0 X8.664 Y-10.300
G0 X8.664 Y-10.464
G1 F2400 X8.664 Y10.664 E115.75580
G0 F7500 X8.664 Y10.500
G0 X10.500 Y8.664
G0 X10.663 Y8.664
G1 F2400 X-10.564 Y8.663 E116.52006
G0 F7500 X-10.400 Y8.663
G0 X-8.664 Y10.500
G0 X-8.664 Y10.664
G1 F2400 X-8.664 Y-10.464 E117.28075
G0 F7500 X-8.664 Y-10.300
G0 X-2.888 Y-10.300
G0 X-2.888 Y-10.464
G1 F2400 X-2.888 Y10.664 E118.04145
G0 F7500 X-2.888 Y10.500
G0 X2.888 Y10.500
G0 X2.888 Y10.664
G1 F2400 X2.888 Y-10.464 E118.80214
G0 F7500 X2.888 Y-10.300
G0 X10.500 Y-2.887
G0 X10.664 Y-2.887
G1 F2400 X-10.563 Y-2.888 E119.56640
G0 F7500 X-10.400 Y-2.888
G0 X-10.400 Y2.887
G0 X-10.564 Y2.887
G1 F2400 X10.663 Y2.888 E120.33066
;LAYER:11
G1 F2400 E119.33066
G0 F7500 X0.284 Y0.284 Z2.500
;TYPE:WALL-OUTER
G1 F2400 E120.33066
G1 F2700 X0.216 Y0.284 E120.33311
G1 X0.216 Y0.216 E120.33555
G1 X0.284 Y0.216 E120.33800
G1 X0.284 Y0.284 E120.34045
G0 F7500 X1.200 Y1.200
;TYPE:SUPPORT
G1 F2400 X1.200 Y-0.700 E120.40886
G1 X-0.700 Y-0.700 E120.47727
G1 X-0.700 Y1.200 E120.54567
G1 X1.200 Y1.200 E120.61408
G0 F7500 X1.190 Y1.300
G0 X10.500 Y10.590
G0 X10.600 Y10.600
G1 F2400 X-10.500 Y10.600 E121.37377
G1 X-10.500 Y-10.400 E122.12985
G1 X10.600 Y-10.400 E122.88954
G1 X10.600 Y10.600 E123.64563
G0 F7500 X10.500 Y10.590
G0 X10.500 Y8.664
G0 X10.663 Y8.664
G1 F2400 X-10.564 Y8.663 E124.40989
G0 F7500 X-10.400 Y8.663
G0 X-8.664 Y10.500
G0 X-8.664 Y10.664
G1 F2400 X-8.664 Y-10.464 E125.17058
G0 F7500 X-8.664 Y-10.300
G0 X-10.400 Y-8.664
G0 X-10.563 Y-8.664
G1 F2400 X10.664 Y-8.663 E125.93484
G0 F7500 X10.500 Y-8.663
G0 X8.664 Y-10.300
G0 X8.664 Y-10.464
G1 F2400 X8.664 Y10.664 E126.69553
G0 F7500 X8.664 Y10.500
G0 X2.888 Y10.500
G0 X2.888 Y10.664
G1 F2400 X2.888 Y-10.464 E127.45623
