;Generated with Cura_SteamEngine 15.04.6

;Layer count: 16
;LAYER:0
M107
G0 F7500 X-14.149 Y-19.049 Z0.300
;TYPE:SKIRT
G1 F1800 X14.249 Y-19.049 E1.53367
G1 X14.249 Y19.249 E3.60199
G1 X-14.149 Y19.249 E5.13566
G1 X-14.149 Y-19.049 E7.20399
G0 F7500 X-13.716 Y-18.616
G1 F1800 X13.816 Y-18.616 E8.69088
G1 X13.816 Y18.816 E10.71244
G1 X-13.716 Y18.816 E12.19934
G1 X-13.716 Y-18.616 E14.22090
G1 F2400 E13.22090
G0 F7500 X0.216 Y0.216
;TYPE:WALL-OUTER
G1 F2400 E14.22090
G1 F1800 X0.284 Y0.216 E14.22457
G1 X0.284 Y0.284 E14.22824
G1 X0.216 Y0.284 E14.23192
G1 X0.216 Y0.216 E14.23559
G0 F7500 X-0.700 Y-0.700
;TYPE:SUPPORT
G1 F1800 X-0.700 Y1.200 E14.33820
G1 X1.200 Y1.200 E14.44081
G1 X1.200 Y-0.700 E14.54342
G1 X-0.700 Y-0.700 E14.64603
G0 F7500 X-0.690 Y-0.800
G0 X-10.500 Y-15.400
G1 F1800 X10.600 Y-15.400 E15.78556
G1 X10.600 Y15.600 E17.45975
G1 X-10.500 Y15.600 E18.59928
G1 X-10.500 Y-15.400 E20.27347
G0 F7500 X-10.563 Y-14.440
G1 F1800 X10.664 Y-14.439 E21.41986
G0 F7500 X10.500 Y-14.439
G0 X8.664 Y-15.300
G0 X8.664 Y-15.464
G1 F1800 X8.664 Y15.664 E23.10097
G0 F7500 X8.664 Y15.500
G0 X10.500 Y14.440
G0 X10.663 Y14.440
G1 F1800 X-10.564 Y14.439 E24.24735
G0 F7500 X-10.400 Y14.439
G0 X-8.664 Y15.500
G0 X-8.664 Y15.664
G1 F1800 X-8.664 Y-15.464 E25.92846
G0 F7500 X-8.664 Y-15.300
G0 X-2.888 Y-15.300
G0 X-2.888 Y-15.464
G1 F1800 X-2.888 Y15.664 E27.60956
G0 F7500 X-2.888 Y15.500
G0 X2.888 Y15.500
G0 X2.888 Y15.664
G1 F1800 X2.888 Y-15.464 E29.29066
G0 F7500 X2.888 Y-15.300
G0 X10.500 Y-8.663
G0 X10.664 Y-8.663
G1 F1800 X-10.563 Y-8.664 E30.43705
G0 F7500 X-10.400 Y-8.664
G0 X-10.400 Y-2.888
G0 X-10.563 Y-2.888
G1 F1800 X10.664 Y-2.887 E31.58344
G0 F7500 X10.500 Y-2.887
G0 X10.500 Y2.888
G0 X10.663 Y2.888
G1 F1800 X-10.564 Y2.887 E32.72983
G0 F7500 X-10.400 Y2.887
G0 X-10.400 Y8.663
G0 X-10.564 Y8.663
G1 F1800 X10.663 Y8.664 E33.87622
;LAYER:1
M106 S63
G1 F2400 E32.87622
G0 F7500 X0.284 Y0.284 Z0.500
;TYPE:WALL-OUTER
G1 F2400 E33.87622
G1 F1980 X0.216 Y0.284 E33.87867
G1 X0.216 Y0.216 E33.88111
G1 X0.284 Y0.216 E33.88356
G1 X0.284 Y0.284 E33.88601
G0 F7500 X1.200 Y1.200
;TYPE:SUPPORT
G1 F1920 X1.200 Y-0.700 E33.95442
G1 X-0.700 Y-0.700 E34.02283
G1 X-0.700 Y1.200 E34.09123
G1 X1.200 Y1.200 E34.15964
G0 F7500 X1.190 Y1.300
G0 X10.500 Y15.590
G0 X10.600 Y15.600
G1 F1920 X-10.500 Y15.600 E34.91933
G1 X-10.500 Y-15.400 E36.03546
G1 X10.600 Y-15.400 E36.79514
G1 X10.600 Y15.600 E37.91127
G0 F7500 X10.663 Y14.440
G1 F1920 X-10.564 Y14.439 E38.67553
G0 F7500 X-10.400 Y14.439
G0 X-8.664 Y15.500
G0 X-8.664 Y15.664
G1 F1920 X-8.664 Y-15.464 E39.79626
G0 F7500 X-8.664 Y-15.300
G0 X-10.400 Y-14.440
G0 X-10.563 Y-14.440
G1 F1920 X10.664 Y-14.439 E40.56052
G0 F7500 X10.500 Y-14.439
G0 X8.664 Y-15.300
G0 X8.664 Y-15.464
G1 F1920 X8.664 Y15.664 E41.68126
G0 F7500 X8.664 Y15.500
G0 X2.888 Y15.500
G0 X2.888 Y15.664
G1 F1920 X2.888 Y-15.464 E42.80199
G0 F7500 X2.888 Y-15.300
G0 X-2.888 Y-15.300
G0 X-2.888 Y-15.464
G1 F1920 X-2.888 Y15.664 E43.92273
G0 F7500 X-2.888 Y15.500
G0 X-10.400 Y8.663
G0 X-10.564 Y8.663
G1 F1920 X10.663 Y8.664 E44.68699
G0 F7500 X10.500 Y8.664
G0 X10.500 Y2.888
G0 X10.663 Y2.888
G1 F1920 X-10.564 Y2.887 E45.45125
G0 F7500 X-10.400 Y2.887
G0 X-10.400 Y-2.888
G0 X-10.563 Y-2.888
G1 F1920 X10.664 Y-2.887 E46.21551
G0 F7500 X10.500 Y-2.887
G0 X10.500 Y-8.663
G0 X10.664 Y-8.663
G1 F1920 X-10.563 Y-8.664 E46.97976
;LAYER:2
M106 S127
G1 F2400 E45.97976
G0 F7500 X0.216 Y0.216 Z0.700
;TYPE:WALL-OUTER
G1 F2400 E46.97976
G1 F2220 X0.284 Y0.216 E46.98221
G1 X0.284 Y0.284 E46.98466
G1 X0.216 Y0.284 E46.98711
G1 X0.216 Y0.216 E46.98956
G0 F7500 X-0.700 Y-0.700
;TYPE:SUPPORT
G1 F2100 X-0.700 Y1.200 E47.05797
G1 X1.200 Y1.200 E47.12637
G1 X1.200 Y-0.700 E47.19478
G1 X-0.700 Y-0.700 E47.26319
G0 F7500 X-0.690 Y-0.800
G0 X-10.500 Y-15.400
G1 F2100 X10.600 Y-15.400 E48.02288
G1 X10.600 Y15.600 E49.13900
G1 X-10.500 Y15.600 E49.89869
G1 X-10.500 Y-15.400 E51.01482
G0 F7500 X-10.563 Y-14.440
G1 F2100 X10.664 Y-14.439 E51.77907
G0 F7500 X10.500 Y-14.439
G0 X8.664 Y-15.300
G0 X8.664 Y-15.464
G1 F2100 X8.664 Y15.664 E52.89981
G0 F7500 X8.664 Y15.500
G0 X10.500 Y14.440
G0 X10.663 Y14.440
G1 F2100 X-10.564 Y14.439 E53.66407
G0 F7500 X-10.400 Y14.439
G0 X-8.664 Y15.500
G0 X-8.664 Y15.664
G1 F2100 X-8.664 Y-15.464 E54.78480
G0 F7500 X-8.664 Y-15.300
G0 X-2.888 Y-15.300
G0 X-2.888 Y-15.464
G1 F2100 X-2.888 Y15.664 E55.90554
G0 F7500 X-2.888 Y15.500
G0 X2.888 Y15.500
G0 X2.888 Y15.664
G1 F2100 X2.888 Y-15.464 E57.02628
G0 F7500 X2.888 Y-15.300
G0 X10.500 Y-8.663
G0 X10.664 Y-8.663
G1 F2100 X-10.563 Y-8.664 E57.79053
G0 F7500 X-10.400 Y-8.664
G0 X-10.400 Y-2.888
G0 X-10.563 Y-2.888
G1 F2100 X10.664 Y-2.887 E58.55479
G0 F7500 X10.500 Y-2.887
G0 X10.500 Y2.888
G0 X10.663 Y2.888
G1 F2100 X-10.564 Y2.887 E59.31905
G0 F7500 X-10.400 Y2.887
G0 X-10.400 Y8.663
G0 X-10.564 Y8.663
G1 F2100 X10.663 Y8.664 E60.08331
;LAYER:3
G1 F2400 E59.08331
G0 F7500 X0.284 Y0.284 Z0.900
;TYPE:WALL-OUTER
G1 F2400 E60.08331
G1 X0.216 Y0.284 E60.08576
G1 X0.216 Y0.216 E60.08821
G1 X0.284 Y0.216 E60.09066
G1 X0.284 Y0.284 E60.09310
G0 F7500 X1.200 Y1.200
;TYPE:SUPPORT
G1 F2220 X1.200 Y-0.700 E60.16151
G1 X-0.700 Y-0.700 E60.22992
G1 X-0.700 Y1.200 E60.29833
G1 X1.200 Y1.200 E60.36674
G0 F7500 X1.190 Y1.300
G0 X10.500 Y15.590
G0 X10.600 Y15.600
G1 F2220 X-10.500 Y15.600 E61.12642
G1 X-10.500 Y-15.400 E62.24255
G1 X10.600 Y-15.400 E63.00224
G1 X10.600 Y15.600 E64.11836
G0 F7500 X10.663 Y14.440
G1 F2220 X-10.564 Y14.439 E64.88262
G0 F7500 X-10.400 Y14.439
G0 X-8.664 Y15.500
G0 X-8.664 Y15.664
G1 F2220 X-8.664 Y-15.464 E66.00336
G0 F7500 X-8.664 Y-15.300
G0 X-10.400 Y-14.440
G0 X-10.563 Y-14.440
G1 F2220 X10.664 Y-14.439 E66.76762
G0 F7500 X10.500 Y-14.439
G0 X8.664 Y-15.300
G0 X8.664 Y-15.464
G1 F2220 X8.664 Y15.664 E67.88835
G0 F7500 X8.664 Y15.500
G0 X2.888 Y15.500
G0 X2.888 Y15.664
G1 F2220 X2.888 Y-15.464 E69.00909
G0 F7500 X2.888 Y-15.300
G0 X-2.888 Y-15.300
G0 X-2.888 Y-15.464
G1 F2220 X-2.888 Y15.664 E70.12982
G0 F7500 X-2.888 Y15.500
G0 X-10.400 Y8.663
G0 X-10.564 Y8.663
G1 F2220 X10.663 Y8.664 E70.89408
G0 F7500 X10.500 Y8.664
G0 X10.500 Y2.888
G0 X10.663 Y2.888
G1 F2220 X-10.564 Y2.887 E71.65834
G0 F7500 X-10.400 Y2.887
G0 X-10.400 Y-2.888
G0 X-10.563 Y-2.888
G1 F2220 X10.664 Y-2.887 E72.42260
G0 F7500 X10.500 Y-2.887
G0 X10.500 Y-8.663
G0 X10.664 Y-8.663
G1 F2220 X-10.563 Y-8.664 E73.18686
;LAYER:4
G1 F2400 E72.18686
G0 F7500 X0.216 Y0.216 Z1.100
;TYPE:WALL-OUTER
G1 F2400 E73.18686
G1 F2700 X0.284 Y0.216 E73.18931
G1 X0.284 Y0.284 E73.19176
G1 X0.216 Y0.284 E73.19420
G1 X0.216 Y0.216 E73.19665
G0 F7500 X-0.700 Y-0.700
;TYPE:SUPPORT
G1 F2400 X-0.700 Y1.200 E73.26506
G1 X1.200 Y1.200 E73.33347
G1 X1.200 Y-0.700 E73.40187
G1 X-0.700 Y-0.700 E73.47028
G0 F7500 X-0.690 Y-0.800
G0 X-10.500 Y-15.400
G1 F2400 X10.600 Y-15.400 E74.22997
G1 X10.600 Y15.600 E75.34610
G1 X-10.500 Y15.600 E76.10578
G1 X-10.500 Y-15.400 E77.22191
G0 F7500 X-10.563 Y-14.440
G1 F2400 X10.664 Y-14.439 E77.98617
G0 F7500 X10.500 Y-14.439
G0 X8.664 Y-15.300
G0 X8.664 Y-15.464
G1 F2400 X8.664 Y15.664 E79.10690
G0 F7500 X8.664 Y15.500
G0 X10.500 Y14.440
G0 X10.663 Y14.440
G1 F2400 X-10.564 Y14.439 E79.87116
G0 F7500 X-10.400 Y14.439
G0 X-8.664 Y15.500
G0 X-8.664 Y15.664
G1 F2400 X-8.664 Y-15.464 E80.99190
G0 F7500 X-8.664 Y-15.300
G0 X-2.888 Y-15.300
G0 X-2.888 Y-15.464
G1 F2400 X-2.888 Y15.664 E82.11263
G0 F7500 X-2.888 Y15.500
G0 X2.888 Y15.500
G0 X2.888 Y15.664
G1 F2400 X2.888 Y-15.464 E83.23337
G0 F7500 X2.888 Y-15.300
G0 X10.500 Y-8.663
G0 X10.664 Y-8.663
G1 F2400 X-10.563 Y-8.664 E83.99763
G0 F7500 X-10.400 Y-8.664
G0 X-10.400 Y-2.888
G0 X-10.563 Y-2.888
G1 F2400 X10.664 Y-2.887 E84.76189
G0 F7500 X10.500 Y-2.887
G0 X10.500 Y2.888
G0 X10.663 Y2.888
G1 F2400 X-10.564 Y2.887 E85.52615
G0 F7500 X-10.400 Y2.887
G0 X-10.400 Y8.663
G0 X-10.564 Y8.663
G1 F2400 X10.663 Y8.664 E86.29041
;LAYER:5
G1 F2400 E85.29041
G0 F7500 X0.284 Y0.284 Z1.300
;TYPE:WALL-OUTER
G1 F2400 E86.29041
G1 F2700 X0.216 Y0.284 E86.29285
G1 X0.216 Y0.216 E86.29530
G1 X0.284 Y0.216 E86.29775
G1 X0.284 Y0.284 E86.30020
G0 F7500 X1.200 Y1.200
;TYPE:SUPPORT
G1 F2400 X1.200 Y-0.700 E86.36861
G1 X-0.700 Y-0.700 E86.43701
G1 X-0.700 Y1.200 E86.50542
G1 X1.200 Y1.200 E86.57383
G0 F7500 X1.190 Y1.300
G0 X10.500 Y15.590
G0 X10.600 Y15.600
G1 F2400 X-10.500 Y15.600 E87.33352
G1 X-10.500 Y-15.400 E88.44964
G1 X10.600 Y-15.400 E89.20933
G1 X10.600 Y15.600 E90.32546
G0 F7500 X10.663 Y14.440
G1 F2400 X-10.564 Y14.439 E91.08972
G0 F7500 X-10.400 Y14.439
G0 X-8.664 Y15.500
G0 X-8.664 Y15.664
G1 F2400 X-8.664 Y-15.464 E92.21045
G0 F7500 X-8.664 Y-15.300
G0 X-10.400 Y-14.440
G0 X-10.563 Y-14.440
G1 F2400 X10.664 Y-14.439 E92.97471
G0 F7500 X10.500 Y-14.439
G0 X8.664 Y-15.300
G0 X8.664 Y-15.464
G1 F2400 X8.664 Y15.664 E94.09545
G0 F7500 X8.664 Y15.500
G0 X2.888 Y15.500
G0 X2.888 Y15.664
G1 F2400 X2.888 Y-15.464 E95.21618
G0 F7500 X2.888 Y-15.300
G0 X-2.888 Y-15.300
G0 X-2.888 Y-15.464
G1 F2400 X-2.888 Y15.664 E96.33692
G0 F7500 X-2.888 Y15.500
G0 X-10.400 Y8.663
G0 X-10.564 Y8.663
G1 F2400 X10.663 Y8.664 E97.10118
G0 F7500 X10.500 Y8.664
G0 X10.500 Y2.888
G0 X10.663 Y2.888
G1 F2400 X-10.564 Y2.887 E97.86543
G0 F7500 X-10.400 Y2.887
G0 X-10.400 Y-2.888
G0 X-10.563 Y-2.888
G1 F2400 X10.664 Y-2.887 E98.62969
G0 F7500 X10.500 Y-2.887
G0 X10.500 Y-8.663
G0 X10.664 Y-8.663
G1 F2400 X-10.563 Y-8.664 E99.39395
;LAYER:6
G1 F2400 E98.39395
G0 F7500 X0.216 Y0.216 Z1.500
;TYPE:WALL-OUTER
G1 F2400 E99.39395
G1 F2700 X0.284 Y0.216 E99.39640
G1 X0.284 Y0.284 E99.39885
G1 X0.216 Y0.284 E99.40130
G1 X0.216 Y0.216 E99.40375
G0 F7500 X-0.700 Y-0.700
;TYPE:SUPPORT
G1 F2400 X-0.700 Y1.200 E99.47215
G1 X1.200 Y1.200 E99.54056
G1 X1.200 Y-0.700 E99.60897
G1 X-0.700 Y-0.700 E99.67738
G0 F7500 X-0.690 Y-0.800
G0 X-10.500 Y-15.400
G1 F2400 X10.600 Y-15.400 E100.43706
G1 X10.600 Y15.600 E101.55319
G1 X-10.500 Y15.600 E102.31288
G1 X-10.500 Y-15.400 E103.42900
G0 F7500 X-10.563 Y-14.440
G1 F2400 X10.664 Y-14.439 E104.19326
G0 F7500 X10.500 Y-14.439
G0 X8.664 Y-15.300
G0 X8.664 Y-15.464
G1 F2400 X8.664 Y15.664 E105.31400
G0 F7500 X8.664 Y15.500
G0 X10.500 Y14.440
G0 X10.663 Y14.440
G1 F2400 X-10.564 Y14.439 E106.07826
G0 F7500 X-10.400 Y14.439
G0 X-8.664 Y15.500
G0 X-8.664 Y15.664
G1 F2400 X-8.664 Y-15.464 E107.19899
G0 F7500 X-8.664 Y-15.300
G0 X-2.888 Y-15.300
G0 X-2.888 Y-15.464
G1 F2400 X-2.888 Y15.664 E108.31973
G0 F7500 X-2.888 Y15.500
G0 X2.888 Y15.500
G0 X2.888 Y15.664
G1 F2400 X2.888 Y-15.464 E109.44046
G0 F7500 X2.888 Y-15.300
G0 X10.500 Y-8.663
G0 X10.664 Y-8.663
G1 F2400 X-10.563 Y-8.664 E110.20472
G0 F7500 X-10.400 Y-8.664
G0 X-10.400 Y-2.888
G0 X-10.563 Y-2.888
G1 F2400 X10.664 Y-2.887 E110.96898
G0 F7500 X10.500 Y-2.887
G0 X10.500 Y2.888
G0 X10.663 Y2.888
G1 F2400 X-10.564 Y2.887 E111.73324
G0 F7500 X-10.400 Y2.887
G0 X-10.400 Y8.663
G0 X-10.564 Y8.663
G1 F2400 X10.663 Y8.664 E112.49750
;LAYER:7
G1 F2400 E111.49750
G0 F7500 X0.284 Y0.284 Z1.700
;TYPE:WALL-OUTER
G1 F2400 E112.49750
G1 F2700 X0.216 Y0.284 E112.49995
G1 X0.216 Y0.216 E112.50240
G1 X0.284 Y0.216 E112.50484
G1 X0.284 Y0.284 E112.50729
G0 F7500 X1.200 Y1.200
;TYPE:SUPPORT
G1 F2400 X1.200 Y-0.700 E112.57570
G1 X-0.700 Y-0.700 E112.64411
G1 X-0.700 Y1.200 E112.71252
G1 X1.200 Y1.200 E112.78092
G0 F7500 X1.190 Y1.300
G0 X10.500 Y15.590
G0 X10.600 Y15.600
G1 F2400 X-10.500 Y15.600 E113.54061
G1 X-10.500 Y-15.400 E114.65674
G1 X10.600 Y-15.400 E115.41642
G1 X10.600 Y15.600 E116.53255
G0 F7500 X10.663 Y14.440
G1 F2400 X-10.564 Y14.439 E117.29681
G0 F7500 X-10.400 Y14.439
G0 X-8.664 Y15.500
G0 X-8.664 Y15.664
G1 F2400 X-8.664 Y-15.464 E118.41754
G0 F7500 X-8.664 Y-15.300
G0 X-10.400 Y-14.440
G0 X-10.563 Y-14.440
G1 F2400 X10.664 Y-14.439 E119.18180
G0 F7500 X10.500 Y-14.439
G0 X8.664 Y-15.300
G0 X8.664 Y-15.464
G1 F2400 X8.664 Y15.664 E120.30254
G0 F7500 X8.664 Y15.500
G0 X2.888 Y15.500
G0 X2.888 Y15.664
G1 F2400 X2.888 Y-15.464 E121.42327
G0 F7500 X2.888 Y-15.300
G0 X-2.888 Y-15.300
G0 X-2.888 Y-15.464
G1 F2400 X-2.888 Y15.664 E122.54401
G0 F7500 X-2.888 Y15.500
G0 X-10.400 Y8.663
G0 X-10.564 Y8.663
G1 F2400 X10.663 Y8.664 E123.30827
G0 F7500 X10.500 Y8.664
G0 X10.500 Y2.888
G0 X10.663 Y2.888
G1 F2400 X-10.564 Y2.887 E124.07253
G0 F7500 X-10.400 Y2.887
G0 X-10.400 Y-2.888
G0 X-10.563 Y-2.888
G1 F2400 X10.664 Y-2.887 E124.83679
G0 F7500 X10.500 Y-2.887
G0 X10.500 Y-8.663
G0 X10.664 Y-8.663
G1 F2400 X-10.563 Y-8.664 E125.60105
;LAYER:8
G1 F2400 E124.60105
G0 F7500 X0.216 Y0.216 Z1.900
;TYPE:WALL-OUTER
G1 F2400 E125.60105
G1 F2700 X0.284 Y0.216 E125.60349
G1 X0.284 Y0.284 E125.60594
G1 X0.216 Y0.284 E125.60839
G1 X0.216 Y0.216 E125.61084
G0 F7500 X-0.700 Y-0.700
;TYPE:SUPPORT
G1 F2400 X-0.700 Y1.200 E125.67925
G1 X1.200 Y1.200 E125.74765
G1 X1.200 Y-0.700 E125.81606
G1 X-0.700 Y-0.700 E125.88447
G0 F7500 X-0.690 Y-0.800
G0 X-10.500 Y-15.400
G1 F2400 X10.600 Y-15.400 E126.64416
G1 X10.600 Y15.600 E127.76028
G1 X-10.500 Y15.600 E128.51997
G1 X-10.500 Y-15.400 E129.63610
G0 F7500 X-10.563 Y-14.440
G1 F2400 X10.664 Y-14.439 E130.40036
G0 F7500 X10.500 Y-14.439
G0 X8.664 Y-15.300
G0 X8.664 Y-15.464
G1 F2400 X8.664 Y15.664 E131.52109
G0 F7500 X8.664 Y15.500
G0 X10.500 Y14.440
G0 X10.663 Y14.440
G1 F2400 X-10.564 Y14.439 E132.28535
G0 F7500 X-10.400 Y14.439
G0 X-8.664 Y15.500
G0 X-8.664 Y15.664
G1 F2400 X-8.664 Y-15.464 E133.40609
G0 F7500 X-8.664 Y-15.300
G0 X-2.888 Y-15.300
G0 X-2.888 Y-15.464
G1 F2400 X-2.888 Y15.664 E134.52682
G0 F7500 X-2.888 Y15.500
G0 X2.888 Y15.500
G0 X2.888 Y15.664
G1 F2400 X2.888 Y-15.464 E135.64756
G0 F7500 X2.888 Y-15.300
G0 X10.500 Y-8.663
G0 X10.664 Y-8.663
G1 F2400 X-10.563 Y-8.664 E136.41182
G0 F7500 X-10.400 Y-8.664
G0 X-10.400 Y-2.888
G0 X-10.563 Y-2.888
G1 F2400 X10.664 Y-2.887 E137.17607
G0 F7500 X10.500 Y-2.887
G0 X10.500 Y2.888
G0 X10.663 Y2.888
G1 F2400 X-10.564 Y2.887 E137.94033
G0 F7500 X-10.400 Y2.887
G0 X-10.400 Y8.663
G0 X-10.564 Y8.663
G1 F2400 X10.663 Y8.664 E138.70459
;LAYER:9
G1 F2400 E137.70459
G0 F7500 X0.284 Y0.284 Z2.100
;TYPE:WALL-OUTER
G1 F2400 E138.70459
G1 F2700 X0.216 Y0.284 E138.70704
G1 X0.216 Y0.216 E138.70949
G1 X0.284 Y0.216 E138.71194
G1 X0.284 Y0.284 E138.71439
G0 F7500 X1.200 Y1.200
;TYPE:SUPPORT
G1 F2400 X1.200 Y-0.700 E138.78279
G1 X-0.700 Y-0.700 E138.85120
G1 X-0.700 Y1.200 E138.91961
G1 X1.200 Y1.200 E138.98802
G0 F7500 X1.190 Y1.300
G0 X10.500 Y15.590
G0 X10.600 Y15.600
G1 F2400 X-10.500 Y15.600 E139.74770
G1 X-10.500 Y-15.400 E140.86383
G1 X10.600 Y-15.400 E141.62352
G1 X10.600 Y15.600 E142.73964
G0 F7500 X10.663 Y14.440
G1 F2400 X-10.564 Y14.439 E143.50390
G0 F7500 X-10.400 Y14.439
G0 X-8.664 Y15.500
G0 X-8.664 Y15.664
G1 F2400 X-8.664 Y-15.464 E144.62464
G0 F7500 X-8.664 Y-15.300
G0 X-10.400 Y-14.440
G0 X-10.563 Y-14.440
G1 F2400 X10.664 Y-14.439 E145.38890
G0 F7500 X10.500 Y-14.439
G0 X8.664 Y-15.300
G0 X8.664 Y-15.464
G1 F2400 X8.664 Y15.664 E146.50963
G0 F7500 X8.664 Y15.500
G0 X2.888 Y15.500
G0 X2.888 Y15.664
G1 F2400 X2.888 Y-15.464 E147.63037
G0 F7500 X2.888 Y-15.300
G0 X-2.888 Y-15.300
G0 X-2.888 Y-15.464
G1 F2400 X-2.888 Y15.664 E148.75110
G0 F7500 X-2.888 Y15.500
G0 X-10.400 Y8.663
G0 X-10.564 Y8.663
G1 F2400 X10.663 Y8.664 E149.51536
G0 F7500 X10.500 Y8.664
G0 X10.500 Y2.888
G0 X10.663 Y2.888
G1 F2400 X-10.564 Y2.887 E150.27962
G0 F7500 X-10.400 Y2.887
G0 X-10.400 Y-2.888
G0 X-10.563 Y-2.888
G1 F2400 X10.664 Y-2.887 E151.04388
G0 F7500 X10.500 Y-2.887
G0 X10.500 Y-8.663
G0 X10.664 Y-8.663
G1 F2400 X-10.563 Y-8.664 E151.80814
;LAYER:10
G1 F2400 E150.80814
G0 F7500 X0.216 Y0.216 Z2.300
;TYPE:WALL-OUTER
G1 F2400 E151.80814
G1 F2700 X0.284 Y0.216 E151.81059
G1 X0.284 Y0.284 E151.81304
G1 X0.216 Y0.284 E151.81548
G1 X0.216 Y0.216 E151.81793
G0 F7500 X-0.700 Y-0.700
;TYPE:SUPPORT
G1 F2400 X-0.700 Y1.200 E151.88634
G1 X1.200 Y1.200 E151.95475
G1 X1.200 Y-0.700 E152.02316
G1 X-0.700 Y-0.700 E152.09156
G0 F7500 X-0.690 Y-0.800
G0 X-10.500 Y-15.400
G1 F2400 X10.600 Y-15.400 E152.85125
G1 X10.600 Y15.600 E153.96738
G1 X-10.500 Y15.600 E154.72706
G1 X-10.500 Y-15.400 E155.84319
G0 F7500 X-10.563 Y-14.440
