;Generated with Cura_SteamEngine 15.04.6

;Layer count: 16
;LAYER:0
M107
G0 F7500 X-14.149 Y-24.049 Z0.300
;TYPE:SKIRT
G1 F1800 X14.249 Y-24.049 E1.53367
G1 X14.249 Y24.249 E4.14206
G1 X-14.149 Y24.249 E5.67572
G1 X-14.149 Y-24.049 E8.28411
G0 F7500 X-13.716 Y-23.616
G1 F1800 X13.816 Y-23.616 E9.77101
G1 X13.816 Y23.816 E12.33263
G1 X-13.716 Y23.816 E13.81952
G1 X-13.716 Y-23.616 E16.38114
G1 F2400 E15.38114
G0 F7500 X0.216 Y0.216
;TYPE:WALL-OUTER
G1 F2400 E16.38114
G1 F1800 X0.284 Y0.216 E16.38482
G1 X0.284 Y0.284 E16.38849
G1 X0.216 Y0.284 E16.39216
G1 X0.216 Y0.216 E16.39583
G0 F7500 X-0.700 Y-0.700
;TYPE:SUPPORT
G1 F1800 X-0.700 Y1.200 E16.49845
G1 X1.200 Y1.200 E16.60106
G1 X1.200 Y-0.700 E16.70367
G1 X-0.700 Y-0.700 E16.80628
G0 F7500 X-0.690 Y-0.800
G0 X-10.500 Y-20.400
G1 F1800 X10.600 Y-20.400 E17.94581
G1 X10.600 Y20.600 E20.16006
G1 X-10.500 Y20.600 E21.29959
G1 X-10.500 Y-20.400 E23.51384
G0 F7500 X-10.563 Y-20.216
G1 F1800 X10.664 Y-20.215 E24.66023
G0 F7500 X10.500 Y-20.215
G0 X8.664 Y-20.300
G0 X8.664 Y-20.464
G1 F1800 X8.664 Y20.664 E26.88140
G0 F7500 X8.664 Y20.500
G0 X10.500 Y20.216
G0 X10.663 Y20.216
G1 F1800 X-10.564 Y20.215 E28.02778
G0 F7500 X-10.400 Y20.215
G0 X-8.664 Y20.500
G0 X-8.664 Y20.664
G1 F1800 X-8.664 Y-20.464 E30.24895
G0 F7500 X-8.664 Y-20.300
G0 X-2.888 Y-20.300
G0 X-2.888 Y-20.464
G1 F1800 X-2.888 Y20.664 E32.47011
G0 F7500 X-2.888 Y20.500
G0 X2.888 Y20.500
G0 X2.888 Y20.664
G1 F1800 X2.888 Y-20.464 E34.69128
G0 F7500 X2.888 Y-20.300
G0 X10.500 Y-14.439
G0 X10.664 Y-14.439
G1 F1800 X-10.563 Y-14.440 E35.83767
G0 F7500 X-10.400 Y-14.440
G0 X-10.400 Y-8.664
G0 X-10.563 Y-8.664
G1 F1800 X10.664 Y-8.663 E36.98406
G0 F7500 X10.500 Y-8.663
G0 X10.500 Y-2.887
G0 X10.664 Y-2.887
G1 F1800 X-10.563 Y-2.888 E38.13044
G0 F7500 X-10.400 Y-2.888
G0 X-10.400 Y2.887
G0 X-10.564 Y2.887
G1 F1800 X10.663 Y2.888 E39.27683
G0 F7500 X10.500 Y2.888
G0 X10.500 Y8.664
G0 X10.663 Y8.664
G1 F1800 X-10.564 Y8.663 E40.42322
G0 F7500 X-10.400 Y8.663
G0 X-10.400 Y14.439
G0 X-10.564 Y14.439
G1 F1800 X10.663 Y14.440 E41.56961
;LAYER:1
M106 S63
G1 F2400 E40.56961
G0 F7500 X0.284 Y0.284 Z0.500
;TYPE:WALL-OUTER
G1 F2400 E41.56961
G1 F1980 X0.216 Y0.284 E41.57206
G1 X0.216 Y0.216 E41.57451
G1 X0.284 Y0.216 E41.57695
G1 X0.284 Y0.284 E41.57940
G0 F7500 X1.200 Y1.200
;TYPE:SUPPORT
G1 F1920 X1.200 Y-0.700 E41.64781
G1 X-0.700 Y-0.700 E41.71622
G1 X-0.700 Y1.200 E41.78463
G1 X1.200 Y1.200 E41.85303
G0 F7500 X1.190 Y1.300
G0 X10.500 Y20.590
G0 X10.600 Y20.600
G1 F1920 X-10.500 Y20.600 E42.61272
G1 X-10.500 Y-20.400 E44.08889
G1 X10.600 Y-20.400 E44.84857
G1 X10.600 Y20.600 E46.32474
G0 F7500 X10.663 Y20.216
G1 F1920 X-10.564 Y20.215 E47.08900
G0 F7500 X-10.400 Y20.215
G0 X-8.664 Y20.500
G0 X-8.664 Y20.664
G1 F1920 X-8.664 Y-20.464 E48.56978
G0 F7500 X-8.664 Y-20.300
G0 X-10.400 Y-20.216
G0 X-10.563 Y-20.216
G1 F1920 X10.664 Y-20.215 E49.33404
G0 F7500 X10.500 Y-20.215
G0 X8.664 Y-20.300
G0 X8.664 Y-20.464
G1 F1920 X8.664 Y20.664 E50.81481
G0 F7500 X8.664 Y20.500
G0 X2.888 Y20.500
G0 X2.888 Y20.664
G1 F1920 X2.888 Y-20.464 E52.29559
G0 F7500 X2.888 Y-20.300
G0 X-2.888 Y-20.300
G0 X-2.888 Y-20.464
G1 F1920 X-2.888 Y20.664 E53.77637
G0 F7500 X-2.888 Y20.500
G0 X-10.400 Y14.439
G0 X-10.564 Y14.439
G1 F1920 X10.663 Y14.440 E54.54063
G0 F7500 X10.500 Y14.440
G0 X10.500 Y8.664
G0 X10.663 Y8.664
G1 F1920 X-10.564 Y8.663 E55.30488
G0 F7500 X-10.400 Y8.663
G0 X-10.400 Y2.887
G0 X-10.564 Y2.887
G1 F1920 X10.663 Y2.888 E56.06914
G0 F7500 X10.500 Y2.888
G0 X10.500 Y-2.887
G0 X10.664 Y-2.887
G1 F1920 X-10.563 Y-2.888 E56.83340
G0 F7500 X-10.400 Y-2.888
G0 X-10.400 Y-8.664
G0 X-10.563 Y-8.664
G1 F1920 X10.664 Y-8.663 E57.59766
G0 F7500 X10.500 Y-8.663
G0 X10.500 Y-14.439
G0 X10.664 Y-14.439
G1 F1920 X-10.563 Y-14.440 E58.36192
;LAYER:2
M106 S127
G1 F2400 E57.36192
G0 F7500 X0.216 Y0.216 Z0.700
;TYPE:WALL-OUTER
G1 F2400 E58.36192
G1 F2220 X0.284 Y0.216 E58.36437
G1 X0.284 Y0.284 E58.36682
G1 X0.216 Y0.284 E58.36926
G1 X0.216 Y0.216 E58.37171
G0 F7500 X-0.700 Y-0.700
;TYPE:SUPPORT
G1 F2100 X-0.700 Y1.200 E58.44012
G1 X1.200 Y1.200 E58.50853
G1 X1.200 Y-0.700 E58.57694
G1 X-0.700 Y-0.700 E58.64534
G0 F7500 X-0.690 Y-0.800
G0 X-10.500 Y-20.400
G1 F2100 X10.600 Y-20.400 E59.40503
G1 X10.600 Y20.600 E60.88120
G1 X-10.500 Y20.600 E61.64088
G1 X-10.500 Y-20.400 E63.11705
G0 F7500 X-10.563 Y-20.216
G1 F2100 X10.664 Y-20.215 E63.88131
G0 F7500 X10.500 Y-20.215
G0 X8.664 Y-20.300
G0 X8.664 Y-20.464
G1 F2100 X8.664 Y20.664 E65.36209
G0 F7500 X8.664 Y20.500
G0 X10.500 Y20.216
G0 X10.663 Y20.216
G1 F2100 X-10.564 Y20.215 E66.12635
G0 F7500 X-10.400 Y20.215
G0 X-8.664 Y20.500
G0 X-8.664 Y20.664
G1 F2100 X-8.664 Y-20.464 E67.60712
G0 F7500 X-8.664 Y-20.300
G0 X-2.888 Y-20.300
G0 X-2.888 Y-20.464
G1 F2100 X-2.888 Y20.664 E69.08790
G0 F7500 X-2.888 Y20.500
G0 X2.888 Y20.500
G0 X2.888 Y20.664
G1 F2100 X2.888 Y-20.464 E70.56868
G0 F7500 X2.888 Y-20.300
G0 X10.500 Y-14.439
G0 X10.664 Y-14.439
G1 F2100 X-10.563 Y-14.440 E71.33294
G0 F7500 X-10.400 Y-14.440
G0 X-10.400 Y-8.664
G0 X-10.563 Y-8.664
G1 F2100 X10.664 Y-8.663 E72.09719
G0 F7500 X10.500 Y-8.663
G0 X10.500 Y-2.887
G0 X10.664 Y-2.887
G1 F2100 X-10.563 Y-2.888 E72.86145
G0 F7500 X-10.400 Y-2.888
G0 X-10.400 Y2.887
G0 X-10.564 Y2.887
G1 F2100 X10.663 Y2.888 E73.62571
G0 F7500 X10.500 Y2.888
G0 X10.500 Y8.664
G0 X10.663 Y8.664
G1 F2100 X-10.564 Y8.663 E74.38997
G0 F7500 X-10.400 Y8.663
G0 X-10.400 Y14.439
G0 X-10.564 Y14.439
G1 F2100 X10.663 Y14.440 E75.15423
;LAYER:3
G1 F2400 E74.15423
G0 F7500 X0.284 Y0.284 Z0.900
;TYPE:WALL-OUTER
G1 F2400 E75.15423
G1 X0.216 Y0.284 E75.15668
G1 X0.216 Y0.216 E75.15913
G1 X0.284 Y0.216 E75.16158
G1 X0.284 Y0.284 E75.16402
G0 F7500 X1.200 Y1.200
;TYPE:SUPPORT
G1 F2220 X1.200 Y-0.700 E75.23243
G1 X-0.700 Y-0.700 E75.30084
G1 X-0.700 Y1.200 E75.36925
G1 X1.200 Y1.200 E75.43765
G0 F7500 X1.190 Y1.300
G0 X10.500 Y20.590
G0 X10.600 Y20.600
G1 F2220 X-10.500 Y20.600 E76.19734
G1 X-10.500 Y-20.400 E77.67351
G1 X10.600 Y-20.400 E78.43320
G1 X10.600 Y20.600 E79.90936
G0 F7500 X10.663 Y20.216
G1 F2220 X-10.564 Y20.215 E80.67362
G0 F7500 X-10.400 Y20.215
G0 X-8.664 Y20.500
G0 X-8.664 Y20.664
G1 F2220 X-8.664 Y-20.464 E82.15440
G0 F7500 X-8.664 Y-20.300
G0 X-10.400 Y-20.216
G0 X-10.563 Y-20.216
G1 F2220 X10.664 Y-20.215 E82.91866
G0 F7500 X10.500 Y-20.215
G0 X8.664 Y-20.300
G0 X8.664 Y-20.464
G1 F2220 X8.664 Y20.664 E84.39943
G0 F7500 X8.664 Y20.500
G0 X2.888 Y20.500
G0 X2.888 Y20.664
G1 F2220 X2.888 Y-20.464 E85.88021
G0 F7500 X2.888 Y-20.300
G0 X-2.888 Y-20.300
G0 X-2.888 Y-20.464
G1 F2220 X-2.888 Y20.664 E87.36099
G0 F7500 X-2.888 Y20.500
G0 X-10.400 Y14.439
G0 X-10.564 Y14.439
G1 F2220 X10.663 Y14.440 E88.12525
G0 F7500 X10.500 Y14.440
G0 X10.500 Y8.664
G0 X10.663 Y8.664
G1 F2220 X-10.564 Y8.663 E88.88950
G0 F7500 X-10.400 Y8.663
G0 X-10.400 Y2.887
G0 X-10.564 Y2.887
G1 F2220 X10.663 Y2.888 E89.65376
G0 F7500 X10.500 Y2.888
G0 X10.500 Y-2.887
G0 X10.664 Y-2.887
G1 F2220 X-10.563 Y-2.888 E90.41802
G0 F7500 X-10.400 Y-2.888
G0 X-10.400 Y-8.664
G0 X-10.563 Y-8.664
G1 F2220 X10.664 Y-8.663 E91.18228
G0 F7500 X10.500 Y-8.663
G0 X10.500 Y-14.439
G0 X10.664 Y-14.439
G1 F2220 X-10.563 Y-14.440 E91.94654
;LAYER:4
G1 F2400 E90.94654
G0 F7500 X0.216 Y0.216 Z1.100
;TYPE:WALL-OUTER
G1 F2400 E91.94654
G1 F2700 X0.284 Y0.216 E91.94899
G1 X0.284 Y0.284 E91.95144
G1 X0.216 Y0.284 E91.95389
G1 X0.216 Y0.216 E91.95633
G0 F7500 X-0.700 Y-0.700
;TYPE:SUPPORT
G1 F2400 X-0.700 Y1.200 E92.02474
G1 X1.200 Y1.200 E92.09315
G1 X1.200 Y-0.700 E92.16156
G1 X-0.700 Y-0.700 E92.22997
G0 F7500 X-0.690 Y-0.800
G0 X-10.500 Y-20.400
G1 F2400 X10.600 Y-20.400 E92.98965
G1 X10.600 Y20.600 E94.46582
G1 X-10.500 Y20.600 E95.22551
G1 X-10.500 Y-20.400 E96.70167
G0 F7500 X-10.563 Y-20.216
G1 F2400 X10.664 Y-20.215 E97.46593
G0 F7500 X10.500 Y-20.215
G0 X8.664 Y-20.300
G0 X8.664 Y-20.464
G1 F2400 X8.664 Y20.664 E98.94671
G0 F7500 X8.664 Y20.500
G0 X10.500 Y20.216
G0 X10.663 Y20.216
G1 F2400 X-10.564 Y20.215 E99.71097
G0 F7500 X-10.400 Y20.215
G0 X-8.664 Y20.500
G0 X-8.664 Y20.664
G1 F2400 X-8.664 Y-20.464 E101.19174
G0 F7500 X-8.664 Y-20.300
G0 X-2.888 Y-20.300
G0 X-2.888 Y-20.464
G1 F2400 X-2.888 Y20.664 E102.67252
G0 F7500 X-2.888 Y20.500
G0 X2.888 Y20.500
G0 X2.888 Y20.664
G1 F2400 X2.888 Y-20.464 E104.15330
G0 F7500 X2.888 Y-20.300
G0 X10.500 Y-14.439
G0 X10.664 Y-14.439
G1 F2400 X-10.563 Y-14.440 E104.91756
G0 F7500 X-10.400 Y-14.440
G0 X-10.400 Y-8.664
G0 X-10.563 Y-8.664
G1 F2400 X10.664 Y-8.663 E105.68182
G0 F7500 X10.500 Y-8.663
G0 X10.500 Y-2.887
G0 X10.664 Y-2.887
G1 F2400 X-10.563 Y-2.888 E106.44607
G0 F7500 X-10.400 Y-2.888
G0 X-10.400 Y2.887
G0 X-10.564 Y2.887
G1 F2400 X10.663 Y2.888 E107.21033
G0 F7500 X10.500 Y2.888
G0 X10.500 Y8.664
G0 X10.663 Y8.664
G1 F2400 X-10.564 Y8.663 E107.97459
G0 F7500 X-10.400 Y8.663
G0 X-10.400 Y14.439
G0 X-10.564 Y14.439
G1 F2400 X10.663 Y14.440 E108.73885
;LAYER:5
G1 F2400 E107.73885
G0 F7500 X0.284 Y0.284 Z1.300
;TYPE:WALL-OUTER
G1 F2400 E108.73885
G1 F2700 X0.216 Y0.284 E108.74130
G1 X0.216 Y0.216 E108.74375
G1 X0.284 Y0.216 E108.74620
G1 X0.284 Y0.284 E108.74864
G0 F7500 X1.200 Y1.200
;TYPE:SUPPORT
G1 F2400 X1.200 Y-0.700 E108.81705
G1 X-0.700 Y-0.700 E108.88546
G1 X-0.700 Y1.200 E108.95387
G1 X1.200 Y1.200 E109.02228
G0 F7500 X1.190 Y1.300
G0 X10.500 Y20.590
G0 X10.600 Y20.600
G1 F2400 X-10.500 Y20.600 E109.78196
G1 X-10.500 Y-20.400 E111.25813
G1 X10.600 Y-20.400 E112.01782
G1 X10.600 Y20.600 E113.49398
G0 F7500 X10.663 Y20.216
G1 F2400 X-10.564 Y20.215 E114.25824
G0 F7500 X-10.400 Y20.215
G0 X-8.664 Y20.500
G0 X-8.664 Y20.664
G1 F2400 X-8.664 Y-20.464 E115.73902
G0 F7500 X-8.664 Y-20.300
G0 X-10.400 Y-20.216
G0 X-10.563 Y-20.216
G1 F2400 X10.664 Y-20.215 E116.50328
G0 F7500 X10.500 Y-20.215
G0 X8.664 Y-20.300
G0 X8.664 Y-20.464
G1 F2400 X8.664 Y20.664 E117.98406
G0 F7500 X8.664 Y20.500
G0 X2.888 Y20.500
G0 X2.888 Y20.664
G1 F2400 X2.888 Y-20.464 E119.46483
G0 F7500 X2.888 Y-20.300
G0 X-2.888 Y-20.300
G0 X-2.888 Y-20.464
G1 F2400 X-2.888 Y20.664 E120.94561
G0 F7500 X-2.888 Y20.500
G0 X-10.400 Y14.439
G0 X-10.564 Y14.439
G1 F2400 X10.663 Y14.440 E121.70987
G0 F7500 X10.500 Y14.440
G0 X10.500 Y8.664
G0 X10.663 Y8.664
G1 F2400 X-10.564 Y8.663 E122.47413
G0 F7500 X-10.400 Y8.663
G0 X-10.400 Y2.887
G0 X-10.564 Y2.887
G1 F2400 X10.663 Y2.888 E123.23838
G0 F7500 X10.500 Y2.888
G0 X10.500 Y-2.887
G0 X10.664 Y-2.887
G1 F2400 X-10.563 Y-2.888 E124.00264
G0 F7500 X-10.400 Y-2.888
G0 X-10.400 Y-8.664
G0 X-10.563 Y-8.664
G1 F2400 X10.664 Y-8.663 E124.76690
G0 F7500 X10.500 Y-8.663
G0 X10.500 Y-14.439
G0 X10.664 Y-14.439
G1 F2400 X-10.563 Y-14.440 E125.53116
;LAYER:6
G1 F2400 E124.53116
G0 F7500 X0.216 Y0.216 Z1.500
;TYPE:WALL-OUTER
G1 F2400 E125.53116
G1 F2700 X0.284 Y0.216 E125.53361
G1 X0.284 Y0.284 E125.53606
G1 X0.216 Y0.284 E125.53851
G1 X0.216 Y0.216 E125.54095
G0 F7500 X-0.700 Y-0.700
;TYPE:SUPPORT
G1 F2400 X-0.700 Y1.200 E125.60936
G1 X1.200 Y1.200 E125.67777
G1 X1.200 Y-0.700 E125.74618
G1 X-0.700 Y-0.700 E125.81459
G0 F7500 X-0.690 Y-0.800
G0 X-10.500 Y-20.400
G1 F2400 X10.600 Y-20.400 E126.57427
G1 X10.600 Y20.600 E128.05044
G1 X-10.500 Y20.600 E128.81013
G1 X-10.500 Y-20.400 E130.28629
G0 F7500 X-10.563 Y-20.216
G1 F2400 X10.664 Y-20.215 E131.05055
G0 F7500 X10.500 Y-20.215
G0 X8.664 Y-20.300
G0 X8.664 Y-20.464
G1 F2400 X8.664 Y20.664 E132.53133
G0 F7500 X8.664 Y20.500
G0 X10.500 Y20.216
G0 X10.663 Y20.216
G1 F2400 X-10.564 Y20.215 E133.29559
G0 F7500 X-10.400 Y20.215
G0 X-8.664 Y20.500
G0 X-8.664 Y20.664
G1 F2400 X-8.664 Y-20.464 E134.77637
G0 F7500 X-8.664 Y-20.300
G0 X-2.888 Y-20.300
G0 X-2.888 Y-20.464
G1 F2400 X-2.888 Y20.664 E136.25714
G0 F7500 X-2.888 Y20.500
G0 X2.888 Y20.500
G0 X2.888 Y20.664
G1 F2400 X2.888 Y-20.464 E137.73792
G0 F7500 X2.888 Y-20.300
G0 X10.500 Y-14.439
G0 X10.664 Y-14.439
G1 F2400 X-10.563 Y-14.440 E138.50218
G0 F7500 X-10.400 Y-14.440
G0 X-10.400 Y-8.664
G0 X-10.563 Y-8.664
G1 F2400 X10.664 Y-8.663 E139.26644
G0 F7500 X10.500 Y-8.663
G0 X10.500 Y-2.887
G0 X10.664 Y-2.887
G1 F2400 X-10.563 Y-2.888 E140.03070
G0 F7500 X-10.400 Y-2.888
G0 X-10.400 Y2.887
G0 X-10.564 Y2.887
G1 F2400 X10.663 Y2.888 E140.79495
G0 F7500 X10.500 Y2.888
G0 X10.500 Y8.664
G0 X10.663 Y8.664
G1 F2400 X-10.564 Y8.663 E141.55921
G0 F7500 X-10.400 Y8.663
G0 X-10.400 Y14.439
G0 X-10.564 Y14.439
G1 F2400 X10.663 Y14.440 E142.32347
;LAYER:7
G1 F2400 E141.32347
G0 F7500 X0.284 Y0.284 Z1.700
;TYPE:WALL-OUTER
G1 F2400 E142.32347
G1 F2700 X0.216 Y0.284 E142.32592
G1 X0.216 Y0.216 E142.32837
G1 X0.284 Y0.216 E142.33082
G1 X0.284 Y0.284 E142.33327
G0 F7500 X1.200 Y1.200
;TYPE:SUPPORT
G1 F2400 X1.200 Y-0.700 E142.40167
G1 X-0.700 Y-0.700 E142.47008
G1 X-0.700 Y1.200 E142.53849
G1 X1.200 Y1.200 E142.60690
G0 F7500 X1.190 Y1.300
G0 X10.500 Y20.590
G0 X10.600 Y20.600
G1 F2400 X-10.500 Y20.600 E143.36658
G1 X-10.500 Y-20.400 E144.84275
G1 X10.600 Y-20.400 E145.60244
G1 X10.600 Y20.600 E147.07861
G0 F7500 X10.663 Y20.216
G1 F2400 X-10.564 Y20.215 E147.84286
G0 F7500 X-10.400 Y20.215
G0 X-8.664 Y20.500
G0 X-8.664 Y20.664
G1 F2400 X-8.664 Y-20.464 E149.32364
G0 F7500 X-8.664 Y-20.300
G0 X-10.400 Y-20.216
G0 X-10.563 Y-20.216
G1 F2400 X10.664 Y-20.215 E150.08790
G0 F7500 X10.500 Y-20.215
G0 X8.664 Y-20.300
G0 X8.664 Y-20.464
G1 F2400 X8.664 Y20.664 E151.56868
G0 F7500 X8.664 Y20.500
G0 X2.888 Y20.500
G0 X2.888 Y20.664
G1 F2400 X2.888 Y-20.464 E153.04945
G0 F7500 X2.888 Y-20.300
G0 X-2.888 Y-20.300
G0 X-2.888 Y-20.464
G1 F2400 X-2.888 Y20.664 E154.53023
G0 F7500 X-2.888 Y20.500
G0 X-10.400 Y14.439
G0 X-10.564 Y14.439
G1 F2400 X10.663 Y14.440 E155.29449
G0 F7500 X10.500 Y14.440
G0 X10.500 Y8.664
G0 X10.663 Y8.664
G1 F2400 X-10.564 Y8.663 E156.05875
G0 F7500 X-10.400 Y8.663
G0 X-10.400 Y2.887
G0 X-10.564 Y2.887
G1 F2400 X10.663 Y2.888 E156.82301
G0 F7500 X10.500 Y2.888
G0 X10.500 Y-2.887
G0 X10.664 Y-2.887
G1 F2400 X-10.563 Y-2.888 E157.58726
G0 F7500 X-10.400 Y-2.888
G0 X-10.400 Y-8.664
G0 X-10.563 Y-8.664
G1 F2400 X10.664 Y-8.663 E158.35152
G0 F7500 X10.500 Y-8.663
G0 X10.500 Y-14.439
G0 X10.664 Y-14.439
G1 F2400 X-10.563 Y-14.440 E159.11578
;LAYER:8
G1 F2400 E158.11578
G0 F7500 X0.216 Y0.216 Z1.900
;TYPE:WALL-OUTER
G1 F2400 E159.11578
G1 F2700 X0.284 Y0.216 E159.11823
G1 X0.284 Y0.284 E159.12068
G1 X0.216 Y0.284 E159.12313
G1 X0.216 Y0.216 E159.12558
G0 F7500 X-0.700 Y-0.700
;TYPE:SUPPORT
G1 F2400 X-0.700 Y1.200 E159.19398
G1 X1.200 Y1.200 E159.26239
G1 X1.200 Y-0.700 E159.33080
G1 X-0.700 Y-0.700 E159.39921
G0 F7500 X-0.690 Y-0.800
G0 X-10.500 Y-20.400
G1 F2400 X10.600 Y-20.400 E160.15889
G1 X10.600 Y20.600 E161.63506
G1 X-10.500 Y20.600 E162.39475
G1 X-10.500 Y-20.400 E163.87092
G0 F7500 X-10.563 Y-20.216
G1 F2400 X10.664 Y-20.215 E164.63517
G0 F7500 X10.500 Y-20.215
G0 X8.664 Y-20.300
G0 X8.664 Y-20.464
G1 F2400 X8.664 Y20.664 E166.11595
G0 F7500 X8.664 Y20.500
G0 X10.500 Y20.216
G0 X10.663 Y20.216
G1 F2400 X-10.564 Y20.215 E166.88021
G0 F7500 X-10.400 Y20.215
G0 X-8.664 Y20.500
G0 X-8.664 Y20.664
G1 F2400 X-8.664 Y-20.464 E168.36099
G0 F7500 X-8.664 Y-20.300
G0 X-2.888 Y-20.300
G0 X-2.888 Y-20.464
G1 F2400 X-2.888 Y20.664 E169.84176
G0 F7500 X-2.888 Y20.500
G0 X2.888 Y20.500
G0 X2.888 Y20.664
G1 F2400 X2.888 Y-20.464 E171.32254
G0 F7500 X2.888 Y-20.300
G0 X10.500 Y-14.439
G0 X10.664 Y-14.439
G1 F2400 X-10.563 Y-14.440 E172.08680
G0 F7500 X-10.400 Y-14.440
G0 X-10.400 Y-8.664
G0 X-10.563 Y-8.664
G1 F2400 X10.664 Y-8.663 E172.85106
G0 F7500 X10.500 Y-8.663
G0 X10.500 Y-2.887
G0 X10.664 Y-2.887
G1 F2400 X-10.563 Y-2.888 E173.61532
G0 F7500 X-10.400 Y-2.888
G0 X-10.400 Y2.887
G0 X-10.564 Y2.887
G1 F2400 X10.663 Y2.888 E174.37958
G0 F7500 X10.500 Y2.888
G0 X10.500 Y8.664
G0 X10.663 Y8.664
G1 F2400 X-10.564 Y8.663 E175.14383
G0 F7500 X-10.400 Y8.663
G0 X-10.400 Y14.439
G0 X-10.564 Y14.439
G1 F2400 X10.663 Y14.440 E175.90809
;LAYER:9
G1 F2400 E174.90809
G0 F7500 X0.284 Y0.284 Z2.100
;TYPE:WALL-OUTER
G1 F2400 E175.90809
G1 F2700 X0.216 Y0.284 E175.91054
G1 X0.216 Y0.216 E175.91299
G1 X0.284 Y0.216 E175.91544
G1 X0.284 Y0.284 E175.91789
G0 F7500 X1.200 Y1.200
