;Generated with Cura_SteamEngine 15.04.6

;Layer count: 16
;LAYER:0
M107
G0 F7500 X-13.716 Y-28.616 Z0.300
;TYPE:SKIRT
G1 F1800 X13.816 Y-28.616 E1.48690
G1 X13.816 Y28.816 E4.58858
G1 X-13.716 Y28.816 E6.07548
G1 X-13.716 Y-28.616 E9.17716
G1 F2400 E8.17716
G0 F7500 X0.216 Y0.216
;TYPE:WALL-OUTER
G1 F2400 E9.17716
G1 F1800 X0.284 Y0.216 E9.18083
G1 X0.284 Y0.284 E9.18450
G1 X0.216 Y0.284 E9.18817
G1 X0.216 Y0.216 E9.19185
G0 F7500 X-0.700 Y-0.700
;TYPE:SUPPORT
G1 F1800 X-0.700 Y1.200 E9.29446
G1 X1.200 Y1.200 E9.39707
G1 X1.200 Y-0.700 E9.49968
G1 X-0.700 Y-0.700 E9.60229
G0 F7500 X-0.690 Y-0.800
G0 X-10.500 Y-25.400
G1 F1800 X10.600 Y-25.400 E10.74182
G1 X10.600 Y25.600 E13.49614
G1 X-10.500 Y25.600 E14.63567
G1 X-10.500 Y-25.400 E17.38998
G0 F7500 X-8.664 Y-25.300
G0 X-8.664 Y-25.464
G1 F1800 X-8.664 Y25.664 E20.15120
G0 F7500 X-8.664 Y25.500
G0 X-10.400 Y20.215
G0 X-10.564 Y20.215
G1 F1800 X10.663 Y20.216 E21.29759
G0 F7500 X10.500 Y20.216
G0 X8.664 Y25.500
G0 X8.664 Y25.664
G1 F1800 X8.664 Y-25.464 E24.05882
G0 F7500 X8.664 Y-25.300
G0 X10.500 Y-20.215
G0 X10.664 Y-20.215
G1 F1800 X-10.563 Y-20.216 E25.20521
G0 F7500 X-10.400 Y-20.216
G0 X-2.888 Y-25.300
G0 X-2.888 Y-25.464
G1 F1800 X-2.888 Y25.664 E27.96643
G0 F7500 X-2.888 Y25.500
G0 X2.888 Y25.500
G0 X2.888 Y25.664
G1 F1800 X2.888 Y-25.464 E30.72766
G0 F7500 X2.888 Y-25.300
G0 X10.500 Y-14.439
G0 X10.664 Y-14.439
G1 F1800 X-10.563 Y-14.440 E31.87405
G0 F7500 X-10.400 Y-14.440
G0 X-10.400 Y-8.664
G0 X-10.563 Y-8.664
G1 F1800 X10.664 Y-8.663 E33.02044
G0 F7500 X10.500 Y-8.663
G0 X10.500 Y-2.887
G0 X10.664 Y-2.887
G1 F1800 X-10.563 Y-2.888 E34.16683
G0 F7500 X-10.400 Y-2.888
G0 X-10.400 Y2.887
G0 X-10.564 Y2.887
G1 F1800 X10.663 Y2.888 E35.31321
G0 F7500 X10.500 Y2.888
G0 X10.500 Y8.664
G0 X10.663 Y8.664
G1 F1800 X-10.564 Y8.663 E36.45960
G0 F7500 X-10.400 Y8.663
G0 X-10.400 Y14.439
G0 X-10.564 Y14.439
G1 F1800 X10.663 Y14.440 E37.60599
;LAYER:1
M106 S63
G1 F2400 E36.60599
G0 F7500 X0.284 Y0.284 Z0.500
;TYPE:WALL-OUTER
G1 F2400 E37.60599
G1 F1980 X0.216 Y0.284 E37.60844
G1 X0.216 Y0.216 E37.61089
G1 X0.284 Y0.216 E37.61334
G1 X0.284 Y0.284 E37.61578
G0 F7500 X1.200 Y1.200
;TYPE:SUPPORT
G1 F1920 X1.200 Y-0.700 E37.68419
G1 X-0.700 Y-0.700 E37.75260
G1 X-0.700 Y1.200 E37.82101
G1 X1.200 Y1.200 E37.88941
G0 F7500 X1.190 Y1.300
G0 X10.500 Y25.590
G0 X10.600 Y25.600
G1 F1920 X-10.500 Y25.600 E38.64910
G1 X-10.500 Y-25.400 E40.48531
G1 X10.600 Y-25.400 E41.24500
G1 X10.600 Y25.600 E43.08121
G0 F7500 X10.500 Y25.590
G0 X8.664 Y25.500
G0 X8.664 Y25.664
G1 F1920 X8.664 Y-25.464 E44.92202
G0 F7500 X8.664 Y-25.300
G0 X10.500 Y-20.215
G0 X10.664 Y-20.215
G1 F1920 X-10.563 Y-20.216 E45.68628
G0 F7500 X-10.400 Y-20.216
G0 X-8.664 Y-25.300
G0 X-8.664 Y-25.464
G1 F1920 X-8.664 Y25.664 E47.52710
G0 F7500 X-8.664 Y25.500
G0 X-10.400 Y20.215
G0 X-10.564 Y20.215
G1 F1920 X10.663 Y20.216 E48.29136
G0 F7500 X10.500 Y20.216
G0 X2.888 Y25.500
G0 X2.888 Y25.664
G1 F1920 X2.888 Y-25.464 E50.13218
G0 F7500 X2.888 Y-25.300
G0 X-2.888 Y-25.300
G0 X-2.888 Y-25.464
G1 F1920 X-2.888 Y25.664 E51.97299
G0 F7500 X-2.888 Y25.500
G0 X-10.400 Y14.439
G0 X-10.564 Y14.439
G1 F1920 X10.663 Y14.440 E52.73725
G0 F7500 X10.500 Y14.440
G0 X10.500 Y8.664
G0 X10.663 Y8.664
G1 F1920 X-10.564 Y8.663 E53.50151
G0 F7500 X-10.400 Y8.663
G0 X-10.400 Y2.887
G0 X-10.564 Y2.887
G1 F1920 X10.663 Y2.888 E54.26577
G0 F7500 X10.500 Y2.888
G0 X10.500 Y-2.887
G0 X10.664 Y-2.887
G1 F1920 X-10.563 Y-2.888 E55.03003
G0 F7500 X-10.400 Y-2.888
G0 X-10.400 Y-8.664
G0 X-10.563 Y-8.664
G1 F1920 X10.664 Y-8.663 E55.79429
G0 F7500 X10.500 Y-8.663
G0 X10.500 Y-14.439
G0 X10.664 Y-14.439
G1 F1920 X-10.563 Y-14.440 E56.55855
;LAYER:2
M106 S127
G1 F2400 E55.55855
G0 F7500 X0.216 Y0.216 Z0.700
;TYPE:WALL-OUTER
G1 F2400 E56.55855
G1 F2220 X0.284 Y0.216 E56.56099
G1 X0.284 Y0.284 E56.56344
G1 X0.216 Y0.284 E56.56589
G1 X0.216 Y0.216 E56.56834
G0 F7500 X-0.700 Y-0.700
;TYPE:SUPPORT
G1 F2100 X-0.700 Y1.200 E56.63675
G1 X1.200 Y1.200 E56.70516
G1 X1.200 Y-0.700 E56.77356
G1 X-0.700 Y-0.700 E56.84197
G0 F7500 X-0.690 Y-0.800
G0 X-10.500 Y-25.400
G1 F2100 X10.600 Y-25.400 E57.60166
G1 X10.600 Y25.600 E59.43787
G1 X-10.500 Y25.600 E60.19755
G1 X-10.500 Y-25.400 E62.03376
G0 F7500 X-8.664 Y-25.300
G0 X-8.664 Y-25.464
G1 F2100 X-8.664 Y25.664 E63.87458
G0 F7500 X-8.664 Y25.500
G0 X-10.400 Y20.215
G0 X-10.564 Y20.215
G1 F2100 X10.663 Y20.216 E64.63884
G0 F7500 X10.500 Y20.216
G0 X8.664 Y25.500
G0 X8.664 Y25.664
G1 F2100 X8.664 Y-25.464 E66.47966
G0 F7500 X8.664 Y-25.300
G0 X10.500 Y-20.215
G0 X10.664 Y-20.215
G1 F2100 X-10.563 Y-20.216 E67.24391
G0 F7500 X-10.400 Y-20.216
G0 X-2.888 Y-25.300
G0 X-2.888 Y-25.464
G1 F2100 X-2.888 Y25.664 E69.08473
G0 F7500 X-2.888 Y25.500
G0 X2.888 Y25.500
G0 X2.888 Y25.664
G1 F2100 X2.888 Y-25.464 E70.92555
G0 F7500 X2.888 Y-25.300
G0 X10.500 Y-14.439
G0 X10.664 Y-14.439
G1 F2100 X-10.563 Y-14.440 E71.68981
G0 F7500 X-10.400 Y-14.440
G0 X-10.400 Y-8.664
G0 X-10.563 Y-8.664
G1 F2100 X10.664 Y-8.663 E72.45407
G0 F7500 X10.500 Y-8.663
G0 X10.500 Y-2.887
G0 X10.664 Y-2.887
G1 F2100 X-10.563 Y-2.888 E73.21833
G0 F7500 X-10.400 Y-2.888
G0 X-10.400 Y2.887
G0 X-10.564 Y2.887
G1 F2100 X10.663 Y2.888 E73.98259
G0 F7500 X10.500 Y2.888
G0 X10.500 Y8.664
G0 X10.663 Y8.664
G1 F2100 X-10.564 Y8.663 E74.74684
G0 F7500 X-10.400 Y8.663
G0 X-10.400 Y14.439
G0 X-10.564 Y14.439
G1 F2100 X10.663 Y14.440 E75.51110
;LAYER:3
G1 F2400 E74.51110
G0 F7500 X0.284 Y0.284 Z0.900
;TYPE:WALL-OUTER
G1 F2400 E75.51110
G1 X0.216 Y0.284 E75.51355
G1 X0.216 Y0.216 E75.51600
G1 X0.284 Y0.216 E75.51845
G1 X0.284 Y0.284 E75.52090
G0 F7500 X1.200 Y1.200
;TYPE:SUPPORT
G1 F2220 X1.200 Y-0.700 E75.58930
G1 X-0.700 Y-0.700 E75.65771
G1 X-0.700 Y1.200 E75.72612
G1 X1.200 Y1.200 E75.79453
G0 F7500 X1.190 Y1.300
G0 X10.500 Y25.590
G0 X10.600 Y25.600
G1 F2220 X-10.500 Y25.600 E76.55421
G1 X-10.500 Y-25.400 E78.39042
G1 X10.600 Y-25.400 E79.15011
G1 X10.600 Y25.600 E80.98632
G0 F7500 X10.500 Y25.590
G0 X8.664 Y25.500
G0 X8.664 Y25.664
G1 F2220 X8.664 Y-25.464 E82.82714
G0 F7500 X8.664 Y-25.300
G0 X10.500 Y-20.215
G0 X10.664 Y-20.215
G1 F2220 X-10.563 Y-20.216 E83.59139
G0 F7500 X-10.400 Y-20.216
G0 X-8.664 Y-25.300
G0 X-8.664 Y-25.464
G1 F2220 X-8.664 Y25.664 E85.43221
G0 F7500 X-8.664 Y25.500
G0 X-10.400 Y20.215
G0 X-10.564 Y20.215
G1 F2220 X10.663 Y20.216 E86.19647
G0 F7500 X10.500 Y20.216
G0 X2.888 Y25.500
G0 X2.888 Y25.664
G1 F2220 X2.888 Y-25.464 E88.03729
G0 F7500 X2.888 Y-25.300
G0 X-2.888 Y-25.300
G0 X-2.888 Y-25.464
G1 F2220 X-2.888 Y25.664 E89.87811
G0 F7500 X-2.888 Y25.500
G0 X-10.400 Y14.439
G0 X-10.564 Y14.439
G1 F2220 X10.663 Y14.440 E90.64236
G0 F7500 X10.500 Y14.440
G0 X10.500 Y8.664
G0 X10.663 Y8.664
G1 F2220 X-10.564 Y8.663 E91.40662
G0 F7500 X-10.400 Y8.663
G0 X-10.400 Y2.887
G0 X-10.564 Y2.887
G1 F2220 X10.663 Y2.888 E92.17088
G0 F7500 X10.500 Y2.888
G0 X10.500 Y-2.887
G0 X10.664 Y-2.887
G1 F2220 X-10.563 Y-2.888 E92.93514
G0 F7500 X-10.400 Y-2.888
G0 X-10.400 Y-8.664
G0 X-10.563 Y-8.664
G1 F2220 X10.664 Y-8.663 E93.69940
G0 F7500 X10.500 Y-8.663
G0 X10.500 Y-14.439
G0 X10.664 Y-14.439
G1 F2220 X-10.563 Y-14.440 E94.46366
;LAYER:4
G1 F2400 E93.46366
G0 F7500 X0.216 Y0.216 Z1.100
;TYPE:WALL-OUTER
G1 F2400 E94.46366
G1 F2700 X0.284 Y0.216 E94.46611
G1 X0.284 Y0.284 E94.46856
G1 X0.216 Y0.284 E94.47100
G1 X0.216 Y0.216 E94.47345
G0 F7500 X-0.700 Y-0.700
;TYPE:SUPPORT
G1 F2400 X-0.700 Y1.200 E94.54186
G1 X1.200 Y1.200 E94.61027
G1 X1.200 Y-0.700 E94.67868
G1 X-0.700 Y-0.700 E94.74708
G0 F7500 X-0.690 Y-0.800
G0 X-10.500 Y-25.400
G1 F2400 X10.600 Y-25.400 E95.50677
G1 X10.600 Y25.600 E97.34298
G1 X-10.500 Y25.600 E98.10267
G1 X-10.500 Y-25.400 E99.93887
G0 F7500 X-8.664 Y-25.300
G0 X-8.664 Y-25.464
G1 F2400 X-8.664 Y25.664 E101.77969
G0 F7500 X-8.664 Y25.500
G0 X-10.400 Y20.215
G0 X-10.564 Y20.215
G1 F2400 X10.663 Y20.216 E102.54395
G0 F7500 X10.500 Y20.216
G0 X8.664 Y25.500
G0 X8.664 Y25.664
G1 F2400 X8.664 Y-25.464 E104.38477
G0 F7500 X8.664 Y-25.300
G0 X10.500 Y-20.215
G0 X10.664 Y-20.215
G1 F2400 X-10.563 Y-20.216 E105.14903
G0 F7500 X-10.400 Y-20.216
G0 X-2.888 Y-25.300
G0 X-2.888 Y-25.464
G1 F2400 X-2.888 Y25.664 E106.98984
G0 F7500 X-2.888 Y25.500
G0 X2.888 Y25.500
G0 X2.888 Y25.664
G1 F2400 X2.888 Y-25.464 E108.83066
G0 F7500 X2.888 Y-25.300
G0 X10.500 Y-14.439
G0 X10.664 Y-14.439
G1 F2400 X-10.563 Y-14.440 E109.59492
G0 F7500 X-10.400 Y-14.440
G0 X-10.400 Y-8.664
G0 X-10.563 Y-8.664
G1 F2400 X10.664 Y-8.663 E110.35918
G0 F7500 X10.500 Y-8.663
G0 X10.500 Y-2.887
G0 X10.664 Y-2.887
G1 F2400 X-10.563 Y-2.888 E111.12344
G0 F7500 X-10.400 Y-2.888
G0 X-10.400 Y2.887
G0 X-10.564 Y2.887
G1 F2400 X10.663 Y2.888 E111.88770
G0 F7500 X10.500 Y2.888
G0 X10.500 Y8.664
G0 X10.663 Y8.664
G1 F2400 X-10.564 Y8.663 E112.65196
G0 F7500 X-10.400 Y8.663
G0 X-10.400 Y14.439
G0 X-10.564 Y14.439
G1 F2400 X10.663 Y14.440 E113.41622
;LAYER:5
G1 F2400 E112.41622
G0 F7500 X0.284 Y0.284 Z1.300
;TYPE:WALL-OUTER
G1 F2400 E113.41622
G1 F2700 X0.216 Y0.284 E113.41866
G1 X0.216 Y0.216 E113.42111
G1 X0.284 Y0.216 E113.42356
G1 X0.284 Y0.284 E113.42601
G0 F7500 X1.200 Y1.200
;TYPE:SUPPORT
G1 F2400 X1.200 Y-0.700 E113.49442
G1 X-0.700 Y-0.700 E113.56282
G1 X-0.700 Y1.200 E113.63123
G1 X1.200 Y1.200 E113.69964
G0 F7500 X1.190 Y1.300
G0 X10.500 Y25.590
G0 X10.600 Y25.600
G1 F2400 X-10.500 Y25.600 E114.45933
G1 X-10.500 Y-25.400 E116.29553
G1 X10.600 Y-25.400 E117.05522
G1 X10.600 Y25.600 E118.89143
G0 F7500 X10.500 Y25.590
G0 X8.664 Y25.500
G0 X8.664 Y25.664
G1 F2400 X8.664 Y-25.464 E120.73225
G0 F7500 X8.664 Y-25.300
G0 X10.500 Y-20.215
G0 X10.664 Y-20.215
G1 F2400 X-10.563 Y-20.216 E121.49651
G0 F7500 X-10.400 Y-20.216
G0 X-8.664 Y-25.300
G0 X-8.664 Y-25.464
G1 F2400 X-8.664 Y25.664 E123.33732
G0 F7500 X-8.664 Y25.500
G0 X-10.400 Y20.215
G0 X-10.564 Y20.215
G1 F2400 X10.663 Y20.216 E124.10158
G0 F7500 X10.500 Y20.216
G0 X2.888 Y25.500
G0 X2.888 Y25.664
G1 F2400 X2.888 Y-25.464 E125.94240
G0 F7500 X2.888 Y-25.300
G0 X-2.888 Y-25.300
G0 X-2.888 Y-25.464
G1 F2400 X-2.888 Y25.664 E127.78322
G0 F7500 X-2.888 Y25.500
G0 X-10.400 Y14.439
G0 X-10.564 Y14.439
G1 F2400 X10.663 Y14.440 E128.54748
G0 F7500 X10.500 Y14.440
G0 X10.500 Y8.664
G0 X10.663 Y8.664
G1 F2400 X-10.564 Y8.663 E129.31174
G0 F7500 X-10.400 Y8.663
G0 X-10.400 Y2.887
G0 X-10.564 Y2.887
G1 F2400 X10.663 Y2.888 E130.07599
G0 F7500 X10.500 Y2.888
G0 X10.500 Y-2.887
G0 X10.664 Y-2.887
G1 F2400 X-10.563 Y-2.888 E130.84025
G0 F7500 X-10.400 Y-2.888
G0 X-10.400 Y-8.664
G0 X-10.563 Y-8.664
G1 F2400 X10.664 Y-8.663 E131.60451
G0 F7500 X10.500 Y-8.663
G0 X10.500 Y-14.439
G0 X10.664 Y-14.439
G1 F2400 X-10.563 Y-14.440 E132.36877
;LAYER:6
G1 F2400 E131.36877
G0 F7500 X0.216 Y0.216 Z1.500
;TYPE:WALL-OUTER
G1 F2400 E132.36877
G1 F2700 X0.284 Y0.216 E132.37122
G1 X0.284 Y0.284 E132.37367
G1 X0.216 Y0.284 E132.37612
G1 X0.216 Y0.216 E132.37856
G0 F7500 X-0.700 Y-0.700
;TYPE:SUPPORT
G1 F2400 X-0.700 Y1.200 E132.44697
G1 X1.200 Y1.200 E132.51538
G1 X1.200 Y-0.700 E132.58379
G1 X-0.700 Y-0.700 E132.65220
G0 F7500 X-0.690 Y-0.800
G0 X-10.500 Y-25.400
G1 F2400 X10.600 Y-25.400 E133.41188
G1 X10.600 Y25.600 E135.24809
G1 X-10.500 Y25.600 E136.00778
G1 X-10.500 Y-25.400 E137.84399
G0 F7500 X-8.664 Y-25.300
G0 X-8.664 Y-25.464
G1 F2400 X-8.664 Y25.664 E139.68480
G0 F7500 X-8.664 Y25.500
G0 X-10.400 Y20.215
G0 X-10.564 Y20.215
G1 F2400 X10.663 Y20.216 E140.44906
G0 F7500 X10.500 Y20.216
G0 X8.664 Y25.500
G0 X8.664 Y25.664
G1 F2400 X8.664 Y-25.464 E142.28988
G0 F7500 X8.664 Y-25.300
G0 X10.500 Y-20.215
G0 X10.664 Y-20.215
G1 F2400 X-10.563 Y-20.216 E143.05414
G0 F7500 X-10.400 Y-20.216
G0 X-2.888 Y-25.300
G0 X-2.888 Y-25.464
G1 F2400 X-2.888 Y25.664 E144.89496
G0 F7500 X-2.888 Y25.500
G0 X2.888 Y25.500
G0 X2.888 Y25.664
G1 F2400 X2.888 Y-25.464 E146.73577
G0 F7500 X2.888 Y-25.300
G0 X10.500 Y-14.439
G0 X10.664 Y-14.439
G1 F2400 X-10.563 Y-14.440 E147.50003
G0 F7500 X-10.400 Y-14.440
G0 X-10.400 Y-8.664
G0 X-10.563 Y-8.664
G1 F2400 X10.664 Y-8.663 E148.26429
G0 F7500 X10.500 Y-8.663
G0 X10.500 Y-2.887
G0 X10.664 Y-2.887
G1 F2400 X-10.563 Y-2.888 E149.02855
G0 F7500 X-10.400 Y-2.888
G0 X-10.400 Y2.887
G0 X-10.564 Y2.887
G1 F2400 X10.663 Y2.888 E149.79281
G0 F7500 X10.500 Y2.888
G0 X10.500 Y8.664
G0 X10.663 Y8.664
G1 F2400 X-10.564 Y8.663 E150.55707
G0 F7500 X-10.400 Y8.663
G0 X-10.400 Y14.439
G0 X-10.564 Y14.439
G1 F2400 X10.663 Y14.440 E151.32133
;LAYER:7
G1 F2400 E150.32133
G0 F7500 X0.284 Y0.284 Z1.700
;TYPE:WALL-OUTER
G1 F2400 E151.32133
G1 F2700 X0.216 Y0.284 E151.32378
G1 X0.216 Y0.216 E151.32622
G1 X0.284 Y0.216 E151.32867
G1 X0.284 Y0.284 E151.33112
G0 F7500 X1.200 Y1.200
;TYPE:SUPPORT
G1 F2400 X1.200 Y-0.700 E151.39953
G1 X-0.700 Y-0.700 E151.46794
G1 X-0.700 Y1.200 E151.53634
G1 X1.200 Y1.200 E151.60475
G0 F7500 X1.190 Y1.300
G0 X10.500 Y25.590
G0 X10.600 Y25.600
G1 F2400 X-10.500 Y25.600 E152.36444
G1 X-10.500 Y-25.400 E154.20065
G1 X10.600 Y-25.400 E154.96033
G1 X10.600 Y25.600 E156.79654
G0 F7500 X10.500 Y25.590
G0 X8.664 Y25.500
G0 X8.664 Y25.664
G1 F2400 X8.664 Y-25.464 E158.63736
G0 F7500 X8.664 Y-25.300
G0 X10.500 Y-20.215
G0 X10.664 Y-20.215
G1 F2400 X-10.563 Y-20.216 E159.40162
G0 F7500 X-10.400 Y-20.216
G0 X-8.664 Y-25.300
G0 X-8.664 Y-25.464
G1 F2400 X-8.664 Y25.664 E161.24244
G0 F7500 X-8.664 Y25.500
G0 X-10.400 Y20.215
G0 X-10.564 Y20.215
G1 F2400 X10.663 Y20.216 E162.00670
G0 F7500 X10.500 Y20.216
G0 X2.888 Y25.500
G0 X2.888 Y25.664
G1 F2400 X2.888 Y-25.464 E163.84751
G0 F7500 X2.888 Y-25.300
G0 X-2.888 Y-25.300
G0 X-2.888 Y-25.464
G1 F2400 X-2.888 Y25.664 E165.68833
G0 F7500 X-2.888 Y25.500
G0 X-10.400 Y14.439
G0 X-10.564 Y14.439
G1 F2400 X10.663 Y14.440 E166.45259
G0 F7500 X10.500 Y14.440
G0 X10.500 Y8.664
G0 X10.663 Y8.664
G1 F2400 X-10.564 Y8.663 E167.21685
G0 F7500 X-10.400 Y8.663
G0 X-10.400 Y2.887
G0 X-10.564 Y2.887
G1 F2400 X10.663 Y2.888 E167.98111
G0 F7500 X10.500 Y2.888
G0 X10.500 Y-2.887
G0 X10.664 Y-2.887
G1 F2400 X-10.563 Y-2.888 E168.74537
G0 F7500 X-10.400 Y-2.888
G0 X-10.400 Y-8.664
G0 X-10.563 Y-8.664
G1 F2400 X10.664 Y-8.663 E169.50963
G0 F7500 X10.500 Y-8.663
G0 X10.500 Y-14.439
G0 X10.664 Y-14.439
G1 F2400 X-10.563 Y-14.440 E170.27388
;LAYER:8
G1 F2400 E169.27388
G0 F7500 X0.216 Y0.216 Z1.900
;TYPE:WALL-OUTER
G1 F2400 E170.27388
G1 F2700 X0.284 Y0.216 E170.27633
G1 X0.284 Y0.284 E170.27878
G1 X0.216 Y0.284 E170.28123
G1 X0.216 Y0.216 E170.28368
G0 F7500 X-0.700 Y-0.700
;TYPE:SUPPORT
G1 F2400 X-0.700 Y1.200 E170.35209
G1 X1.200 Y1.200 E170.42049
G1 X1.200 Y-0.700 E170.48890
G1 X-0.700 Y-0.700 E170.55731
G0 F7500 X-0.690 Y-0.800
G0 X-10.500 Y-25.400
G1 F2400 X10.600 Y-25.400 E171.31699
G1 X10.600 Y25.600 E173.15320
G1 X-10.500 Y25.600 E173.91289
G1 X-10.500 Y-25.400 E175.74910
G0 F7500 X-8.664 Y-25.300
G0 X-8.664 Y-25.464
G1 F2400 X-8.664 Y25.664 E177.58992
G0 F7500 X-8.664 Y25.500
G0 X-10.400 Y20.215
G0 X-10.564 Y20.215
G1 F2400 X10.663 Y20.216 E178.35418
G0 F7500 X10.500 Y20.216
G0 X8.664 Y25.500
G0 X8.664 Y25.664
G1 F2400 X8.664 Y-25.464 E180.19499
G0 F7500 X8.664 Y-25.300
G0 X10.500 Y-20.215
G0 X10.664 Y-20.215
G1 F2400 X-10.563 Y-20.216 E180.95925
G0 F7500 X-10.400 Y-20.216
G0 X-2.888 Y-25.300
G0 X-2.888 Y-25.464
G1 F2400 X-2.888 Y25.664 E182.80007
G0 F7500 X-2.888 Y25.500
G0 X2.888 Y25.500
G0 X2.888 Y25.664
G1 F2400 X2.888 Y-25.464 E184.64089
G0 F7500 X2.888 Y-25.300
G0 X10.500 Y-14.439
G0 X10.664 Y-14.439
G1 F2400 X-10.563 Y-14.440 E185.40515
G0 F7500 X-10.400 Y-14.440
G0 X-10.400 Y-8.664
G0 X-10.563 Y-8.664
G1 F2400 X10.664 Y-8.663 E186.16940
G0 F7500 X10.500 Y-8.663
G0 X10.500 Y-2.887
G0 X10.664 Y-2.887
G1 F2400 X-10.563 Y-2.888 E186.93366
G0 F7500 X-10.400 Y-2.888
G0 X-10.400 Y2.887
G0 X-10.564 Y2.887
G1 F2400 X10.663 Y2.888 E187.69792
G0 F7500 X10.500 Y2.888
G0 X10.500 Y8.664
G0 X10.663 Y8.664
G1 F2400 X-10.564 Y8.663 E188.46218
G0 F7500 X-10.400 Y8.663
G0 X-10.400 Y14.439
G0 X-10.564 Y14.439
G1 F2400 X10.663 Y14.440 E189.22644
;LAYER:9
G1 F2400 E188.22644
G0 F7500 X0.284 Y0.284 Z2.100
;TYPE:WALL-OUTER
G1 F2400 E189.22644
G1 F2700 X0.216 Y0.284 E189.22889
