;Generated with Cura_SteamEngine 15.04.6

;Layer count: 16
;LAYER:0
M107
G0 F7500 X-13.716 Y-33.616 Z0.300
;TYPE:SKIRT
G1 F1800 X13.816 Y-33.616 E1.48690
G1 X13.816 Y33.816 E5.12864
G1 X-13.716 Y33.816 E6.61554
G1 X-13.716 Y-33.616 E10.25728
G1 F2400 E9.25728
G0 F7500 X0.216 Y0.216
;TYPE:WALL-OUTER
G1 F2400 E10.25728
G1 F1800 X0.284 Y0.216 E10.26095
G1 X0.284 Y0.284 E10.26462
G1 X0.216 Y0.284 E10.26830
G1 X0.216 Y0.216 E10.27197
G0 F7500 X-0.700 Y-0.700
;TYPE:SUPPORT
G1 F1800 X-0.700 Y1.200 E10.37458
G1 X1.200 Y1.200 E10.47719
G1 X1.200 Y-0.700 E10.57980
G1 X-0.700 Y-0.700 E10.68242
G0 F7500 X-0.690 Y-0.800
G0 X-10.500 Y-30.400
G1 F1800 X10.600 Y-30.400 E11.82194
G1 X10.600 Y30.600 E15.11632
G1 X-10.500 Y30.600 E16.25585
G1 X-10.500 Y-30.400 E19.55022
G0 F7500 X-8.664 Y-30.300
G0 X-8.664 Y-30.464
G1 F1800 X-8.664 Y30.664 E22.85151
G0 F7500 X-8.664 Y30.500
G0 X-10.400 Y25.991
G0 X-10.564 Y25.991
G1 F1800 X10.663 Y25.992 E23.99790
G0 F7500 X10.500 Y25.992
G0 X8.664 Y30.500
G0 X8.664 Y30.664
G1 F1800 X8.664 Y-30.464 E27.29919
G0 F7500 X8.664 Y-30.300
G0 X10.500 Y-25.991
G0 X10.664 Y-25.991
G1 F1800 X-10.563 Y-25.992 E28.44558
G0 F7500 X-10.400 Y-25.992
G0 X-10.400 Y-20.216
G0 X-10.563 Y-20.216
G1 F1800 X10.664 Y-20.215 E29.59196
G0 F7500 X10.500 Y-20.215
G0 X2.888 Y-30.300
G0 X2.888 Y-30.464
G1 F1800 X2.888 Y30.664 E32.89325
G0 F7500 X2.888 Y30.500
G0 X-2.888 Y30.500
G0 X-2.888 Y30.664
G1 F1800 X-2.888 Y-30.464 E36.19454
G0 F7500 X-2.888 Y-30.300
G0 X-10.400 Y-14.440
G0 X-10.563 Y-14.440
G1 F1800 X10.664 Y-14.439 E37.34093
G0 F7500 X10.500 Y-14.439
G0 X10.500 Y-8.663
G0 X10.664 Y-8.663
G1 F1800 X-10.563 Y-8.664 E38.48732
G0 F7500 X-10.400 Y-8.664
G0 X-10.400 Y-2.888
G0 X-10.563 Y-2.888
G1 F1800 X10.664 Y-2.887 E39.63371
G0 F7500 X10.500 Y-2.887
G0 X10.500 Y2.888
G0 X10.663 Y2.888
G1 F1800 X-10.564 Y2.887 E40.78009
G0 F7500 X-10.400 Y2.887
G0 X-10.400 Y8.663
G0 X-10.564 Y8.663
G1 F1800 X10.663 Y8.664 E41.92648
G0 F7500 X10.500 Y8.664
G0 X10.500 Y14.440
G0 X10.663 Y14.440
G1 F1800 X-10.564 Y14.439 E43.07287
G0 F7500 X-10.400 Y14.439
G0 X-10.400 Y20.215
G0 X-10.564 Y20.215
G1 F1800 X10.663 Y20.216 E44.21926
;LAYER:1
M106 S63
G1 F2400 E43.21926
G0 F7500 X0.284 Y0.284 Z0.500
;TYPE:WALL-OUTER
G1 F2400 E44.21926
G1 F1980 X0.216 Y0.284 E44.22171
G1 X0.216 Y0.216 E44.22416
G1 X0.284 Y0.216 E44.22660
G1 X0.284 Y0.284 E44.22905
G0 F7500 X1.200 Y1.200
;TYPE:SUPPORT
G1 F1920 X1.200 Y-0.700 E44.29746
G1 X-0.700 Y-0.700 E44.36587
G1 X-0.700 Y1.200 E44.43428
G1 X1.200 Y1.200 E44.50268
G0 F7500 X1.190 Y1.300
G0 X10.500 Y30.590
G0 X10.600 Y30.600
G1 F1920 X-10.500 Y30.600 E45.26237
G1 X-10.500 Y-30.400 E47.45862
G1 X10.600 Y-30.400 E48.21831
G1 X10.600 Y30.600 E50.41456
G0 F7500 X10.500 Y30.590
G0 X8.664 Y30.500
G0 X8.664 Y30.664
G1 F1920 X8.664 Y-30.464 E52.61541
G0 F7500 X8.664 Y-30.300
G0 X10.500 Y-25.991
G0 X10.664 Y-25.991
G1 F1920 X-10.563 Y-25.992 E53.37967
G0 F7500 X-10.400 Y-25.992
G0 X-8.664 Y-30.300
G0 X-8.664 Y-30.464
G1 F1920 X-8.664 Y30.664 E55.58053
G0 F7500 X-8.664 Y30.500
G0 X-10.400 Y25.991
G0 X-10.564 Y25.991
G1 F1920 X10.663 Y25.992 E56.34479
G0 F7500 X10.500 Y25.992
G0 X10.500 Y20.216
G0 X10.663 Y20.216
G1 F1920 X-10.564 Y20.215 E57.10905
G0 F7500 X-10.400 Y20.215
G0 X-2.888 Y30.500
G0 X-2.888 Y30.664
G1 F1920 X-2.888 Y-30.464 E59.30991
G0 F7500 X-2.888 Y-30.300
G0 X2.888 Y-30.300
G0 X2.888 Y-30.464
G1 F1920 X2.888 Y30.664 E61.51077
G0 F7500 X2.888 Y30.500
G0 X10.500 Y14.440
G0 X10.663 Y14.440
G1 F1920 X-10.564 Y14.439 E62.27503
G0 F7500 X-10.400 Y14.439
G0 X-10.400 Y8.663
G0 X-10.564 Y8.663
G1 F1920 X10.663 Y8.664 E63.03928
G0 F7500 X10.500 Y8.664
G0 X10.500 Y2.888
G0 X10.663 Y2.888
G1 F1920 X-10.564 Y2.887 E63.80354
G0 F7500 X-10.400 Y2.887
G0 X-10.400 Y-2.888
G0 X-10.563 Y-2.888
G1 F1920 X10.664 Y-2.887 E64.56780
G0 F7500 X10.500 Y-2.887
G0 X10.500 Y-8.663
G0 X10.664 Y-8.663
G1 F1920 X-10.563 Y-8.664 E65.33206
G0 F7500 X-10.400 Y-8.664
G0 X-10.400 Y-14.440
G0 X-10.563 Y-14.440
G1 F1920 X10.664 Y-14.439 E66.09632
G0 F7500 X10.500 Y-14.439
G0 X10.500 Y-20.215
G0 X10.664 Y-20.215
G1 F1920 X-10.563 Y-20.216 E66.86058
;LAYER:2
M106 S127
G1 F2400 E65.86058
G0 F7500 X0.216 Y0.216 Z0.700
;TYPE:WALL-OUTER
G1 F2400 E66.86058
G1 F2220 X0.284 Y0.216 E66.86303
G1 X0.284 Y0.284 E66.86548
G1 X0.216 Y0.284 E66.86792
G1 X0.216 Y0.216 E66.87037
G0 F7500 X-0.700 Y-0.700
;TYPE:SUPPORT
G1 F2100 X-0.700 Y1.200 E66.93878
G1 X1.200 Y1.200 E67.00719
G1 X1.200 Y-0.700 E67.07560
G1 X-0.700 Y-0.700 E67.14400
G0 F7500 X-0.690 Y-0.800
G0 X-10.500 Y-30.400
G1 F2100 X10.600 Y-30.400 E67.90369
G1 X10.600 Y30.600 E70.09994
G1 X-10.500 Y30.600 E70.85963
G1 X-10.500 Y-30.400 E73.05588
G0 F7500 X-8.664 Y-30.300
G0 X-8.664 Y-30.464
G1 F2100 X-8.664 Y30.664 E75.25673
G0 F7500 X-8.664 Y30.500
G0 X-10.400 Y25.991
G0 X-10.564 Y25.991
G1 F2100 X10.663 Y25.992 E76.02099
G0 F7500 X10.500 Y25.992
G0 X8.664 Y30.500
G0 X8.664 Y30.664
G1 F2100 X8.664 Y-30.464 E78.22185
G0 F7500 X8.664 Y-30.300
G0 X10.500 Y-25.991
G0 X10.664 Y-25.991
G1 F2100 X-10.563 Y-25.992 E78.98611
G0 F7500 X-10.400 Y-25.992
G0 X-10.400 Y-20.216
G0 X-10.563 Y-20.216
G1 F2100 X10.664 Y-20.215 E79.75037
G0 F7500 X10.500 Y-20.215
G0 X2.888 Y-30.300
G0 X2.888 Y-30.464
G1 F2100 X2.888 Y30.664 E81.95123
G0 F7500 X2.888 Y30.500
G0 X-2.888 Y30.500
G0 X-2.888 Y30.664
G1 F2100 X-2.888 Y-30.464 E84.15209
G0 F7500 X-2.888 Y-30.300
G0 X-10.400 Y-14.440
G0 X-10.563 Y-14.440
G1 F2100 X10.664 Y-14.439 E84.91634
G0 F7500 X10.500 Y-14.439
G0 X10.500 Y-8.663
G0 X10.664 Y-8.663
G1 F2100 X-10.563 Y-8.664 E85.68060
G0 F7500 X-10.400 Y-8.664
G0 X-10.400 Y-2.888
G0 X-10.563 Y-2.888
G1 F2100 X10.664 Y-2.887 E86.44486
G0 F7500 X10.500 Y-2.887
G0 X10.500 Y2.888
G0 X10.663 Y2.888
G1 F2100 X-10.564 Y2.887 E87.20912
G0 F7500 X-10.400 Y2.887
G0 X-10.400 Y8.663
G0 X-10.564 Y8.663
G1 F2100 X10.663 Y8.664 E87.97338
G0 F7500 X10.500 Y8.664
G0 X10.500 Y14.440
G0 X10.663 Y14.440
G1 F2100 X-10.564 Y14.439 E88.73764
G0 F7500 X-10.400 Y14.439
G0 X-10.400 Y20.215
G0 X-10.564 Y20.215
G1 F2100 X10.663 Y20.216 E89.50190
;LAYER:3
G1 F2400 E88.50190
G0 F7500 X0.284 Y0.284 Z0.900
;TYPE:WALL-OUTER
G1 F2400 E89.50190
G1 X0.216 Y0.284 E89.50435
G1 X0.216 Y0.216 E89.50680
G1 X0.284 Y0.216 E89.50924
G1 X0.284 Y0.284 E89.51169
G0 F7500 X1.200 Y1.200
;TYPE:SUPPORT
G1 F2220 X1.200 Y-0.700 E89.58010
G1 X-0.700 Y-0.700 E89.64851
G1 X-0.700 Y1.200 E89.71692
G1 X1.200 Y1.200 E89.78532
G0 F7500 X1.190 Y1.300
G0 X10.500 Y30.590
G0 X10.600 Y30.600
G1 F2220 X-10.500 Y30.600 E90.54501
G1 X-10.500 Y-30.400 E92.74126
G1 X10.600 Y-30.400 E93.50095
G1 X10.600 Y30.600 E95.69720
G0 F7500 X10.500 Y30.590
G0 X8.664 Y30.500
G0 X8.664 Y30.664
G1 F2220 X8.664 Y-30.464 E97.89805
G0 F7500 X8.664 Y-30.300
G0 X10.500 Y-25.991
G0 X10.664 Y-25.991
G1 F2220 X-10.563 Y-25.992 E98.66231
G0 F7500 X-10.400 Y-25.992
G0 X-8.664 Y-30.300
G0 X-8.664 Y-30.464
G1 F2220 X-8.664 Y30.664 E100.86317
G0 F7500 X-8.664 Y30.500
G0 X-10.400 Y25.991
G0 X-10.564 Y25.991
G1 F2220 X10.663 Y25.992 E101.62743
G0 F7500 X10.500 Y25.992
G0 X10.500 Y20.216
G0 X10.663 Y20.216
G1 F2220 X-10.564 Y20.215 E102.39169
G0 F7500 X-10.400 Y20.215
G0 X-2.888 Y30.500
G0 X-2.888 Y30.664
G1 F2220 X-2.888 Y-30.464 E104.59255
G0 F7500 X-2.888 Y-30.300
G0 X2.888 Y-30.300
G0 X2.888 Y-30.464
G1 F2220 X2.888 Y30.664 E106.79341
G0 F7500 X2.888 Y30.500
G0 X10.500 Y14.440
G0 X10.663 Y14.440
G1 F2220 X-10.564 Y14.439 E107.55766
G0 F7500 X-10.400 Y14.439
G0 X-10.400 Y8.663
G0 X-10.564 Y8.663
G1 F2220 X10.663 Y8.664 E108.32192
G0 F7500 X10.500 Y8.664
G0 X10.500 Y2.888
G0 X10.663 Y2.888
G1 F2220 X-10.564 Y2.887 E109.08618
G0 F7500 X-10.400 Y2.887
G0 X-10.400 Y-2.888
G0 X-10.563 Y-2.888
G1 F2220 X10.664 Y-2.887 E109.85044
G0 F7500 X10.500 Y-2.887
G0 X10.500 Y-8.663
G0 X10.664 Y-8.663
G1 F2220 X-10.563 Y-8.664 E110.61470
G0 F7500 X-10.400 Y-8.664
G0 X-10.400 Y-14.440
G0 X-10.563 Y-14.440
G1 F2220 X10.664 Y-14.439 E111.37896
G0 F7500 X10.500 Y-14.439
G0 X10.500 Y-20.215
G0 X10.664 Y-20.215
G1 F2220 X-10.563 Y-20.216 E112.14322
;LAYER:4
G1 F2400 E111.14322
G0 F7500 X0.216 Y0.216 Z1.100
;TYPE:WALL-OUTER
G1 F2400 E112.14322
G1 F2700 X0.284 Y0.216 E112.14567
G1 X0.284 Y0.284 E112.14812
G1 X0.216 Y0.284 E112.15056
G1 X0.216 Y0.216 E112.15301
G0 F7500 X-0.700 Y-0.700
;TYPE:SUPPORT
G1 F2400 X-0.700 Y1.200 E112.22142
G1 X1.200 Y1.200 E112.28983
G1 X1.200 Y-0.700 E112.35824
G1 X-0.700 Y-0.700 E112.42664
G0 F7500 X-0.690 Y-0.800
G0 X-10.500 Y-30.400
G1 F2400 X10.600 Y-30.400 E113.18633
G1 X10.600 Y30.600 E115.38258
G1 X-10.500 Y30.600 E116.14227
G1 X-10.500 Y-30.400 E118.33852
G0 F7500 X-8.664 Y-30.300
G0 X-8.664 Y-30.464
G1 F2400 X-8.664 Y30.664 E120.53937
G0 F7500 X-8.664 Y30.500
G0 X-10.400 Y25.991
G0 X-10.564 Y25.991
G1 F2400 X10.663 Y25.992 E121.30363
G0 F7500 X10.500 Y25.992
G0 X8.664 Y30.500
G0 X8.664 Y30.664
G1 F2400 X8.664 Y-30.464 E123.50449
G0 F7500 X8.664 Y-30.300
G0 X10.500 Y-25.991
G0 X10.664 Y-25.991
G1 F2400 X-10.563 Y-25.992 E124.26875
G0 F7500 X-10.400 Y-25.992
G0 X-10.400 Y-20.216
G0 X-10.563 Y-20.216
G1 F2400 X10.664 Y-20.215 E125.03301
G0 F7500 X10.500 Y-20.215
G0 X2.888 Y-30.300
G0 X2.888 Y-30.464
G1 F2400 X2.888 Y30.664 E127.23387
G0 F7500 X2.888 Y30.500
G0 X-2.888 Y30.500
G0 X-2.888 Y30.664
G1 F2400 X-2.888 Y-30.464 E129.43473
G0 F7500 X-2.888 Y-30.300
G0 X-10.400 Y-14.440
G0 X-10.563 Y-14.440
G1 F2400 X10.664 Y-14.439 E130.19898
G0 F7500 X10.500 Y-14.439
G0 X10.500 Y-8.663
G0 X10.664 Y-8.663
G1 F2400 X-10.563 Y-8.664 E130.96324
G0 F7500 X-10.400 Y-8.664
G0 X-10.400 Y-2.888
G0 X-10.563 Y-2.888
G1 F2400 X10.664 Y-2.887 E131.72750
G0 F7500 X10.500 Y-2.887
G0 X10.500 Y2.888
G0 X10.663 Y2.888
G1 F2400 X-10.564 Y2.887 E132.49176
G0 F7500 X-10.400 Y2.887
G0 X-10.400 Y8.663
G0 X-10.564 Y8.663
G1 F2400 X10.663 Y8.664 E133.25602
G0 F7500 X10.500 Y8.664
G0 X10.500 Y14.440
G0 X10.663 Y14.440
G1 F2400 X-10.564 Y14.439 E134.02028
G0 F7500 X-10.400 Y14.439
G0 X-10.400 Y20.215
G0 X-10.564 Y20.215
G1 F2400 X10.663 Y20.216 E134.78454
;LAYER:5
G1 F2400 E133.78454
G0 F7500 X0.284 Y0.284 Z1.300
;TYPE:WALL-OUTER
G1 F2400 E134.78454
G1 F2700 X0.216 Y0.284 E134.78699
G1 X0.216 Y0.216 E134.78944
G1 X0.284 Y0.216 E134.79188
G1 X0.284 Y0.284 E134.79433
G0 F7500 X1.200 Y1.200
;TYPE:SUPPORT
G1 F2400 X1.200 Y-0.700 E134.86274
G1 X-0.700 Y-0.700 E134.93115
G1 X-0.700 Y1.200 E134.99955
G1 X1.200 Y1.200 E135.06796
G0 F7500 X1.190 Y1.300
G0 X10.500 Y30.590
G0 X10.600 Y30.600
G1 F2400 X-10.500 Y30.600 E135.82765
G1 X-10.500 Y-30.400 E138.02390
G1 X10.600 Y-30.400 E138.78359
G1 X10.600 Y30.600 E140.97984
G0 F7500 X10.500 Y30.590
G0 X8.664 Y30.500
G0 X8.664 Y30.664
G1 F2400 X8.664 Y-30.464 E143.18069
G0 F7500 X8.664 Y-30.300
G0 X10.500 Y-25.991
G0 X10.664 Y-25.991
G1 F2400 X-10.563 Y-25.992 E143.94495
G0 F7500 X-10.400 Y-25.992
G0 X-8.664 Y-30.300
G0 X-8.664 Y-30.464
G1 F2400 X-8.664 Y30.664 E146.14581
G0 F7500 X-8.664 Y30.500
G0 X-10.400 Y25.991
G0 X-10.564 Y25.991
G1 F2400 X10.663 Y25.992 E146.91007
G0 F7500 X10.500 Y25.992
G0 X10.500 Y20.216
G0 X10.663 Y20.216
G1 F2400 X-10.564 Y20.215 E147.67433
G0 F7500 X-10.400 Y20.215
G0 X-2.888 Y30.500
G0 X-2.888 Y30.664
G1 F2400 X-2.888 Y-30.464 E149.87519
G0 F7500 X-2.888 Y-30.300
G0 X2.888 Y-30.300
G0 X2.888 Y-30.464
G1 F2400 X2.888 Y30.664 E152.07605
G0 F7500 X2.888 Y30.500
G0 X10.500 Y14.440
G0 X10.663 Y14.440
G1 F2400 X-10.564 Y14.439 E152.84030
G0 F7500 X-10.400 Y14.439
G0 X-10.400 Y8.663
G0 X-10.564 Y8.663
G1 F2400 X10.663 Y8.664 E153.60456
G0 F7500 X10.500 Y8.664
G0 X10.500 Y2.888
G0 X10.663 Y2.888
G1 F2400 X-10.564 Y2.887 E154.36882
G0 F7500 X-10.400 Y2.887
G0 X-10.400 Y-2.888
G0 X-10.563 Y-2.888
G1 F2400 X10.664 Y-2.887 E155.13308
G0 F7500 X10.500 Y-2.887
G0 X10.500 Y-8.663
G0 X10.664 Y-8.663
G1 F2400 X-10.563 Y-8.664 E155.89734
G0 F7500 X-10.400 Y-8.664
G0 X-10.400 Y-14.440
G0 X-10.563 Y-14.440
G1 F2400 X10.664 Y-14.439 E156.66160
G0 F7500 X10.500 Y-14.439
G0 X10.500 Y-20.215
G0 X10.664 Y-20.215
G1 F2400 X-10.563 Y-20.216 E157.42586
;LAYER:6
G1 F2400 E156.42586
G0 F7500 X0.216 Y0.216 Z1.500
;TYPE:WALL-OUTER
G1 F2400 E157.42586
G1 F2700 X0.284 Y0.216 E157.42831
G1 X0.284 Y0.284 E157.43075
G1 X0.216 Y0.284 E157.43320
G1 X0.216 Y0.216 E157.43565
G0 F7500 X-0.700 Y-0.700
;TYPE:SUPPORT
G1 F2400 X-0.700 Y1.200 E157.50406
G1 X1.200 Y1.200 E157.57247
G1 X1.200 Y-0.700 E157.64087
G1 X-0.700 Y-0.700 E157.70928
G0 F7500 X-0.690 Y-0.800
G0 X-10.500 Y-30.400
G1 F2400 X10.600 Y-30.400 E158.46897
G1 X10.600 Y30.600 E160.66522
G1 X-10.500 Y30.600 E161.42491
G1 X-10.500 Y-30.400 E163.62116
G0 F7500 X-8.664 Y-30.300
G0 X-8.664 Y-30.464
G1 F2400 X-8.664 Y30.664 E165.82201
G0 F7500 X-8.664 Y30.500
G0 X-10.400 Y25.991
G0 X-10.564 Y25.991
G1 F2400 X10.663 Y25.992 E166.58627
G0 F7500 X10.500 Y25.992
G0 X8.664 Y30.500
G0 X8.664 Y30.664
G1 F2400 X8.664 Y-30.464 E168.78713
G0 F7500 X8.664 Y-30.300
G0 X10.500 Y-25.991
G0 X10.664 Y-25.991
G1 F2400 X-10.563 Y-25.992 E169.55139
G0 F7500 X-10.400 Y-25.992
G0 X-10.400 Y-20.216
G0 X-10.563 Y-20.216
G1 F2400 X10.664 Y-20.215 E170.31565
G0 F7500 X10.500 Y-20.215
G0 X2.888 Y-30.300
G0 X2.888 Y-30.464
G1 F2400 X2.888 Y30.664 E172.51651
G0 F7500 X2.888 Y30.500
G0 X-2.888 Y30.500
G0 X-2.888 Y30.664
G1 F2400 X-2.888 Y-30.464 E174.71737
G0 F7500 X-2.888 Y-30.300
G0 X-10.400 Y-14.440
G0 X-10.563 Y-14.440
G1 F2400 X10.664 Y-14.439 E175.48162
G0 F7500 X10.500 Y-14.439
G0 X10.500 Y-8.663
G0 X10.664 Y-8.663
G1 F2400 X-10.563 Y-8.664 E176.24588
G0 F7500 X-10.400 Y-8.664
G0 X-10.400 Y-2.888
G0 X-10.563 Y-2.888
G1 F2400 X10.664 Y-2.887 E177.01014
G0 F7500 X10.500 Y-2.887
G0 X10.500 Y2.888
G0 X10.663 Y2.888
G1 F2400 X-10.564 Y2.887 E177.77440
G0 F7500 X-10.400 Y2.887
G0 X-10.400 Y8.663
G0 X-10.564 Y8.663
G1 F2400 X10.663 Y8.664 E178.53866
G0 F7500 X10.500 Y8.664
G0 X10.500 Y14.440
G0 X10.663 Y14.440
G1 F2400 X-10.564 Y14.439 E179.30292
G0 F7500 X-10.400 Y14.439
G0 X-10.400 Y20.215
G0 X-10.564 Y20.215
G1 F2400 X10.663 Y20.216 E180.06718
;LAYER:7
G1 F2400 E179.06718
G0 F7500 X0.284 Y0.284 Z1.700
;TYPE:WALL-OUTER
G1 F2400 E180.06718
G1 F2700 X0.216 Y0.284 E180.06963
G1 X0.216 Y0.216 E180.07207
G1 X0.284 Y0.216 E180.07452
G1 X0.284 Y0.284 E180.07697
G0 F7500 X1.200 Y1.200
;TYPE:SUPPORT
G1 F2400 X1.200 Y-0.700 E180.14538
G1 X-0.700 Y-0.700 E180.21379
G1 X-0.700 Y1.200 E180.28219
G1 X1.200 Y1.200 E180.35060
G0 F7500 X1.190 Y1.300
G0 X10.500 Y30.590
G0 X10.600 Y30.600
G1 F2400 X-10.500 Y30.600 E181.11029
G1 X-10.500 Y-30.400 E183.30654
G1 X10.600 Y-30.400 E184.06623
G1 X10.600 Y30.600 E186.26248
G0 F7500 X10.500 Y30.590
G0 X8.664 Y30.500
G0 X8.664 Y30.664
G1 F2400 X8.664 Y-30.464 E188.46333
G0 F7500 X8.664 Y-30.300
G0 X10.500 Y-25.991
G0 X10.664 Y-25.991
G1 F2400 X-10.563 Y-25.992 E189.22759
G0 F7500 X-10.400 Y-25.992
G0 X-8.664 Y-30.300
G0 X-8.664 Y-30.464
G1 F2400 X-8.664 Y30.664 E191.42845
G0 F7500 X-8.664 Y30.500
G0 X-10.400 Y25.991
G0 X-10.564 Y25.991
G1 F2400 X10.663 Y25.992 E192.19271
G0 F7500 X10.500 Y25.992
G0 X10.500 Y20.216
G0 X10.663 Y20.216
G1 F2400 X-10.564 Y20.215 E192.95697
G0 F7500 X-10.400 Y20.215
G0 X-2.888 Y30.500
G0 X-2.888 Y30.664
G1 F2400 X-2.888 Y-30.464 E195.15783
G0 F7500 X-2.888 Y-30.300
G0 X2.888 Y-30.300
G0 X2.888 Y-30.464
G1 F2400 X2.888 Y30.664 E197.35869
G0 F7500 X2.888 Y30.500
G0 X10.500 Y14.440
G0 X10.663 Y14.440
G1 F2400 X-10.564 Y14.439 E198.12294
G0 F7500 X-10.400 Y14.439
G0 X-10.400 Y8.663
G0 X-10.564 Y8.663
G1 F2400 X10.663 Y8.664 E198.88720
G0 F7500 X10.500 Y8.664
G0 X10.500 Y2.888
G0 X10.663 Y2.888
G1 F2400 X-10.564 Y2.887 E199.65146
G0 F7500 X-10.400 Y2.887
G0 X-10.400 Y-2.888
G0 X-10.563 Y-2.888
G1 F2400 X10.664 Y-2.887 E200.41572
G0 F7500 X10.500 Y-2.887
G0 X10.500 Y-8.663
G0 X10.664 Y-8.663
G1 F2400 X-10.563 Y-8.664 E201.17998
G0 F7500 X-10.400 Y-8.664
G0 X-10.400 Y-14.440
G0 X-10.563 Y-14.440
G1 F2400 X10.664 Y-14.439 E201.94424
G0 F7500 X10.500 Y-14.439
G0 X10.500 Y-20.215
G0 X10.664 Y-20.215
G1 F2400 X-10.563 Y-20.216 E202.70850
;LAYER:8
G1 F2400 E201.70850
G0 F7500 X0.216 Y0.216 Z1.900
;TYPE:WALL-OUTER
G1 F2400 E202.70850
G1 F2700 X0.284 Y0.216 E202.71095
G1 X0.284 Y0.284 E202.71339
G1 X0.216 Y0.284 E202.71584
