;Generated with Cura_SteamEngine 15.04.6

;Layer count: 16
;LAYER:0
M107
G0 F7500 X-13.716 Y-38.616 Z0.300
;TYPE:SKIRT
G1 F1800 X13.816 Y-38.616 E1.48690
G1 X13.816 Y38.816 E5.66870
G1 X-13.716 Y38.816 E7.15560
G1 X-13.716 Y-38.616 E11.33740
G1 F2400 E10.33740
G0 F7500 X0.216 Y0.216
;TYPE:WALL-OUTER
G1 F2400 E11.33740
G1 F1800 X0.284 Y0.216 E11.34107
G1 X0.284 Y0.284 E11.34475
G1 X0.216 Y0.284 E11.34842
G1 X0.216 Y0.216 E11.35209
G0 F7500 X-0.700 Y-0.700
;TYPE:SUPPORT
G1 F1800 X-0.700 Y1.200 E11.45470
G1 X1.200 Y1.200 E11.55731
G1 X1.200 Y-0.700 E11.65993
G1 X-0.700 Y-0.700 E11.76254
G0 F7500 X-0.690 Y-0.800
G0 X-10.500 Y-35.400
G1 F1800 X10.600 Y-35.400 E12.90207
G1 X10.600 Y35.600 E16.73650
G1 X-10.500 Y35.600 E17.87603
G1 X-10.500 Y-35.400 E21.71047
G0 F7500 X-8.664 Y-35.300
G0 X-8.664 Y-35.464
G1 F1800 X-8.664 Y35.664 E25.55182
G0 F7500 X-8.664 Y35.500
G0 X-10.400 Y31.767
G0 X-10.564 Y31.767
G1 F1800 X10.663 Y31.768 E26.69821
G0 F7500 X10.500 Y31.768
G0 X8.664 Y35.500
G0 X8.664 Y35.664
G1 F1800 X8.664 Y-35.464 E30.53956
G0 F7500 X8.664 Y-35.300
G0 X10.500 Y-31.767
G0 X10.664 Y-31.767
G1 F1800 X-10.563 Y-31.768 E31.68594
G0 F7500 X-10.400 Y-31.768
G0 X-10.400 Y-25.992
G0 X-10.563 Y-25.992
G1 F1800 X10.664 Y-25.991 E32.83233
G0 F7500 X10.500 Y-25.991
G0 X10.500 Y-20.215
G0 X10.664 Y-20.215
G1 F1800 X-10.563 Y-20.216 E33.97872
G0 F7500 X-10.400 Y-20.216
G0 X-2.888 Y-35.300
G0 X-2.888 Y-35.464
G1 F1800 X-2.888 Y35.664 E37.82007
G0 F7500 X-2.888 Y35.500
G0 X2.888 Y35.500
G0 X2.888 Y35.664
G1 F1800 X2.888 Y-35.464 E41.66142
G0 F7500 X2.888 Y-35.300
G0 X10.500 Y-14.439
G0 X10.664 Y-14.439
G1 F1800 X-10.563 Y-14.440 E42.80781
G0 F7500 X-10.400 Y-14.440
G0 X-10.400 Y-8.664
G0 X-10.563 Y-8.664
G1 F1800 X10.664 Y-8.663 E43.95420
G0 F7500 X10.500 Y-8.663
G0 X10.500 Y-2.887
G0 X10.664 Y-2.887
G1 F1800 X-10.563 Y-2.888 E45.10059
G0 F7500 X-10.400 Y-2.888
G0 X-10.400 Y2.887
G0 X-10.564 Y2.887
G1 F1800 X10.663 Y2.888 E46.24697
G0 F7500 X10.500 Y2.888
G0 X10.500 Y8.664
G0 X10.663 Y8.664
G1 F1800 X-10.564 Y8.663 E47.39336
G0 F7500 X-10.400 Y8.663
G0 X-10.400 Y14.439
G0 X-10.564 Y14.439
G1 F1800 X10.663 Y14.440 E48.53975
G0 F7500 X10.500 Y14.440
G0 X10.500 Y20.216
G0 X10.663 Y20.216
G1 F1800 X-10.564 Y20.215 E49.68614
G0 F7500 X-10.400 Y20.215
G0 X-10.400 Y25.991
G0 X-10.564 Y25.991
G1 F1800 X10.663 Y25.992 E50.83253
;LAYER:1
M106 S63
G1 F2400 E49.83253
G0 F7500 X0.284 Y0.284 Z0.500
;TYPE:WALL-OUTER
G1 F2400 E50.83253
G1 F1980 X0.216 Y0.284 E50.83498
G1 X0.216 Y0.216 E50.83742
G1 X0.284 Y0.216 E50.83987
G1 X0.284 Y0.284 E50.84232
G0 F7500 X1.200 Y1.200
;TYPE:SUPPORT
G1 F1920 X1.200 Y-0.700 E50.91073
G1 X-0.700 Y-0.700 E50.97914
G1 X-0.700 Y1.200 E51.04754
G1 X1.200 Y1.200 E51.11595
G0 F7500 X1.190 Y1.300
G0 X10.500 Y35.590
G0 X10.600 Y35.600
G1 F1920 X-10.500 Y35.600 E51.87564
G1 X-10.500 Y-35.400 E54.43193
G1 X10.600 Y-35.400 E55.19162
G1 X10.600 Y35.600 E57.74791
G0 F7500 X10.500 Y35.590
G0 X8.664 Y35.500
G0 X8.664 Y35.664
G1 F1920 X8.664 Y-35.464 E60.30881
G0 F7500 X8.664 Y-35.300
G0 X10.500 Y-31.767
G0 X10.664 Y-31.767
G1 F1920 X-10.563 Y-31.768 E61.07306
G0 F7500 X-10.400 Y-31.768
G0 X-8.664 Y-35.300
G0 X-8.664 Y-35.464
G1 F1920 X-8.664 Y35.664 E63.63396
G0 F7500 X-8.664 Y35.500
G0 X-10.400 Y31.767
G0 X-10.564 Y31.767
G1 F1920 X10.663 Y31.768 E64.39822
G0 F7500 X10.500 Y31.768
G0 X10.500 Y25.992
G0 X10.663 Y25.992
G1 F1920 X-10.564 Y25.991 E65.16248
G0 F7500 X-10.400 Y25.991
G0 X-10.400 Y20.215
G0 X-10.564 Y20.215
G1 F1920 X10.663 Y20.216 E65.92674
G0 F7500 X10.500 Y20.216
G0 X2.888 Y35.500
G0 X2.888 Y35.664
G1 F1920 X2.888 Y-35.464 E68.48764
G0 F7500 X2.888 Y-35.300
G0 X-2.888 Y-35.300
G0 X-2.888 Y-35.464
G1 F1920 X-2.888 Y35.664 E71.04854
G0 F7500 X-2.888 Y35.500
G0 X-10.400 Y14.439
G0 X-10.564 Y14.439
G1 F1920 X10.663 Y14.440 E71.81280
G0 F7500 X10.500 Y14.440
G0 X10.500 Y8.664
G0 X10.663 Y8.664
G1 F1920 X-10.564 Y8.663 E72.57706
G0 F7500 X-10.400 Y8.663
G0 X-10.400 Y2.887
G0 X-10.564 Y2.887
G1 F1920 X10.663 Y2.888 E73.34132
G0 F7500 X10.500 Y2.888
G0 X10.500 Y-2.887
G0 X10.664 Y-2.887
G1 F1920 X-10.563 Y-2.888 E74.10558
G0 F7500 X-10.400 Y-2.888
G0 X-10.400 Y-8.664
G0 X-10.563 Y-8.664
G1 F1920 X10.664 Y-8.663 E74.86983
G0 F7500 X10.500 Y-8.663
G0 X10.500 Y-14.439
G0 X10.664 Y-14.439
G1 F1920 X-10.563 Y-14.440 E75.63409
G0 F7500 X-10.400 Y-14.440
G0 X-10.400 Y-20.216
G0 X-10.563 Y-20.216
G1 F1920 X10.664 Y-20.215 E76.39835
G0 F7500 X10.500 Y-20.215
G0 X10.500 Y-25.991
G0 X10.664 Y-25.991
G1 F1920 X-10.563 Y-25.992 E77.16261
;LAYER:2
M106 S127
G1 F2400 E76.16261
G0 F7500 X0.216 Y0.216 Z0.700
;TYPE:WALL-OUTER
G1 F2400 E77.16261
G1 F2220 X0.284 Y0.216 E77.16506
G1 X0.284 Y0.284 E77.16751
G1 X0.216 Y0.284 E77.16996
G1 X0.216 Y0.216 E77.17240
G0 F7500 X-0.700 Y-0.700
;TYPE:SUPPORT
G1 F2100 X-0.700 Y1.200 E77.24081
G1 X1.200 Y1.200 E77.30922
G1 X1.200 Y-0.700 E77.37763
G1 X-0.700 Y-0.700 E77.44604
G0 F7500 X-0.690 Y-0.800
G0 X-10.500 Y-35.400
G1 F2100 X10.600 Y-35.400 E78.20572
G1 X10.600 Y35.600 E80.76201
G1 X-10.500 Y35.600 E81.52170
G1 X-10.500 Y-35.400 E84.07799
G0 F7500 X-8.664 Y-35.300
G0 X-8.664 Y-35.464
G1 F2100 X-8.664 Y35.664 E86.63889
G0 F7500 X-8.664 Y35.500
G0 X-10.400 Y31.767
G0 X-10.564 Y31.767
G1 F2100 X10.663 Y31.768 E87.40315
G0 F7500 X10.500 Y31.768
G0 X8.664 Y35.500
G0 X8.664 Y35.664
G1 F2100 X8.664 Y-35.464 E89.96405
G0 F7500 X8.664 Y-35.300
G0 X10.500 Y-31.767
G0 X10.664 Y-31.767
G1 F2100 X-10.563 Y-31.768 E90.72831
G0 F7500 X-10.400 Y-31.768
G0 X-10.400 Y-25.992
G0 X-10.563 Y-25.992
G1 F2100 X10.664 Y-25.991 E91.49257
G0 F7500 X10.500 Y-25.991
G0 X10.500 Y-20.215
G0 X10.664 Y-20.215
G1 F2100 X-10.563 Y-20.216 E92.25682
G0 F7500 X-10.400 Y-20.216
G0 X-2.888 Y-35.300
G0 X-2.888 Y-35.464
G1 F2100 X-2.888 Y35.664 E94.81772
G0 F7500 X-2.888 Y35.500
G0 X2.888 Y35.500
G0 X2.888 Y35.664
G1 F2100 X2.888 Y-35.464 E97.37862
G0 F7500 X2.888 Y-35.300
G0 X10.500 Y-14.439
G0 X10.664 Y-14.439
G1 F2100 X-10.563 Y-14.440 E98.14288
G0 F7500 X-10.400 Y-14.440
G0 X-10.400 Y-8.664
G0 X-10.563 Y-8.664
G1 F2100 X10.664 Y-8.663 E98.90714
G0 F7500 X10.500 Y-8.663
G0 X10.500 Y-2.887
G0 X10.664 Y-2.887
G1 F2100 X-10.563 Y-2.888 E99.67140
G0 F7500 X-10.400 Y-2.888
G0 X-10.400 Y2.887
G0 X-10.564 Y2.887
G1 F2100 X10.663 Y2.888 E100.43566
G0 F7500 X10.500 Y2.888
G0 X10.500 Y8.664
G0 X10.663 Y8.664
G1 F2100 X-10.564 Y8.663 E101.19992
G0 F7500 X-10.400 Y8.663
G0 X-10.400 Y14.439
G0 X-10.564 Y14.439
G1 F2100 X10.663 Y14.440 E101.96418
G0 F7500 X10.500 Y14.440
G0 X10.500 Y20.216
G0 X10.663 Y20.216
G1 F2100 X-10.564 Y20.215 E102.72844
G0 F7500 X-10.400 Y20.215
G0 X-10.400 Y25.991
G0 X-10.564 Y25.991
G1 F2100 X10.663 Y25.992 E103.49269
;LAYER:3
G1 F2400 E102.49269
G0 F7500 X0.284 Y0.284 Z0.900
;TYPE:WALL-OUTER
G1 F2400 E103.49269
G1 X0.216 Y0.284 E103.49514
G1 X0.216 Y0.216 E103.49759
G1 X0.284 Y0.216 E103.50004
G1 X0.284 Y0.284 E103.50249
G0 F7500 X1.200 Y1.200
;TYPE:SUPPORT
G1 F2220 X1.200 Y-0.700 E103.57090
G1 X-0.700 Y-0.700 E103.63930
G1 X-0.700 Y1.200 E103.70771
G1 X1.200 Y1.200 E103.77612
G0 F7500 X1.190 Y1.300
G0 X10.500 Y35.590
G0 X10.600 Y35.600
G1 F2220 X-10.500 Y35.600 E104.53581
G1 X-10.500 Y-35.400 E107.09210
G1 X10.600 Y-35.400 E107.85178
G1 X10.600 Y35.600 E110.40807
G0 F7500 X10.500 Y35.590
G0 X8.664 Y35.500
G0 X8.664 Y35.664
G1 F2220 X8.664 Y-35.464 E112.96897
G0 F7500 X8.664 Y-35.300
G0 X10.500 Y-31.767
G0 X10.664 Y-31.767
G1 F2220 X-10.563 Y-31.768 E113.73323
G0 F7500 X-10.400 Y-31.768
G0 X-8.664 Y-35.300
G0 X-8.664 Y-35.464
G1 F2220 X-8.664 Y35.664 E116.29413
G0 F7500 X-8.664 Y35.500
G0 X-10.400 Y31.767
G0 X-10.564 Y31.767
G1 F2220 X10.663 Y31.768 E117.05839
G0 F7500 X10.500 Y31.768
G0 X10.500 Y25.992
G0 X10.663 Y25.992
G1 F2220 X-10.564 Y25.991 E117.82265
G0 F7500 X-10.400 Y25.991
G0 X-10.400 Y20.215
G0 X-10.564 Y20.215
G1 F2220 X10.663 Y20.216 E118.58691
G0 F7500 X10.500 Y20.216
G0 X2.888 Y35.500
G0 X2.888 Y35.664
G1 F2220 X2.888 Y-35.464 E121.14781
G0 F7500 X2.888 Y-35.300
G0 X-2.888 Y-35.300
G0 X-2.888 Y-35.464
G1 F2220 X-2.888 Y35.664 E123.70871
G0 F7500 X-2.888 Y35.500
G0 X-10.400 Y14.439
G0 X-10.564 Y14.439
G1 F2220 X10.663 Y14.440 E124.47297
G0 F7500 X10.500 Y14.440
G0 X10.500 Y8.664
G0 X10.663 Y8.664
G1 F2220 X-10.564 Y8.663 E125.23722
G0 F7500 X-10.400 Y8.663
G0 X-10.400 Y2.887
G0 X-10.564 Y2.887
G1 F2220 X10.663 Y2.888 E126.00148
G0 F7500 X10.500 Y2.888
G0 X10.500 Y-2.887
G0 X10.664 Y-2.887
G1 F2220 X-10.563 Y-2.888 E126.76574
G0 F7500 X-10.400 Y-2.888
G0 X-10.400 Y-8.664
G0 X-10.563 Y-8.664
G1 F2220 X10.664 Y-8.663 E127.53000
G0 F7500 X10.500 Y-8.663
G0 X10.500 Y-14.439
G0 X10.664 Y-14.439
G1 F2220 X-10.563 Y-14.440 E128.29426
G0 F7500 X-10.400 Y-14.440
G0 X-10.400 Y-20.216
G0 X-10.563 Y-20.216
G1 F2220 X10.664 Y-20.215 E129.05852
G0 F7500 X10.500 Y-20.215
G0 X10.500 Y-25.991
G0 X10.664 Y-25.991
G1 F2220 X-10.563 Y-25.992 E129.82278
;LAYER:4
G1 F2400 E128.82278
G0 F7500 X0.216 Y0.216 Z1.100
;TYPE:WALL-OUTER
G1 F2400 E129.82278
G1 F2700 X0.284 Y0.216 E129.82523
G1 X0.284 Y0.284 E129.82767
G1 X0.216 Y0.284 E129.83012
G1 X0.216 Y0.216 E129.83257
G0 F7500 X-0.700 Y-0.700
;TYPE:SUPPORT
G1 F2400 X-0.700 Y1.200 E129.90098
G1 X1.200 Y1.200 E129.96939
G1 X1.200 Y-0.700 E130.03779
G1 X-0.700 Y-0.700 E130.10620
G0 F7500 X-0.690 Y-0.800
G0 X-10.500 Y-35.400
G1 F2400 X10.600 Y-35.400 E130.86589
G1 X10.600 Y35.600 E133.42218
G1 X-10.500 Y35.600 E134.18187
G1 X-10.500 Y-35.400 E136.73816
G0 F7500 X-8.664 Y-35.300
G0 X-8.664 Y-35.464
G1 F2400 X-8.664 Y35.664 E139.29906
G0 F7500 X-8.664 Y35.500
G0 X-10.400 Y31.767
G0 X-10.564 Y31.767
G1 F2400 X10.663 Y31.768 E140.06332
G0 F7500 X10.500 Y31.768
G0 X8.664 Y35.500
G0 X8.664 Y35.664
G1 F2400 X8.664 Y-35.464 E142.62421
G0 F7500 X8.664 Y-35.300
G0 X10.500 Y-31.767
G0 X10.664 Y-31.767
G1 F2400 X-10.563 Y-31.768 E143.38847
G0 F7500 X-10.400 Y-31.768
G0 X-10.400 Y-25.992
G0 X-10.563 Y-25.992
G1 F2400 X10.664 Y-25.991 E144.15273
G0 F7500 X10.500 Y-25.991
G0 X10.500 Y-20.215
G0 X10.664 Y-20.215
G1 F2400 X-10.563 Y-20.216 E144.91699
G0 F7500 X-10.400 Y-20.216
G0 X-2.888 Y-35.300
G0 X-2.888 Y-35.464
G1 F2400 X-2.888 Y35.664 E147.47789
G0 F7500 X-2.888 Y35.500
G0 X2.888 Y35.500
G0 X2.888 Y35.664
G1 F2400 X2.888 Y-35.464 E150.03879
G0 F7500 X2.888 Y-35.300
G0 X10.500 Y-14.439
G0 X10.664 Y-14.439
G1 F2400 X-10.563 Y-14.440 E150.80305
G0 F7500 X-10.400 Y-14.440
G0 X-10.400 Y-8.664
G0 X-10.563 Y-8.664
G1 F2400 X10.664 Y-8.663 E151.56731
G0 F7500 X10.500 Y-8.663
G0 X10.500 Y-2.887
G0 X10.664 Y-2.887
G1 F2400 X-10.563 Y-2.888 E152.33157
G0 F7500 X-10.400 Y-2.888
G0 X-10.400 Y2.887
G0 X-10.564 Y2.887
G1 F2400 X10.663 Y2.888 E153.09583
G0 F7500 X10.500 Y2.888
G0 X10.500 Y8.664
G0 X10.663 Y8.664
G1 F2400 X-10.564 Y8.663 E153.86008
G0 F7500 X-10.400 Y8.663
G0 X-10.400 Y14.439
G0 X-10.564 Y14.439
G1 F2400 X10.663 Y14.440 E154.62434
G0 F7500 X10.500 Y14.440
G0 X10.500 Y20.216
G0 X10.663 Y20.216
G1 F2400 X-10.564 Y20.215 E155.38860
G0 F7500 X-10.400 Y20.215
G0 X-10.400 Y25.991
G0 X-10.564 Y25.991
G1 F2400 X10.663 Y25.992 E156.15286
;LAYER:5
G1 F2400 E155.15286
G0 F7500 X0.284 Y0.284 Z1.300
;TYPE:WALL-OUTER
G1 F2400 E156.15286
G1 F2700 X0.216 Y0.284 E156.15531
G1 X0.216 Y0.216 E156.15776
G1 X0.284 Y0.216 E156.16021
G1 X0.284 Y0.284 E156.16265
G0 F7500 X1.200 Y1.200
;TYPE:SUPPORT
G1 F2400 X1.200 Y-0.700 E156.23106
G1 X-0.700 Y-0.700 E156.29947
G1 X-0.700 Y1.200 E156.36788
G1 X1.200 Y1.200 E156.43629
G0 F7500 X1.190 Y1.300
G0 X10.500 Y35.590
G0 X10.600 Y35.600
G1 F2400 X-10.500 Y35.600 E157.19597
G1 X-10.500 Y-35.400 E159.75226
G1 X10.600 Y-35.400 E160.51195
G1 X10.600 Y35.600 E163.06824
G0 F7500 X10.500 Y35.590
G0 X8.664 Y35.500
G0 X8.664 Y35.664
G1 F2400 X8.664 Y-35.464 E165.62914
G0 F7500 X8.664 Y-35.300
G0 X10.500 Y-31.767
G0 X10.664 Y-31.767
G1 F2400 X-10.563 Y-31.768 E166.39340
G0 F7500 X-10.400 Y-31.768
G0 X-8.664 Y-35.300
G0 X-8.664 Y-35.464
G1 F2400 X-8.664 Y35.664 E168.95430
G0 F7500 X-8.664 Y35.500
G0 X-10.400 Y31.767
G0 X-10.564 Y31.767
G1 F2400 X10.663 Y31.768 E169.71856
G0 F7500 X10.500 Y31.768
G0 X10.500 Y25.992
G0 X10.663 Y25.992
G1 F2400 X-10.564 Y25.991 E170.48282
G0 F7500 X-10.400 Y25.991
G0 X-10.400 Y20.215
G0 X-10.564 Y20.215
G1 F2400 X10.663 Y20.216 E171.24707
G0 F7500 X10.500 Y20.216
G0 X2.888 Y35.500
G0 X2.888 Y35.664
G1 F2400 X2.888 Y-35.464 E173.80797
G0 F7500 X2.888 Y-35.300
G0 X-2.888 Y-35.300
G0 X-2.888 Y-35.464
G1 F2400 X-2.888 Y35.664 E176.36887
G0 F7500 X-2.888 Y35.500
G0 X-10.400 Y14.439
G0 X-10.564 Y14.439
G1 F2400 X10.663 Y14.440 E177.13313
G0 F7500 X10.500 Y14.440
G0 X10.500 Y8.664
G0 X10.663 Y8.664
G1 F2400 X-10.564 Y8.663 E177.89739
G0 F7500 X-10.400 Y8.663
G0 X-10.400 Y2.887
G0 X-10.564 Y2.887
G1 F2400 X10.663 Y2.888 E178.66165
G0 F7500 X10.500 Y2.888
G0 X10.500 Y-2.887
G0 X10.664 Y-2.887
G1 F2400 X-10.563 Y-2.888 E179.42591
G0 F7500 X-10.400 Y-2.888
G0 X-10.400 Y-8.664
G0 X-10.563 Y-8.664
G1 F2400 X10.664 Y-8.663 E180.19017
G0 F7500 X10.500 Y-8.663
G0 X10.500 Y-14.439
G0 X10.664 Y-14.439
G1 F2400 X-10.563 Y-14.440 E180.95443
G0 F7500 X-10.400 Y-14.440
G0 X-10.400 Y-20.216
G0 X-10.563 Y-20.216
G1 F2400 X10.664 Y-20.215 E181.71869
G0 F7500 X10.500 Y-20.215
G0 X10.500 Y-25.991
G0 X10.664 Y-25.991
G1 F2400 X-10.563 Y-25.992 E182.48295
;LAYER:6
G1 F2400 E181.48295
G0 F7500 X0.216 Y0.216 Z1.500
;TYPE:WALL-OUTER
G1 F2400 E182.48295
G1 F2700 X0.284 Y0.216 E182.48539
G1 X0.284 Y0.284 E182.48784
G1 X0.216 Y0.284 E182.49029
G1 X0.216 Y0.216 E182.49274
G0 F7500 X-0.700 Y-0.700
;TYPE:SUPPORT
G1 F2400 X-0.700 Y1.200 E182.56115
G1 X1.200 Y1.200 E182.62955
G1 X1.200 Y-0.700 E182.69796
G1 X-0.700 Y-0.700 E182.76637
G0 F7500 X-0.690 Y-0.800
G0 X-10.500 Y-35.400
G1 F2400 X10.600 Y-35.400 E183.52606
G1 X10.600 Y35.600 E186.08235
G1 X-10.500 Y35.600 E186.84203
G1 X-10.500 Y-35.400 E189.39832
G0 F7500 X-8.664 Y-35.300
G0 X-8.664 Y-35.464
G1 F2400 X-8.664 Y35.664 E191.95922
G0 F7500 X-8.664 Y35.500
G0 X-10.400 Y31.767
G0 X-10.564 Y31.767
G1 F2400 X10.663 Y31.768 E192.72348
G0 F7500 X10.500 Y31.768
G0 X8.664 Y35.500
G0 X8.664 Y35.664
G1 F2400 X8.664 Y-35.464 E195.28438
G0 F7500 X8.664 Y-35.300
G0 X10.500 Y-31.767
G0 X10.664 Y-31.767
G1 F2400 X-10.563 Y-31.768 E196.04864
G0 F7500 X-10.400 Y-31.768
G0 X-10.400 Y-25.992
G0 X-10.563 Y-25.992
G1 F2400 X10.664 Y-25.991 E196.81290
G0 F7500 X10.500 Y-25.991
G0 X10.500 Y-20.215
G0 X10.664 Y-20.215
G1 F2400 X-10.563 Y-20.216 E197.57716
G0 F7500 X-10.400 Y-20.216
G0 X-2.888 Y-35.300
G0 X-2.888 Y-35.464
G1 F2400 X-2.888 Y35.664 E200.13806
G0 F7500 X-2.888 Y35.500
G0 X2.888 Y35.500
G0 X2.888 Y35.664
G1 F2400 X2.888 Y-35.464 E202.69896
G0 F7500 X2.888 Y-35.300
G0 X10.500 Y-14.439
G0 X10.664 Y-14.439
G1 F2400 X-10.563 Y-14.440 E203.46322
G0 F7500 X-10.400 Y-14.440
G0 X-10.400 Y-8.664
G0 X-10.563 Y-8.664
G1 F2400 X10.664 Y-8.663 E204.22748
G0 F7500 X10.500 Y-8.663
G0 X10.500 Y-2.887
G0 X10.664 Y-2.887
G1 F2400 X-10.563 Y-2.888 E204.99173
G0 F7500 X-10.400 Y-2.888
G0 X-10.400 Y2.887
G0 X-10.564 Y2.887
G1 F2400 X10.663 Y2.888 E205.75599
G0 F7500 X10.500 Y2.888
G0 X10.500 Y8.664
G0 X10.663 Y8.664
G1 F2400 X-10.564 Y8.663 E206.52025
G0 F7500 X-10.400 Y8.663
G0 X-10.400 Y14.439
G0 X-10.564 Y14.439
G1 F2400 X10.663 Y14.440 E207.28451
G0 F7500 X10.500 Y14.440
G0 X10.500 Y20.216
G0 X10.663 Y20.216
G1 F2400 X-10.564 Y20.215 E208.04877
G0 F7500 X-10.400 Y20.215
G0 X-10.400 Y25.991
G0 X-10.564 Y25.991
G1 F2400 X10.663 Y25.992 E208.81303
;LAYER:7
G1 F2400 E207.81303
G0 F7500 X0.284 Y0.284 Z1.700
;TYPE:WALL-OUTER
G1 F2400 E208.81303
G1 F2700 X0.216 Y0.284 E208.81548
G1 X0.216 Y0.216 E208.81793
G1 X0.284 Y0.216 E208.82037
G1 X0.284 Y0.284 E208.82282
G0 F7500 X1.200 Y1.200
;TYPE:SUPPORT
G1 F2400 X1.200 Y-0.700 E208.89123
G1 X-0.700 Y-0.700 E208.95964
G1 X-0.700 Y1.200 E209.02805
G1 X1.200 Y1.200 E209.09645
G0 F7500 X1.190 Y1.300
G0 X10.500 Y35.590
G0 X10.600 Y35.600
G1 F2400 X-10.500 Y35.600 E209.85614
G1 X-10.500 Y-35.400 E212.41243
G1 X10.600 Y-35.400 E213.17212
G1 X10.600 Y35.600 E215.72841
G0 F7500 X10.500 Y35.590
G0 X8.664 Y35.500
G0 X8.664 Y35.664
G1 F2400 X8.664 Y-35.464 E218.28931
G0 F7500 X8.664 Y-35.300
G0 X10.500 Y-31.767
