;Generated with Cura_SteamEngine 15.04.6

;Layer count: 16
;LAYER:0
M107
G0 F7500 X-13.716 Y-43.616 Z0.300
;TYPE:SKIRT
G1 F1800 X13.816 Y-43.616 E1.48690
G1 X13.816 Y43.816 E6.20876
G1 X-13.716 Y43.816 E7.69566
G1 X-13.716 Y-43.616 E12.41752
G1 F2400 E11.41752
G0 F7500 X0.216 Y0.216
;TYPE:WALL-OUTER
G1 F2400 E12.41752
G1 F1800 X0.284 Y0.216 E12.42120
G1 X0.284 Y0.284 E12.42487
G1 X0.216 Y0.284 E12.42854
G1 X0.216 Y0.216 E12.43221
G0 F7500 X-0.700 Y-0.700
;TYPE:SUPPORT
G1 F1800 X-0.700 Y1.200 E12.53483
G1 X1.200 Y1.200 E12.63744
G1 X1.200 Y-0.700 E12.74005
G1 X-0.700 Y-0.700 E12.84266
G0 F7500 X-0.690 Y-0.800
G0 X-10.500 Y-40.400
G1 F1800 X10.600 Y-40.400 E13.98219
G1 X10.600 Y40.600 E18.35669
G1 X-10.500 Y40.600 E19.49622
G1 X-10.500 Y-40.400 E23.87072
G0 F7500 X-8.664 Y-40.300
G0 X-8.664 Y-40.464
G1 F1800 X-8.664 Y40.664 E28.25213
G0 F7500 X-8.664 Y40.500
G0 X-2.888 Y40.500
G0 X-2.888 Y40.664
G1 F1800 X-2.888 Y-40.464 E32.63354
G0 F7500 X-2.888 Y-40.300
G0 X2.888 Y-40.300
G0 X2.888 Y-40.464
G1 F1800 X2.888 Y40.664 E37.01495
G0 F7500 X2.888 Y40.500
G0 X8.664 Y40.500
G0 X8.664 Y40.664
G1 F1800 X8.664 Y-40.464 E41.39636
G0 F7500 X8.664 Y-40.300
G0 X10.500 Y-37.543
G0 X10.664 Y-37.543
G1 F1800 X-10.563 Y-37.544 E42.54275
G0 F7500 X-10.400 Y-37.544
G0 X-10.400 Y-31.768
G0 X-10.563 Y-31.768
G1 F1800 X10.664 Y-31.767 E43.68913
G0 F7500 X10.500 Y-31.767
G0 X10.500 Y-25.991
G0 X10.664 Y-25.991
G1 F1800 X-10.563 Y-25.992 E44.83552
G0 F7500 X-10.400 Y-25.992
G0 X-10.400 Y-20.216
G0 X-10.563 Y-20.216
G1 F1800 X10.664 Y-20.215 E45.98191
G0 F7500 X10.500 Y-20.215
G0 X10.500 Y-14.439
G0 X10.664 Y-14.439
G1 F1800 X-10.563 Y-14.440 E47.12830
G0 F7500 X-10.400 Y-14.440
G0 X-10.400 Y-8.664
G0 X-10.563 Y-8.664
G1 F1800 X10.664 Y-8.663 E48.27469
G0 F7500 X10.500 Y-8.663
G0 X10.500 Y-2.887
G0 X10.664 Y-2.887
G1 F1800 X-10.563 Y-2.888 E49.42108
G0 F7500 X-10.400 Y-2.888
G0 X-10.400 Y2.887
G0 X-10.564 Y2.887
G1 F1800 X10.663 Y2.888 E50.56747
G0 F7500 X10.500 Y2.888
G0 X10.500 Y8.664
G0 X10.663 Y8.664
G1 F1800 X-10.564 Y8.663 E51.71385
G0 F7500 X-10.400 Y8.663
G0 X-10.400 Y14.439
G0 X-10.564 Y14.439
G1 F1800 X10.663 Y14.440 E52.86024
G0 F7500 X10.500 Y14.440
G0 X10.500 Y20.216
G0 X10.663 Y20.216
G1 F1800 X-10.564 Y20.215 E54.00663
G0 F7500 X-10.400 Y20.215
G0 X-10.400 Y25.991
G0 X-10.564 Y25.991
G1 F1800 X10.663 Y25.992 E55.15302
G0 F7500 X10.500 Y25.992
G0 X10.500 Y31.768
G0 X10.663 Y31.768
G1 F1800 X-10.564 Y31.767 E56.29941
G0 F7500 X-10.400 Y31.767
G0 X-10.400 Y37.543
G0 X-10.564 Y37.543
G1 F1800 X10.663 Y37.544 E57.44580
;LAYER:1
M106 S63
G1 F2400 E56.44580
G0 F7500 X0.284 Y0.284 Z0.500
;TYPE:WALL-OUTER
G1 F2400 E57.44580
G1 F1980 X0.216 Y0.284 E57.44824
G1 X0.216 Y0.216 E57.45069
G1 X0.284 Y0.216 E57.45314
G1 X0.284 Y0.284 E57.45559
G0 F7500 X1.200 Y1.200
;TYPE:SUPPORT
G1 F1920 X1.200 Y-0.700 E57.52400
G1 X-0.700 Y-0.700 E57.59240
G1 X-0.700 Y1.200 E57.66081
G1 X1.200 Y1.200 E57.72922
G0 F7500 X1.190 Y1.300
G0 X10.500 Y40.590
G0 X10.600 Y40.600
G1 F1920 X-10.500 Y40.600 E58.48891
G1 X-10.500 Y-40.400 E61.40524
G1 X10.600 Y-40.400 E62.16492
G1 X10.600 Y40.600 E65.08126
G0 F7500 X10.500 Y40.590
G0 X8.664 Y40.500
G0 X8.664 Y40.664
G1 F1920 X8.664 Y-40.464 E68.00220
G0 F7500 X8.664 Y-40.300
G0 X2.888 Y-40.300
G0 X2.888 Y-40.464
G1 F1920 X2.888 Y40.664 E70.92314
G0 F7500 X2.888 Y40.500
G0 X-2.888 Y40.500
G0 X-2.888 Y40.664
G1 F1920 X-2.888 Y-40.464 E73.84408
G0 F7500 X-2.888 Y-40.300
G0 X-8.664 Y-40.300
G0 X-8.664 Y-40.464
G1 F1920 X-8.664 Y40.664 E76.76502
G0 F7500 X-8.664 Y40.500
G0 X-10.400 Y37.543
G0 X-10.564 Y37.543
G1 F1920 X10.663 Y37.544 E77.52928
G0 F7500 X10.500 Y37.544
G0 X10.500 Y31.768
G0 X10.663 Y31.768
G1 F1920 X-10.564 Y31.767 E78.29354
G0 F7500 X-10.400 Y31.767
G0 X-10.400 Y25.991
G0 X-10.564 Y25.991
G1 F1920 X10.663 Y25.992 E79.05779
G0 F7500 X10.500 Y25.992
G0 X10.500 Y20.216
G0 X10.663 Y20.216
G1 F1920 X-10.564 Y20.215 E79.82205
G0 F7500 X-10.400 Y20.215
G0 X-10.400 Y14.439
G0 X-10.564 Y14.439
G1 F1920 X10.663 Y14.440 E80.58631
G0 F7500 X10.500 Y14.440
G0 X10.500 Y8.664
G0 X10.663 Y8.664
G1 F1920 X-10.564 Y8.663 E81.35057
G0 F7500 X-10.400 Y8.663
G0 X-10.400 Y2.887
G0 X-10.564 Y2.887
G1 F1920 X10.663 Y2.888 E82.11483
G0 F7500 X10.500 Y2.888
G0 X10.500 Y-2.887
G0 X10.664 Y-2.887
G1 F1920 X-10.563 Y-2.888 E82.87909
G0 F7500 X-10.400 Y-2.888
G0 X-10.400 Y-8.664
G0 X-10.563 Y-8.664
G1 F1920 X10.664 Y-8.663 E83.64335
G0 F7500 X10.500 Y-8.663
G0 X10.500 Y-14.439
G0 X10.664 Y-14.439
G1 F1920 X-10.563 Y-14.440 E84.40761
G0 F7500 X-10.400 Y-14.440
G0 X-10.400 Y-20.216
G0 X-10.563 Y-20.216
G1 F1920 X10.664 Y-20.215 E85.17187
G0 F7500 X10.500 Y-20.215
G0 X10.500 Y-25.991
G0 X10.664 Y-25.991
G1 F1920 X-10.563 Y-25.992 E85.93612
G0 F7500 X-10.400 Y-25.992
G0 X-10.400 Y-31.768
G0 X-10.563 Y-31.768
G1 F1920 X10.664 Y-31.767 E86.70038
G0 F7500 X10.500 Y-31.767
G0 X10.500 Y-37.543
G0 X10.664 Y-37.543
G1 F1920 X-10.563 Y-37.544 E87.46464
;LAYER:2
M106 S127
G1 F2400 E86.46464
G0 F7500 X0.216 Y0.216 Z0.700
;TYPE:WALL-OUTER
G1 F2400 E87.46464
G1 F2220 X0.284 Y0.216 E87.46709
G1 X0.284 Y0.284 E87.46954
G1 X0.216 Y0.284 E87.47199
G1 X0.216 Y0.216 E87.47444
G0 F7500 X-0.700 Y-0.700
;TYPE:SUPPORT
G1 F2100 X-0.700 Y1.200 E87.54284
G1 X1.200 Y1.200 E87.61125
G1 X1.200 Y-0.700 E87.67966
G1 X-0.700 Y-0.700 E87.74807
G0 F7500 X-0.690 Y-0.800
G0 X-10.500 Y-40.400
G1 F2100 X10.600 Y-40.400 E88.50775
G1 X10.600 Y40.600 E91.42409
G1 X-10.500 Y40.600 E92.18377
G1 X-10.500 Y-40.400 E95.10010
G0 F7500 X-8.664 Y-40.300
G0 X-8.664 Y-40.464
G1 F2100 X-8.664 Y40.664 E98.02104
G0 F7500 X-8.664 Y40.500
G0 X-2.888 Y40.500
G0 X-2.888 Y40.664
G1 F2100 X-2.888 Y-40.464 E100.94198
G0 F7500 X-2.888 Y-40.300
G0 X2.888 Y-40.300
G0 X2.888 Y-40.464
G1 F2100 X2.888 Y40.664 E103.86292
G0 F7500 X2.888 Y40.500
G0 X8.664 Y40.500
G0 X8.664 Y40.664
G1 F2100 X8.664 Y-40.464 E106.78386
G0 F7500 X8.664 Y-40.300
G0 X10.500 Y-37.543
G0 X10.664 Y-37.543
G1 F2100 X-10.563 Y-37.544 E107.54812
G0 F7500 X-10.400 Y-37.544
G0 X-10.400 Y-31.768
G0 X-10.563 Y-31.768
G1 F2100 X10.664 Y-31.767 E108.31238
G0 F7500 X10.500 Y-31.767
G0 X10.500 Y-25.991
G0 X10.664 Y-25.991
G1 F2100 X-10.563 Y-25.992 E109.07664
G0 F7500 X-10.400 Y-25.992
G0 X-10.400 Y-20.216
G0 X-10.563 Y-20.216
G1 F2100 X10.664 Y-20.215 E109.84090
G0 F7500 X10.500 Y-20.215
G0 X10.500 Y-14.439
G0 X10.664 Y-14.439
G1 F2100 X-10.563 Y-14.440 E110.60516
G0 F7500 X-10.400 Y-14.440
G0 X-10.400 Y-8.664
G0 X-10.563 Y-8.664
G1 F2100 X10.664 Y-8.663 E111.36942
G0 F7500 X10.500 Y-8.663
G0 X10.500 Y-2.887
G0 X10.664 Y-2.887
G1 F2100 X-10.563 Y-2.888 E112.13368
G0 F7500 X-10.400 Y-2.888
G0 X-10.400 Y2.887
G0 X-10.564 Y2.887
G1 F2100 X10.663 Y2.888 E112.89794
G0 F7500 X10.500 Y2.888
G0 X10.500 Y8.664
G0 X10.663 Y8.664
G1 F2100 X-10.564 Y8.663 E113.66220
G0 F7500 X-10.400 Y8.663
G0 X-10.400 Y14.439
G0 X-10.564 Y14.439
G1 F2100 X10.663 Y14.440 E114.42645
G0 F7500 X10.500 Y14.440
G0 X10.500 Y20.216
G0 X10.663 Y20.216
G1 F2100 X-10.564 Y20.215 E115.19071
G0 F7500 X-10.400 Y20.215
G0 X-10.400 Y25.991
G0 X-10.564 Y25.991
G1 F2100 X10.663 Y25.992 E115.95497
G0 F7500 X10.500 Y25.992
G0 X10.500 Y31.768
G0 X10.663 Y31.768
G1 F2100 X-10.564 Y31.767 E116.71923
G0 F7500 X-10.400 Y31.767
G0 X-10.400 Y37.543
G0 X-10.564 Y37.543
G1 F2100 X10.663 Y37.544 E117.48349
;LAYER:3
G1 F2400 E116.48349
G0 F7500 X0.284 Y0.284 Z0.900
;TYPE:WALL-OUTER
G1 F2400 E117.48349
G1 X0.216 Y0.284 E117.48594
G1 X0.216 Y0.216 E117.48839
G1 X0.284 Y0.216 E117.49083
G1 X0.284 Y0.284 E117.49328
G0 F7500 X1.200 Y1.200
;TYPE:SUPPORT
G1 F2220 X1.200 Y-0.700 E117.56169
G1 X-0.700 Y-0.700 E117.63010
G1 X-0.700 Y1.200 E117.69851
G1 X1.200 Y1.200 E117.76691
G0 F7500 X1.190 Y1.300
G0 X10.500 Y40.590
G0 X10.600 Y40.600
G1 F2220 X-10.500 Y40.600 E118.52660
G1 X-10.500 Y-40.400 E121.44293
G1 X10.600 Y-40.400 E122.20262
G1 X10.600 Y40.600 E125.11895
G0 F7500 X10.500 Y40.590
G0 X8.664 Y40.500
G0 X8.664 Y40.664
G1 F2220 X8.664 Y-40.464 E128.03989
G0 F7500 X8.664 Y-40.300
G0 X2.888 Y-40.300
G0 X2.888 Y-40.464
G1 F2220 X2.888 Y40.664 E130.96083
G0 F7500 X2.888 Y40.500
G0 X-2.888 Y40.500
G0 X-2.888 Y40.664
G1 F2220 X-2.888 Y-40.464 E133.88177
G0 F7500 X-2.888 Y-40.300
G0 X-8.664 Y-40.300
G0 X-8.664 Y-40.464
G1 F2220 X-8.664 Y40.664 E136.80271
G0 F7500 X-8.664 Y40.500
G0 X-10.400 Y37.543
G0 X-10.564 Y37.543
G1 F2220 X10.663 Y37.544 E137.56697
G0 F7500 X10.500 Y37.544
G0 X10.500 Y31.768
G0 X10.663 Y31.768
G1 F2220 X-10.564 Y31.767 E138.33123
G0 F7500 X-10.400 Y31.767
G0 X-10.400 Y25.991
G0 X-10.564 Y25.991
G1 F2220 X10.663 Y25.992 E139.09549
G0 F7500 X10.500 Y25.992
G0 X10.500 Y20.216
G0 X10.663 Y20.216
G1 F2220 X-10.564 Y20.215 E139.85975
G0 F7500 X-10.400 Y20.215
G0 X-10.400 Y14.439
G0 X-10.564 Y14.439
G1 F2220 X10.663 Y14.440 E140.62401
G0 F7500 X10.500 Y14.440
G0 X10.500 Y8.664
G0 X10.663 Y8.664
G1 F2220 X-10.564 Y8.663 E141.38827
G0 F7500 X-10.400 Y8.663
G0 X-10.400 Y2.887
G0 X-10.564 Y2.887
G1 F2220 X10.663 Y2.888 E142.15252
G0 F7500 X10.500 Y2.888
G0 X10.500 Y-2.887
G0 X10.664 Y-2.887
G1 F2220 X-10.563 Y-2.888 E142.91678
G0 F7500 X-10.400 Y-2.888
G0 X-10.400 Y-8.664
G0 X-10.563 Y-8.664
G1 F2220 X10.664 Y-8.663 E143.68104
G0 F7500 X10.500 Y-8.663
G0 X10.500 Y-14.439
G0 X10.664 Y-14.439
G1 F2220 X-10.563 Y-14.440 E144.44530
G0 F7500 X-10.400 Y-14.440
G0 X-10.400 Y-20.216
G0 X-10.563 Y-20.216
G1 F2220 X10.664 Y-20.215 E145.20956
G0 F7500 X10.500 Y-20.215
G0 X10.500 Y-25.991
G0 X10.664 Y-25.991
G1 F2220 X-10.563 Y-25.992 E145.97382
G0 F7500 X-10.400 Y-25.992
G0 X-10.400 Y-31.768
G0 X-10.563 Y-31.768
G1 F2220 X10.664 Y-31.767 E146.73808
G0 F7500 X10.500 Y-31.767
G0 X10.500 Y-37.543
G0 X10.664 Y-37.543
G1 F2220 X-10.563 Y-37.544 E147.50234
;LAYER:4
G1 F2400 E146.50234
G0 F7500 X0.216 Y0.216 Z1.100
;TYPE:WALL-OUTER
G1 F2400 E147.50234
G1 F2700 X0.284 Y0.216 E147.50479
G1 X0.284 Y0.284 E147.50723
G1 X0.216 Y0.284 E147.50968
G1 X0.216 Y0.216 E147.51213
G0 F7500 X-0.700 Y-0.700
;TYPE:SUPPORT
G1 F2400 X-0.700 Y1.200 E147.58054
G1 X1.200 Y1.200 E147.64895
G1 X1.200 Y-0.700 E147.71735
G1 X-0.700 Y-0.700 E147.78576
G0 F7500 X-0.690 Y-0.800
G0 X-10.500 Y-40.400
G1 F2400 X10.600 Y-40.400 E148.54545
G1 X10.600 Y40.600 E151.46178
G1 X-10.500 Y40.600 E152.22147
G1 X-10.500 Y-40.400 E155.13780
G0 F7500 X-8.664 Y-40.300
G0 X-8.664 Y-40.464
G1 F2400 X-8.664 Y40.664 E158.05874
G0 F7500 X-8.664 Y40.500
G0 X-2.888 Y40.500
G0 X-2.888 Y40.664
G1 F2400 X-2.888 Y-40.464 E160.97968
G0 F7500 X-2.888 Y-40.300
G0 X2.888 Y-40.300
G0 X2.888 Y-40.464
G1 F2400 X2.888 Y40.664 E163.90062
G0 F7500 X2.888 Y40.500
G0 X8.664 Y40.500
G0 X8.664 Y40.664
G1 F2400 X8.664 Y-40.464 E166.82156
G0 F7500 X8.664 Y-40.300
G0 X10.500 Y-37.543
G0 X10.664 Y-37.543
G1 F2400 X-10.563 Y-37.544 E167.58582
G0 F7500 X-10.400 Y-37.544
G0 X-10.400 Y-31.768
G0 X-10.563 Y-31.768
G1 F2400 X10.664 Y-31.767 E168.35008
G0 F7500 X10.500 Y-31.767
G0 X10.500 Y-25.991
G0 X10.664 Y-25.991
G1 F2400 X-10.563 Y-25.992 E169.11434
G0 F7500 X-10.400 Y-25.992
G0 X-10.400 Y-20.216
G0 X-10.563 Y-20.216
G1 F2400 X10.664 Y-20.215 E169.87860
G0 F7500 X10.500 Y-20.215
G0 X10.500 Y-14.439
G0 X10.664 Y-14.439
G1 F2400 X-10.563 Y-14.440 E170.64285
G0 F7500 X-10.400 Y-14.440
G0 X-10.400 Y-8.664
G0 X-10.563 Y-8.664
G1 F2400 X10.664 Y-8.663 E171.40711
G0 F7500 X10.500 Y-8.663
G0 X10.500 Y-2.887
G0 X10.664 Y-2.887
G1 F2400 X-10.563 Y-2.888 E172.17137
G0 F7500 X-10.400 Y-2.888
G0 X-10.400 Y2.887
G0 X-10.564 Y2.887
G1 F2400 X10.663 Y2.888 E172.93563
G0 F7500 X10.500 Y2.888
G0 X10.500 Y8.664
G0 X10.663 Y8.664
G1 F2400 X-10.564 Y8.663 E173.69989
G0 F7500 X-10.400 Y8.663
G0 X-10.400 Y14.439
G0 X-10.564 Y14.439
G1 F2400 X10.663 Y14.440 E174.46415
G0 F7500 X10.500 Y14.440
G0 X10.500 Y20.216
G0 X10.663 Y20.216
G1 F2400 X-10.564 Y20.215 E175.22841
G0 F7500 X-10.400 Y20.215
G0 X-10.400 Y25.991
G0 X-10.564 Y25.991
G1 F2400 X10.663 Y25.992 E175.99267
G0 F7500 X10.500 Y25.992
G0 X10.500 Y31.768
G0 X10.663 Y31.768
G1 F2400 X-10.564 Y31.767 E176.75693
G0 F7500 X-10.400 Y31.767
G0 X-10.400 Y37.543
G0 X-10.564 Y37.543
G1 F2400 X10.663 Y37.544 E177.52118
;LAYER:5
G1 F2400 E176.52118
G0 F7500 X0.284 Y0.284 Z1.300
;TYPE:WALL-OUTER
G1 F2400 E177.52118
G1 F2700 X0.216 Y0.284 E177.52363
G1 X0.216 Y0.216 E177.52608
G1 X0.284 Y0.216 E177.52853
G1 X0.284 Y0.284 E177.53098
G0 F7500 X1.200 Y1.200
;TYPE:SUPPORT
G1 F2400 X1.200 Y-0.700 E177.59939
G1 X-0.700 Y-0.700 E177.66779
G1 X-0.700 Y1.200 E177.73620
G1 X1.200 Y1.200 E177.80461
G0 F7500 X1.190 Y1.300
G0 X10.500 Y40.590
G0 X10.600 Y40.600
G1 F2400 X-10.500 Y40.600 E178.56430
G1 X-10.500 Y-40.400 E181.48063
G1 X10.600 Y-40.400 E182.24031
G1 X10.600 Y40.600 E185.15665
G0 F7500 X10.500 Y40.590
G0 X8.664 Y40.500
G0 X8.664 Y40.664
G1 F2400 X8.664 Y-40.464 E188.07759
G0 F7500 X8.664 Y-40.300
G0 X2.888 Y-40.300
G0 X2.888 Y-40.464
G1 F2400 X2.888 Y40.664 E190.99853
G0 F7500 X2.888 Y40.500
G0 X-2.888 Y40.500
G0 X-2.888 Y40.664
G1 F2400 X-2.888 Y-40.464 E193.91947
G0 F7500 X-2.888 Y-40.300
G0 X-8.664 Y-40.300
G0 X-8.664 Y-40.464
G1 F2400 X-8.664 Y40.664 E196.84041
G0 F7500 X-8.664 Y40.500
G0 X-10.400 Y37.543
G0 X-10.564 Y37.543
G1 F2400 X10.663 Y37.544 E197.60467
G0 F7500 X10.500 Y37.544
G0 X10.500 Y31.768
G0 X10.663 Y31.768
G1 F2400 X-10.564 Y31.767 E198.36892
G0 F7500 X-10.400 Y31.767
G0 X-10.400 Y25.991
G0 X-10.564 Y25.991
G1 F2400 X10.663 Y25.992 E199.13318
G0 F7500 X10.500 Y25.992
G0 X10.500 Y20.216
G0 X10.663 Y20.216
G1 F2400 X-10.564 Y20.215 E199.89744
G0 F7500 X-10.400 Y20.215
G0 X-10.400 Y14.439
G0 X-10.564 Y14.439
G1 F2400 X10.663 Y14.440 E200.66170
G0 F7500 X10.500 Y14.440
G0 X10.500 Y8.664
G0 X10.663 Y8.664
G1 F2400 X-10.564 Y8.663 E201.42596
G0 F7500 X-10.400 Y8.663
G0 X-10.400 Y2.887
G0 X-10.564 Y2.887
G1 F2400 X10.663 Y2.888 E202.19022
G0 F7500 X10.500 Y2.888
G0 X10.500 Y-2.887
G0 X10.664 Y-2.887
G1 F2400 X-10.563 Y-2.888 E202.95448
G0 F7500 X-10.400 Y-2.888
G0 X-10.400 Y-8.664
G0 X-10.563 Y-8.664
G1 F2400 X10.664 Y-8.663 E203.71874
G0 F7500 X10.500 Y-8.663
G0 X10.500 Y-14.439
G0 X10.664 Y-14.439
G1 F2400 X-10.563 Y-14.440 E204.48300
G0 F7500 X-10.400 Y-14.440
G0 X-10.400 Y-20.216
G0 X-10.563 Y-20.216
G1 F2400 X10.664 Y-20.215 E205.24726
G0 F7500 X10.500 Y-20.215
G0 X10.500 Y-25.991
G0 X10.664 Y-25.991
G1 F2400 X-10.563 Y-25.992 E206.01151
G0 F7500 X-10.400 Y-25.992
G0 X-10.400 Y-31.768
G0 X-10.563 Y-31.768
G1 F2400 X10.664 Y-31.767 E206.77577
G0 F7500 X10.500 Y-31.767
G0 X10.500 Y-37.543
G0 X10.664 Y-37.543
G1 F2400 X-10.563 Y-37.544 E207.54003
;LAYER:6
G1 F2400 E206.54003
G0 F7500 X0.216 Y0.216 Z1.500
;TYPE:WALL-OUTER
G1 F2400 E207.54003
G1 F2700 X0.284 Y0.216 E207.54248
G1 X0.284 Y0.284 E207.54493
G1 X0.216 Y0.284 E207.54738
G1 X0.216 Y0.216 E207.54983
G0 F7500 X-0.700 Y-0.700
;TYPE:SUPPORT
G1 F2400 X-0.700 Y1.200 E207.61823
G1 X1.200 Y1.200 E207.68664
G1 X1.200 Y-0.700 E207.75505
G1 X-0.700 Y-0.700 E207.82346
G0 F7500 X-0.690 Y-0.800
G0 X-10.500 Y-40.400
G1 F2400 X10.600 Y-40.400 E208.58314
G1 X10.600 Y40.600 E211.49947
G1 X-10.500 Y40.600 E212.25916
G1 X-10.500 Y-40.400 E215.17549
G0 F7500 X-8.664 Y-40.300
G0 X-8.664 Y-40.464
G1 F2400 X-8.664 Y40.664 E218.09643
G0 F7500 X-8.664 Y40.500
G0 X-2.888 Y40.500
G0 X-2.888 Y40.664
G1 F2400 X-2.888 Y-40.464 E221.01737
G0 F7500 X-2.888 Y-40.300
G0 X2.888 Y-40.300
G0 X2.888 Y-40.464
G1 F2400 X2.888 Y40.664 E223.93831
G0 F7500 X2.888 Y40.500
G0 X8.664 Y40.500
G0 X8.664 Y40.664
G1 F2400 X8.664 Y-40.464 E226.85925
G0 F7500 X8.664 Y-40.300
G0 X10.500 Y-37.543
G0 X10.664 Y-37.543
G1 F2400 X-10.563 Y-37.544 E227.62351
G0 F7500 X-10.400 Y-37.544
G0 X-10.400 Y-31.768
G0 X-10.563 Y-31.768
G1 F2400 X10.664 Y-31.767 E228.38777
G0 F7500 X10.500 Y-31.767
G0 X10.500 Y-25.991
G0 X10.664 Y-25.991
G1 F2400 X-10.563 Y-25.992 E229.15203
G0 F7500 X-10.400 Y-25.992
G0 X-10.400 Y-20.216
G0 X-10.563 Y-20.216
G1 F2400 X10.664 Y-20.215 E229.91629
G0 F7500 X10.500 Y-20.215
G0 X10.500 Y-14.439
G0 X10.664 Y-14.439
G1 F2400 X-10.563 Y-14.440 E230.68055
G0 F7500 X-10.400 Y-14.440
G0 X-10.400 Y-8.664
G0 X-10.563 Y-8.664
G1 F2400 X10.664 Y-8.663 E231.44481
G0 F7500 X10.500 Y-8.663
G0 X10.500 Y-2.887
G0 X10.664 Y-2.887
