;Generated with Cura_SteamEngine 15.04.6

;Layer count: 16
;LAYER:0
M107
G0 F7500 X-13.716 Y-48.616 Z0.300
;TYPE:SKIRT
G1 F1800 X13.816 Y-48.616 E1.48690
G1 X13.816 Y48.816 E6.74882
G1 X-13.716 Y48.816 E8.23572
G1 X-13.716 Y-48.616 E13.49765
G1 F2400 E12.49765
G0 F7500 X0.216 Y0.216
;TYPE:WALL-OUTER
G1 F2400 E13.49765
G1 F1800 X0.284 Y0.216 E13.50132
G1 X0.284 Y0.284 E13.50499
G1 X0.216 Y0.284 E13.50866
G1 X0.216 Y0.216 E13.51234
G0 F7500 X-0.700 Y-0.700
;TYPE:SUPPORT
G1 F1800 X-0.700 Y1.200 E13.61495
G1 X1.200 Y1.200 E13.71756
G1 X1.200 Y-0.700 E13.82017
G1 X-0.700 Y-0.700 E13.92278
G0 F7500 X-0.690 Y-0.800
G0 X-10.500 Y-45.400
G1 F1800 X10.600 Y-45.400 E15.06231
G1 X10.600 Y45.600 E19.97687
G1 X-10.500 Y45.600 E21.11640
G1 X-10.500 Y-45.400 E26.03096
G0 F7500 X-8.664 Y-45.300
G0 X-8.664 Y-45.464
G1 F1800 X-8.664 Y45.664 E30.95243
G0 F7500 X-8.664 Y45.500
G0 X-10.400 Y43.319
G0 X-10.564 Y43.319
G1 F1800 X10.663 Y43.320 E32.09882
G0 F7500 X10.500 Y43.320
G0 X8.664 Y45.500
G0 X8.664 Y45.664
G1 F1800 X8.664 Y-45.464 E37.02029
G0 F7500 X8.664 Y-45.300
G0 X10.500 Y-43.319
G0 X10.664 Y-43.319
G1 F1800 X-10.563 Y-43.320 E38.16668
G0 F7500 X-10.400 Y-43.320
G0 X-2.888 Y-45.300
G0 X-2.888 Y-45.464
G1 F1800 X-2.888 Y45.664 E43.08815
G0 F7500 X-2.888 Y45.500
G0 X2.888 Y45.500
G0 X2.888 Y45.664
G1 F1800 X2.888 Y-45.464 E48.00963
G0 F7500 X2.888 Y-45.300
G0 X10.500 Y-37.543
G0 X10.664 Y-37.543
G1 F1800 X-10.563 Y-37.544 E49.15601
G0 F7500 X-10.400 Y-37.544
G0 X-10.400 Y-31.768
G0 X-10.563 Y-31.768
G1 F1800 X10.664 Y-31.767 E50.30240
G0 F7500 X10.500 Y-31.767
G0 X10.500 Y-25.991
G0 X10.664 Y-25.991
G1 F1800 X-10.563 Y-25.992 E51.44879
G0 F7500 X-10.400 Y-25.992
G0 X-10.400 Y-20.216
G0 X-10.563 Y-20.216
G1 F1800 X10.664 Y-20.215 E52.59518
G0 F7500 X10.500 Y-20.215
G0 X10.500 Y-14.439
G0 X10.664 Y-14.439
G1 F1800 X-10.563 Y-14.440 E53.74157
G0 F7500 X-10.400 Y-14.440
G0 X-10.400 Y-8.664
G0 X-10.563 Y-8.664
G1 F1800 X10.664 Y-8.663 E54.88796
G0 F7500 X10.500 Y-8.663
G0 X10.500 Y-2.887
G0 X10.664 Y-2.887
G1 F1800 X-10.563 Y-2.888 E56.03435
G0 F7500 X-10.400 Y-2.888
G0 X-10.400 Y2.887
G0 X-10.564 Y2.887
G1 F1800 X10.663 Y2.888 E57.18073
G0 F7500 X10.500 Y2.888
G0 X10.500 Y8.664
G0 X10.663 Y8.664
G1 F1800 X-10.564 Y8.663 E58.32712
G0 F7500 X-10.400 Y8.663
G0 X-10.400 Y14.439
G0 X-10.564 Y14.439
G1 F1800 X10.663 Y14.440 E59.47351
G0 F7500 X10.500 Y14.440
G0 X10.500 Y20.216
G0 X10.663 Y20.216
G1 F1800 X-10.564 Y20.215 E60.61990
G0 F7500 X-10.400 Y20.215
G0 X-10.400 Y25.991
G0 X-10.564 Y25.991
G1 F1800 X10.663 Y25.992 E61.76629
G0 F7500 X10.500 Y25.992
G0 X10.500 Y31.768
G0 X10.663 Y31.768
G1 F1800 X-10.564 Y31.767 E62.91268
G0 F7500 X-10.400 Y31.767
G0 X-10.400 Y37.543
G0 X-10.564 Y37.543
G1 F1800 X10.663 Y37.544 E64.05906
;LAYER:1
M106 S63
G1 F2400 E63.05906
G0 F7500 X0.284 Y0.284 Z0.500
;TYPE:WALL-OUTER
G1 F2400 E64.05906
G1 F1980 X0.216 Y0.284 E64.06151
G1 X0.216 Y0.216 E64.06396
G1 X0.284 Y0.216 E64.06641
G1 X0.284 Y0.284 E64.06886
G0 F7500 X1.200 Y1.200
;TYPE:SUPPORT
G1 F1920 X1.200 Y-0.700 E64.13726
G1 X-0.700 Y-0.700 E64.20567
G1 X-0.700 Y1.200 E64.27408
G1 X1.200 Y1.200 E64.34249
G0 F7500 X1.190 Y1.300
G0 X10.500 Y45.590
G0 X10.600 Y45.600
G1 F1920 X-10.500 Y45.600 E65.10217
G1 X-10.500 Y-45.400 E68.37855
G1 X10.600 Y-45.400 E69.13823
G1 X10.600 Y45.600 E72.41461
G0 F7500 X10.500 Y45.590
G0 X8.664 Y45.500
G0 X8.664 Y45.664
G1 F1920 X8.664 Y-45.464 E75.69559
G0 F7500 X8.664 Y-45.300
G0 X10.500 Y-43.319
G0 X10.664 Y-43.319
G1 F1920 X-10.563 Y-43.320 E76.45985
G0 F7500 X-10.400 Y-43.320
G0 X-8.664 Y-45.300
G0 X-8.664 Y-45.464
G1 F1920 X-8.664 Y45.664 E79.74083
G0 F7500 X-8.664 Y45.500
G0 X-10.400 Y43.319
G0 X-10.564 Y43.319
G1 F1920 X10.663 Y43.320 E80.50509
G0 F7500 X10.500 Y43.320
G0 X2.888 Y45.500
G0 X2.888 Y45.664
G1 F1920 X2.888 Y-45.464 E83.78607
G0 F7500 X2.888 Y-45.300
G0 X-2.888 Y-45.300
G0 X-2.888 Y-45.464
G1 F1920 X-2.888 Y45.664 E87.06705
G0 F7500 X-2.888 Y45.500
G0 X-10.400 Y37.543
G0 X-10.564 Y37.543
G1 F1920 X10.663 Y37.544 E87.83131
G0 F7500 X10.500 Y37.544
G0 X10.500 Y31.768
G0 X10.663 Y31.768
G1 F1920 X-10.564 Y31.767 E88.59557
G0 F7500 X-10.400 Y31.767
G0 X-10.400 Y25.991
G0 X-10.564 Y25.991
G1 F1920 X10.663 Y25.992 E89.35983
G0 F7500 X10.500 Y25.992
G0 X10.500 Y20.216
G0 X10.663 Y20.216
G1 F1920 X-10.564 Y20.215 E90.12409
G0 F7500 X-10.400 Y20.215
G0 X-10.400 Y14.439
G0 X-10.564 Y14.439
G1 F1920 X10.663 Y14.440 E90.88834
G0 F7500 X10.500 Y14.440
G0 X10.500 Y8.664
G0 X10.663 Y8.664
G1 F1920 X-10.564 Y8.663 E91.65260
G0 F7500 X-10.400 Y8.663
G0 X-10.400 Y2.887
G0 X-10.564 Y2.887
G1 F1920 X10.663 Y2.888 E92.41686
G0 F7500 X10.500 Y2.888
G0 X10.500 Y-2.887
G0 X10.664 Y-2.887
G1 F1920 X-10.563 Y-2.888 E93.18112
G0 F7500 X-10.400 Y-2.888
G0 X-10.400 Y-8.664
G0 X-10.563 Y-8.664
G1 F1920 X10.664 Y-8.663 E93.94538
G0 F7500 X10.500 Y-8.663
G0 X10.500 Y-14.439
G0 X10.664 Y-14.439
G1 F1920 X-10.563 Y-14.440 E94.70964
G0 F7500 X-10.400 Y-14.440
G0 X-10.400 Y-20.216
G0 X-10.563 Y-20.216
G1 F1920 X10.664 Y-20.215 E95.47390
G0 F7500 X10.500 Y-20.215
G0 X10.500 Y-25.991
G0 X10.664 Y-25.991
G1 F1920 X-10.563 Y-25.992 E96.23816
G0 F7500 X-10.400 Y-25.992
G0 X-10.400 Y-31.768
G0 X-10.563 Y-31.768
G1 F1920 X10.664 Y-31.767 E97.00242
G0 F7500 X10.500 Y-31.767
G0 X10.500 Y-37.543
G0 X10.664 Y-37.543
G1 F1920 X-10.563 Y-37.544 E97.76667
;LAYER:2
M106 S127
G1 F2400 E96.76667
G0 F7500 X0.216 Y0.216 Z0.700
;TYPE:WALL-OUTER
G1 F2400 E97.76667
G1 F2220 X0.284 Y0.216 E97.76912
G1 X0.284 Y0.284 E97.77157
G1 X0.216 Y0.284 E97.77402
G1 X0.216 Y0.216 E97.77647
G0 F7500 X-0.700 Y-0.700
;TYPE:SUPPORT
G1 F2100 X-0.700 Y1.200 E97.84488
G1 X1.200 Y1.200 E97.91328
G1 X1.200 Y-0.700 E97.98169
G1 X-0.700 Y-0.700 E98.05010
G0 F7500 X-0.690 Y-0.800
G0 X-10.500 Y-45.400
G1 F2100 X10.600 Y-45.400 E98.80979
G1 X10.600 Y45.600 E102.08616
G1 X-10.500 Y45.600 E102.84584
G1 X-10.500 Y-45.400 E106.12222
G0 F7500 X-8.664 Y-45.300
G0 X-8.664 Y-45.464
G1 F2100 X-8.664 Y45.664 E109.40320
G0 F7500 X-8.664 Y45.500
G0 X-10.400 Y43.319
G0 X-10.564 Y43.319
G1 F2100 X10.663 Y43.320 E110.16746
G0 F7500 X10.500 Y43.320
G0 X8.664 Y45.500
G0 X8.664 Y45.664
G1 F2100 X8.664 Y-45.464 E113.44844
G0 F7500 X8.664 Y-45.300
G0 X10.500 Y-43.319
G0 X10.664 Y-43.319
G1 F2100 X-10.563 Y-43.320 E114.21270
G0 F7500 X-10.400 Y-43.320
G0 X-2.888 Y-45.300
G0 X-2.888 Y-45.464
G1 F2100 X-2.888 Y45.664 E117.49368
G0 F7500 X-2.888 Y45.500
G0 X2.888 Y45.500
G0 X2.888 Y45.664
G1 F2100 X2.888 Y-45.464 E120.77466
G0 F7500 X2.888 Y-45.300
G0 X10.500 Y-37.543
G0 X10.664 Y-37.543
G1 F2100 X-10.563 Y-37.544 E121.53892
G0 F7500 X-10.400 Y-37.544
G0 X-10.400 Y-31.768
G0 X-10.563 Y-31.768
G1 F2100 X10.664 Y-31.767 E122.30318
G0 F7500 X10.500 Y-31.767
G0 X10.500 Y-25.991
G0 X10.664 Y-25.991
G1 F2100 X-10.563 Y-25.992 E123.06744
G0 F7500 X-10.400 Y-25.992
G0 X-10.400 Y-20.216
G0 X-10.563 Y-20.216
G1 F2100 X10.664 Y-20.215 E123.83170
G0 F7500 X10.500 Y-20.215
G0 X10.500 Y-14.439
G0 X10.664 Y-14.439
G1 F2100 X-10.563 Y-14.440 E124.59596
G0 F7500 X-10.400 Y-14.440
G0 X-10.400 Y-8.664
G0 X-10.563 Y-8.664
G1 F2100 X10.664 Y-8.663 E125.36021
G0 F7500 X10.500 Y-8.663
G0 X10.500 Y-2.887
G0 X10.664 Y-2.887
G1 F2100 X-10.563 Y-2.888 E126.12447
G0 F7500 X-10.400 Y-2.888
G0 X-10.400 Y2.887
G0 X-10.564 Y2.887
G1 F2100 X10.663 Y2.888 E126.88873
G0 F7500 X10.500 Y2.888
G0 X10.500 Y8.664
G0 X10.663 Y8.664
G1 F2100 X-10.564 Y8.663 E127.65299
G0 F7500 X-10.400 Y8.663
G0 X-10.400 Y14.439
G0 X-10.564 Y14.439
G1 F2100 X10.663 Y14.440 E128.41725
G0 F7500 X10.500 Y14.440
G0 X10.500 Y20.216
G0 X10.663 Y20.216
G1 F2100 X-10.564 Y20.215 E129.18151
G0 F7500 X-10.400 Y20.215
G0 X-10.400 Y25.991
G0 X-10.564 Y25.991
G1 F2100 X10.663 Y25.992 E129.94577
G0 F7500 X10.500 Y25.992
G0 X10.500 Y31.768
G0 X10.663 Y31.768
G1 F2100 X-10.564 Y31.767 E130.71003
G0 F7500 X-10.400 Y31.767
G0 X-10.400 Y37.543
G0 X-10.564 Y37.543
G1 F2100 X10.663 Y37.544 E131.47429
;LAYER:3
G1 F2400 E130.47429
G0 F7500 X0.284 Y0.284 Z0.900
;TYPE:WALL-OUTER
G1 F2400 E131.47429
G1 X0.216 Y0.284 E131.47673
G1 X0.216 Y0.216 E131.47918
G1 X0.284 Y0.216 E131.48163
G1 X0.284 Y0.284 E131.48408
G0 F7500 X1.200 Y1.200
;TYPE:SUPPORT
G1 F2220 X1.200 Y-0.700 E131.55249
G1 X-0.700 Y-0.700 E131.62089
G1 X-0.700 Y1.200 E131.68930
G1 X1.200 Y1.200 E131.75771
G0 F7500 X1.190 Y1.300
G0 X10.500 Y45.590
G0 X10.600 Y45.600
G1 F2220 X-10.500 Y45.600 E132.51740
G1 X-10.500 Y-45.400 E135.79377
G1 X10.600 Y-45.400 E136.55346
G1 X10.600 Y45.600 E139.82983
G0 F7500 X10.500 Y45.590
G0 X8.664 Y45.500
G0 X8.664 Y45.664
G1 F2220 X8.664 Y-45.464 E143.11081
G0 F7500 X8.664 Y-45.300
G0 X10.500 Y-43.319
G0 X10.664 Y-43.319
G1 F2220 X-10.563 Y-43.320 E143.87507
G0 F7500 X-10.400 Y-43.320
G0 X-8.664 Y-45.300
G0 X-8.664 Y-45.464
G1 F2220 X-8.664 Y45.664 E147.15605
G0 F7500 X-8.664 Y45.500
G0 X-10.400 Y43.319
G0 X-10.564 Y43.319
G1 F2220 X10.663 Y43.320 E147.92031
G0 F7500 X10.500 Y43.320
G0 X2.888 Y45.500
G0 X2.888 Y45.664
G1 F2220 X2.888 Y-45.464 E151.20129
G0 F7500 X2.888 Y-45.300
G0 X-2.888 Y-45.300
G0 X-2.888 Y-45.464
G1 F2220 X-2.888 Y45.664 E154.48227
G0 F7500 X-2.888 Y45.500
G0 X-10.400 Y37.543
G0 X-10.564 Y37.543
G1 F2220 X10.663 Y37.544 E155.24653
G0 F7500 X10.500 Y37.544
G0 X10.500 Y31.768
G0 X10.663 Y31.768
G1 F2220 X-10.564 Y31.767 E156.01079
G0 F7500 X-10.400 Y31.767
G0 X-10.400 Y25.991
G0 X-10.564 Y25.991
G1 F2220 X10.663 Y25.992 E156.77505
G0 F7500 X10.500 Y25.992
G0 X10.500 Y20.216
G0 X10.663 Y20.216
G1 F2220 X-10.564 Y20.215 E157.53931
G0 F7500 X-10.400 Y20.215
G0 X-10.400 Y14.439
G0 X-10.564 Y14.439
G1 F2220 X10.663 Y14.440 E158.30357
G0 F7500 X10.500 Y14.440
G0 X10.500 Y8.664
G0 X10.663 Y8.664
G1 F2220 X-10.564 Y8.663 E159.06783
G0 F7500 X-10.400 Y8.663
G0 X-10.400 Y2.887
G0 X-10.564 Y2.887
G1 F2220 X10.663 Y2.888 E159.83208
G0 F7500 X10.500 Y2.888
G0 X10.500 Y-2.887
G0 X10.664 Y-2.887
G1 F2220 X-10.563 Y-2.888 E160.59634
G0 F7500 X-10.400 Y-2.888
G0 X-10.400 Y-8.664
G0 X-10.563 Y-8.664
G1 F2220 X10.664 Y-8.663 E161.36060
G0 F7500 X10.500 Y-8.663
G0 X10.500 Y-14.439
G0 X10.664 Y-14.439
G1 F2220 X-10.563 Y-14.440 E162.12486
G0 F7500 X-10.400 Y-14.440
G0 X-10.400 Y-20.216
G0 X-10.563 Y-20.216
G1 F2220 X10.664 Y-20.215 E162.88912
G0 F7500 X10.500 Y-20.215
G0 X10.500 Y-25.991
G0 X10.664 Y-25.991
G1 F2220 X-10.563 Y-25.992 E163.65338
G0 F7500 X-10.400 Y-25.992
G0 X-10.400 Y-31.768
G0 X-10.563 Y-31.768
G1 F2220 X10.664 Y-31.767 E164.41764
G0 F7500 X10.500 Y-31.767
G0 X10.500 Y-37.543
G0 X10.664 Y-37.543
G1 F2220 X-10.563 Y-37.544 E165.18190
;LAYER:4
G1 F2400 E164.18190
G0 F7500 X0.216 Y0.216 Z1.100
;TYPE:WALL-OUTER
G1 F2400 E165.18190
G1 F2700 X0.284 Y0.216 E165.18435
G1 X0.284 Y0.284 E165.18679
G1 X0.216 Y0.284 E165.18924
G1 X0.216 Y0.216 E165.19169
G0 F7500 X-0.700 Y-0.700
;TYPE:SUPPORT
G1 F2400 X-0.700 Y1.200 E165.26010
G1 X1.200 Y1.200 E165.32851
G1 X1.200 Y-0.700 E165.39691
G1 X-0.700 Y-0.700 E165.46532
G0 F7500 X-0.690 Y-0.800
G0 X-10.500 Y-45.400
G1 F2400 X10.600 Y-45.400 E166.22501
G1 X10.600 Y45.600 E169.50138
G1 X-10.500 Y45.600 E170.26107
G1 X-10.500 Y-45.400 E173.53744
G0 F7500 X-8.664 Y-45.300
G0 X-8.664 Y-45.464
G1 F2400 X-8.664 Y45.664 E176.81842
G0 F7500 X-8.664 Y45.500
G0 X-10.400 Y43.319
G0 X-10.564 Y43.319
G1 F2400 X10.663 Y43.320 E177.58268
G0 F7500 X10.500 Y43.320
G0 X8.664 Y45.500
G0 X8.664 Y45.664
G1 F2400 X8.664 Y-45.464 E180.86366
G0 F7500 X8.664 Y-45.300
G0 X10.500 Y-43.319
G0 X10.664 Y-43.319
G1 F2400 X-10.563 Y-43.320 E181.62792
G0 F7500 X-10.400 Y-43.320
G0 X-2.888 Y-45.300
G0 X-2.888 Y-45.464
G1 F2400 X-2.888 Y45.664 E184.90890
G0 F7500 X-2.888 Y45.500
G0 X2.888 Y45.500
G0 X2.888 Y45.664
G1 F2400 X2.888 Y-45.464 E188.18988
G0 F7500 X2.888 Y-45.300
G0 X10.500 Y-37.543
G0 X10.664 Y-37.543
G1 F2400 X-10.563 Y-37.544 E188.95414
G0 F7500 X-10.400 Y-37.544
G0 X-10.400 Y-31.768
G0 X-10.563 Y-31.768
G1 F2400 X10.664 Y-31.767 E189.71840
G0 F7500 X10.500 Y-31.767
G0 X10.500 Y-25.991
G0 X10.664 Y-25.991
G1 F2400 X-10.563 Y-25.992 E190.48266
G0 F7500 X-10.400 Y-25.992
G0 X-10.400 Y-20.216
G0 X-10.563 Y-20.216
G1 F2400 X10.664 Y-20.215 E191.24692
G0 F7500 X10.500 Y-20.215
G0 X10.500 Y-14.439
G0 X10.664 Y-14.439
G1 F2400 X-10.563 Y-14.440 E192.01118
G0 F7500 X-10.400 Y-14.440
G0 X-10.400 Y-8.664
G0 X-10.563 Y-8.664
G1 F2400 X10.664 Y-8.663 E192.77544
G0 F7500 X10.500 Y-8.663
G0 X10.500 Y-2.887
G0 X10.664 Y-2.887
G1 F2400 X-10.563 Y-2.888 E193.53970
G0 F7500 X-10.400 Y-2.888
G0 X-10.400 Y2.887
G0 X-10.564 Y2.887
G1 F2400 X10.663 Y2.888 E194.30395
G0 F7500 X10.500 Y2.888
G0 X10.500 Y8.664
G0 X10.663 Y8.664
G1 F2400 X-10.564 Y8.663 E195.06821
G0 F7500 X-10.400 Y8.663
G0 X-10.400 Y14.439
G0 X-10.564 Y14.439
G1 F2400 X10.663 Y14.440 E195.83247
G0 F7500 X10.500 Y14.440
G0 X10.500 Y20.216
G0 X10.663 Y20.216
G1 F2400 X-10.564 Y20.215 E196.59673
G0 F7500 X-10.400 Y20.215
G0 X-10.400 Y25.991
G0 X-10.564 Y25.991
G1 F2400 X10.663 Y25.992 E197.36099
G0 F7500 X10.500 Y25.992
G0 X10.500 Y31.768
G0 X10.663 Y31.768
G1 F2400 X-10.564 Y31.767 E198.12525
G0 F7500 X-10.400 Y31.767
G0 X-10.400 Y37.543
G0 X-10.564 Y37.543
G1 F2400 X10.663 Y37.544 E198.88951
;LAYER:5
G1 F2400 E197.88951
G0 F7500 X0.284 Y0.284 Z1.300
;TYPE:WALL-OUTER
G1 F2400 E198.88951
G1 F2700 X0.216 Y0.284 E198.89196
G1 X0.216 Y0.216 E198.89440
G1 X0.284 Y0.216 E198.89685
G1 X0.284 Y0.284 E198.89930
G0 F7500 X1.200 Y1.200
;TYPE:SUPPORT
G1 F2400 X1.200 Y-0.700 E198.96771
G1 X-0.700 Y-0.700 E199.03612
G1 X-0.700 Y1.200 E199.10452
G1 X1.200 Y1.200 E199.17293
G0 F7500 X1.190 Y1.300
G0 X10.500 Y45.590
G0 X10.600 Y45.600
G1 F2400 X-10.500 Y45.600 E199.93262
G1 X-10.500 Y-45.400 E203.20899
G1 X10.600 Y-45.400 E203.96868
G1 X10.600 Y45.600 E207.24505
G0 F7500 X10.500 Y45.590
G0 X8.664 Y45.500
G0 X8.664 Y45.664
G1 F2400 X8.664 Y-45.464 E210.52603
G0 F7500 X8.664 Y-45.300
G0 X10.500 Y-43.319
G0 X10.664 Y-43.319
G1 F2400 X-10.563 Y-43.320 E211.29029
G0 F7500 X-10.400 Y-43.320
G0 X-8.664 Y-45.300
G0 X-8.664 Y-45.464
G1 F2400 X-8.664 Y45.664 E214.57127
G0 F7500 X-8.664 Y45.500
G0 X-10.400 Y43.319
G0 X-10.564 Y43.319
G1 F2400 X10.663 Y43.320 E215.33553
G0 F7500 X10.500 Y43.320
G0 X2.888 Y45.500
G0 X2.888 Y45.664
G1 F2400 X2.888 Y-45.464 E218.61651
G0 F7500 X2.888 Y-45.300
G0 X-2.888 Y-45.300
G0 X-2.888 Y-45.464
G1 F2400 X-2.888 Y45.664 E221.89749
G0 F7500 X-2.888 Y45.500
G0 X-10.400 Y37.543
G0 X-10.564 Y37.543
G1 F2400 X10.663 Y37.544 E222.66175
G0 F7500 X10.500 Y37.544
G0 X10.500 Y31.768
G0 X10.663 Y31.768
G1 F2400 X-10.564 Y31.767 E223.42601
G0 F7500 X-10.400 Y31.767
G0 X-10.400 Y25.991
G0 X-10.564 Y25.991
G1 F2400 X10.663 Y25.992 E224.19027
G0 F7500 X10.500 Y25.992
G0 X10.500 Y20.216
G0 X10.663 Y20.216
G1 F2400 X-10.564 Y20.215 E224.95453
G0 F7500 X-10.400 Y20.215
G0 X-10.400 Y14.439
G0 X-10.564 Y14.439
G1 F2400 X10.663 Y14.440 E225.71879
G0 F7500 X10.500 Y14.440
G0 X10.500 Y8.664
G0 X10.663 Y8.664
G1 F2400 X-10.564 Y8.663 E226.48305
G0 F7500 X-10.400 Y8.663
G0 X-10.400 Y2.887
G0 X-10.564 Y2.887
G1 F2400 X10.663 Y2.888 E227.24731
G0 F7500 X10.500 Y2.888
G0 X10.500 Y-2.887
G0 X10.664 Y-2.887
G1 F2400 X-10.563 Y-2.888 E228.01156
G0 F7500 X-10.400 Y-2.888
G0 X-10.400 Y-8.664
G0 X-10.563 Y-8.664
G1 F2400 X10.664 Y-8.663 E228.77582
G0 F7500 X10.500 Y-8.663
G0 X10.500 Y-14.439
G0 X10.664 Y-14.439
G1 F2400 X-10.563 Y-14.440 E229.54008
G0 F7500 X-10.400 Y-14.440
G0 X-10.400 Y-20.216
G0 X-10.563 Y-20.216
G1 F2400 X10.664 Y-20.215 E230.30434
G0 F7500 X10.500 Y-20.215
G0 X10.500 Y-25.991
G0 X10.664 Y-25.991
G1 F2400 X-10.563 Y-25.992 E231.06860
G0 F7500 X-10.400 Y-25.992
G0 X-10.400 Y-31.768
G0 X-10.563 Y-31.768
G1 F2400 X10.664 Y-31.767 E231.83286
G0 F7500 X10.500 Y-31.767
G0 X10.500 Y-37.543
G0 X10.664 Y-37.543
G1 F2400 X-10.563 Y-37.544 E232.59712
;LAYER:6
G1 F2400 E231.59712
G0 F7500 X0.216 Y0.216 Z1.500
;TYPE:WALL-OUTER
G1 F2400 E232.59712
G1 F2700 X0.284 Y0.216 E232.59957
G1 X0.284 Y0.284 E232.60202
G1 X0.216 Y0.284 E232.60446
G1 X0.216 Y0.216 E232.60691
G0 F7500 X-0.700 Y-0.700
;TYPE:SUPPORT
G1 F2400 X-0.700 Y1.200 E232.67532
G1 X1.200 Y1.200 E232.74373
G1 X1.200 Y-0.700 E232.81214
G1 X-0.700 Y-0.700 E232.88054
