;Generated with Cura_SteamEngine 15.04.6

;Layer count: 16
;LAYER:0
M107
G0 F7500 X-19.149 Y-9.049 Z0.300
;TYPE:SKIRT
G1 F1800 X19.249 Y-9.049 E2.07373
G1 X19.249 Y9.249 E3.06193
G1 X-19.149 Y9.249 E5.13566
G1 X-19.149 Y-9.049 E6.12386
G0 F7500 X-18.716 Y-8.616
G1 F1800 X18.816 Y-8.616 E8.15082
G1 X18.816 Y8.816 E9.09226
G1 X-18.716 Y8.816 E11.11922
G1 X-18.716 Y-8.616 E12.06065
G1 F2400 E11.06065
G0 F7500 X0.216 Y0.216
;TYPE:WALL-OUTER
G1 F2400 E12.06065
G1 F1800 X0.284 Y0.216 E12.06432
G1 X0.284 Y0.284 E12.06800
G1 X0.216 Y0.284 E12.07167
G1 X0.216 Y0.216 E12.07534
G0 F7500 X-0.700 Y-0.700
;TYPE:SUPPORT
G1 F1800 X-0.700 Y1.200 E12.17795
G1 X1.200 Y1.200 E12.28057
G1 X1.200 Y-0.700 E12.38318
G1 X-0.700 Y-0.700 E12.48579
G0 F7500 X-0.690 Y-0.800
G0 X-15.500 Y-5.400
G1 F1800 X15.600 Y-5.400 E14.16538
G1 X15.600 Y5.600 E14.75945
G1 X-15.500 Y5.600 E16.43904
G1 X-15.500 Y-5.400 E17.03311
G0 F7500 X-14.440 Y-5.464
G1 F1800 X-14.440 Y5.664 E17.63409
G0 F7500 X-14.440 Y5.500
G0 X-15.400 Y2.887
G0 X-15.564 Y2.887
G1 F1800 X15.663 Y2.888 E19.32054
G0 F7500 X15.500 Y2.888
G0 X14.440 Y5.500
G0 X14.440 Y5.664
G1 F1800 X14.440 Y-5.464 E19.92152
G0 F7500 X14.440 Y-5.300
G0 X15.500 Y-2.887
G0 X15.664 Y-2.887
G1 F1800 X-15.563 Y-2.888 E21.60797
G0 F7500 X-15.400 Y-2.888
G0 X-8.664 Y-5.300
G0 X-8.664 Y-5.464
G1 F1800 X-8.664 Y5.664 E22.20895
G0 F7500 X-8.664 Y5.500
G0 X-2.888 Y5.500
G0 X-2.888 Y5.664
G1 F1800 X-2.888 Y-5.464 E22.80993
G0 F7500 X-2.888 Y-5.300
G0 X2.888 Y-5.300
G0 X2.888 Y-5.464
G1 F1800 X2.888 Y5.664 E23.41091
G0 F7500 X2.888 Y5.500
G0 X8.664 Y5.500
G0 X8.664 Y5.664
G1 F1800 X8.664 Y-5.464 E24.01189
;LAYER:1
M106 S63
G1 F2400 E23.01189
G0 F7500 X0.284 Y0.216 Z0.500
;TYPE:WALL-OUTER
G1 F2400 E24.01189
G1 F1980 X0.284 Y0.284 E24.01434
G1 X0.216 Y0.284 E24.01678
G1 X0.216 Y0.216 E24.01923
G1 X0.284 Y0.216 E24.02168
G0 F7500 X1.200 Y-0.700
;TYPE:SUPPORT
G1 F1920 X-0.700 Y-0.700 E24.09009
G1 X-0.700 Y1.200 E24.15850
G1 X1.200 Y1.200 E24.22690
G1 X1.200 Y-0.700 E24.29531
G0 F7500 X15.600 Y-5.400
G1 F1920 X15.600 Y5.600 E24.69136
G1 X-15.500 Y5.600 E25.81108
G1 X-15.500 Y-5.400 E26.20713
G1 X15.600 Y-5.400 E27.32686
G0 F7500 X14.440 Y-5.464
G1 F1920 X14.440 Y5.664 E27.72751
G0 F7500 X14.440 Y5.500
G0 X15.500 Y2.888
G0 X15.663 Y2.888
G1 F1920 X-15.564 Y2.887 E28.85181
G0 F7500 X-15.400 Y2.887
G0 X-14.440 Y5.500
G0 X-14.440 Y5.664
G1 F1920 X-14.440 Y-5.464 E29.25246
G0 F7500 X-14.440 Y-5.300
G0 X-15.400 Y-2.888
G0 X-15.563 Y-2.888
G1 F1920 X15.664 Y-2.887 E30.37676
G0 F7500 X15.500 Y-2.887
G0 X8.664 Y-5.300
G0 X8.664 Y-5.464
G1 F1920 X8.664 Y5.664 E30.77742
G0 F7500 X8.664 Y5.500
G0 X2.888 Y5.500
G0 X2.888 Y5.664
G1 F1920 X2.888 Y-5.464 E31.17807
G0 F7500 X2.888 Y-5.300
G0 X-2.888 Y-5.300
G0 X-2.888 Y-5.464
G1 F1920 X-2.888 Y5.664 E31.57872
G0 F7500 X-2.888 Y5.500
G0 X-8.664 Y5.500
G0 X-8.664 Y5.664
G1 F1920 X-8.664 Y-5.464 E31.97938
;LAYER:2
M106 S127
G1 F2400 E30.97938
G0 F7500 X0.216 Y0.216 Z0.700
;TYPE:WALL-OUTER
G1 F2400 E31.97938
G1 F2220 X0.284 Y0.216 E31.98183
G1 X0.284 Y0.284 E31.98427
G1 X0.216 Y0.284 E31.98672
G1 X0.216 Y0.216 E31.98917
G0 F7500 X-0.700 Y-0.700
;TYPE:SUPPORT
G1 F2100 X-0.700 Y1.200 E32.05758
G1 X1.200 Y1.200 E32.12599
G1 X1.200 Y-0.700 E32.19439
G1 X-0.700 Y-0.700 E32.26280
G0 F7500 X-0.690 Y-0.800
G0 X-15.500 Y-5.400
G1 F2100 X15.600 Y-5.400 E33.38253
G1 X15.600 Y5.600 E33.77857
G1 X-15.500 Y5.600 E34.89830
G1 X-15.500 Y-5.400 E35.29435
G0 F7500 X-14.440 Y-5.464
G1 F2100 X-14.440 Y5.664 E35.69500
G0 F7500 X-14.440 Y5.500
G0 X-15.400 Y2.887
G0 X-15.564 Y2.887
G1 F2100 X15.663 Y2.888 E36.81930
G0 F7500 X15.500 Y2.888
G0 X14.440 Y5.500
G0 X14.440 Y5.664
G1 F2100 X14.440 Y-5.464 E37.21995
G0 F7500 X14.440 Y-5.300
G0 X15.500 Y-2.887
G0 X15.664 Y-2.887
G1 F2100 X-15.563 Y-2.888 E38.34425
G0 F7500 X-15.400 Y-2.888
G0 X-8.664 Y-5.300
G0 X-8.664 Y-5.464
G1 F2100 X-8.664 Y5.664 E38.74491
G0 F7500 X-8.664 Y5.500
G0 X-2.888 Y5.500
G0 X-2.888 Y5.664
G1 F2100 X-2.888 Y-5.464 E39.14556
G0 F7500 X-2.888 Y-5.300
G0 X2.888 Y-5.300
G0 X2.888 Y-5.464
G1 F2100 X2.888 Y5.664 E39.54622
G0 F7500 X2.888 Y5.500
G0 X8.664 Y5.500
G0 X8.664 Y5.664
G1 F2100 X8.664 Y-5.464 E39.94687
;LAYER:3
G1 F2400 E38.94687
G0 F7500 X0.284 Y0.216 Z0.900
;TYPE:WALL-OUTER
G1 F2400 E39.94687
G1 X0.284 Y0.284 E39.94932
G1 X0.216 Y0.284 E39.95177
G1 X0.216 Y0.216 E39.95421
G1 X0.284 Y0.216 E39.95666
G0 F7500 X1.200 Y-0.700
;TYPE:SUPPORT
G1 F2220 X-0.700 Y-0.700 E40.02507
G1 X-0.700 Y1.200 E40.09348
G1 X1.200 Y1.200 E40.16189
G1 X1.200 Y-0.700 E40.23029
G0 F7500 X15.600 Y-5.400
G1 F2220 X15.600 Y5.600 E40.62634
G1 X-15.500 Y5.600 E41.74607
G1 X-15.500 Y-5.400 E42.14211
G1 X15.600 Y-5.400 E43.26184
G0 F7500 X14.440 Y-5.464
G1 F2220 X14.440 Y5.664 E43.66249
G0 F7500 X14.440 Y5.500
G0 X15.500 Y2.888
G0 X15.663 Y2.888
G1 F2220 X-15.564 Y2.887 E44.78679
G0 F7500 X-15.400 Y2.887
G0 X-14.440 Y5.500
G0 X-14.440 Y5.664
G1 F2220 X-14.440 Y-5.464 E45.18744
G0 F7500 X-14.440 Y-5.300
G0 X-15.400 Y-2.888
G0 X-15.563 Y-2.888
G1 F2220 X15.664 Y-2.887 E46.31174
G0 F7500 X15.500 Y-2.887
G0 X8.664 Y-5.300
G0 X8.664 Y-5.464
G1 F2220 X8.664 Y5.664 E46.71240
G0 F7500 X8.664 Y5.500
G0 X2.888 Y5.500
G0 X2.888 Y5.664
G1 F2220 X2.888 Y-5.464 E47.11305
G0 F7500 X2.888 Y-5.300
G0 X-2.888 Y-5.300
G0 X-2.888 Y-5.464
G1 F2220 X-2.888 Y5.664 E47.51371
G0 F7500 X-2.888 Y5.500
G0 X-8.664 Y5.500
G0 X-8.664 Y5.664
G1 F2220 X-8.664 Y-5.464 E47.91436
;LAYER:4
G1 F2400 E46.91436
G0 F7500 X0.216 Y0.216 Z1.100
;TYPE:WALL-OUTER
G1 F2400 E47.91436
G1 F2700 X0.284 Y0.216 E47.91681
G1 X0.284 Y0.284 E47.91926
G1 X0.216 Y0.284 E47.92170
G1 X0.216 Y0.216 E47.92415
G0 F7500 X-0.700 Y-0.700
;TYPE:SUPPORT
G1 F2400 X-0.700 Y1.200 E47.99256
G1 X1.200 Y1.200 E48.06097
G1 X1.200 Y-0.700 E48.12938
G1 X-0.700 Y-0.700 E48.19778
G0 F7500 X-0.690 Y-0.800
G0 X-15.500 Y-5.400
G1 F2400 X15.600 Y-5.400 E49.31751
G1 X15.600 Y5.600 E49.71356
G1 X-15.500 Y5.600 E50.83328
G1 X-15.500 Y-5.400 E51.22933
G0 F7500 X-14.440 Y-5.464
G1 F2400 X-14.440 Y5.664 E51.62998
G0 F7500 X-14.440 Y5.500
G0 X-15.400 Y2.887
G0 X-15.564 Y2.887
G1 F2400 X15.663 Y2.888 E52.75428
G0 F7500 X15.500 Y2.888
G0 X14.440 Y5.500
G0 X14.440 Y5.664
G1 F2400 X14.440 Y-5.464 E53.15494
G0 F7500 X14.440 Y-5.300
G0 X15.500 Y-2.887
G0 X15.664 Y-2.887
G1 F2400 X-15.563 Y-2.888 E54.27924
G0 F7500 X-15.400 Y-2.888
G0 X-8.664 Y-5.300
G0 X-8.664 Y-5.464
G1 F2400 X-8.664 Y5.664 E54.67989
G0 F7500 X-8.664 Y5.500
G0 X-2.888 Y5.500
G0 X-2.888 Y5.664
G1 F2400 X-2.888 Y-5.464 E55.08054
G0 F7500 X-2.888 Y-5.300
G0 X2.888 Y-5.300
G0 X2.888 Y-5.464
G1 F2400 X2.888 Y5.664 E55.48120
G0 F7500 X2.888 Y5.500
G0 X8.664 Y5.500
G0 X8.664 Y5.664
G1 F2400 X8.664 Y-5.464 E55.88185
;LAYER:5
G1 F2400 E54.88185
G0 F7500 X0.284 Y0.216 Z1.300
;TYPE:WALL-OUTER
G1 F2400 E55.88185
G1 F2700 X0.284 Y0.284 E55.88430
G1 X0.216 Y0.284 E55.88675
G1 X0.216 Y0.216 E55.88919
G1 X0.284 Y0.216 E55.89164
G0 F7500 X1.200 Y-0.700
;TYPE:SUPPORT
G1 F2400 X-0.700 Y-0.700 E55.96005
G1 X-0.700 Y1.200 E56.02846
G1 X1.200 Y1.200 E56.09687
G1 X1.200 Y-0.700 E56.16527
G0 F7500 X15.600 Y-5.400
G1 F2400 X15.600 Y5.600 E56.56132
G1 X-15.500 Y5.600 E57.68105
G1 X-15.500 Y-5.400 E58.07709
G1 X15.600 Y-5.400 E59.19682
G0 F7500 X14.440 Y-5.464
G1 F2400 X14.440 Y5.664 E59.59747
G0 F7500 X14.440 Y5.500
G0 X15.500 Y2.888
G0 X15.663 Y2.888
G1 F2400 X-15.564 Y2.887 E60.72177
G0 F7500 X-15.400 Y2.887
G0 X-14.440 Y5.500
G0 X-14.440 Y5.664
G1 F2400 X-14.440 Y-5.464 E61.12243
G0 F7500 X-14.440 Y-5.300
G0 X-15.400 Y-2.888
G0 X-15.563 Y-2.888
G1 F2400 X15.664 Y-2.887 E62.24673
G0 F7500 X15.500 Y-2.887
G0 X8.664 Y-5.300
G0 X8.664 Y-5.464
G1 F2400 X8.664 Y5.664 E62.64738
G0 F7500 X8.664 Y5.500
G0 X2.888 Y5.500
G0 X2.888 Y5.664
G1 F2400 X2.888 Y-5.464 E63.04803
G0 F7500 X2.888 Y-5.300
G0 X-2.888 Y-5.300
G0 X-2.888 Y-5.464
G1 F2400 X-2.888 Y5.664 E63.44869
G0 F7500 X-2.888 Y5.500
G0 X-8.664 Y5.500
G0 X-8.664 Y5.664
G1 F2400 X-8.664 Y-5.464 E63.84934
;LAYER:6
G1 F2400 E62.84934
G0 F7500 X0.216 Y0.216 Z1.500
;TYPE:WALL-OUTER
G1 F2400 E63.84934
G1 F2700 X0.284 Y0.216 E63.85179
G1 X0.284 Y0.284 E63.85424
G1 X0.216 Y0.284 E63.85668
G1 X0.216 Y0.216 E63.85913
G0 F7500 X-0.700 Y-0.700
;TYPE:SUPPORT
G1 F2400 X-0.700 Y1.200 E63.92754
G1 X1.200 Y1.200 E63.99595
G1 X1.200 Y-0.700 E64.06436
G1 X-0.700 Y-0.700 E64.13276
G0 F7500 X-0.690 Y-0.800
G0 X-15.500 Y-5.400
G1 F2400 X15.600 Y-5.400 E65.25249
G1 X15.600 Y5.600 E65.64854
G1 X-15.500 Y5.600 E66.76826
G1 X-15.500 Y-5.400 E67.16431
G0 F7500 X-14.440 Y-5.464
G1 F2400 X-14.440 Y5.664 E67.56496
G0 F7500 X-14.440 Y5.500
G0 X-15.400 Y2.887
G0 X-15.564 Y2.887
G1 F2400 X15.663 Y2.888 E68.68926
G0 F7500 X15.500 Y2.888
G0 X14.440 Y5.500
G0 X14.440 Y5.664
G1 F2400 X14.440 Y-5.464 E69.08992
G0 F7500 X14.440 Y-5.300
G0 X15.500 Y-2.887
G0 X15.664 Y-2.887
G1 F2400 X-15.563 Y-2.888 E70.21422
G0 F7500 X-15.400 Y-2.888
G0 X-8.664 Y-5.300
G0 X-8.664 Y-5.464
G1 F2400 X-8.664 Y5.664 E70.61487
G0 F7500 X-8.664 Y5.500
G0 X-2.888 Y5.500
G0 X-2.888 Y5.664
G1 F2400 X-2.888 Y-5.464 E71.01552
G0 F7500 X-2.888 Y-5.300
G0 X2.888 Y-5.300
G0 X2.888 Y-5.464
G1 F2400 X2.888 Y5.664 E71.41618
G0 F7500 X2.888 Y5.500
G0 X8.664 Y5.500
G0 X8.664 Y5.664
G1 F2400 X8.664 Y-5.464 E71.81683
;LAYER:7
G1 F2400 E70.81683
G0 F7500 X0.284 Y0.216 Z1.700
;TYPE:WALL-OUTER
G1 F2400 E71.81683
G1 F2700 X0.284 Y0.284 E71.81928
G1 X0.216 Y0.284 E71.82173
G1 X0.216 Y0.216 E71.82418
G1 X0.284 Y0.216 E71.82662
G0 F7500 X1.200 Y-0.700
;TYPE:SUPPORT
G1 F2400 X-0.700 Y-0.700 E71.89503
G1 X-0.700 Y1.200 E71.96344
G1 X1.200 Y1.200 E72.03185
G1 X1.200 Y-0.700 E72.10025
G0 F7500 X15.600 Y-5.400
G1 F2400 X15.600 Y5.600 E72.49630
G1 X-15.500 Y5.600 E73.61603
G1 X-15.500 Y-5.400 E74.01207
G1 X15.600 Y-5.400 E75.13180
G0 F7500 X14.440 Y-5.464
G1 F2400 X14.440 Y5.664 E75.53245
G0 F7500 X14.440 Y5.500
G0 X15.500 Y2.888
G0 X15.663 Y2.888
G1 F2400 X-15.564 Y2.887 E76.65675
G0 F7500 X-15.400 Y2.887
G0 X-14.440 Y5.500
G0 X-14.440 Y5.664
G1 F2400 X-14.440 Y-5.464 E77.05741
G0 F7500 X-14.440 Y-5.300
G0 X-15.400 Y-2.888
G0 X-15.563 Y-2.888
G1 F2400 X15.664 Y-2.887 E78.18171
G0 F7500 X15.500 Y-2.887
G0 X8.664 Y-5.300
G0 X8.664 Y-5.464
G1 F2400 X8.664 Y5.664 E78.58236
G0 F7500 X8.664 Y5.500
G0 X2.888 Y5.500
G0 X2.888 Y5.664
G1 F2400 X2.888 Y-5.464 E78.98301
G0 F7500 X2.888 Y-5.300
G0 X-2.888 Y-5.300
G0 X-2.888 Y-5.464
G1 F2400 X-2.888 Y5.664 E79.38367
G0 F7500 X-2.888 Y5.500
G0 X-8.664 Y5.500
G0 X-8.664 Y5.664
G1 F2400 X-8.664 Y-5.464 E79.78432
;LAYER:8
G1 F2400 E78.78432
G0 F7500 X0.216 Y0.216 Z1.900
;TYPE:WALL-OUTER
G1 F2400 E79.78432
G1 F2700 X0.284 Y0.216 E79.78677
G1 X0.284 Y0.284 E79.78922
G1 X0.216 Y0.284 E79.79167
G1 X0.216 Y0.216 E79.79411
G0 F7500 X-0.700 Y-0.700
;TYPE:SUPPORT
G1 F2400 X-0.700 Y1.200 E79.86252
G1 X1.200 Y1.200 E79.93093
G1 X1.200 Y-0.700 E79.99934
G1 X-0.700 Y-0.700 E80.06775
G0 F7500 X-0.690 Y-0.800
G0 X-15.500 Y-5.400
G1 F2400 X15.600 Y-5.400 E81.18747
G1 X15.600 Y5.600 E81.58352
G1 X-15.500 Y5.600 E82.70325
G1 X-15.500 Y-5.400 E83.09929
G0 F7500 X-14.440 Y-5.464
G1 F2400 X-14.440 Y5.664 E83.49994
G0 F7500 X-14.440 Y5.500
G0 X-15.400 Y2.887
G0 X-15.564 Y2.887
G1 F2400 X15.663 Y2.888 E84.62424
G0 F7500 X15.500 Y2.888
G0 X14.440 Y5.500
G0 X14.440 Y5.664
G1 F2400 X14.440 Y-5.464 E85.02490
G0 F7500 X14.440 Y-5.300
G0 X15.500 Y-2.887
G0 X15.664 Y-2.887
G1 F2400 X-15.563 Y-2.888 E86.14920
G0 F7500 X-15.400 Y-2.888
G0 X-8.664 Y-5.300
G0 X-8.664 Y-5.464
G1 F2400 X-8.664 Y5.664 E86.54985
G0 F7500 X-8.664 Y5.500
G0 X-2.888 Y5.500
G0 X-2.888 Y5.664
G1 F2400 X-2.888 Y-5.464 E86.95050
G0 F7500 X-2.888 Y-5.300
G0 X2.888 Y-5.300
G0 X2.888 Y-5.464
G1 F2400 X2.888 Y5.664 E87.35116
G0 F7500 X2.888 Y5.500
G0 X8.664 Y5.500
G0 X8.664 Y5.664
G1 F2400 X8.664 Y-5.464 E87.75181
;LAYER:9
G1 F2400 E86.75181
G0 F7500 X0.284 Y0.216 Z2.100
;TYPE:WALL-OUTER
G1 F2400 E87.75181
G1 F2700 X0.284 Y0.284 E87.75426
G1 X0.216 Y0.284 E87.75671
G1 X0.216 Y0.216 E87.75916
G1 X0.284 Y0.216 E87.76160
G0 F7500 X1.200 Y-0.700
;TYPE:SUPPORT
G1 F2400 X-0.700 Y-0.700 E87.83001
G1 X-0.700 Y1.200 E87.89842
G1 X1.200 Y1.200 E87.96683
G1 X1.200 Y-0.700 E88.03524
G0 F7500 X15.600 Y-5.400
G1 F2400 X15.600 Y5.600 E88.43128
G1 X-15.500 Y5.600 E89.55101
G1 X-15.500 Y-5.400 E89.94705
G1 X15.600 Y-5.400 E91.06678
G0 F7500 X14.440 Y-5.464
G1 F2400 X14.440 Y5.664 E91.46743
G0 F7500 X14.440 Y5.500
G0 X15.500 Y2.888
G0 X15.663 Y2.888
G1 F2400 X-15.564 Y2.887 E92.59173
G0 F7500 X-15.400 Y2.887
G0 X-14.440 Y5.500
G0 X-14.440 Y5.664
G1 F2400 X-14.440 Y-5.464 E92.99239
G0 F7500 X-14.440 Y-5.300
G0 X-15.400 Y-2.888
G0 X-15.563 Y-2.888
G1 F2400 X15.664 Y-2.887 E94.11669
G0 F7500 X15.500 Y-2.887
G0 X8.664 Y-5.300
G0 X8.664 Y-5.464
G1 F2400 X8.664 Y5.664 E94.51734
G0 F7500 X8.664 Y5.500
G0 X2.888 Y5.500
G0 X2.888 Y5.664
G1 F2400 X2.888 Y-5.464 E94.91799
G0 F7500 X2.888 Y-5.300
G0 X-2.888 Y-5.300
G0 X-2.888 Y-5.464
G1 F2400 X-2.888 Y5.664 E95.31865
G0 F7500 X-2.888 Y5.500
G0 X-8.664 Y5.500
G0 X-8.664 Y5.664
G1 F2400 X-8.664 Y-5.464 E95.71930
;LAYER:10
G1 F2400 E94.71930
G0 F7500 X0.216 Y0.216 Z2.300
;TYPE:WALL-OUTER
G1 F2400 E95.71930
G1 F2700 X0.284 Y0.216 E95.72175
G1 X0.284 Y0.284 E95.72420
G1 X0.216 Y0.284 E95.72665
G1 X0.216 Y0.216 E95.72910
G0 F7500 X-0.700 Y-0.700
;TYPE:SUPPORT
G1 F2400 X-0.700 Y1.200 E95.79750
G1 X1.200 Y1.200 E95.86591
G1 X1.200 Y-0.700 E95.93432
G1 X-0.700 Y-0.700 E96.00273
G0 F7500 X-0.690 Y-0.800
G0 X-15.500 Y-5.400
G1 F2400 X15.600 Y-5.400 E97.12245
G1 X15.600 Y5.600 E97.51850
G1 X-15.500 Y5.600 E98.63823
G1 X-15.500 Y-5.400 E99.03427
G0 F7500 X-14.440 Y-5.464
G1 F2400 X-14.440 Y5.664 E99.43492
G0 F7500 X-14.440 Y5.500
G0 X-15.400 Y2.887
G0 X-15.564 Y2.887
G1 F2400 X15.663 Y2.888 E100.55922
G0 F7500 X15.500 Y2.888
G0 X14.440 Y5.500
G0 X14.440 Y5.664
G1 F2400 X14.440 Y-5.464 E100.95988
G0 F7500 X14.440 Y-5.300
G0 X15.500 Y-2.887
G0 X15.664 Y-2.887
G1 F2400 X-15.563 Y-2.888 E102.08418
G0 F7500 X-15.400 Y-2.888
G0 X-8.664 Y-5.300
G0 X-8.664 Y-5.464
G1 F2400 X-8.664 Y5.664 E102.48483
G0 F7500 X-8.664 Y5.500
G0 X-2.888 Y5.500
G0 X-2.888 Y5.664
G1 F2400 X-2.888 Y-5.464 E102.88549
G0 F7500 X-2.888 Y-5.300
G0 X2.888 Y-5.300
G0 X2.888 Y-5.464
G1 F2400 X2.888 Y5.664 E103.28614
G0 F7500 X2.888 Y5.500
G0 X8.664 Y5.500
G0 X8.664 Y5.664
G1 F2400 X8.664 Y-5.464 E103.68679
;LAYER:11
G1 F2400 E102.68679
G0 F7500 X0.284 Y0.216 Z2.500
;TYPE:WALL-OUTER
G1 F2400 E103.68679
G1 F2700 X0.284 Y0.284 E103.68924
G1 X0.216 Y0.284 E103.69169
G1 X0.216 Y0.216 E103.69414
G1 X0.284 Y0.216 E103.69659
G0 F7500 X1.200 Y-0.700
;TYPE:SUPPORT
G1 F2400 X-0.700 Y-0.700 E103.76499
G1 X-0.700 Y1.200 E103.83340
G1 X1.200 Y1.200 E103.90181
G1 X1.200 Y-0.700 E103.97022
G0 F7500 X15.600 Y-5.400
G1 F2400 X15.600 Y5.600 E104.36626
G1 X-15.500 Y5.600 E105.48599
G1 X-15.500 Y-5.400 E105.88203
G1 X15.600 Y-5.400 E107.00176
G0 F7500 X14.440 Y-5.464
G1 F2400 X14.440 Y5.664 E107.40242
G0 F7500 X14.440 Y5.500
G0 X15.500 Y2.888
G0 X15.663 Y2.888
G1 F2400 X-15.564 Y2.887 E108.52672
G0 F7500 X-15.400 Y2.887
G0 X-14.440 Y5.500
G0 X-14.440 Y5.664
G1 F2400 X-14.440 Y-5.464 E108.92737
G0 F7500 X-14.440 Y-5.300
G0 X-15.400 Y-2.888
G0 X-15.563 Y-2.888
G1 F2400 X15.664 Y-2.887 E110.05167
G0 F7500 X15.500 Y-2.887
G0 X8.664 Y-5.300
G0 X8.664 Y-5.464
G1 F2400 X8.664 Y5.664 E110.45232
G0 F7500 X8.664 Y5.500
G0 X2.888 Y5.500
G0 X2.888 Y5.664
G1 F2400 X2.888 Y-5.464 E110.85298
G0 F7500 X2.888 Y-5.300
G0 X-2.888 Y-5.300
G0 X-2.888 Y-5.464
G1 F2400 X-2.888 Y5.664 E111.25363
G0 F7500 X-2.888 Y5.500
G0 X-8.664 Y5.500
G0 X-8.664 Y5.664
G1 F2400 X-8.664 Y-5.464 E111.65428
;LAYER:12
M106 S255
G1 F2400 E110.65428
G0 F7500 X0.216 Y0.216 Z2.700
;TYPE:WALL-OUTER
G1 F2400 E111.65428
G1 F540 X0.284 Y0.216 E111.65673
G1 X0.284 Y0.284 E111.65918
G1 X0.216 Y0.284 E111.66163
G1 X0.216 Y0.216 E111.66408
;LAYER:13
M106 S127
G0 F7500 X13.918 Y3.918 Z2.900
;TYPE:WALL-INNER
G1 F3600 X-13.918 Y3.918 E112.66629
G1 X-13.918 Y-3.918 E112.94841
G1 X13.918 Y-3.918 E113.95062
G1 X13.918 Y3.918 E114.23275
G0 F7500 X14.351 Y4.351
G1 F3600 X-14.351 Y4.351 E115.26614
G1 X-14.351 Y-4.351 E115.57945
G1 X14.351 Y-4.351 E116.61284
G1 X14.351 Y4.351 E116.92615
