;Generated with Cura_SteamEngine 15.04.6

;Layer count: 16
;LAYER:0
M107
G0 F7500 X-18.716 Y-53.616 Z0.300
;TYPE:SKIRT
G1 F1800 X18.816 Y-53.616 E2.02696
G1 X18.816 Y53.816 E7.82895
G1 X-18.716 Y53.816 E9.85591
G1 X-18.716 Y-53.616 E15.65789
G1 F2400 E14.65789
G0 F7500 X0.216 Y0.216
;TYPE:WALL-OUTER
G1 F2400 E15.65789
G1 F1800 X0.284 Y0.216 E15.66157
G1 X0.284 Y0.284 E15.66524
G1 X0.216 Y0.284 E15.66891
G1 X0.216 Y0.216 E15.67258
G0 F7500 X-0.700 Y-0.700
;TYPE:SUPPORT
G1 F1800 X-0.700 Y1.200 E15.77519
G1 X1.200 Y1.200 E15.87781
G1 X1.200 Y-0.700 E15.98042
G1 X-0.700 Y-0.700 E16.08303
G0 F7500 X-0.690 Y-0.800
G0 X-15.500 Y-50.400
G1 F1800 X15.600 Y-50.400 E17.76262
G1 X15.600 Y50.600 E23.21724
G1 X-15.500 Y50.600 E24.89683
G1 X-15.500 Y-50.400 E30.35145
G0 F7500 X-14.440 Y-50.464
G1 F1800 X-14.440 Y50.664 E35.81299
G0 F7500 X-14.440 Y50.500
G0 X-15.400 Y49.095
G0 X-15.564 Y49.095
G1 F1800 X15.663 Y49.096 E37.49944
G0 F7500 X15.500 Y49.096
G0 X14.440 Y50.500
G0 X14.440 Y50.664
G1 F1800 X14.440 Y-50.464 E42.96097
G0 F7500 X14.440 Y-50.300
G0 X15.500 Y-49.095
G0 X15.664 Y-49.095
G1 F1800 X-15.563 Y-49.096 E44.64742
G0 F7500 X-15.400 Y-49.096
G0 X-15.400 Y-43.320
G0 X-15.563 Y-43.320
G1 F1800 X15.664 Y-43.319 E46.33387
G0 F7500 X15.500 Y-43.319
G0 X8.664 Y-50.300
G0 X8.664 Y-50.464
G1 F1800 X8.664 Y50.664 E51.79540
G0 F7500 X8.664 Y50.500
G0 X2.888 Y50.500
G0 X2.888 Y50.664
G1 F1800 X2.888 Y-50.464 E57.25694
G0 F7500 X2.888 Y-50.300
G0 X-2.888 Y-50.300
G0 X-2.888 Y-50.464
G1 F1800 X-2.888 Y50.664 E62.71847
G0 F7500 X-2.888 Y50.500
G0 X-8.664 Y50.500
G0 X-8.664 Y50.664
G1 F1800 X-8.664 Y-50.464 E68.18000
G0 F7500 X-8.664 Y-50.300
G0 X-15.400 Y-37.544
G0 X-15.563 Y-37.544
G1 F1800 X15.664 Y-37.543 E69.86645
G0 F7500 X15.500 Y-37.543
G0 X15.500 Y-31.767
G0 X15.664 Y-31.767
G1 F1800 X-15.563 Y-31.768 E71.55290
G0 F7500 X-15.400 Y-31.768
G0 X-15.400 Y-25.992
G0 X-15.563 Y-25.992
G1 F1800 X15.664 Y-25.991 E73.23935
G0 F7500 X15.500 Y-25.991
G0 X15.500 Y-20.215
G0 X15.664 Y-20.215
G1 F1800 X-15.563 Y-20.216 E74.92580
G0 F7500 X-15.400 Y-20.216
G0 X-15.400 Y-14.440
G0 X-15.563 Y-14.440
G1 F1800 X15.664 Y-14.439 E76.61225
G0 F7500 X15.500 Y-14.439
G0 X15.500 Y-8.663
G0 X15.664 Y-8.663
G1 F1800 X-15.563 Y-8.664 E78.29870
G0 F7500 X-15.400 Y-8.664
G0 X-15.400 Y-2.888
G0 X-15.563 Y-2.888
G1 F1800 X15.664 Y-2.887 E79.98515
G0 F7500 X15.500 Y-2.887
G0 X15.500 Y2.888
G0 X15.663 Y2.888
G1 F1800 X-15.564 Y2.887 E81.67160
G0 F7500 X-15.400 Y2.887
G0 X-15.400 Y8.663
G0 X-15.564 Y8.663
G1 F1800 X15.663 Y8.664 E83.35805
G0 F7500 X15.500 Y8.664
G0 X15.500 Y14.440
G0 X15.663 Y14.440
G1 F1800 X-15.564 Y14.439 E85.04450
G0 F7500 X-15.400 Y14.439
G0 X-15.400 Y20.215
G0 X-15.564 Y20.215
G1 F1800 X15.663 Y20.216 E86.73095
G0 F7500 X15.500 Y20.216
G0 X15.500 Y25.992
G0 X15.663 Y25.992
G1 F1800 X-15.564 Y25.991 E88.41740
G0 F7500 X-15.400 Y25.991
G0 X-15.400 Y31.767
G0 X-15.564 Y31.767
G1 F1800 X15.663 Y31.768 E90.10385
G0 F7500 X15.500 Y31.768
G0 X15.500 Y37.544
G0 X15.663 Y37.544
G1 F1800 X-15.564 Y37.543 E91.79030
G0 F7500 X-15.400 Y37.543
G0 X-15.400 Y43.319
G0 X-15.564 Y43.319
G1 F1800 X15.663 Y43.320 E93.47675
;LAYER:1
M106 S63
G1 F2400 E92.47675
G0 F7500 X0.284 Y0.284 Z0.500
;TYPE:WALL-OUTER
G1 F2400 E93.47675
G1 F1980 X0.216 Y0.284 E93.47920
G1 X0.216 Y0.216 E93.48165
G1 X0.284 Y0.216 E93.48410
G1 X0.284 Y0.284 E93.48654
G0 F7500 X1.200 Y1.200
;TYPE:SUPPORT
G1 F1920 X1.200 Y-0.700 E93.55495
G1 X-0.700 Y-0.700 E93.62336
G1 X-0.700 Y1.200 E93.69177
G1 X1.200 Y1.200 E93.76018
G0 F7500 X1.190 Y1.300
G0 X15.500 Y50.590
G0 X15.600 Y50.600
G1 F1920 X-15.500 Y50.600 E94.87990
G1 X-15.500 Y-50.400 E98.51632
G1 X15.600 Y-50.400 E99.63604
G1 X15.600 Y50.600 E103.27246
G0 F7500 X14.440 Y50.664
G1 F1920 X14.440 Y-50.464 E106.91348
G0 F7500 X14.440 Y-50.300
G0 X15.500 Y-49.095
G0 X15.664 Y-49.095
G1 F1920 X-15.563 Y-49.096 E108.03778
G0 F7500 X-15.400 Y-49.096
G0 X-14.440 Y-50.300
G0 X-14.440 Y-50.464
G1 F1920 X-14.440 Y50.664 E111.67880
G0 F7500 X-14.440 Y50.500
G0 X-15.400 Y49.095
G0 X-15.564 Y49.095
G1 F1920 X15.663 Y49.096 E112.80310
G0 F7500 X15.500 Y49.096
G0 X15.500 Y43.320
G0 X15.663 Y43.320
G1 F1920 X-15.564 Y43.319 E113.92740
G0 F7500 X-15.400 Y43.319
G0 X-8.664 Y50.500
G0 X-8.664 Y50.664
G1 F1920 X-8.664 Y-50.464 E117.56842
G0 F7500 X-8.664 Y-50.300
G0 X-2.888 Y-50.300
G0 X-2.888 Y-50.464
G1 F1920 X-2.888 Y50.664 E121.20945
G0 F7500 X-2.888 Y50.500
G0 X2.888 Y50.500
G0 X2.888 Y50.664
G1 F1920 X2.888 Y-50.464 E124.85047
G0 F7500 X2.888 Y-50.300
G0 X8.664 Y-50.300
G0 X8.664 Y-50.464
G1 F1920 X8.664 Y50.664 E128.49149
G0 F7500 X8.664 Y50.500
G0 X15.500 Y37.544
G0 X15.663 Y37.544
G1 F1920 X-15.564 Y37.543 E129.61579
G0 F7500 X-15.400 Y37.543
G0 X-15.400 Y31.767
G0 X-15.564 Y31.767
G1 F1920 X15.663 Y31.768 E130.74009
G0 F7500 X15.500 Y31.768
G0 X15.500 Y25.992
G0 X15.663 Y25.992
G1 F1920 X-15.564 Y25.991 E131.86439
G0 F7500 X-15.400 Y25.991
G0 X-15.400 Y20.215
G0 X-15.564 Y20.215
G1 F1920 X15.663 Y20.216 E132.98869
G0 F7500 X15.500 Y20.216
G0 X15.500 Y14.440
G0 X15.663 Y14.440
G1 F1920 X-15.564 Y14.439 E134.11299
G0 F7500 X-15.400 Y14.439
G0 X-15.400 Y8.663
G0 X-15.564 Y8.663
G1 F1920 X15.663 Y8.664 E135.23729
G0 F7500 X15.500 Y8.664
G0 X15.500 Y2.888
G0 X15.663 Y2.888
G1 F1920 X-15.564 Y2.887 E136.36159
G0 F7500 X-15.400 Y2.887
G0 X-15.400 Y-2.888
G0 X-15.563 Y-2.888
G1 F1920 X15.664 Y-2.887 E137.48589
G0 F7500 X15.500 Y-2.887
G0 X15.500 Y-8.663
G0 X15.664 Y-8.663
G1 F1920 X-15.563 Y-8.664 E138.61019
G0 F7500 X-15.400 Y-8.664
G0 X-15.400 Y-14.440
G0 X-15.563 Y-14.440
G1 F1920 X15.664 Y-14.439 E139.73449
G0 F7500 X15.500 Y-14.439
G0 X15.500 Y-20.215
G0 X15.664 Y-20.215
G1 F1920 X-15.563 Y-20.216 E140.85879
G0 F7500 X-15.400 Y-20.216
G0 X-15.400 Y-25.992
G0 X-15.563 Y-25.992
G1 F1920 X15.664 Y-25.991 E141.98309
G0 F7500 X15.500 Y-25.991
G0 X15.500 Y-31.767
G0 X15.664 Y-31.767
G1 F1920 X-15.563 Y-31.768 E143.10739
G0 F7500 X-15.400 Y-31.768
G0 X-15.400 Y-37.544
G0 X-15.563 Y-37.544
G1 F1920 X15.664 Y-37.543 E144.23169
G0 F7500 X15.500 Y-37.543
G0 X15.500 Y-43.319
G0 X15.664 Y-43.319
G1 F1920 X-15.563 Y-43.320 E145.35599
;LAYER:2
M106 S127
G1 F2400 E144.35599
G0 F7500 X0.216 Y0.216 Z0.700
;TYPE:WALL-OUTER
G1 F2400 E145.35599
G1 F2220 X0.284 Y0.216 E145.35844
G1 X0.284 Y0.284 E145.36089
G1 X0.216 Y0.284 E145.36333
G1 X0.216 Y0.216 E145.36578
G0 F7500 X-0.700 Y-0.700
;TYPE:SUPPORT
G1 F2100 X-0.700 Y1.200 E145.43419
G1 X1.200 Y1.200 E145.50260
G1 X1.200 Y-0.700 E145.57101
G1 X-0.700 Y-0.700 E145.63941
G0 F7500 X-0.690 Y-0.800
G0 X-15.500 Y-50.400
G1 F2100 X15.600 Y-50.400 E146.75914
G1 X15.600 Y50.600 E150.39555
G1 X-15.500 Y50.600 E151.51528
G1 X-15.500 Y-50.400 E155.15170
G0 F7500 X-14.440 Y-50.464
G1 F2100 X-14.440 Y50.664 E158.79272
G0 F7500 X-14.440 Y50.500
G0 X-15.400 Y49.095
G0 X-15.564 Y49.095
G1 F2100 X15.663 Y49.096 E159.91702
G0 F7500 X15.500 Y49.096
G0 X14.440 Y50.500
G0 X14.440 Y50.664
G1 F2100 X14.440 Y-50.464 E163.55804
G0 F7500 X14.440 Y-50.300
G0 X15.500 Y-49.095
G0 X15.664 Y-49.095
G1 F2100 X-15.563 Y-49.096 E164.68234
G0 F7500 X-15.400 Y-49.096
G0 X-15.400 Y-43.320
G0 X-15.563 Y-43.320
G1 F2100 X15.664 Y-43.319 E165.80664
G0 F7500 X15.500 Y-43.319
G0 X8.664 Y-50.300
G0 X8.664 Y-50.464
G1 F2100 X8.664 Y50.664 E169.44766
G0 F7500 X8.664 Y50.500
G0 X2.888 Y50.500
G0 X2.888 Y50.664
G1 F2100 X2.888 Y-50.464 E173.08868
G0 F7500 X2.888 Y-50.300
G0 X-2.888 Y-50.300
G0 X-2.888 Y-50.464
G1 F2100 X-2.888 Y50.664 E176.72971
G0 F7500 X-2.888 Y50.500
G0 X-8.664 Y50.500
G0 X-8.664 Y50.664
G1 F2100 X-8.664 Y-50.464 E180.37073
G0 F7500 X-8.664 Y-50.300
G0 X-15.400 Y-37.544
G0 X-15.563 Y-37.544
G1 F2100 X15.664 Y-37.543 E181.49503
G0 F7500 X15.500 Y-37.543
G0 X15.500 Y-31.767
G0 X15.664 Y-31.767
G1 F2100 X-15.563 Y-31.768 E182.61933
G0 F7500 X-15.400 Y-31.768
G0 X-15.400 Y-25.992
G0 X-15.563 Y-25.992
G1 F2100 X15.664 Y-25.991 E183.74363
G0 F7500 X15.500 Y-25.991
G0 X15.500 Y-20.215
G0 X15.664 Y-20.215
G1 F2100 X-15.563 Y-20.216 E184.86793
G0 F7500 X-15.400 Y-20.216
G0 X-15.400 Y-14.440
G0 X-15.563 Y-14.440
G1 F2100 X15.664 Y-14.439 E185.99223
G0 F7500 X15.500 Y-14.439
G0 X15.500 Y-8.663
G0 X15.664 Y-8.663
G1 F2100 X-15.563 Y-8.664 E187.11653
G0 F7500 X-15.400 Y-8.664
G0 X-15.400 Y-2.888
G0 X-15.563 Y-2.888
G1 F2100 X15.664 Y-2.887 E188.24083
G0 F7500 X15.500 Y-2.887
G0 X15.500 Y2.888
G0 X15.663 Y2.888
G1 F2100 X-15.564 Y2.887 E189.36513
G0 F7500 X-15.400 Y2.887
G0 X-15.400 Y8.663
G0 X-15.564 Y8.663
G1 F2100 X15.663 Y8.664 E190.48943
G0 F7500 X15.500 Y8.664
G0 X15.500 Y14.440
G0 X15.663 Y14.440
G1 F2100 X-15.564 Y14.439 E191.61373
G0 F7500 X-15.400 Y14.439
G0 X-15.400 Y20.215
G0 X-15.564 Y20.215
G1 F2100 X15.663 Y20.216 E192.73803
G0 F7500 X15.500 Y20.216
G0 X15.500 Y25.992
G0 X15.663 Y25.992
G1 F2100 X-15.564 Y25.991 E193.86233
G0 F7500 X-15.400 Y25.991
G0 X-15.400 Y31.767
G0 X-15.564 Y31.767
G1 F2100 X15.663 Y31.768 E194.98663
G0 F7500 X15.500 Y31.768
G0 X15.500 Y37.544
G0 X15.663 Y37.544
G1 F2100 X-15.564 Y37.543 E196.11093
G0 F7500 X-15.400 Y37.543
G0 X-15.400 Y43.319
G0 X-15.564 Y43.319
G1 F2100 X15.663 Y43.320 E197.23523
;LAYER:3
G1 F2400 E196.23523
G0 F7500 X0.284 Y0.284 Z0.900
;TYPE:WALL-OUTER
G1 F2400 E197.23523
G1 X0.216 Y0.284 E197.23768
G1 X0.216 Y0.216 E197.24012
G1 X0.284 Y0.216 E197.24257
G1 X0.284 Y0.284 E197.24502
G0 F7500 X1.200 Y1.200
;TYPE:SUPPORT
G1 F2220 X1.200 Y-0.700 E197.31343
G1 X-0.700 Y-0.700 E197.38184
G1 X-0.700 Y1.200 E197.45024
G1 X1.200 Y1.200 E197.51865
G0 F7500 X1.190 Y1.300
G0 X15.500 Y50.590
G0 X15.600 Y50.600
G1 F2220 X-15.500 Y50.600 E198.63838
G1 X-15.500 Y-50.400 E202.27479
G1 X15.600 Y-50.400 E203.39452
G1 X15.600 Y50.600 E207.03093
G0 F7500 X14.440 Y50.664
G1 F2220 X14.440 Y-50.464 E210.67196
G0 F7500 X14.440 Y-50.300
G0 X15.500 Y-49.095
G0 X15.664 Y-49.095
G1 F2220 X-15.563 Y-49.096 E211.79626
G0 F7500 X-15.400 Y-49.096
G0 X-14.440 Y-50.300
G0 X-14.440 Y-50.464
G1 F2220 X-14.440 Y50.664 E215.43728
G0 F7500 X-14.440 Y50.500
G0 X-15.400 Y49.095
G0 X-15.564 Y49.095
G1 F2220 X15.663 Y49.096 E216.56158
G0 F7500 X15.500 Y49.096
G0 X15.500 Y43.320
G0 X15.663 Y43.320
G1 F2220 X-15.564 Y43.319 E217.68588
G0 F7500 X-15.400 Y43.319
G0 X-8.664 Y50.500
G0 X-8.664 Y50.664
G1 F2220 X-8.664 Y-50.464 E221.32690
G0 F7500 X-8.664 Y-50.300
G0 X-2.888 Y-50.300
G0 X-2.888 Y-50.464
G1 F2220 X-2.888 Y50.664 E224.96792
G0 F7500 X-2.888 Y50.500
G0 X2.888 Y50.500
G0 X2.888 Y50.664
G1 F2220 X2.888 Y-50.464 E228.60894
G0 F7500 X2.888 Y-50.300
G0 X8.664 Y-50.300
G0 X8.664 Y-50.464
G1 F2220 X8.664 Y50.664 E232.24997
G0 F7500 X8.664 Y50.500
G0 X15.500 Y37.544
G0 X15.663 Y37.544
G1 F2220 X-15.564 Y37.543 E233.37427
G0 F7500 X-15.400 Y37.543
G0 X-15.400 Y31.767
G0 X-15.564 Y31.767
G1 F2220 X15.663 Y31.768 E234.49857
G0 F7500 X15.500 Y31.768
G0 X15.500 Y25.992
G0 X15.663 Y25.992
G1 F2220 X-15.564 Y25.991 E235.62287
G0 F7500 X-15.400 Y25.991
G0 X-15.400 Y20.215
G0 X-15.564 Y20.215
G1 F2220 X15.663 Y20.216 E236.74717
G0 F7500 X15.500 Y20.216
G0 X15.500 Y14.440
G0 X15.663 Y14.440
G1 F2220 X-15.564 Y14.439 E237.87147
G0 F7500 X-15.400 Y14.439
G0 X-15.400 Y8.663
G0 X-15.564 Y8.663
G1 F2220 X15.663 Y8.664 E238.99577
G0 F7500 X15.500 Y8.664
G0 X15.500 Y2.888
G0 X15.663 Y2.888
G1 F2220 X-15.564 Y2.887 E240.12007
G0 F7500 X-15.400 Y2.887
G0 X-15.400 Y-2.888
G0 X-15.563 Y-2.888
G1 F2220 X15.664 Y-2.887 E241.24437
G0 F7500 X15.500 Y-2.887
G0 X15.500 Y-8.663
G0 X15.664 Y-8.663
G1 F2220 X-15.563 Y-8.664 E242.36867
G0 F7500 X-15.400 Y-8.664
G0 X-15.400 Y-14.440
G0 X-15.563 Y-14.440
G1 F2220 X15.664 Y-14.439 E243.49297
G0 F7500 X15.500 Y-14.439
G0 X15.500 Y-20.215
G0 X15.664 Y-20.215
G1 F2220 X-15.563 Y-20.216 E244.61727
G0 F7500 X-15.400 Y-20.216
G0 X-15.400 Y-25.992
G0 X-15.563 Y-25.992
G1 F2220 X15.664 Y-25.991 E245.74157
G0 F7500 X15.500 Y-25.991
G0 X15.500 Y-31.767
G0 X15.664 Y-31.767
G1 F2220 X-15.563 Y-31.768 E246.86587
G0 F7500 X-15.400 Y-31.768
G0 X-15.400 Y-37.544
G0 X-15.563 Y-37.544
G1 F2220 X15.664 Y-37.543 E247.99017
G0 F7500 X15.500 Y-37.543
G0 X15.500 Y-43.319
G0 X15.664 Y-43.319
G1 F2220 X-15.563 Y-43.320 E249.11447
;LAYER:4
G1 F2400 E248.11447
G0 F7500 X0.216 Y0.216 Z1.100
;TYPE:WALL-OUTER
G1 F2400 E249.11447
G1 F2700 X0.284 Y0.216 E249.11691
G1 X0.284 Y0.284 E249.11936
G1 X0.216 Y0.284 E249.12181
G1 X0.216 Y0.216 E249.12426
G0 F7500 X-0.700 Y-0.700
;TYPE:SUPPORT
G1 F2400 X-0.700 Y1.200 E249.19267
G1 X1.200 Y1.200 E249.26107
G1 X1.200 Y-0.700 E249.32948
G1 X-0.700 Y-0.700 E249.39789
G0 F7500 X-0.690 Y-0.800
G0 X-15.500 Y-50.400
G1 F2400 X15.600 Y-50.400 E250.51762
G1 X15.600 Y50.600 E254.15403
G1 X-15.500 Y50.600 E255.27376
G1 X-15.500 Y-50.400 E258.91017
G0 F7500 X-14.440 Y-50.464
G1 F2400 X-14.440 Y50.664 E262.55119
G0 F7500 X-14.440 Y50.500
G0 X-15.400 Y49.095
G0 X-15.564 Y49.095
G1 F2400 X15.663 Y49.096 E263.67549
G0 F7500 X15.500 Y49.096
G0 X14.440 Y50.500
G0 X14.440 Y50.664
G1 F2400 X14.440 Y-50.464 E267.31652
G0 F7500 X14.440 Y-50.300
G0 X15.500 Y-49.095
G0 X15.664 Y-49.095
G1 F2400 X-15.563 Y-49.096 E268.44082
G0 F7500 X-15.400 Y-49.096
G0 X-15.400 Y-43.320
G0 X-15.563 Y-43.320
G1 F2400 X15.664 Y-43.319 E269.56512
G0 F7500 X15.500 Y-43.319
G0 X8.664 Y-50.300
G0 X8.664 Y-50.464
G1 F2400 X8.664 Y50.664 E273.20614
G0 F7500 X8.664 Y50.500
G0 X2.888 Y50.500
G0 X2.888 Y50.664
G1 F2400 X2.888 Y-50.464 E276.84716
G0 F7500 X2.888 Y-50.300
G0 X-2.888 Y-50.300
G0 X-2.888 Y-50.464
G1 F2400 X-2.888 Y50.664 E280.48818
G0 F7500 X-2.888 Y50.500
G0 X-8.664 Y50.500
G0 X-8.664 Y50.664
G1 F2400 X-8.664 Y-50.464 E284.12921
G0 F7500 X-8.664 Y-50.300
G0 X-15.400 Y-37.544
G0 X-15.563 Y-37.544
G1 F2400 X15.664 Y-37.543 E285.25351
G0 F7500 X15.500 Y-37.543
G0 X15.500 Y-31.767
G0 X15.664 Y-31.767
G1 F2400 X-15.563 Y-31.768 E286.37781
G0 F7500 X-15.400 Y-31.768
G0 X-15.400 Y-25.992
G0 X-15.563 Y-25.992
G1 F2400 X15.664 Y-25.991 E287.50211
G0 F7500 X15.500 Y-25.991
G0 X15.500 Y-20.215
G0 X15.664 Y-20.215
G1 F2400 X-15.563 Y-20.216 E288.62641
G0 F7500 X-15.400 Y-20.216
G0 X-15.400 Y-14.440
G0 X-15.563 Y-14.440
G1 F2400 X15.664 Y-14.439 E289.75071
G0 F7500 X15.500 Y-14.439
G0 X15.500 Y-8.663
G0 X15.664 Y-8.663
G1 F2400 X-15.563 Y-8.664 E290.87500
G0 F7500 X-15.400 Y-8.664
G0 X-15.400 Y-2.888
G0 X-15.563 Y-2.888
G1 F2400 X15.664 Y-2.887 E291.99930
G0 F7500 X15.500 Y-2.887
G0 X15.500 Y2.888
G0 X15.663 Y2.888
G1 F2400 X-15.564 Y2.887 E293.12360
G0 F7500 X-15.400 Y2.887
G0 X-15.400 Y8.663
G0 X-15.564 Y8.663
G1 F2400 X15.663 Y8.664 E294.24790
G0 F7500 X15.500 Y8.664
G0 X15.500 Y14.440
G0 X15.663 Y14.440
G1 F2400 X-15.564 Y14.439 E295.37220
G0 F7500 X-15.400 Y14.439
G0 X-15.400 Y20.215
G0 X-15.564 Y20.215
G1 F2400 X15.663 Y20.216 E296.49650
G0 F7500 X15.500 Y20.216
G0 X15.500 Y25.992
G0 X15.663 Y25.992
G1 F2400 X-15.564 Y25.991 E297.62080
G0 F7500 X-15.400 Y25.991
G0 X-15.400 Y31.767
G0 X-15.564 Y31.767
G1 F2400 X15.663 Y31.768 E298.74510
G0 F7500 X15.500 Y31.768
G0 X15.500 Y37.544
G0 X15.663 Y37.544
G1 F2400 X-15.564 Y37.543 E299.86940
G0 F7500 X-15.400 Y37.543
G0 X-15.400 Y43.319
G0 X-15.564 Y43.319
G1 F2400 X15.663 Y43.320 E300.99370
;LAYER:5
G1 F2400 E299.99370
G0 F7500 X0.284 Y0.284 Z1.300
;TYPE:WALL-OUTER
G1 F2400 E300.99370
G1 F2700 X0.216 Y0.284 E300.99615
G1 X0.216 Y0.216 E300.99860
G1 X0.284 Y0.216 E301.00105
G1 X0.284 Y0.284 E301.00350
G0 F7500 X1.200 Y1.200
;TYPE:SUPPORT
G1 F2400 X1.200 Y-0.700 E301.07191
G1 X-0.700 Y-0.700 E301.14031
G1 X-0.700 Y1.200 E301.20872
G1 X1.200 Y1.200 E301.27713
G0 F7500 X1.190 Y1.300
G0 X15.500 Y50.590
G0 X15.600 Y50.600
G1 F2400 X-15.500 Y50.600 E302.39686
G1 X-15.500 Y-50.400 E306.03327
G1 X15.600 Y-50.400 E307.15300
G1 X15.600 Y50.600 E310.78941
G0 F7500 X14.440 Y50.664
G1 F2400 X14.440 Y-50.464 E314.43043
G0 F7500 X14.440 Y-50.300
G0 X15.500 Y-49.095
G0 X15.664 Y-49.095
G1 F2400 X-15.563 Y-49.096 E315.55473
G0 F7500 X-15.400 Y-49.096
G0 X-14.440 Y-50.300
G0 X-14.440 Y-50.464
G1 F2400 X-14.440 Y50.664 E319.19575
G0 F7500 X-14.440 Y50.500
G0 X-15.400 Y49.095
G0 X-15.564 Y49.095
G1 F2400 X15.663 Y49.096 E320.32005
G0 F7500 X15.500 Y49.096
G0 X15.500 Y43.320
G0 X15.663 Y43.320
