;Generated with Cura_SteamEngine 15.04.6

;Layer count: 16
;LAYER:0
M107
G0 F7500 X-19.149 Y-14.049 Z0.300
;TYPE:SKIRT
G1 F1800 X19.249 Y-14.049 E2.07373
G1 X19.249 Y14.249 E3.60199
G1 X-19.149 Y14.249 E5.67572
G1 X-19.149 Y-14.049 E7.20399
G0 F7500 X-18.716 Y-13.616
G1 F1800 X18.816 Y-13.616 E9.23095
G1 X18.816 Y13.816 E10.71244
G1 X-18.716 Y13.816 E12.73940
G1 X-18.716 Y-13.616 E14.22090
G1 F2400 E13.22090
G0 F7500 X0.216 Y0.216
;TYPE:WALL-OUTER
G1 F2400 E14.22090
G1 F1800 X0.284 Y0.216 E14.22457
G1 X0.284 Y0.284 E14.22824
G1 X0.216 Y0.284 E14.23192
G1 X0.216 Y0.216 E14.23559
G0 F7500 X-0.700 Y-0.700
;TYPE:SUPPORT
G1 F1800 X-0.700 Y1.200 E14.33820
G1 X1.200 Y1.200 E14.44081
G1 X1.200 Y-0.700 E14.54342
G1 X-0.700 Y-0.700 E14.64603
G0 F7500 X-0.690 Y-0.800
G0 X-15.500 Y-10.400
G1 F1800 X15.600 Y-10.400 E16.32563
G1 X15.600 Y10.600 E17.45975
G1 X-15.500 Y10.600 E19.13935
G1 X-15.500 Y-10.400 E20.27347
G0 F7500 X-14.440 Y-10.464
G1 F1800 X-14.440 Y10.664 E21.41452
G0 F7500 X-14.440 Y10.500
G0 X-15.400 Y8.663
G0 X-15.564 Y8.663
G1 F1800 X15.663 Y8.664 E23.10097
G0 F7500 X15.500 Y8.664
G0 X14.440 Y10.500
G0 X14.440 Y10.664
G1 F1800 X14.440 Y-10.464 E24.24201
G0 F7500 X14.440 Y-10.300
G0 X15.500 Y-8.663
G0 X15.664 Y-8.663
G1 F1800 X-15.563 Y-8.664 E25.92846
G0 F7500 X-15.400 Y-8.664
G0 X-15.400 Y-2.888
G0 X-15.563 Y-2.888
G1 F1800 X15.664 Y-2.887 E27.61491
G0 F7500 X15.500 Y-2.887
G0 X15.500 Y2.888
G0 X15.663 Y2.888
G1 F1800 X-15.564 Y2.887 E29.30136
G0 F7500 X-15.400 Y2.887
G0 X-8.664 Y10.500
G0 X-8.664 Y10.664
G1 F1800 X-8.664 Y-10.464 E30.44240
G0 F7500 X-8.664 Y-10.300
G0 X-2.888 Y-10.300
G0 X-2.888 Y-10.464
G1 F1800 X-2.888 Y10.664 E31.58344
G0 F7500 X-2.888 Y10.500
G0 X2.888 Y10.500
G0 X2.888 Y10.664
G1 F1800 X2.888 Y-10.464 E32.72448
G0 F7500 X2.888 Y-10.300
G0 X8.664 Y-10.300
G0 X8.664 Y-10.464
G1 F1800 X8.664 Y10.664 E33.86552
;LAYER:1
M106 S63
G1 F2400 E32.86552
G0 F7500 X0.284 Y0.284 Z0.500
;TYPE:WALL-OUTER
G1 F2400 E33.86552
G1 F1980 X0.216 Y0.284 E33.86797
G1 X0.216 Y0.216 E33.87042
G1 X0.284 Y0.216 E33.87287
G1 X0.284 Y0.284 E33.87532
G0 F7500 X1.200 Y1.200
;TYPE:SUPPORT
G1 F1920 X1.200 Y-0.700 E33.94373
G1 X-0.700 Y-0.700 E34.01213
G1 X-0.700 Y1.200 E34.08054
G1 X1.200 Y1.200 E34.14895
G0 F7500 X1.190 Y1.300
G0 X15.500 Y10.590
G0 X15.600 Y10.600
G1 F1920 X-15.500 Y10.600 E35.26868
G1 X-15.500 Y-10.400 E36.02476
G1 X15.600 Y-10.400 E37.14449
G1 X15.600 Y10.600 E37.90058
G0 F7500 X14.440 Y10.664
G1 F1920 X14.440 Y-10.464 E38.66127
G0 F7500 X14.440 Y-10.300
G0 X15.500 Y-8.663
G0 X15.664 Y-8.663
G1 F1920 X-15.563 Y-8.664 E39.78557
G0 F7500 X-15.400 Y-8.664
G0 X-14.440 Y-10.300
G0 X-14.440 Y-10.464
G1 F1920 X-14.440 Y10.664 E40.54626
G0 F7500 X-14.440 Y10.500
G0 X-15.400 Y8.663
G0 X-15.564 Y8.663
G1 F1920 X15.663 Y8.664 E41.67056
G0 F7500 X15.500 Y8.664
G0 X15.500 Y2.888
G0 X15.663 Y2.888
G1 F1920 X-15.564 Y2.887 E42.79486
G0 F7500 X-15.400 Y2.887
G0 X-15.400 Y-2.888
G0 X-15.563 Y-2.888
G1 F1920 X15.664 Y-2.887 E43.91916
G0 F7500 X15.500 Y-2.887
G0 X8.664 Y-10.300
G0 X8.664 Y-10.464
G1 F1920 X8.664 Y10.664 E44.67986
G0 F7500 X8.664 Y10.500
G0 X2.888 Y10.500
G0 X2.888 Y10.664
G1 F1920 X2.888 Y-10.464 E45.44055
G0 F7500 X2.888 Y-10.300
G0 X-2.888 Y-10.300
G0 X-2.888 Y-10.464
G1 F1920 X-2.888 Y10.664 E46.20125
G0 F7500 X-2.888 Y10.500
G0 X-8.664 Y10.500
G0 X-8.664 Y10.664
G1 F1920 X-8.664 Y-10.464 E46.96194
;LAYER:2
M106 S127
G1 F2400 E45.96194
G0 F7500 X0.216 Y0.216 Z0.700
;TYPE:WALL-OUTER
G1 F2400 E46.96194
G1 F2220 X0.284 Y0.216 E46.96439
G1 X0.284 Y0.284 E46.96684
G1 X0.216 Y0.284 E46.96929
G1 X0.216 Y0.216 E46.97174
G0 F7500 X-0.700 Y-0.700
;TYPE:SUPPORT
G1 F2100 X-0.700 Y1.200 E47.04014
G1 X1.200 Y1.200 E47.10855
G1 X1.200 Y-0.700 E47.17696
G1 X-0.700 Y-0.700 E47.24537
G0 F7500 X-0.690 Y-0.800
G0 X-15.500 Y-10.400
G1 F2100 X15.600 Y-10.400 E48.36509
G1 X15.600 Y10.600 E49.12118
G1 X-15.500 Y10.600 E50.24091
G1 X-15.500 Y-10.400 E50.99699
G0 F7500 X-14.440 Y-10.464
G1 F2100 X-14.440 Y10.664 E51.75769
G0 F7500 X-14.440 Y10.500
G0 X-15.400 Y8.663
G0 X-15.564 Y8.663
G1 F2100 X15.663 Y8.664 E52.88199
G0 F7500 X15.500 Y8.664
G0 X14.440 Y10.500
G0 X14.440 Y10.664
G1 F2100 X14.440 Y-10.464 E53.64268
G0 F7500 X14.440 Y-10.300
G0 X15.500 Y-8.663
G0 X15.664 Y-8.663
G1 F2100 X-15.563 Y-8.664 E54.76698
G0 F7500 X-15.400 Y-8.664
G0 X-15.400 Y-2.888
G0 X-15.563 Y-2.888
G1 F2100 X15.664 Y-2.887 E55.89128
G0 F7500 X15.500 Y-2.887
G0 X15.500 Y2.888
G0 X15.663 Y2.888
G1 F2100 X-15.564 Y2.887 E57.01558
G0 F7500 X-15.400 Y2.887
G0 X-8.664 Y10.500
G0 X-8.664 Y10.664
G1 F2100 X-8.664 Y-10.464 E57.77628
G0 F7500 X-8.664 Y-10.300
G0 X-2.888 Y-10.300
G0 X-2.888 Y-10.464
G1 F2100 X-2.888 Y10.664 E58.53697
G0 F7500 X-2.888 Y10.500
G0 X2.888 Y10.500
G0 X2.888 Y10.664
G1 F2100 X2.888 Y-10.464 E59.29767
G0 F7500 X2.888 Y-10.300
G0 X8.664 Y-10.300
G0 X8.664 Y-10.464
G1 F2100 X8.664 Y10.664 E60.05836
;LAYER:3
G1 F2400 E59.05836
G0 F7500 X0.284 Y0.284 Z0.900
;TYPE:WALL-OUTER
G1 F2400 E60.05836
G1 X0.216 Y0.284 E60.06081
G1 X0.216 Y0.216 E60.06326
G1 X0.284 Y0.216 E60.06571
G1 X0.284 Y0.284 E60.06815
G0 F7500 X1.200 Y1.200
;TYPE:SUPPORT
G1 F2220 X1.200 Y-0.700 E60.13656
G1 X-0.700 Y-0.700 E60.20497
G1 X-0.700 Y1.200 E60.27338
G1 X1.200 Y1.200 E60.34179
G0 F7500 X1.190 Y1.300
G0 X15.500 Y10.590
G0 X15.600 Y10.600
G1 F2220 X-15.500 Y10.600 E61.46151
G1 X-15.500 Y-10.400 E62.21760
G1 X15.600 Y-10.400 E63.33733
G1 X15.600 Y10.600 E64.09341
G0 F7500 X14.440 Y10.664
G1 F2220 X14.440 Y-10.464 E64.85411
G0 F7500 X14.440 Y-10.300
G0 X15.500 Y-8.663
G0 X15.664 Y-8.663
G1 F2220 X-15.563 Y-8.664 E65.97841
G0 F7500 X-15.400 Y-8.664
G0 X-14.440 Y-10.300
G0 X-14.440 Y-10.464
G1 F2220 X-14.440 Y10.664 E66.73910
G0 F7500 X-14.440 Y10.500
G0 X-15.400 Y8.663
G0 X-15.564 Y8.663
G1 F2220 X15.663 Y8.664 E67.86340
G0 F7500 X15.500 Y8.664
G0 X15.500 Y2.888
G0 X15.663 Y2.888
G1 F2220 X-15.564 Y2.887 E68.98770
G0 F7500 X-15.400 Y2.887
G0 X-15.400 Y-2.888
G0 X-15.563 Y-2.888
G1 F2220 X15.664 Y-2.887 E70.11200
G0 F7500 X15.500 Y-2.887
G0 X8.664 Y-10.300
G0 X8.664 Y-10.464
G1 F2220 X8.664 Y10.664 E70.87270
G0 F7500 X8.664 Y10.500
G0 X2.888 Y10.500
G0 X2.888 Y10.664
G1 F2220 X2.888 Y-10.464 E71.63339
G0 F7500 X2.888 Y-10.300
G0 X-2.888 Y-10.300
G0 X-2.888 Y-10.464
G1 F2220 X-2.888 Y10.664 E72.39408
G0 F7500 X-2.888 Y10.500
G0 X-8.664 Y10.500
G0 X-8.664 Y10.664
G1 F2220 X-8.664 Y-10.464 E73.15478
;LAYER:4
G1 F2400 E72.15478
G0 F7500 X0.216 Y0.216 Z1.100
;TYPE:WALL-OUTER
G1 F2400 E73.15478
G1 F2700 X0.284 Y0.216 E73.15723
G1 X0.284 Y0.284 E73.15968
G1 X0.216 Y0.284 E73.16212
G1 X0.216 Y0.216 E73.16457
G0 F7500 X-0.700 Y-0.700
;TYPE:SUPPORT
G1 F2400 X-0.700 Y1.200 E73.23298
G1 X1.200 Y1.200 E73.30139
G1 X1.200 Y-0.700 E73.36980
G1 X-0.700 Y-0.700 E73.43820
G0 F7500 X-0.690 Y-0.800
G0 X-15.500 Y-10.400
G1 F2400 X15.600 Y-10.400 E74.55793
G1 X15.600 Y10.600 E75.31402
G1 X-15.500 Y10.600 E76.43374
G1 X-15.500 Y-10.400 E77.18983
G0 F7500 X-14.440 Y-10.464
G1 F2400 X-14.440 Y10.664 E77.95052
G0 F7500 X-14.440 Y10.500
G0 X-15.400 Y8.663
G0 X-15.564 Y8.663
G1 F2400 X15.663 Y8.664 E79.07482
G0 F7500 X15.500 Y8.664
G0 X14.440 Y10.500
G0 X14.440 Y10.664
G1 F2400 X14.440 Y-10.464 E79.83552
G0 F7500 X14.440 Y-10.300
G0 X15.500 Y-8.663
G0 X15.664 Y-8.663
G1 F2400 X-15.563 Y-8.664 E80.95982
G0 F7500 X-15.400 Y-8.664
G0 X-15.400 Y-2.888
G0 X-15.563 Y-2.888
G1 F2400 X15.664 Y-2.887 E82.08412
G0 F7500 X15.500 Y-2.887
G0 X15.500 Y2.888
G0 X15.663 Y2.888
G1 F2400 X-15.564 Y2.887 E83.20842
G0 F7500 X-15.400 Y2.887
G0 X-8.664 Y10.500
G0 X-8.664 Y10.664
G1 F2400 X-8.664 Y-10.464 E83.96911
G0 F7500 X-8.664 Y-10.300
G0 X-2.888 Y-10.300
G0 X-2.888 Y-10.464
G1 F2400 X-2.888 Y10.664 E84.72981
G0 F7500 X-2.888 Y10.500
G0 X2.888 Y10.500
G0 X2.888 Y10.664
G1 F2400 X2.888 Y-10.464 E85.49050
G0 F7500 X2.888 Y-10.300
G0 X8.664 Y-10.300
G0 X8.664 Y-10.464
G1 F2400 X8.664 Y10.664 E86.25120
;LAYER:5
G1 F2400 E85.25120
G0 F7500 X0.284 Y0.284 Z1.300
;TYPE:WALL-OUTER
G1 F2400 E86.25120
G1 F2700 X0.216 Y0.284 E86.25365
G1 X0.216 Y0.216 E86.25609
G1 X0.284 Y0.216 E86.25854
G1 X0.284 Y0.284 E86.26099
G0 F7500 X1.200 Y1.200
;TYPE:SUPPORT
G1 F2400 X1.200 Y-0.700 E86.32940
G1 X-0.700 Y-0.700 E86.39781
G1 X-0.700 Y1.200 E86.46621
G1 X1.200 Y1.200 E86.53462
G0 F7500 X1.190 Y1.300
G0 X15.500 Y10.590
G0 X15.600 Y10.600
G1 F2400 X-15.500 Y10.600 E87.65435
G1 X-15.500 Y-10.400 E88.41043
G1 X15.600 Y-10.400 E89.53016
G1 X15.600 Y10.600 E90.28625
G0 F7500 X14.440 Y10.664
G1 F2400 X14.440 Y-10.464 E91.04694
G0 F7500 X14.440 Y-10.300
G0 X15.500 Y-8.663
G0 X15.664 Y-8.663
G1 F2400 X-15.563 Y-8.664 E92.17124
G0 F7500 X-15.400 Y-8.664
G0 X-14.440 Y-10.300
G0 X-14.440 Y-10.464
G1 F2400 X-14.440 Y10.664 E92.93194
G0 F7500 X-14.440 Y10.500
G0 X-15.400 Y8.663
G0 X-15.564 Y8.663
G1 F2400 X15.663 Y8.664 E94.05624
G0 F7500 X15.500 Y8.664
G0 X15.500 Y2.888
G0 X15.663 Y2.888
G1 F2400 X-15.564 Y2.887 E95.18054
G0 F7500 X-15.400 Y2.887
G0 X-15.400 Y-2.888
G0 X-15.563 Y-2.888
G1 F2400 X15.664 Y-2.887 E96.30484
G0 F7500 X15.500 Y-2.887
G0 X8.664 Y-10.300
G0 X8.664 Y-10.464
G1 F2400 X8.664 Y10.664 E97.06553
G0 F7500 X8.664 Y10.500
G0 X2.888 Y10.500
G0 X2.888 Y10.664
G1 F2400 X2.888 Y-10.464 E97.82623
G0 F7500 X2.888 Y-10.300
G0 X-2.888 Y-10.300
G0 X-2.888 Y-10.464
G1 F2400 X-2.888 Y10.664 E98.58692
G0 F7500 X-2.888 Y10.500
G0 X-8.664 Y10.500
G0 X-8.664 Y10.664
G1 F2400 X-8.664 Y-10.464 E99.34761
;LAYER:6
G1 F2400 E98.34761
G0 F7500 X0.216 Y0.216 Z1.500
;TYPE:WALL-OUTER
G1 F2400 E99.34761
G1 F2700 X0.284 Y0.216 E99.35006
G1 X0.284 Y0.284 E99.35251
G1 X0.216 Y0.284 E99.35496
G1 X0.216 Y0.216 E99.35741
G0 F7500 X-0.700 Y-0.700
;TYPE:SUPPORT
G1 F2400 X-0.700 Y1.200 E99.42582
G1 X1.200 Y1.200 E99.49422
G1 X1.200 Y-0.700 E99.56263
G1 X-0.700 Y-0.700 E99.63104
G0 F7500 X-0.690 Y-0.800
G0 X-15.500 Y-10.400
G1 F2400 X15.600 Y-10.400 E100.75077
G1 X15.600 Y10.600 E101.50685
G1 X-15.500 Y10.600 E102.62658
G1 X-15.500 Y-10.400 E103.38267
G0 F7500 X-14.440 Y-10.464
G1 F2400 X-14.440 Y10.664 E104.14336
G0 F7500 X-14.440 Y10.500
G0 X-15.400 Y8.663
G0 X-15.564 Y8.663
G1 F2400 X15.663 Y8.664 E105.26766
G0 F7500 X15.500 Y8.664
G0 X14.440 Y10.500
G0 X14.440 Y10.664
G1 F2400 X14.440 Y-10.464 E106.02835
G0 F7500 X14.440 Y-10.300
G0 X15.500 Y-8.663
G0 X15.664 Y-8.663
G1 F2400 X-15.563 Y-8.664 E107.15265
G0 F7500 X-15.400 Y-8.664
G0 X-15.400 Y-2.888
G0 X-15.563 Y-2.888
G1 F2400 X15.664 Y-2.887 E108.27695
G0 F7500 X15.500 Y-2.887
G0 X15.500 Y2.888
G0 X15.663 Y2.888
G1 F2400 X-15.564 Y2.887 E109.40125
G0 F7500 X-15.400 Y2.887
G0 X-8.664 Y10.500
G0 X-8.664 Y10.664
G1 F2400 X-8.664 Y-10.464 E110.16195
G0 F7500 X-8.664 Y-10.300
G0 X-2.888 Y-10.300
G0 X-2.888 Y-10.464
G1 F2400 X-2.888 Y10.664 E110.92264
G0 F7500 X-2.888 Y10.500
G0 X2.888 Y10.500
G0 X2.888 Y10.664
G1 F2400 X2.888 Y-10.464 E111.68334
G0 F7500 X2.888 Y-10.300
G0 X8.664 Y-10.300
G0 X8.664 Y-10.464
G1 F2400 X8.664 Y10.664 E112.44403
;LAYER:7
G1 F2400 E111.44403
G0 F7500 X0.284 Y0.284 Z1.700
;TYPE:WALL-OUTER
G1 F2400 E112.44403
G1 F2700 X0.216 Y0.284 E112.44648
G1 X0.216 Y0.216 E112.44893
G1 X0.284 Y0.216 E112.45138
G1 X0.284 Y0.284 E112.45383
G0 F7500 X1.200 Y1.200
;TYPE:SUPPORT
G1 F2400 X1.200 Y-0.700 E112.52223
G1 X-0.700 Y-0.700 E112.59064
G1 X-0.700 Y1.200 E112.65905
G1 X1.200 Y1.200 E112.72746
G0 F7500 X1.190 Y1.300
G0 X15.500 Y10.590
G0 X15.600 Y10.600
G1 F2400 X-15.500 Y10.600 E113.84718
G1 X-15.500 Y-10.400 E114.60327
G1 X15.600 Y-10.400 E115.72300
G1 X15.600 Y10.600 E116.47908
G0 F7500 X14.440 Y10.664
G1 F2400 X14.440 Y-10.464 E117.23978
G0 F7500 X14.440 Y-10.300
G0 X15.500 Y-8.663
G0 X15.664 Y-8.663
G1 F2400 X-15.563 Y-8.664 E118.36408
G0 F7500 X-15.400 Y-8.664
G0 X-14.440 Y-10.300
G0 X-14.440 Y-10.464
G1 F2400 X-14.440 Y10.664 E119.12477
G0 F7500 X-14.440 Y10.500
G0 X-15.400 Y8.663
G0 X-15.564 Y8.663
G1 F2400 X15.663 Y8.664 E120.24907
G0 F7500 X15.500 Y8.664
G0 X15.500 Y2.888
G0 X15.663 Y2.888
G1 F2400 X-15.564 Y2.887 E121.37337
G0 F7500 X-15.400 Y2.887
G0 X-15.400 Y-2.888
G0 X-15.563 Y-2.888
G1 F2400 X15.664 Y-2.887 E122.49767
G0 F7500 X15.500 Y-2.887
G0 X8.664 Y-10.300
G0 X8.664 Y-10.464
G1 F2400 X8.664 Y10.664 E123.25837
G0 F7500 X8.664 Y10.500
G0 X2.888 Y10.500
G0 X2.888 Y10.664
G1 F2400 X2.888 Y-10.464 E124.01906
G0 F7500 X2.888 Y-10.300
G0 X-2.888 Y-10.300
G0 X-2.888 Y-10.464
G1 F2400 X-2.888 Y10.664 E124.77976
G0 F7500 X-2.888 Y10.500
G0 X-8.664 Y10.500
G0 X-8.664 Y10.664
G1 F2400 X-8.664 Y-10.464 E125.54045
;LAYER:8
G1 F2400 E124.54045
G0 F7500 X0.216 Y0.216 Z1.900
;TYPE:WALL-OUTER
G1 F2400 E125.54045
G1 F2700 X0.284 Y0.216 E125.54290
G1 X0.284 Y0.284 E125.54535
G1 X0.216 Y0.284 E125.54780
G1 X0.216 Y0.216 E125.55024
G0 F7500 X-0.700 Y-0.700
;TYPE:SUPPORT
G1 F2400 X-0.700 Y1.200 E125.61865
G1 X1.200 Y1.200 E125.68706
G1 X1.200 Y-0.700 E125.75547
G1 X-0.700 Y-0.700 E125.82388
G0 F7500 X-0.690 Y-0.800
G0 X-15.500 Y-10.400
G1 F2400 X15.600 Y-10.400 E126.94360
G1 X15.600 Y10.600 E127.69969
G1 X-15.500 Y10.600 E128.81942
G1 X-15.500 Y-10.400 E129.57550
G0 F7500 X-14.440 Y-10.464
G1 F2400 X-14.440 Y10.664 E130.33620
G0 F7500 X-14.440 Y10.500
G0 X-15.400 Y8.663
G0 X-15.564 Y8.663
G1 F2400 X15.663 Y8.664 E131.46050
G0 F7500 X15.500 Y8.664
G0 X14.440 Y10.500
G0 X14.440 Y10.664
G1 F2400 X14.440 Y-10.464 E132.22119
G0 F7500 X14.440 Y-10.300
G0 X15.500 Y-8.663
G0 X15.664 Y-8.663
G1 F2400 X-15.563 Y-8.664 E133.34549
G0 F7500 X-15.400 Y-8.664
G0 X-15.400 Y-2.888
G0 X-15.563 Y-2.888
G1 F2400 X15.664 Y-2.887 E134.46979
G0 F7500 X15.500 Y-2.887
G0 X15.500 Y2.888
G0 X15.663 Y2.888
G1 F2400 X-15.564 Y2.887 E135.59409
G0 F7500 X-15.400 Y2.887
G0 X-8.664 Y10.500
G0 X-8.664 Y10.664
G1 F2400 X-8.664 Y-10.464 E136.35479
G0 F7500 X-8.664 Y-10.300
G0 X-2.888 Y-10.300
G0 X-2.888 Y-10.464
G1 F2400 X-2.888 Y10.664 E137.11548
G0 F7500 X-2.888 Y10.500
G0 X2.888 Y10.500
G0 X2.888 Y10.664
G1 F2400 X2.888 Y-10.464 E137.87617
G0 F7500 X2.888 Y-10.300
G0 X8.664 Y-10.300
G0 X8.664 Y-10.464
G1 F2400 X8.664 Y10.664 E138.63687
;LAYER:9
G1 F2400 E137.63687
G0 F7500 X0.284 Y0.284 Z2.100
;TYPE:WALL-OUTER
G1 F2400 E138.63687
G1 F2700 X0.216 Y0.284 E138.63932
G1 X0.216 Y0.216 E138.64177
G1 X0.284 Y0.216 E138.64421
G1 X0.284 Y0.284 E138.64666
G0 F7500 X1.200 Y1.200
;TYPE:SUPPORT
G1 F2400 X1.200 Y-0.700 E138.71507
G1 X-0.700 Y-0.700 E138.78348
G1 X-0.700 Y1.200 E138.85189
G1 X1.200 Y1.200 E138.92029
G0 F7500 X1.190 Y1.300
G0 X15.500 Y10.590
G0 X15.600 Y10.600
G1 F2400 X-15.500 Y10.600 E140.04002
G1 X-15.500 Y-10.400 E140.79611
G1 X15.600 Y-10.400 E141.91583
G1 X15.600 Y10.600 E142.67192
G0 F7500 X14.440 Y10.664
G1 F2400 X14.440 Y-10.464 E143.43261
G0 F7500 X14.440 Y-10.300
G0 X15.500 Y-8.663
G0 X15.664 Y-8.663
G1 F2400 X-15.563 Y-8.664 E144.55691
G0 F7500 X-15.400 Y-8.664
G0 X-14.440 Y-10.300
G0 X-14.440 Y-10.464
G1 F2400 X-14.440 Y10.664 E145.31761
G0 F7500 X-14.440 Y10.500
G0 X-15.400 Y8.663
G0 X-15.564 Y8.663
G1 F2400 X15.663 Y8.664 E146.44191
G0 F7500 X15.500 Y8.664
G0 X15.500 Y2.888
G0 X15.663 Y2.888
G1 F2400 X-15.564 Y2.887 E147.56621
G0 F7500 X-15.400 Y2.887
G0 X-15.400 Y-2.888
G0 X-15.563 Y-2.888
G1 F2400 X15.664 Y-2.887 E148.69051
G0 F7500 X15.500 Y-2.887
G0 X8.664 Y-10.300
G0 X8.664 Y-10.464
G1 F2400 X8.664 Y10.664 E149.45120
G0 F7500 X8.664 Y10.500
G0 X2.888 Y10.500
G0 X2.888 Y10.664
G1 F2400 X2.888 Y-10.464 E150.21190
G0 F7500 X2.888 Y-10.300
G0 X-2.888 Y-10.300
G0 X-2.888 Y-10.464
G1 F2400 X-2.888 Y10.664 E150.97259
G0 F7500 X-2.888 Y10.500
G0 X-8.664 Y10.500
G0 X-8.664 Y10.664
G1 F2400 X-8.664 Y-10.464 E151.73329
;LAYER:10
G1 F2400 E150.73329
G0 F7500 X0.216 Y0.216 Z2.300
;TYPE:WALL-OUTER
G1 F2400 E151.73329
G1 F2700 X0.284 Y0.216 E151.73574
G1 X0.284 Y0.284 E151.73818
G1 X0.216 Y0.284 E151.74063
G1 X0.216 Y0.216 E151.74308
G0 F7500 X-0.700 Y-0.700
;TYPE:SUPPORT
G1 F2400 X-0.700 Y1.200 E151.81149
G1 X1.200 Y1.200 E151.87990
G1 X1.200 Y-0.700 E151.94830
G1 X-0.700 Y-0.700 E152.01671
G0 F7500 X-0.690 Y-0.800
G0 X-15.500 Y-10.400
G1 F2400 X15.600 Y-10.400 E153.13644
G1 X15.600 Y10.600 E153.89252
G1 X-15.500 Y10.600 E155.01225
G1 X-15.500 Y-10.400 E155.76834
G0 F7500 X-14.440 Y-10.464
