;Generated with Cura_SteamEngine 15.04.6

;Layer count: 16
;LAYER:0
M107
G0 F7500 X-19.149 Y-19.049 Z0.300
;TYPE:SKIRT
G1 F1800 X19.249 Y-19.049 E2.07373
G1 X19.249 Y19.249 E4.14206
G1 X-19.149 Y19.249 E6.21578
G1 X-19.149 Y-19.049 E8.28411
G0 F7500 X-18.716 Y-18.616
G1 F1800 X18.816 Y-18.616 E10.31107
G1 X18.816 Y18.816 E12.33263
G1 X-18.716 Y18.816 E14.35959
G1 X-18.716 Y-18.616 E16.38114
G1 F2400 E15.38114
G0 F7500 X0.216 Y0.216
;TYPE:WALL-OUTER
G1 F2400 E16.38114
G1 F1800 X0.284 Y0.216 E16.38482
G1 X0.284 Y0.284 E16.38849
G1 X0.216 Y0.284 E16.39216
G1 X0.216 Y0.216 E16.39583
G0 F7500 X-0.700 Y-0.700
;TYPE:SUPPORT
G1 F1800 X-0.700 Y1.200 E16.49845
G1 X1.200 Y1.200 E16.60106
G1 X1.200 Y-0.700 E16.70367
G1 X-0.700 Y-0.700 E16.80628
G0 F7500 X-0.690 Y-0.800
G0 X-15.500 Y-15.400
G1 F1800 X15.600 Y-15.400 E18.48587
G1 X15.600 Y15.600 E20.16006
G1 X-15.500 Y15.600 E21.83965
G1 X-15.500 Y-15.400 E23.51384
G0 F7500 X-15.563 Y-14.440
G1 F1800 X15.664 Y-14.439 E25.20029
G0 F7500 X15.500 Y-14.439
G0 X14.440 Y-15.300
G0 X14.440 Y-15.464
G1 F1800 X14.440 Y15.664 E26.88140
G0 F7500 X14.440 Y15.500
G0 X15.500 Y14.440
G0 X15.663 Y14.440
G1 F1800 X-15.564 Y14.439 E28.56785
G0 F7500 X-15.400 Y14.439
G0 X-14.440 Y15.500
G0 X-14.440 Y15.664
G1 F1800 X-14.440 Y-15.464 E30.24895
G0 F7500 X-14.440 Y-15.300
G0 X-8.664 Y-15.300
G0 X-8.664 Y-15.464
G1 F1800 X-8.664 Y15.664 E31.93005
G0 F7500 X-8.664 Y15.500
G0 X-2.888 Y15.500
G0 X-2.888 Y15.664
G1 F1800 X-2.888 Y-15.464 E33.61116
G0 F7500 X-2.888 Y-15.300
G0 X2.888 Y-15.300
G0 X2.888 Y-15.464
G1 F1800 X2.888 Y15.664 E35.29226
G0 F7500 X2.888 Y15.500
G0 X8.664 Y15.500
G0 X8.664 Y15.664
G1 F1800 X8.664 Y-15.464 E36.97336
G0 F7500 X8.664 Y-15.300
G0 X15.500 Y-8.663
G0 X15.664 Y-8.663
G1 F1800 X-15.563 Y-8.664 E38.65981
G0 F7500 X-15.400 Y-8.664
G0 X-15.400 Y-2.888
G0 X-15.563 Y-2.888
G1 F1800 X15.664 Y-2.887 E40.34626
G0 F7500 X15.500 Y-2.887
G0 X15.500 Y2.888
G0 X15.663 Y2.888
G1 F1800 X-15.564 Y2.887 E42.03271
G0 F7500 X-15.400 Y2.887
G0 X-15.400 Y8.663
G0 X-15.564 Y8.663
G1 F1800 X15.663 Y8.664 E43.71916
;LAYER:1
M106 S63
G1 F2400 E42.71916
G0 F7500 X0.284 Y0.284 Z0.500
;TYPE:WALL-OUTER
G1 F2400 E43.71916
G1 F1980 X0.216 Y0.284 E43.72161
G1 X0.216 Y0.216 E43.72406
G1 X0.284 Y0.216 E43.72651
G1 X0.284 Y0.284 E43.72896
G0 F7500 X1.200 Y1.200
;TYPE:SUPPORT
G1 F1920 X1.200 Y-0.700 E43.79736
G1 X-0.700 Y-0.700 E43.86577
G1 X-0.700 Y1.200 E43.93418
G1 X1.200 Y1.200 E44.00259
G0 F7500 X1.190 Y1.300
G0 X15.500 Y15.590
G0 X15.600 Y15.600
G1 F1920 X-15.500 Y15.600 E45.12231
G1 X-15.500 Y-15.400 E46.23844
G1 X15.600 Y-15.400 E47.35817
G1 X15.600 Y15.600 E48.47429
G0 F7500 X15.663 Y14.440
G1 F1920 X-15.564 Y14.439 E49.59859
G0 F7500 X-15.400 Y14.439
G0 X-14.440 Y15.500
G0 X-14.440 Y15.664
G1 F1920 X-14.440 Y-15.464 E50.71933
G0 F7500 X-14.440 Y-15.300
G0 X-15.400 Y-14.440
G0 X-15.563 Y-14.440
G1 F1920 X15.664 Y-14.439 E51.84363
G0 F7500 X15.500 Y-14.439
G0 X14.440 Y-15.300
G0 X14.440 Y-15.464
G1 F1920 X14.440 Y15.664 E52.96437
G0 F7500 X14.440 Y15.500
G0 X8.664 Y15.500
G0 X8.664 Y15.664
G1 F1920 X8.664 Y-15.464 E54.08510
G0 F7500 X8.664 Y-15.300
G0 X2.888 Y-15.300
G0 X2.888 Y-15.464
G1 F1920 X2.888 Y15.664 E55.20584
G0 F7500 X2.888 Y15.500
G0 X-2.888 Y15.500
G0 X-2.888 Y15.664
G1 F1920 X-2.888 Y-15.464 E56.32657
G0 F7500 X-2.888 Y-15.300
G0 X-8.664 Y-15.300
G0 X-8.664 Y-15.464
G1 F1920 X-8.664 Y15.664 E57.44731
G0 F7500 X-8.664 Y15.500
G0 X-15.400 Y8.663
G0 X-15.564 Y8.663
G1 F1920 X15.663 Y8.664 E58.57161
G0 F7500 X15.500 Y8.664
G0 X15.500 Y2.888
G0 X15.663 Y2.888
G1 F1920 X-15.564 Y2.887 E59.69591
G0 F7500 X-15.400 Y2.887
G0 X-15.400 Y-2.888
G0 X-15.563 Y-2.888
G1 F1920 X15.664 Y-2.887 E60.82021
G0 F7500 X15.500 Y-2.887
G0 X15.500 Y-8.663
G0 X15.664 Y-8.663
G1 F1920 X-15.563 Y-8.664 E61.94451
;LAYER:2
M106 S127
G1 F2400 E60.94451
G0 F7500 X0.216 Y0.216 Z0.700
;TYPE:WALL-OUTER
G1 F2400 E61.94451
G1 F2220 X0.284 Y0.216 E61.94696
G1 X0.284 Y0.284 E61.94940
G1 X0.216 Y0.284 E61.95185
G1 X0.216 Y0.216 E61.95430
G0 F7500 X-0.700 Y-0.700
;TYPE:SUPPORT
G1 F2100 X-0.700 Y1.200 E62.02271
G1 X1.200 Y1.200 E62.09112
G1 X1.200 Y-0.700 E62.15952
G1 X-0.700 Y-0.700 E62.22793
G0 F7500 X-0.690 Y-0.800
G0 X-15.500 Y-15.400
G1 F2100 X15.600 Y-15.400 E63.34766
G1 X15.600 Y15.600 E64.46379
G1 X-15.500 Y15.600 E65.58351
G1 X-15.500 Y-15.400 E66.69964
G0 F7500 X-15.563 Y-14.440
G1 F2100 X15.664 Y-14.439 E67.82394
G0 F7500 X15.500 Y-14.439
G0 X14.440 Y-15.300
G0 X14.440 Y-15.464
G1 F2100 X14.440 Y15.664 E68.94468
G0 F7500 X14.440 Y15.500
G0 X15.500 Y14.440
G0 X15.663 Y14.440
G1 F2100 X-15.564 Y14.439 E70.06898
G0 F7500 X-15.400 Y14.439
G0 X-14.440 Y15.500
G0 X-14.440 Y15.664
G1 F2100 X-14.440 Y-15.464 E71.18971
G0 F7500 X-14.440 Y-15.300
G0 X-8.664 Y-15.300
G0 X-8.664 Y-15.464
G1 F2100 X-8.664 Y15.664 E72.31045
G0 F7500 X-8.664 Y15.500
G0 X-2.888 Y15.500
G0 X-2.888 Y15.664
G1 F2100 X-2.888 Y-15.464 E73.43118
G0 F7500 X-2.888 Y-15.300
G0 X2.888 Y-15.300
G0 X2.888 Y-15.464
G1 F2100 X2.888 Y15.664 E74.55192
G0 F7500 X2.888 Y15.500
G0 X8.664 Y15.500
G0 X8.664 Y15.664
G1 F2100 X8.664 Y-15.464 E75.67265
G0 F7500 X8.664 Y-15.300
G0 X15.500 Y-8.663
G0 X15.664 Y-8.663
G1 F2100 X-15.563 Y-8.664 E76.79695
G0 F7500 X-15.400 Y-8.664
G0 X-15.400 Y-2.888
G0 X-15.563 Y-2.888
G1 F2100 X15.664 Y-2.887 E77.92125
G0 F7500 X15.500 Y-2.887
G0 X15.500 Y2.888
G0 X15.663 Y2.888
G1 F2100 X-15.564 Y2.887 E79.04555
G0 F7500 X-15.400 Y2.887
G0 X-15.400 Y8.663
G0 X-15.564 Y8.663
G1 F2100 X15.663 Y8.664 E80.16985
;LAYER:3
G1 F2400 E79.16985
G0 F7500 X0.284 Y0.284 Z0.900
;TYPE:WALL-OUTER
G1 F2400 E80.16985
G1 X0.216 Y0.284 E80.17230
G1 X0.216 Y0.216 E80.17475
G1 X0.284 Y0.216 E80.17720
G1 X0.284 Y0.284 E80.17965
G0 F7500 X1.200 Y1.200
;TYPE:SUPPORT
G1 F2220 X1.200 Y-0.700 E80.24805
G1 X-0.700 Y-0.700 E80.31646
G1 X-0.700 Y1.200 E80.38487
G1 X1.200 Y1.200 E80.45328
G0 F7500 X1.190 Y1.300
G0 X15.500 Y15.590
G0 X15.600 Y15.600
G1 F2220 X-15.500 Y15.600 E81.57300
G1 X-15.500 Y-15.400 E82.68913
G1 X15.600 Y-15.400 E83.80886
G1 X15.600 Y15.600 E84.92499
G0 F7500 X15.663 Y14.440
G1 F2220 X-15.564 Y14.439 E86.04929
G0 F7500 X-15.400 Y14.439
G0 X-14.440 Y15.500
G0 X-14.440 Y15.664
G1 F2220 X-14.440 Y-15.464 E87.17002
G0 F7500 X-14.440 Y-15.300
G0 X-15.400 Y-14.440
G0 X-15.563 Y-14.440
G1 F2220 X15.664 Y-14.439 E88.29432
G0 F7500 X15.500 Y-14.439
G0 X14.440 Y-15.300
G0 X14.440 Y-15.464
G1 F2220 X14.440 Y15.664 E89.41506
G0 F7500 X14.440 Y15.500
G0 X8.664 Y15.500
G0 X8.664 Y15.664
G1 F2220 X8.664 Y-15.464 E90.53579
G0 F7500 X8.664 Y-15.300
G0 X2.888 Y-15.300
G0 X2.888 Y-15.464
G1 F2220 X2.888 Y15.664 E91.65653
G0 F7500 X2.888 Y15.500
G0 X-2.888 Y15.500
G0 X-2.888 Y15.664
G1 F2220 X-2.888 Y-15.464 E92.77726
G0 F7500 X-2.888 Y-15.300
G0 X-8.664 Y-15.300
G0 X-8.664 Y-15.464
G1 F2220 X-8.664 Y15.664 E93.89800
G0 F7500 X-8.664 Y15.500
G0 X-15.400 Y8.663
G0 X-15.564 Y8.663
G1 F2220 X15.663 Y8.664 E95.02230
G0 F7500 X15.500 Y8.664
G0 X15.500 Y2.888
G0 X15.663 Y2.888
G1 F2220 X-15.564 Y2.887 E96.14660
G0 F7500 X-15.400 Y2.887
G0 X-15.400 Y-2.888
G0 X-15.563 Y-2.888
G1 F2220 X15.664 Y-2.887 E97.27090
G0 F7500 X15.500 Y-2.887
G0 X15.500 Y-8.663
G0 X15.664 Y-8.663
G1 F2220 X-15.563 Y-8.664 E98.39520
;LAYER:4
G1 F2400 E97.39520
G0 F7500 X0.216 Y0.216 Z1.100
;TYPE:WALL-OUTER
G1 F2400 E98.39520
G1 F2700 X0.284 Y0.216 E98.39765
G1 X0.284 Y0.284 E98.40009
G1 X0.216 Y0.284 E98.40254
G1 X0.216 Y0.216 E98.40499
G0 F7500 X-0.700 Y-0.700
;TYPE:SUPPORT
G1 F2400 X-0.700 Y1.200 E98.47340
G1 X1.200 Y1.200 E98.54181
G1 X1.200 Y-0.700 E98.61021
G1 X-0.700 Y-0.700 E98.67862
G0 F7500 X-0.690 Y-0.800
G0 X-15.500 Y-15.400
G1 F2400 X15.600 Y-15.400 E99.79835
G1 X15.600 Y15.600 E100.91448
G1 X-15.500 Y15.600 E102.03420
G1 X-15.500 Y-15.400 E103.15033
G0 F7500 X-15.563 Y-14.440
G1 F2400 X15.664 Y-14.439 E104.27463
G0 F7500 X15.500 Y-14.439
G0 X14.440 Y-15.300
G0 X14.440 Y-15.464
G1 F2400 X14.440 Y15.664 E105.39537
G0 F7500 X14.440 Y15.500
G0 X15.500 Y14.440
G0 X15.663 Y14.440
G1 F2400 X-15.564 Y14.439 E106.51967
G0 F7500 X-15.400 Y14.439
G0 X-14.440 Y15.500
G0 X-14.440 Y15.664
G1 F2400 X-14.440 Y-15.464 E107.64040
G0 F7500 X-14.440 Y-15.300
G0 X-8.664 Y-15.300
G0 X-8.664 Y-15.464
G1 F2400 X-8.664 Y15.664 E108.76114
G0 F7500 X-8.664 Y15.500
G0 X-2.888 Y15.500
G0 X-2.888 Y15.664
G1 F2400 X-2.888 Y-15.464 E109.88187
G0 F7500 X-2.888 Y-15.300
G0 X2.888 Y-15.300
G0 X2.888 Y-15.464
G1 F2400 X2.888 Y15.664 E111.00261
G0 F7500 X2.888 Y15.500
G0 X8.664 Y15.500
G0 X8.664 Y15.664
G1 F2400 X8.664 Y-15.464 E112.12334
G0 F7500 X8.664 Y-15.300
G0 X15.500 Y-8.663
G0 X15.664 Y-8.663
G1 F2400 X-15.563 Y-8.664 E113.24764
G0 F7500 X-15.400 Y-8.664
G0 X-15.400 Y-2.888
G0 X-15.563 Y-2.888
G1 F2400 X15.664 Y-2.887 E114.37194
G0 F7500 X15.500 Y-2.887
G0 X15.500 Y2.888
G0 X15.663 Y2.888
G1 F2400 X-15.564 Y2.887 E115.49624
G0 F7500 X-15.400 Y2.887
G0 X-15.400 Y8.663
G0 X-15.564 Y8.663
G1 F2400 X15.663 Y8.664 E116.62054
;LAYER:5
G1 F2400 E115.62054
G0 F7500 X0.284 Y0.284 Z1.300
;TYPE:WALL-OUTER
G1 F2400 E116.62054
G1 F2700 X0.216 Y0.284 E116.62299
G1 X0.216 Y0.216 E116.62544
G1 X0.284 Y0.216 E116.62789
G1 X0.284 Y0.284 E116.63034
G0 F7500 X1.200 Y1.200
;TYPE:SUPPORT
G1 F2400 X1.200 Y-0.700 E116.69874
G1 X-0.700 Y-0.700 E116.76715
G1 X-0.700 Y1.200 E116.83556
G1 X1.200 Y1.200 E116.90397
G0 F7500 X1.190 Y1.300
G0 X15.500 Y15.590
G0 X15.600 Y15.600
G1 F2400 X-15.500 Y15.600 E118.02370
G1 X-15.500 Y-15.400 E119.13982
G1 X15.600 Y-15.400 E120.25955
G1 X15.600 Y15.600 E121.37568
G0 F7500 X15.663 Y14.440
G1 F2400 X-15.564 Y14.439 E122.49998
G0 F7500 X-15.400 Y14.439
G0 X-14.440 Y15.500
G0 X-14.440 Y15.664
G1 F2400 X-14.440 Y-15.464 E123.62071
G0 F7500 X-14.440 Y-15.300
G0 X-15.400 Y-14.440
G0 X-15.563 Y-14.440
G1 F2400 X15.664 Y-14.439 E124.74501
G0 F7500 X15.500 Y-14.439
G0 X14.440 Y-15.300
G0 X14.440 Y-15.464
G1 F2400 X14.440 Y15.664 E125.86575
G0 F7500 X14.440 Y15.500
G0 X8.664 Y15.500
G0 X8.664 Y15.664
G1 F2400 X8.664 Y-15.464 E126.98648
G0 F7500 X8.664 Y-15.300
G0 X2.888 Y-15.300
G0 X2.888 Y-15.464
G1 F2400 X2.888 Y15.664 E128.10722
G0 F7500 X2.888 Y15.500
G0 X-2.888 Y15.500
G0 X-2.888 Y15.664
G1 F2400 X-2.888 Y-15.464 E129.22795
G0 F7500 X-2.888 Y-15.300
G0 X-8.664 Y-15.300
G0 X-8.664 Y-15.464
G1 F2400 X-8.664 Y15.664 E130.34869
G0 F7500 X-8.664 Y15.500
G0 X-15.400 Y8.663
G0 X-15.564 Y8.663
G1 F2400 X15.663 Y8.664 E131.47299
G0 F7500 X15.500 Y8.664
G0 X15.500 Y2.888
G0 X15.663 Y2.888
G1 F2400 X-15.564 Y2.887 E132.59729
G0 F7500 X-15.400 Y2.887
G0 X-15.400 Y-2.888
G0 X-15.563 Y-2.888
G1 F2400 X15.664 Y-2.887 E133.72159
G0 F7500 X15.500 Y-2.887
G0 X15.500 Y-8.663
G0 X15.664 Y-8.663
G1 F2400 X-15.563 Y-8.664 E134.84589
;LAYER:6
G1 F2400 E133.84589
G0 F7500 X0.216 Y0.216 Z1.500
;TYPE:WALL-OUTER
G1 F2400 E134.84589
G1 F2700 X0.284 Y0.216 E134.84834
G1 X0.284 Y0.284 E134.85079
G1 X0.216 Y0.284 E134.85323
G1 X0.216 Y0.216 E134.85568
G0 F7500 X-0.700 Y-0.700
;TYPE:SUPPORT
G1 F2400 X-0.700 Y1.200 E134.92409
G1 X1.200 Y1.200 E134.99250
G1 X1.200 Y-0.700 E135.06091
G1 X-0.700 Y-0.700 E135.12931
G0 F7500 X-0.690 Y-0.800
G0 X-15.500 Y-15.400
G1 F2400 X15.600 Y-15.400 E136.24904
G1 X15.600 Y15.600 E137.36517
G1 X-15.500 Y15.600 E138.48490
G1 X-15.500 Y-15.400 E139.60102
G0 F7500 X-15.563 Y-14.440
G1 F2400 X15.664 Y-14.439 E140.72532
G0 F7500 X15.500 Y-14.439
G0 X14.440 Y-15.300
G0 X14.440 Y-15.464
G1 F2400 X14.440 Y15.664 E141.84606
G0 F7500 X14.440 Y15.500
G0 X15.500 Y14.440
G0 X15.663 Y14.440
G1 F2400 X-15.564 Y14.439 E142.97036
G0 F7500 X-15.400 Y14.439
G0 X-14.440 Y15.500
G0 X-14.440 Y15.664
G1 F2400 X-14.440 Y-15.464 E144.09109
G0 F7500 X-14.440 Y-15.300
G0 X-8.664 Y-15.300
G0 X-8.664 Y-15.464
G1 F2400 X-8.664 Y15.664 E145.21183
G0 F7500 X-8.664 Y15.500
G0 X-2.888 Y15.500
G0 X-2.888 Y15.664
G1 F2400 X-2.888 Y-15.464 E146.33256
G0 F7500 X-2.888 Y-15.300
G0 X2.888 Y-15.300
G0 X2.888 Y-15.464
G1 F2400 X2.888 Y15.664 E147.45330
G0 F7500 X2.888 Y15.500
G0 X8.664 Y15.500
G0 X8.664 Y15.664
G1 F2400 X8.664 Y-15.464 E148.57404
G0 F7500 X8.664 Y-15.300
G0 X15.500 Y-8.663
G0 X15.664 Y-8.663
G1 F2400 X-15.563 Y-8.664 E149.69834
G0 F7500 X-15.400 Y-8.664
G0 X-15.400 Y-2.888
G0 X-15.563 Y-2.888
G1 F2400 X15.664 Y-2.887 E150.82264
G0 F7500 X15.500 Y-2.887
G0 X15.500 Y2.888
G0 X15.663 Y2.888
G1 F2400 X-15.564 Y2.887 E151.94694
G0 F7500 X-15.400 Y2.887
G0 X-15.400 Y8.663
G0 X-15.564 Y8.663
G1 F2400 X15.663 Y8.664 E153.07123
;LAYER:7
G1 F2400 E152.07123
G0 F7500 X0.284 Y0.284 Z1.700
;TYPE:WALL-OUTER
G1 F2400 E153.07123
G1 F2700 X0.216 Y0.284 E153.07368
G1 X0.216 Y0.216 E153.07613
G1 X0.284 Y0.216 E153.07858
G1 X0.284 Y0.284 E153.08103
G0 F7500 X1.200 Y1.200
;TYPE:SUPPORT
G1 F2400 X1.200 Y-0.700 E153.14944
G1 X-0.700 Y-0.700 E153.21784
G1 X-0.700 Y1.200 E153.28625
G1 X1.200 Y1.200 E153.35466
G0 F7500 X1.190 Y1.300
G0 X15.500 Y15.590
G0 X15.600 Y15.600
G1 F2400 X-15.500 Y15.600 E154.47439
G1 X-15.500 Y-15.400 E155.59051
G1 X15.600 Y-15.400 E156.71024
G1 X15.600 Y15.600 E157.82637
G0 F7500 X15.663 Y14.440
G1 F2400 X-15.564 Y14.439 E158.95067
G0 F7500 X-15.400 Y14.439
G0 X-14.440 Y15.500
G0 X-14.440 Y15.664
G1 F2400 X-14.440 Y-15.464 E160.07140
G0 F7500 X-14.440 Y-15.300
G0 X-15.400 Y-14.440
G0 X-15.563 Y-14.440
G1 F2400 X15.664 Y-14.439 E161.19570
G0 F7500 X15.500 Y-14.439
G0 X14.440 Y-15.300
G0 X14.440 Y-15.464
G1 F2400 X14.440 Y15.664 E162.31644
G0 F7500 X14.440 Y15.500
G0 X8.664 Y15.500
G0 X8.664 Y15.664
G1 F2400 X8.664 Y-15.464 E163.43717
G0 F7500 X8.664 Y-15.300
G0 X2.888 Y-15.300
G0 X2.888 Y-15.464
G1 F2400 X2.888 Y15.664 E164.55791
G0 F7500 X2.888 Y15.500
G0 X-2.888 Y15.500
G0 X-2.888 Y15.664
G1 F2400 X-2.888 Y-15.464 E165.67865
G0 F7500 X-2.888 Y-15.300
G0 X-8.664 Y-15.300
G0 X-8.664 Y-15.464
G1 F2400 X-8.664 Y15.664 E166.79938
G0 F7500 X-8.664 Y15.500
G0 X-15.400 Y8.663
G0 X-15.564 Y8.663
G1 F2400 X15.663 Y8.664 E167.92368
G0 F7500 X15.500 Y8.664
G0 X15.500 Y2.888
G0 X15.663 Y2.888
G1 F2400 X-15.564 Y2.887 E169.04798
G0 F7500 X-15.400 Y2.887
G0 X-15.400 Y-2.888
G0 X-15.563 Y-2.888
G1 F2400 X15.664 Y-2.887 E170.17228
G0 F7500 X15.500 Y-2.887
G0 X15.500 Y-8.663
G0 X15.664 Y-8.663
G1 F2400 X-15.563 Y-8.664 E171.29658
;LAYER:8
G1 F2400 E170.29658
G0 F7500 X0.216 Y0.216 Z1.900
;TYPE:WALL-OUTER
G1 F2400 E171.29658
G1 F2700 X0.284 Y0.216 E171.29903
G1 X0.284 Y0.284 E171.30148
G1 X0.216 Y0.284 E171.30393
G1 X0.216 Y0.216 E171.30637
G0 F7500 X-0.700 Y-0.700
;TYPE:SUPPORT
G1 F2400 X-0.700 Y1.200 E171.37478
G1 X1.200 Y1.200 E171.44319
G1 X1.200 Y-0.700 E171.51160
G1 X-0.700 Y-0.700 E171.58000
G0 F7500 X-0.690 Y-0.800
G0 X-15.500 Y-15.400
G1 F2400 X15.600 Y-15.400 E172.69973
G1 X15.600 Y15.600 E173.81586
G1 X-15.500 Y15.600 E174.93559
G1 X-15.500 Y-15.400 E176.05171
G0 F7500 X-15.563 Y-14.440
G1 F2400 X15.664 Y-14.439 E177.17601
G0 F7500 X15.500 Y-14.439
G0 X14.440 Y-15.300
G0 X14.440 Y-15.464
G1 F2400 X14.440 Y15.664 E178.29675
G0 F7500 X14.440 Y15.500
G0 X15.500 Y14.440
G0 X15.663 Y14.440
G1 F2400 X-15.564 Y14.439 E179.42105
G0 F7500 X-15.400 Y14.439
G0 X-14.440 Y15.500
G0 X-14.440 Y15.664
G1 F2400 X-14.440 Y-15.464 E180.54178
G0 F7500 X-14.440 Y-15.300
G0 X-8.664 Y-15.300
G0 X-8.664 Y-15.464
G1 F2400 X-8.664 Y15.664 E181.66252
G0 F7500 X-8.664 Y15.500
G0 X-2.888 Y15.500
G0 X-2.888 Y15.664
G1 F2400 X-2.888 Y-15.464 E182.78326
G0 F7500 X-2.888 Y-15.300
G0 X2.888 Y-15.300
G0 X2.888 Y-15.464
G1 F2400 X2.888 Y15.664 E183.90399
G0 F7500 X2.888 Y15.500
G0 X8.664 Y15.500
G0 X8.664 Y15.664
G1 F2400 X8.664 Y-15.464 E185.02473
G0 F7500 X8.664 Y-15.300
G0 X15.500 Y-8.663
G0 X15.664 Y-8.663
G1 F2400 X-15.563 Y-8.664 E186.14903
G0 F7500 X-15.400 Y-8.664
G0 X-15.400 Y-2.888
G0 X-15.563 Y-2.888
G1 F2400 X15.664 Y-2.887 E187.27333
G0 F7500 X15.500 Y-2.887
G0 X15.500 Y2.888
G0 X15.663 Y2.888
G1 F2400 X-15.564 Y2.887 E188.39763
G0 F7500 X-15.400 Y2.887
G0 X-15.400 Y8.663
G0 X-15.564 Y8.663
G1 F2400 X15.663 Y8.664 E189.52193
;LAYER:9
G1 F2400 E188.52193
G0 F7500 X0.284 Y0.284 Z2.100
;TYPE:WALL-OUTER
G1 F2400 E189.52193
G1 F2700 X0.216 Y0.284 E189.52437
G1 X0.216 Y0.216 E189.52682
G1 X0.284 Y0.216 E189.52927
G1 X0.284 Y0.284 E189.53172
