;Generated with Cura_SteamEngine 15.04.6

;Layer count: 16
;LAYER:0
M107
G0 F7500 X-18.716 Y-23.616 Z0.300
;TYPE:SKIRT
G1 F1800 X18.816 Y-23.616 E2.02696
G1 X18.816 Y23.816 E4.58858
G1 X-18.716 Y23.816 E6.61554
G1 X-18.716 Y-23.616 E9.17716
G1 F2400 E8.17716
G0 F7500 X0.216 Y0.216
;TYPE:WALL-OUTER
G1 F2400 E9.17716
G1 F1800 X0.284 Y0.216 E9.18083
G1 X0.284 Y0.284 E9.18450
G1 X0.216 Y0.284 E9.18817
G1 X0.216 Y0.216 E9.19185
G0 F7500 X-0.700 Y-0.700
;TYPE:SUPPORT
G1 F1800 X-0.700 Y1.200 E9.29446
G1 X1.200 Y1.200 E9.39707
G1 X1.200 Y-0.700 E9.49968
G1 X-0.700 Y-0.700 E9.60229
G0 F7500 X-0.690 Y-0.800
G0 X-15.500 Y-20.400
G1 F1800 X15.600 Y-20.400 E11.28188
G1 X15.600 Y20.600 E13.49614
G1 X-15.500 Y20.600 E15.17573
G1 X-15.500 Y-20.400 E17.38998
G0 F7500 X-15.563 Y-20.216
G1 F1800 X15.664 Y-20.215 E19.07643
G0 F7500 X14.440 Y-20.464
G1 F1800 X14.440 Y20.664 E21.29759
G0 F7500 X15.663 Y20.216
G1 F1800 X-15.564 Y20.215 E22.98404
G0 F7500 X-14.440 Y20.664
G1 F1800 X-14.440 Y-20.464 E25.20521
G0 F7500 X-14.440 Y-20.300
G0 X-8.664 Y-20.300
G0 X-8.664 Y-20.464
G1 F1800 X-8.664 Y20.664 E27.42637
G0 F7500 X-8.664 Y20.500
G0 X-2.888 Y20.500
G0 X-2.888 Y20.664
G1 F1800 X-2.888 Y-20.464 E29.64754
G0 F7500 X-2.888 Y-20.300
G0 X2.888 Y-20.300
G0 X2.888 Y-20.464
G1 F1800 X2.888 Y20.664 E31.86870
G0 F7500 X2.888 Y20.500
G0 X8.664 Y20.500
G0 X8.664 Y20.664
G1 F1800 X8.664 Y-20.464 E34.08987
G0 F7500 X8.664 Y-20.300
G0 X15.500 Y-14.439
G0 X15.664 Y-14.439
G1 F1800 X-15.563 Y-14.440 E35.77632
G0 F7500 X-15.400 Y-14.440
G0 X-15.400 Y-8.664
G0 X-15.563 Y-8.664
G1 F1800 X15.664 Y-8.663 E37.46277
G0 F7500 X15.500 Y-8.663
G0 X15.500 Y-2.887
G0 X15.664 Y-2.887
G1 F1800 X-15.563 Y-2.888 E39.14922
G0 F7500 X-15.400 Y-2.888
G0 X-15.400 Y2.887
G0 X-15.564 Y2.887
G1 F1800 X15.663 Y2.888 E40.83567
G0 F7500 X15.500 Y2.888
G0 X15.500 Y8.664
G0 X15.663 Y8.664
G1 F1800 X-15.564 Y8.663 E42.52212
G0 F7500 X-15.400 Y8.663
G0 X-15.400 Y14.439
G0 X-15.564 Y14.439
G1 F1800 X15.663 Y14.440 E44.20857
;LAYER:1
M106 S63
G1 F2400 E43.20857
G0 F7500 X0.284 Y0.284 Z0.500
;TYPE:WALL-OUTER
G1 F2400 E44.20857
G1 F1980 X0.216 Y0.284 E44.21101
G1 X0.216 Y0.216 E44.21346
G1 X0.284 Y0.216 E44.21591
G1 X0.284 Y0.284 E44.21836
G0 F7500 X1.200 Y1.200
;TYPE:SUPPORT
G1 F1920 X1.200 Y-0.700 E44.28677
G1 X-0.700 Y-0.700 E44.35517
G1 X-0.700 Y1.200 E44.42358
G1 X1.200 Y1.200 E44.49199
G0 F7500 X1.190 Y1.300
G0 X15.500 Y20.590
G0 X15.600 Y20.600
G1 F1920 X-15.500 Y20.600 E45.61172
G1 X-15.500 Y-20.400 E47.08789
G1 X15.600 Y-20.400 E48.20761
G1 X15.600 Y20.600 E49.68378
G0 F7500 X15.663 Y20.216
G1 F1920 X-15.564 Y20.215 E50.80808
G0 F7500 X-14.440 Y20.664
G1 F1920 X-14.440 Y-20.464 E52.28886
G0 F7500 X-15.563 Y-20.216
G1 F1920 X15.664 Y-20.215 E53.41316
G0 F7500 X14.440 Y-20.464
G1 F1920 X14.440 Y20.664 E54.89393
G0 F7500 X14.440 Y20.500
G0 X8.664 Y20.500
G0 X8.664 Y20.664
G1 F1920 X8.664 Y-20.464 E56.37471
G0 F7500 X8.664 Y-20.300
G0 X2.888 Y-20.300
G0 X2.888 Y-20.464
G1 F1920 X2.888 Y20.664 E57.85549
G0 F7500 X2.888 Y20.500
G0 X-2.888 Y20.500
G0 X-2.888 Y20.664
G1 F1920 X-2.888 Y-20.464 E59.33626
G0 F7500 X-2.888 Y-20.300
G0 X-8.664 Y-20.300
G0 X-8.664 Y-20.464
G1 F1920 X-8.664 Y20.664 E60.81704
G0 F7500 X-8.664 Y20.500
G0 X-15.400 Y14.439
G0 X-15.564 Y14.439
G1 F1920 X15.663 Y14.440 E61.94134
G0 F7500 X15.500 Y14.440
G0 X15.500 Y8.664
G0 X15.663 Y8.664
G1 F1920 X-15.564 Y8.663 E63.06564
G0 F7500 X-15.400 Y8.663
G0 X-15.400 Y2.887
G0 X-15.564 Y2.887
G1 F1920 X15.663 Y2.888 E64.18994
G0 F7500 X15.500 Y2.888
G0 X15.500 Y-2.887
G0 X15.664 Y-2.887
G1 F1920 X-15.563 Y-2.888 E65.31424
G0 F7500 X-15.400 Y-2.888
G0 X-15.400 Y-8.664
G0 X-15.563 Y-8.664
G1 F1920 X15.664 Y-8.663 E66.43854
G0 F7500 X15.500 Y-8.663
G0 X15.500 Y-14.439
G0 X15.664 Y-14.439
G1 F1920 X-15.563 Y-14.440 E67.56284
;LAYER:2
M106 S127
G1 F2400 E66.56284
G0 F7500 X0.216 Y0.216 Z0.700
;TYPE:WALL-OUTER
G1 F2400 E67.56284
G1 F2220 X0.284 Y0.216 E67.56529
G1 X0.284 Y0.284 E67.56774
G1 X0.216 Y0.284 E67.57018
G1 X0.216 Y0.216 E67.57263
G0 F7500 X-0.700 Y-0.700
;TYPE:SUPPORT
G1 F2100 X-0.700 Y1.200 E67.64104
G1 X1.200 Y1.200 E67.70945
G1 X1.200 Y-0.700 E67.77786
G1 X-0.700 Y-0.700 E67.84626
G0 F7500 X-0.690 Y-0.800
G0 X-15.500 Y-20.400
G1 F2100 X15.600 Y-20.400 E68.96599
G1 X15.600 Y20.600 E70.44216
G1 X-15.500 Y20.600 E71.56189
G1 X-15.500 Y-20.400 E73.03805
G0 F7500 X-15.563 Y-20.216
G1 F2100 X15.664 Y-20.215 E74.16235
G0 F7500 X14.440 Y-20.464
G1 F2100 X14.440 Y20.664 E75.64313
G0 F7500 X15.663 Y20.216
G1 F2100 X-15.564 Y20.215 E76.76743
G0 F7500 X-14.440 Y20.664
G1 F2100 X-14.440 Y-20.464 E78.24821
G0 F7500 X-14.440 Y-20.300
G0 X-8.664 Y-20.300
G0 X-8.664 Y-20.464
G1 F2100 X-8.664 Y20.664 E79.72898
G0 F7500 X-8.664 Y20.500
G0 X-2.888 Y20.500
G0 X-2.888 Y20.664
G1 F2100 X-2.888 Y-20.464 E81.20976
G0 F7500 X-2.888 Y-20.300
G0 X2.888 Y-20.300
G0 X2.888 Y-20.464
G1 F2100 X2.888 Y20.664 E82.69054
G0 F7500 X2.888 Y20.500
G0 X8.664 Y20.500
G0 X8.664 Y20.664
G1 F2100 X8.664 Y-20.464 E84.17131
G0 F7500 X8.664 Y-20.300
G0 X15.500 Y-14.439
G0 X15.664 Y-14.439
G1 F2100 X-15.563 Y-14.440 E85.29561
G0 F7500 X-15.400 Y-14.440
G0 X-15.400 Y-8.664
G0 X-15.563 Y-8.664
G1 F2100 X15.664 Y-8.663 E86.41991
G0 F7500 X15.500 Y-8.663
G0 X15.500 Y-2.887
G0 X15.664 Y-2.887
G1 F2100 X-15.563 Y-2.888 E87.54421
G0 F7500 X-15.400 Y-2.888
G0 X-15.400 Y2.887
G0 X-15.564 Y2.887
G1 F2100 X15.663 Y2.888 E88.66851
G0 F7500 X15.500 Y2.888
G0 X15.500 Y8.664
G0 X15.663 Y8.664
G1 F2100 X-15.564 Y8.663 E89.79281
G0 F7500 X-15.400 Y8.663
G0 X-15.400 Y14.439
G0 X-15.564 Y14.439
G1 F2100 X15.663 Y14.440 E90.91711
;LAYER:3
G1 F2400 E89.91711
G0 F7500 X0.284 Y0.284 Z0.900
;TYPE:WALL-OUTER
G1 F2400 E90.91711
G1 X0.216 Y0.284 E90.91956
G1 X0.216 Y0.216 E90.92201
G1 X0.284 Y0.216 E90.92446
G1 X0.284 Y0.284 E90.92690
G0 F7500 X1.200 Y1.200
;TYPE:SUPPORT
G1 F2220 X1.200 Y-0.700 E90.99531
G1 X-0.700 Y-0.700 E91.06372
G1 X-0.700 Y1.200 E91.13213
G1 X1.200 Y1.200 E91.20054
G0 F7500 X1.190 Y1.300
G0 X15.500 Y20.590
G0 X15.600 Y20.600
G1 F2220 X-15.500 Y20.600 E92.32026
G1 X-15.500 Y-20.400 E93.79643
G1 X15.600 Y-20.400 E94.91616
G1 X15.600 Y20.600 E96.39233
G0 F7500 X15.663 Y20.216
G1 F2220 X-15.564 Y20.215 E97.51663
G0 F7500 X-14.440 Y20.664
G1 F2220 X-14.440 Y-20.464 E98.99740
G0 F7500 X-15.563 Y-20.216
G1 F2220 X15.664 Y-20.215 E100.12170
G0 F7500 X14.440 Y-20.464
G1 F2220 X14.440 Y20.664 E101.60248
G0 F7500 X14.440 Y20.500
G0 X8.664 Y20.500
G0 X8.664 Y20.664
G1 F2220 X8.664 Y-20.464 E103.08326
G0 F7500 X8.664 Y-20.300
G0 X2.888 Y-20.300
G0 X2.888 Y-20.464
G1 F2220 X2.888 Y20.664 E104.56403
G0 F7500 X2.888 Y20.500
G0 X-2.888 Y20.500
G0 X-2.888 Y20.664
G1 F2220 X-2.888 Y-20.464 E106.04481
G0 F7500 X-2.888 Y-20.300
G0 X-8.664 Y-20.300
G0 X-8.664 Y-20.464
G1 F2220 X-8.664 Y20.664 E107.52559
G0 F7500 X-8.664 Y20.500
G0 X-15.400 Y14.439
G0 X-15.564 Y14.439
G1 F2220 X15.663 Y14.440 E108.64989
G0 F7500 X15.500 Y14.440
G0 X15.500 Y8.664
G0 X15.663 Y8.664
G1 F2220 X-15.564 Y8.663 E109.77419
G0 F7500 X-15.400 Y8.663
G0 X-15.400 Y2.887
G0 X-15.564 Y2.887
G1 F2220 X15.663 Y2.888 E110.89848
G0 F7500 X15.500 Y2.888
G0 X15.500 Y-2.887
G0 X15.664 Y-2.887
G1 F2220 X-15.563 Y-2.888 E112.02278
G0 F7500 X-15.400 Y-2.888
G0 X-15.400 Y-8.664
G0 X-15.563 Y-8.664
G1 F2220 X15.664 Y-8.663 E113.14708
G0 F7500 X15.500 Y-8.663
G0 X15.500 Y-14.439
G0 X15.664 Y-14.439
G1 F2220 X-15.563 Y-14.440 E114.27138
;LAYER:4
G1 F2400 E113.27138
G0 F7500 X0.216 Y0.216 Z1.100
;TYPE:WALL-OUTER
G1 F2400 E114.27138
G1 F2700 X0.284 Y0.216 E114.27383
G1 X0.284 Y0.284 E114.27628
G1 X0.216 Y0.284 E114.27873
G1 X0.216 Y0.216 E114.28118
G0 F7500 X-0.700 Y-0.700
;TYPE:SUPPORT
G1 F2400 X-0.700 Y1.200 E114.34959
G1 X1.200 Y1.200 E114.41799
G1 X1.200 Y-0.700 E114.48640
G1 X-0.700 Y-0.700 E114.55481
G0 F7500 X-0.690 Y-0.800
G0 X-15.500 Y-20.400
G1 F2400 X15.600 Y-20.400 E115.67454
G1 X15.600 Y20.600 E117.15070
G1 X-15.500 Y20.600 E118.27043
G1 X-15.500 Y-20.400 E119.74660
G0 F7500 X-15.563 Y-20.216
G1 F2400 X15.664 Y-20.215 E120.87090
G0 F7500 X14.440 Y-20.464
G1 F2400 X14.440 Y20.664 E122.35168
G0 F7500 X15.663 Y20.216
G1 F2400 X-15.564 Y20.215 E123.47598
G0 F7500 X-14.440 Y20.664
G1 F2400 X-14.440 Y-20.464 E124.95675
G0 F7500 X-14.440 Y-20.300
G0 X-8.664 Y-20.300
G0 X-8.664 Y-20.464
G1 F2400 X-8.664 Y20.664 E126.43753
G0 F7500 X-8.664 Y20.500
G0 X-2.888 Y20.500
G0 X-2.888 Y20.664
G1 F2400 X-2.888 Y-20.464 E127.91831
G0 F7500 X-2.888 Y-20.300
G0 X2.888 Y-20.300
G0 X2.888 Y-20.464
G1 F2400 X2.888 Y20.664 E129.39908
G0 F7500 X2.888 Y20.500
G0 X8.664 Y20.500
G0 X8.664 Y20.664
G1 F2400 X8.664 Y-20.464 E130.87986
G0 F7500 X8.664 Y-20.300
G0 X15.500 Y-14.439
G0 X15.664 Y-14.439
G1 F2400 X-15.563 Y-14.440 E132.00416
G0 F7500 X-15.400 Y-14.440
G0 X-15.400 Y-8.664
G0 X-15.563 Y-8.664
G1 F2400 X15.664 Y-8.663 E133.12846
G0 F7500 X15.500 Y-8.663
G0 X15.500 Y-2.887
G0 X15.664 Y-2.887
G1 F2400 X-15.563 Y-2.888 E134.25276
G0 F7500 X-15.400 Y-2.888
G0 X-15.400 Y2.887
G0 X-15.564 Y2.887
G1 F2400 X15.663 Y2.888 E135.37706
G0 F7500 X15.500 Y2.888
G0 X15.500 Y8.664
G0 X15.663 Y8.664
G1 F2400 X-15.564 Y8.663 E136.50136
G0 F7500 X-15.400 Y8.663
G0 X-15.400 Y14.439
G0 X-15.564 Y14.439
G1 F2400 X15.663 Y14.440 E137.62566
;LAYER:5
G1 F2400 E136.62566
G0 F7500 X0.284 Y0.284 Z1.300
;TYPE:WALL-OUTER
G1 F2400 E137.62566
G1 F2700 X0.216 Y0.284 E137.62811
G1 X0.216 Y0.216 E137.63055
G1 X0.284 Y0.216 E137.63300
G1 X0.284 Y0.284 E137.63545
G0 F7500 X1.200 Y1.200
;TYPE:SUPPORT
G1 F2400 X1.200 Y-0.700 E137.70386
G1 X-0.700 Y-0.700 E137.77227
G1 X-0.700 Y1.200 E137.84067
G1 X1.200 Y1.200 E137.90908
G0 F7500 X1.190 Y1.300
G0 X15.500 Y20.590
G0 X15.600 Y20.600
G1 F2400 X-15.500 Y20.600 E139.02881
G1 X-15.500 Y-20.400 E140.50498
G1 X15.600 Y-20.400 E141.62470
G1 X15.600 Y20.600 E143.10087
G0 F7500 X15.663 Y20.216
G1 F2400 X-15.564 Y20.215 E144.22517
G0 F7500 X-14.440 Y20.664
G1 F2400 X-14.440 Y-20.464 E145.70595
G0 F7500 X-15.563 Y-20.216
G1 F2400 X15.664 Y-20.215 E146.83025
G0 F7500 X14.440 Y-20.464
G1 F2400 X14.440 Y20.664 E148.31103
G0 F7500 X14.440 Y20.500
G0 X8.664 Y20.500
G0 X8.664 Y20.664
G1 F2400 X8.664 Y-20.464 E149.79180
G0 F7500 X8.664 Y-20.300
G0 X2.888 Y-20.300
G0 X2.888 Y-20.464
G1 F2400 X2.888 Y20.664 E151.27258
G0 F7500 X2.888 Y20.500
G0 X-2.888 Y20.500
G0 X-2.888 Y20.664
G1 F2400 X-2.888 Y-20.464 E152.75335
G0 F7500 X-2.888 Y-20.300
G0 X-8.664 Y-20.300
G0 X-8.664 Y-20.464
G1 F2400 X-8.664 Y20.664 E154.23413
G0 F7500 X-8.664 Y20.500
G0 X-15.400 Y14.439
G0 X-15.564 Y14.439
G1 F2400 X15.663 Y14.440 E155.35843
G0 F7500 X15.500 Y14.440
G0 X15.500 Y8.664
G0 X15.663 Y8.664
G1 F2400 X-15.564 Y8.663 E156.48273
G0 F7500 X-15.400 Y8.663
G0 X-15.400 Y2.887
G0 X-15.564 Y2.887
G1 F2400 X15.663 Y2.888 E157.60703
G0 F7500 X15.500 Y2.888
G0 X15.500 Y-2.887
G0 X15.664 Y-2.887
G1 F2400 X-15.563 Y-2.888 E158.73133
G0 F7500 X-15.400 Y-2.888
G0 X-15.400 Y-8.664
G0 X-15.563 Y-8.664
G1 F2400 X15.664 Y-8.663 E159.85563
G0 F7500 X15.500 Y-8.663
G0 X15.500 Y-14.439
G0 X15.664 Y-14.439
G1 F2400 X-15.563 Y-14.440 E160.97993
;LAYER:6
G1 F2400 E159.97993
G0 F7500 X0.216 Y0.216 Z1.500
;TYPE:WALL-OUTER
G1 F2400 E160.97993
G1 F2700 X0.284 Y0.216 E160.98238
G1 X0.284 Y0.284 E160.98483
G1 X0.216 Y0.284 E160.98728
G1 X0.216 Y0.216 E160.98972
G0 F7500 X-0.700 Y-0.700
;TYPE:SUPPORT
G1 F2400 X-0.700 Y1.200 E161.05813
G1 X1.200 Y1.200 E161.12654
G1 X1.200 Y-0.700 E161.19495
G1 X-0.700 Y-0.700 E161.26335
G0 F7500 X-0.690 Y-0.800
G0 X-15.500 Y-20.400
G1 F2400 X15.600 Y-20.400 E162.38308
G1 X15.600 Y20.600 E163.85925
G1 X-15.500 Y20.600 E164.97898
G1 X-15.500 Y-20.400 E166.45515
G0 F7500 X-15.563 Y-20.216
G1 F2400 X15.664 Y-20.215 E167.57945
G0 F7500 X14.440 Y-20.464
G1 F2400 X14.440 Y20.664 E169.06022
G0 F7500 X15.663 Y20.216
G1 F2400 X-15.564 Y20.215 E170.18452
G0 F7500 X-14.440 Y20.664
G1 F2400 X-14.440 Y-20.464 E171.66530
G0 F7500 X-14.440 Y-20.300
G0 X-8.664 Y-20.300
G0 X-8.664 Y-20.464
G1 F2400 X-8.664 Y20.664 E173.14607
G0 F7500 X-8.664 Y20.500
G0 X-2.888 Y20.500
G0 X-2.888 Y20.664
G1 F2400 X-2.888 Y-20.464 E174.62685
G0 F7500 X-2.888 Y-20.300
G0 X2.888 Y-20.300
G0 X2.888 Y-20.464
G1 F2400 X2.888 Y20.664 E176.10763
G0 F7500 X2.888 Y20.500
G0 X8.664 Y20.500
G0 X8.664 Y20.664
G1 F2400 X8.664 Y-20.464 E177.58840
G0 F7500 X8.664 Y-20.300
G0 X15.500 Y-14.439
G0 X15.664 Y-14.439
G1 F2400 X-15.563 Y-14.440 E178.71270
G0 F7500 X-15.400 Y-14.440
G0 X-15.400 Y-8.664
G0 X-15.563 Y-8.664
G1 F2400 X15.664 Y-8.663 E179.83700
G0 F7500 X15.500 Y-8.663
G0 X15.500 Y-2.887
G0 X15.664 Y-2.887
G1 F2400 X-15.563 Y-2.888 E180.96130
G0 F7500 X-15.400 Y-2.888
G0 X-15.400 Y2.887
G0 X-15.564 Y2.887
G1 F2400 X15.663 Y2.888 E182.08560
G0 F7500 X15.500 Y2.888
G0 X15.500 Y8.664
G0 X15.663 Y8.664
G1 F2400 X-15.564 Y8.663 E183.20990
G0 F7500 X-15.400 Y8.663
G0 X-15.400 Y14.439
G0 X-15.564 Y14.439
G1 F2400 X15.663 Y14.440 E184.33420
;LAYER:7
G1 F2400 E183.33420
G0 F7500 X0.284 Y0.284 Z1.700
;TYPE:WALL-OUTER
G1 F2400 E184.33420
G1 F2700 X0.216 Y0.284 E184.33665
G1 X0.216 Y0.216 E184.33910
G1 X0.284 Y0.216 E184.34155
G1 X0.284 Y0.284 E184.34400
G0 F7500 X1.200 Y1.200
;TYPE:SUPPORT
G1 F2400 X1.200 Y-0.700 E184.41240
G1 X-0.700 Y-0.700 E184.48081
G1 X-0.700 Y1.200 E184.54922
G1 X1.200 Y1.200 E184.61763
G0 F7500 X1.190 Y1.300
G0 X15.500 Y20.590
G0 X15.600 Y20.600
G1 F2400 X-15.500 Y20.600 E185.73736
G1 X-15.500 Y-20.400 E187.21352
G1 X15.600 Y-20.400 E188.33325
G1 X15.600 Y20.600 E189.80942
G0 F7500 X15.663 Y20.216
G1 F2400 X-15.564 Y20.215 E190.93372
G0 F7500 X-14.440 Y20.664
G1 F2400 X-14.440 Y-20.464 E192.41450
G0 F7500 X-15.563 Y-20.216
G1 F2400 X15.664 Y-20.215 E193.53879
G0 F7500 X14.440 Y-20.464
G1 F2400 X14.440 Y20.664 E195.01957
G0 F7500 X14.440 Y20.500
G0 X8.664 Y20.500
G0 X8.664 Y20.664
G1 F2400 X8.664 Y-20.464 E196.50035
G0 F7500 X8.664 Y-20.300
G0 X2.888 Y-20.300
G0 X2.888 Y-20.464
G1 F2400 X2.888 Y20.664 E197.98112
G0 F7500 X2.888 Y20.500
G0 X-2.888 Y20.500
G0 X-2.888 Y20.664
G1 F2400 X-2.888 Y-20.464 E199.46190
G0 F7500 X-2.888 Y-20.300
G0 X-8.664 Y-20.300
G0 X-8.664 Y-20.464
G1 F2400 X-8.664 Y20.664 E200.94268
G0 F7500 X-8.664 Y20.500
G0 X-15.400 Y14.439
G0 X-15.564 Y14.439
G1 F2400 X15.663 Y14.440 E202.06698
G0 F7500 X15.500 Y14.440
G0 X15.500 Y8.664
G0 X15.663 Y8.664
G1 F2400 X-15.564 Y8.663 E203.19128
G0 F7500 X-15.400 Y8.663
G0 X-15.400 Y2.887
G0 X-15.564 Y2.887
G1 F2400 X15.663 Y2.888 E204.31558
G0 F7500 X15.500 Y2.888
G0 X15.500 Y-2.887
G0 X15.664 Y-2.887
G1 F2400 X-15.563 Y-2.888 E205.43988
G0 F7500 X-15.400 Y-2.888
G0 X-15.400 Y-8.664
G0 X-15.563 Y-8.664
G1 F2400 X15.664 Y-8.663 E206.56418
G0 F7500 X15.500 Y-8.663
G0 X15.500 Y-14.439
G0 X15.664 Y-14.439
G1 F2400 X-15.563 Y-14.440 E207.68848
;LAYER:8
G1 F2400 E206.68848
G0 F7500 X0.216 Y0.216 Z1.900
;TYPE:WALL-OUTER
G1 F2400 E207.68848
G1 F2700 X0.284 Y0.216 E207.69093
G1 X0.284 Y0.284 E207.69337
G1 X0.216 Y0.284 E207.69582
G1 X0.216 Y0.216 E207.69827
G0 F7500 X-0.700 Y-0.700
;TYPE:SUPPORT
G1 F2400 X-0.700 Y1.200 E207.76668
G1 X1.200 Y1.200 E207.83509
G1 X1.200 Y-0.700 E207.90349
G1 X-0.700 Y-0.700 E207.97190
G0 F7500 X-0.690 Y-0.800
G0 X-15.500 Y-20.400
G1 F2400 X15.600 Y-20.400 E209.09163
G1 X15.600 Y20.600 E210.56780
G1 X-15.500 Y20.600 E211.68752
G1 X-15.500 Y-20.400 E213.16369
G0 F7500 X-15.563 Y-20.216
G1 F2400 X15.664 Y-20.215 E214.28799
G0 F7500 X14.440 Y-20.464
G1 F2400 X14.440 Y20.664 E215.76877
G0 F7500 X15.663 Y20.216
G1 F2400 X-15.564 Y20.215 E216.89307
G0 F7500 X-14.440 Y20.664
G1 F2400 X-14.440 Y-20.464 E218.37384
G0 F7500 X-14.440 Y-20.300
G0 X-8.664 Y-20.300
G0 X-8.664 Y-20.464
G1 F2400 X-8.664 Y20.664 E219.85462
G0 F7500 X-8.664 Y20.500
G0 X-2.888 Y20.500
G0 X-2.888 Y20.664
G1 F2400 X-2.888 Y-20.464 E221.33540
G0 F7500 X-2.888 Y-20.300
G0 X2.888 Y-20.300
G0 X2.888 Y-20.464
G1 F2400 X2.888 Y20.664 E222.81617
G0 F7500 X2.888 Y20.500
G0 X8.664 Y20.500
G0 X8.664 Y20.664
G1 F2400 X8.664 Y-20.464 E224.29695
G0 F7500 X8.664 Y-20.300
G0 X15.500 Y-14.439
G0 X15.664 Y-14.439
G1 F2400 X-15.563 Y-14.440 E225.42125
G0 F7500 X-15.400 Y-14.440
G0 X-15.400 Y-8.664
G0 X-15.563 Y-8.664
G1 F2400 X15.664 Y-8.663 E226.54555
