;Generated with Cura_SteamEngine 15.04.6

;Layer count: 16
;LAYER:0
M107
G0 F7500 X-18.716 Y-28.616 Z0.300
;TYPE:SKIRT
G1 F1800 X18.816 Y-28.616 E2.02696
G1 X18.816 Y28.816 E5.12864
G1 X-18.716 Y28.816 E7.15560
G1 X-18.716 Y-28.616 E10.25728
G1 F2400 E9.25728
G0 F7500 X0.216 Y0.216
;TYPE:WALL-OUTER
G1 F2400 E10.25728
G1 F1800 X0.284 Y0.216 E10.26095
G1 X0.284 Y0.284 E10.26462
G1 X0.216 Y0.284 E10.26830
G1 X0.216 Y0.216 E10.27197
G0 F7500 X-0.700 Y-0.700
;TYPE:SUPPORT
G1 F1800 X-0.700 Y1.200 E10.37458
G1 X1.200 Y1.200 E10.47719
G1 X1.200 Y-0.700 E10.57980
G1 X-0.700 Y-0.700 E10.68242
G0 F7500 X-0.690 Y-0.800
G0 X-15.500 Y-25.400
G1 F1800 X15.600 Y-25.400 E12.36201
G1 X15.600 Y25.600 E15.11632
G1 X-15.500 Y25.600 E16.79591
G1 X-15.500 Y-25.400 E19.55022
G0 F7500 X-14.440 Y-25.464
G1 F1800 X-14.440 Y25.664 E22.31145
G0 F7500 X-14.440 Y25.500
G0 X-15.400 Y20.215
G0 X-15.564 Y20.215
G1 F1800 X15.663 Y20.216 E23.99790
G0 F7500 X15.500 Y20.216
G0 X14.440 Y25.500
G0 X14.440 Y25.664
G1 F1800 X14.440 Y-25.464 E26.75913
G0 F7500 X14.440 Y-25.300
G0 X15.500 Y-20.215
G0 X15.664 Y-20.215
G1 F1800 X-15.563 Y-20.216 E28.44558
G0 F7500 X-15.400 Y-20.216
G0 X-8.664 Y-25.300
G0 X-8.664 Y-25.464
G1 F1800 X-8.664 Y25.664 E31.20680
G0 F7500 X-8.664 Y25.500
G0 X-2.888 Y25.500
G0 X-2.888 Y25.664
G1 F1800 X-2.888 Y-25.464 E33.96803
G0 F7500 X-2.888 Y-25.300
G0 X2.888 Y-25.300
G0 X2.888 Y-25.464
G1 F1800 X2.888 Y25.664 E36.72925
G0 F7500 X2.888 Y25.500
G0 X8.664 Y25.500
G0 X8.664 Y25.664
G1 F1800 X8.664 Y-25.464 E39.49048
G0 F7500 X8.664 Y-25.300
G0 X15.500 Y-14.439
G0 X15.664 Y-14.439
G1 F1800 X-15.563 Y-14.440 E41.17693
G0 F7500 X-15.400 Y-14.440
G0 X-15.400 Y-8.664
G0 X-15.563 Y-8.664
G1 F1800 X15.664 Y-8.663 E42.86338
G0 F7500 X15.500 Y-8.663
G0 X15.500 Y-2.887
G0 X15.664 Y-2.887
G1 F1800 X-15.563 Y-2.888 E44.54983
G0 F7500 X-15.400 Y-2.888
G0 X-15.400 Y2.887
G0 X-15.564 Y2.887
G1 F1800 X15.663 Y2.888 E46.23628
G0 F7500 X15.500 Y2.888
G0 X15.500 Y8.664
G0 X15.663 Y8.664
G1 F1800 X-15.564 Y8.663 E47.92273
G0 F7500 X-15.400 Y8.663
G0 X-15.400 Y14.439
G0 X-15.564 Y14.439
G1 F1800 X15.663 Y14.440 E49.60918
;LAYER:1
M106 S63
G1 F2400 E48.60918
G0 F7500 X0.284 Y0.284 Z0.500
;TYPE:WALL-OUTER
G1 F2400 E49.60918
G1 F1980 X0.216 Y0.284 E49.61163
G1 X0.216 Y0.216 E49.61408
G1 X0.284 Y0.216 E49.61652
G1 X0.284 Y0.284 E49.61897
G0 F7500 X1.200 Y1.200
;TYPE:SUPPORT
G1 F1920 X1.200 Y-0.700 E49.68738
G1 X-0.700 Y-0.700 E49.75579
G1 X-0.700 Y1.200 E49.82420
G1 X1.200 Y1.200 E49.89260
G0 F7500 X1.190 Y1.300
G0 X15.500 Y25.590
G0 X15.600 Y25.600
G1 F1920 X-15.500 Y25.600 E51.01233
G1 X-15.500 Y-25.400 E52.84854
G1 X15.600 Y-25.400 E53.96827
G1 X15.600 Y25.600 E55.80448
G0 F7500 X14.440 Y25.664
G1 F1920 X14.440 Y-25.464 E57.64529
G0 F7500 X14.440 Y-25.300
G0 X15.500 Y-20.215
G0 X15.664 Y-20.215
G1 F1920 X-15.563 Y-20.216 E58.76959
G0 F7500 X-15.400 Y-20.216
G0 X-14.440 Y-25.300
G0 X-14.440 Y-25.464
G1 F1920 X-14.440 Y25.664 E60.61041
G0 F7500 X-14.440 Y25.500
G0 X-15.400 Y20.215
G0 X-15.564 Y20.215
G1 F1920 X15.663 Y20.216 E61.73471
G0 F7500 X15.500 Y20.216
G0 X8.664 Y25.500
G0 X8.664 Y25.664
G1 F1920 X8.664 Y-25.464 E63.57553
G0 F7500 X8.664 Y-25.300
G0 X2.888 Y-25.300
G0 X2.888 Y-25.464
G1 F1920 X2.888 Y25.664 E65.41635
G0 F7500 X2.888 Y25.500
G0 X-2.888 Y25.500
G0 X-2.888 Y25.664
G1 F1920 X-2.888 Y-25.464 E67.25716
G0 F7500 X-2.888 Y-25.300
G0 X-8.664 Y-25.300
G0 X-8.664 Y-25.464
G1 F1920 X-8.664 Y25.664 E69.09798
G0 F7500 X-8.664 Y25.500
G0 X-15.400 Y14.439
G0 X-15.564 Y14.439
G1 F1920 X15.663 Y14.440 E70.22228
G0 F7500 X15.500 Y14.440
G0 X15.500 Y8.664
G0 X15.663 Y8.664
G1 F1920 X-15.564 Y8.663 E71.34658
G0 F7500 X-15.400 Y8.663
G0 X-15.400 Y2.887
G0 X-15.564 Y2.887
G1 F1920 X15.663 Y2.888 E72.47088
G0 F7500 X15.500 Y2.888
G0 X15.500 Y-2.887
G0 X15.664 Y-2.887
G1 F1920 X-15.563 Y-2.888 E73.59518
G0 F7500 X-15.400 Y-2.888
G0 X-15.400 Y-8.664
G0 X-15.563 Y-8.664
G1 F1920 X15.664 Y-8.663 E74.71948
G0 F7500 X15.500 Y-8.663
G0 X15.500 Y-14.439
G0 X15.664 Y-14.439
G1 F1920 X-15.563 Y-14.440 E75.84378
;LAYER:2
M106 S127
G1 F2400 E74.84378
G0 F7500 X0.216 Y0.216 Z0.700
;TYPE:WALL-OUTER
G1 F2400 E75.84378
G1 F2220 X0.284 Y0.216 E75.84623
G1 X0.284 Y0.284 E75.84868
G1 X0.216 Y0.284 E75.85113
G1 X0.216 Y0.216 E75.85357
G0 F7500 X-0.700 Y-0.700
;TYPE:SUPPORT
G1 F2100 X-0.700 Y1.200 E75.92198
G1 X1.200 Y1.200 E75.99039
G1 X1.200 Y-0.700 E76.05880
G1 X-0.700 Y-0.700 E76.12721
G0 F7500 X-0.690 Y-0.800
G0 X-15.500 Y-25.400
G1 F2100 X15.600 Y-25.400 E77.24693
G1 X15.600 Y25.600 E79.08314
G1 X-15.500 Y25.600 E80.20287
G1 X-15.500 Y-25.400 E82.03908
G0 F7500 X-14.440 Y-25.464
G1 F2100 X-14.440 Y25.664 E83.87990
G0 F7500 X-14.440 Y25.500
G0 X-15.400 Y20.215
G0 X-15.564 Y20.215
G1 F2100 X15.663 Y20.216 E85.00419
G0 F7500 X15.500 Y20.216
G0 X14.440 Y25.500
G0 X14.440 Y25.664
G1 F2100 X14.440 Y-25.464 E86.84501
G0 F7500 X14.440 Y-25.300
G0 X15.500 Y-20.215
G0 X15.664 Y-20.215
G1 F2100 X-15.563 Y-20.216 E87.96931
G0 F7500 X-15.400 Y-20.216
G0 X-8.664 Y-25.300
G0 X-8.664 Y-25.464
G1 F2100 X-8.664 Y25.664 E89.81013
G0 F7500 X-8.664 Y25.500
G0 X-2.888 Y25.500
G0 X-2.888 Y25.664
G1 F2100 X-2.888 Y-25.464 E91.65095
G0 F7500 X-2.888 Y-25.300
G0 X2.888 Y-25.300
G0 X2.888 Y-25.464
G1 F2100 X2.888 Y25.664 E93.49176
G0 F7500 X2.888 Y25.500
G0 X8.664 Y25.500
G0 X8.664 Y25.664
G1 F2100 X8.664 Y-25.464 E95.33258
G0 F7500 X8.664 Y-25.300
G0 X15.500 Y-14.439
G0 X15.664 Y-14.439
G1 F2100 X-15.563 Y-14.440 E96.45688
G0 F7500 X-15.400 Y-14.440
G0 X-15.400 Y-8.664
G0 X-15.563 Y-8.664
G1 F2100 X15.664 Y-8.663 E97.58118
G0 F7500 X15.500 Y-8.663
G0 X15.500 Y-2.887
G0 X15.664 Y-2.887
G1 F2100 X-15.563 Y-2.888 E98.70548
G0 F7500 X-15.400 Y-2.888
G0 X-15.400 Y2.887
G0 X-15.564 Y2.887
G1 F2100 X15.663 Y2.888 E99.82978
G0 F7500 X15.500 Y2.888
G0 X15.500 Y8.664
G0 X15.663 Y8.664
G1 F2100 X-15.564 Y8.663 E100.95408
G0 F7500 X-15.400 Y8.663
G0 X-15.400 Y14.439
G0 X-15.564 Y14.439
G1 F2100 X15.663 Y14.440 E102.07838
;LAYER:3
G1 F2400 E101.07838
G0 F7500 X0.284 Y0.284 Z0.900
;TYPE:WALL-OUTER
G1 F2400 E102.07838
G1 X0.216 Y0.284 E102.08083
G1 X0.216 Y0.216 E102.08328
G1 X0.284 Y0.216 E102.08573
G1 X0.284 Y0.284 E102.08817
G0 F7500 X1.200 Y1.200
;TYPE:SUPPORT
G1 F2220 X1.200 Y-0.700 E102.15658
G1 X-0.700 Y-0.700 E102.22499
G1 X-0.700 Y1.200 E102.29340
G1 X1.200 Y1.200 E102.36181
G0 F7500 X1.190 Y1.300
G0 X15.500 Y25.590
G0 X15.600 Y25.600
G1 F2220 X-15.500 Y25.600 E103.48153
G1 X-15.500 Y-25.400 E105.31774
G1 X15.600 Y-25.400 E106.43747
G1 X15.600 Y25.600 E108.27368
G0 F7500 X14.440 Y25.664
G1 F2220 X14.440 Y-25.464 E110.11450
G0 F7500 X14.440 Y-25.300
G0 X15.500 Y-20.215
G0 X15.664 Y-20.215
G1 F2220 X-15.563 Y-20.216 E111.23880
G0 F7500 X-15.400 Y-20.216
G0 X-14.440 Y-25.300
G0 X-14.440 Y-25.464
G1 F2220 X-14.440 Y25.664 E113.07961
G0 F7500 X-14.440 Y25.500
G0 X-15.400 Y20.215
G0 X-15.564 Y20.215
G1 F2220 X15.663 Y20.216 E114.20391
G0 F7500 X15.500 Y20.216
G0 X8.664 Y25.500
G0 X8.664 Y25.664
G1 F2220 X8.664 Y-25.464 E116.04473
G0 F7500 X8.664 Y-25.300
G0 X2.888 Y-25.300
G0 X2.888 Y-25.464
G1 F2220 X2.888 Y25.664 E117.88555
G0 F7500 X2.888 Y25.500
G0 X-2.888 Y25.500
G0 X-2.888 Y25.664
G1 F2220 X-2.888 Y-25.464 E119.72637
G0 F7500 X-2.888 Y-25.300
G0 X-8.664 Y-25.300
G0 X-8.664 Y-25.464
G1 F2220 X-8.664 Y25.664 E121.56718
G0 F7500 X-8.664 Y25.500
G0 X-15.400 Y14.439
G0 X-15.564 Y14.439
G1 F2220 X15.663 Y14.440 E122.69148
G0 F7500 X15.500 Y14.440
G0 X15.500 Y8.664
G0 X15.663 Y8.664
G1 F2220 X-15.564 Y8.663 E123.81578
G0 F7500 X-15.400 Y8.663
G0 X-15.400 Y2.887
G0 X-15.564 Y2.887
G1 F2220 X15.663 Y2.888 E124.94008
G0 F7500 X15.500 Y2.888
G0 X15.500 Y-2.887
G0 X15.664 Y-2.887
G1 F2220 X-15.563 Y-2.888 E126.06438
G0 F7500 X-15.400 Y-2.888
G0 X-15.400 Y-8.664
G0 X-15.563 Y-8.664
G1 F2220 X15.664 Y-8.663 E127.18868
G0 F7500 X15.500 Y-8.663
G0 X15.500 Y-14.439
G0 X15.664 Y-14.439
G1 F2220 X-15.563 Y-14.440 E128.31298
;LAYER:4
G1 F2400 E127.31298
G0 F7500 X0.216 Y0.216 Z1.100
;TYPE:WALL-OUTER
G1 F2400 E128.31298
G1 F2700 X0.284 Y0.216 E128.31543
G1 X0.284 Y0.284 E128.31788
G1 X0.216 Y0.284 E128.32033
G1 X0.216 Y0.216 E128.32278
G0 F7500 X-0.700 Y-0.700
;TYPE:SUPPORT
G1 F2400 X-0.700 Y1.200 E128.39118
G1 X1.200 Y1.200 E128.45959
G1 X1.200 Y-0.700 E128.52800
G1 X-0.700 Y-0.700 E128.59641
G0 F7500 X-0.690 Y-0.800
G0 X-15.500 Y-25.400
G1 F2400 X15.600 Y-25.400 E129.71613
G1 X15.600 Y25.600 E131.55234
G1 X-15.500 Y25.600 E132.67207
G1 X-15.500 Y-25.400 E134.50828
G0 F7500 X-14.440 Y-25.464
G1 F2400 X-14.440 Y25.664 E136.34910
G0 F7500 X-14.440 Y25.500
G0 X-15.400 Y20.215
G0 X-15.564 Y20.215
G1 F2400 X15.663 Y20.216 E137.47340
G0 F7500 X15.500 Y20.216
G0 X14.440 Y25.500
G0 X14.440 Y25.664
G1 F2400 X14.440 Y-25.464 E139.31421
G0 F7500 X14.440 Y-25.300
G0 X15.500 Y-20.215
G0 X15.664 Y-20.215
G1 F2400 X-15.563 Y-20.216 E140.43851
G0 F7500 X-15.400 Y-20.216
G0 X-8.664 Y-25.300
G0 X-8.664 Y-25.464
G1 F2400 X-8.664 Y25.664 E142.27933
G0 F7500 X-8.664 Y25.500
G0 X-2.888 Y25.500
G0 X-2.888 Y25.664
G1 F2400 X-2.888 Y-25.464 E144.12015
G0 F7500 X-2.888 Y-25.300
G0 X2.888 Y-25.300
G0 X2.888 Y-25.464
G1 F2400 X2.888 Y25.664 E145.96097
G0 F7500 X2.888 Y25.500
G0 X8.664 Y25.500
G0 X8.664 Y25.664
G1 F2400 X8.664 Y-25.464 E147.80178
G0 F7500 X8.664 Y-25.300
G0 X15.500 Y-14.439
G0 X15.664 Y-14.439
G1 F2400 X-15.563 Y-14.440 E148.92608
G0 F7500 X-15.400 Y-14.440
G0 X-15.400 Y-8.664
G0 X-15.563 Y-8.664
G1 F2400 X15.664 Y-8.663 E150.05038
G0 F7500 X15.500 Y-8.663
G0 X15.500 Y-2.887
G0 X15.664 Y-2.887
G1 F2400 X-15.563 Y-2.888 E151.17468
G0 F7500 X-15.400 Y-2.888
G0 X-15.400 Y2.887
G0 X-15.564 Y2.887
G1 F2400 X15.663 Y2.888 E152.29898
G0 F7500 X15.500 Y2.888
G0 X15.500 Y8.664
G0 X15.663 Y8.664
G1 F2400 X-15.564 Y8.663 E153.42328
G0 F7500 X-15.400 Y8.663
G0 X-15.400 Y14.439
G0 X-15.564 Y14.439
G1 F2400 X15.663 Y14.440 E154.54758
;LAYER:5
G1 F2400 E153.54758
G0 F7500 X0.284 Y0.284 Z1.300
;TYPE:WALL-OUTER
G1 F2400 E154.54758
G1 F2700 X0.216 Y0.284 E154.55003
G1 X0.216 Y0.216 E154.55248
G1 X0.284 Y0.216 E154.55493
G1 X0.284 Y0.284 E154.55738
G0 F7500 X1.200 Y1.200
;TYPE:SUPPORT
G1 F2400 X1.200 Y-0.700 E154.62578
G1 X-0.700 Y-0.700 E154.69419
G1 X-0.700 Y1.200 E154.76260
G1 X1.200 Y1.200 E154.83101
G0 F7500 X1.190 Y1.300
G0 X15.500 Y25.590
G0 X15.600 Y25.600
G1 F2400 X-15.500 Y25.600 E155.95073
G1 X-15.500 Y-25.400 E157.78694
G1 X15.600 Y-25.400 E158.90667
G1 X15.600 Y25.600 E160.74288
G0 F7500 X14.440 Y25.664
G1 F2400 X14.440 Y-25.464 E162.58370
G0 F7500 X14.440 Y-25.300
G0 X15.500 Y-20.215
G0 X15.664 Y-20.215
G1 F2400 X-15.563 Y-20.216 E163.70800
G0 F7500 X-15.400 Y-20.216
G0 X-14.440 Y-25.300
G0 X-14.440 Y-25.464
G1 F2400 X-14.440 Y25.664 E165.54881
G0 F7500 X-14.440 Y25.500
G0 X-15.400 Y20.215
G0 X-15.564 Y20.215
G1 F2400 X15.663 Y20.216 E166.67311
G0 F7500 X15.500 Y20.216
G0 X8.664 Y25.500
G0 X8.664 Y25.664
G1 F2400 X8.664 Y-25.464 E168.51393
G0 F7500 X8.664 Y-25.300
G0 X2.888 Y-25.300
G0 X2.888 Y-25.464
G1 F2400 X2.888 Y25.664 E170.35475
G0 F7500 X2.888 Y25.500
G0 X-2.888 Y25.500
G0 X-2.888 Y25.664
G1 F2400 X-2.888 Y-25.464 E172.19557
G0 F7500 X-2.888 Y-25.300
G0 X-8.664 Y-25.300
G0 X-8.664 Y-25.464
G1 F2400 X-8.664 Y25.664 E174.03638
G0 F7500 X-8.664 Y25.500
G0 X-15.400 Y14.439
G0 X-15.564 Y14.439
G1 F2400 X15.663 Y14.440 E175.16068
G0 F7500 X15.500 Y14.440
G0 X15.500 Y8.664
G0 X15.663 Y8.664
G1 F2400 X-15.564 Y8.663 E176.28498
G0 F7500 X-15.400 Y8.663
G0 X-15.400 Y2.887
G0 X-15.564 Y2.887
G1 F2400 X15.663 Y2.888 E177.40928
G0 F7500 X15.500 Y2.888
G0 X15.500 Y-2.887
G0 X15.664 Y-2.887
G1 F2400 X-15.563 Y-2.888 E178.53358
G0 F7500 X-15.400 Y-2.888
G0 X-15.400 Y-8.664
G0 X-15.563 Y-8.664
G1 F2400 X15.664 Y-8.663 E179.65788
G0 F7500 X15.500 Y-8.663
G0 X15.500 Y-14.439
G0 X15.664 Y-14.439
G1 F2400 X-15.563 Y-14.440 E180.78218
;LAYER:6
G1 F2400 E179.78218
G0 F7500 X0.216 Y0.216 Z1.500
;TYPE:WALL-OUTER
G1 F2400 E180.78218
G1 F2700 X0.284 Y0.216 E180.78463
G1 X0.284 Y0.284 E180.78708
G1 X0.216 Y0.284 E180.78953
G1 X0.216 Y0.216 E180.79198
G0 F7500 X-0.700 Y-0.700
;TYPE:SUPPORT
G1 F2400 X-0.700 Y1.200 E180.86038
G1 X1.200 Y1.200 E180.92879
G1 X1.200 Y-0.700 E180.99720
G1 X-0.700 Y-0.700 E181.06561
G0 F7500 X-0.690 Y-0.800
G0 X-15.500 Y-25.400
G1 F2400 X15.600 Y-25.400 E182.18534
G1 X15.600 Y25.600 E184.02154
G1 X-15.500 Y25.600 E185.14127
G1 X-15.500 Y-25.400 E186.97748
G0 F7500 X-14.440 Y-25.464
G1 F2400 X-14.440 Y25.664 E188.81830
G0 F7500 X-14.440 Y25.500
G0 X-15.400 Y20.215
G0 X-15.564 Y20.215
G1 F2400 X15.663 Y20.216 E189.94260
G0 F7500 X15.500 Y20.216
G0 X14.440 Y25.500
G0 X14.440 Y25.664
G1 F2400 X14.440 Y-25.464 E191.78342
G0 F7500 X14.440 Y-25.300
G0 X15.500 Y-20.215
G0 X15.664 Y-20.215
G1 F2400 X-15.563 Y-20.216 E192.90772
G0 F7500 X-15.400 Y-20.216
G0 X-8.664 Y-25.300
G0 X-8.664 Y-25.464
G1 F2400 X-8.664 Y25.664 E194.74853
G0 F7500 X-8.664 Y25.500
G0 X-2.888 Y25.500
G0 X-2.888 Y25.664
G1 F2400 X-2.888 Y-25.464 E196.58935
G0 F7500 X-2.888 Y-25.300
G0 X2.888 Y-25.300
G0 X2.888 Y-25.464
G1 F2400 X2.888 Y25.664 E198.43017
G0 F7500 X2.888 Y25.500
G0 X8.664 Y25.500
G0 X8.664 Y25.664
G1 F2400 X8.664 Y-25.464 E200.27098
G0 F7500 X8.664 Y-25.300
G0 X15.500 Y-14.439
G0 X15.664 Y-14.439
G1 F2400 X-15.563 Y-14.440 E201.39528
G0 F7500 X-15.400 Y-14.440
G0 X-15.400 Y-8.664
G0 X-15.563 Y-8.664
G1 F2400 X15.664 Y-8.663 E202.51958
G0 F7500 X15.500 Y-8.663
G0 X15.500 Y-2.887
G0 X15.664 Y-2.887
G1 F2400 X-15.563 Y-2.888 E203.64388
G0 F7500 X-15.400 Y-2.888
G0 X-15.400 Y2.887
G0 X-15.564 Y2.887
G1 F2400 X15.663 Y2.888 E204.76818
G0 F7500 X15.500 Y2.888
G0 X15.500 Y8.664
G0 X15.663 Y8.664
G1 F2400 X-15.564 Y8.663 E205.89248
G0 F7500 X-15.400 Y8.663
G0 X-15.400 Y14.439
G0 X-15.564 Y14.439
G1 F2400 X15.663 Y14.440 E207.01678
;LAYER:7
G1 F2400 E206.01678
G0 F7500 X0.284 Y0.284 Z1.700
;TYPE:WALL-OUTER
G1 F2400 E207.01678
G1 F2700 X0.216 Y0.284 E207.01923
G1 X0.216 Y0.216 E207.02168
G1 X0.284 Y0.216 E207.02413
G1 X0.284 Y0.284 E207.02658
G0 F7500 X1.200 Y1.200
;TYPE:SUPPORT
G1 F2400 X1.200 Y-0.700 E207.09499
G1 X-0.700 Y-0.700 E207.16339
G1 X-0.700 Y1.200 E207.23180
G1 X1.200 Y1.200 E207.30021
G0 F7500 X1.190 Y1.300
G0 X15.500 Y25.590
G0 X15.600 Y25.600
G1 F2400 X-15.500 Y25.600 E208.41994
G1 X-15.500 Y-25.400 E210.25614
G1 X15.600 Y-25.400 E211.37587
G1 X15.600 Y25.600 E213.21208
G0 F7500 X14.440 Y25.664
G1 F2400 X14.440 Y-25.464 E215.05290
G0 F7500 X14.440 Y-25.300
G0 X15.500 Y-20.215
G0 X15.664 Y-20.215
G1 F2400 X-15.563 Y-20.216 E216.17720
G0 F7500 X-15.400 Y-20.216
G0 X-14.440 Y-25.300
G0 X-14.440 Y-25.464
G1 F2400 X-14.440 Y25.664 E218.01802
G0 F7500 X-14.440 Y25.500
G0 X-15.400 Y20.215
G0 X-15.564 Y20.215
G1 F2400 X15.663 Y20.216 E219.14232
G0 F7500 X15.500 Y20.216
G0 X8.664 Y25.500
G0 X8.664 Y25.664
G1 F2400 X8.664 Y-25.464 E220.98313
G0 F7500 X8.664 Y-25.300
G0 X2.888 Y-25.300
G0 X2.888 Y-25.464
G1 F2400 X2.888 Y25.664 E222.82395
G0 F7500 X2.888 Y25.500
G0 X-2.888 Y25.500
G0 X-2.888 Y25.664
G1 F2400 X-2.888 Y-25.464 E224.66477
G0 F7500 X-2.888 Y-25.300
G0 X-8.664 Y-25.300
G0 X-8.664 Y-25.464
G1 F2400 X-8.664 Y25.664 E226.50559
G0 F7500 X-8.664 Y25.500
G0 X-15.400 Y14.439
G0 X-15.564 Y14.439
G1 F2400 X15.663 Y14.440 E227.62989
G0 F7500 X15.500 Y14.440
G0 X15.500 Y8.664
G0 X15.663 Y8.664
G1 F2400 X-15.564 Y8.663 E228.75419
G0 F7500 X-15.400 Y8.663
G0 X-15.400 Y2.887
G0 X-15.564 Y2.887
G1 F2400 X15.663 Y2.888 E229.87849
G0 F7500 X15.500 Y2.888
G0 X15.500 Y-2.887
G0 X15.664 Y-2.887
G1 F2400 X-15.563 Y-2.888 E231.00279
G0 F7500 X-15.400 Y-2.888
G0 X-15.400 Y-8.664
G0 X-15.563 Y-8.664
G1 F2400 X15.664 Y-8.663 E232.12709
G0 F7500 X15.500 Y-8.663
G0 X15.500 Y-14.439
G0 X15.664 Y-14.439
G1 F2400 X-15.563 Y-14.440 E233.25139
;LAYER:8
G1 F2400 E232.25139
G0 F7500 X0.216 Y0.216 Z1.900
;TYPE:WALL-OUTER
G1 F2400 E233.25139
G1 F2700 X0.284 Y0.216 E233.25383
G1 X0.284 Y0.284 E233.25628
G1 X0.216 Y0.284 E233.25873
G1 X0.216 Y0.216 E233.26118
G0 F7500 X-0.700 Y-0.700
;TYPE:SUPPORT
G1 F2400 X-0.700 Y1.200 E233.32959
G1 X1.200 Y1.200 E233.39799
G1 X1.200 Y-0.700 E233.46640
G1 X-0.700 Y-0.700 E233.53481
G0 F7500 X-0.690 Y-0.800
G0 X-15.500 Y-25.400
