;Generated with Cura_SteamEngine 15.04.6

;Layer count: 16
;LAYER:0
M107
G0 F7500 X-18.716 Y-33.616 Z0.300
;TYPE:SKIRT
G1 F1800 X18.816 Y-33.616 E2.02696
G1 X18.816 Y33.816 E5.66870
G1 X-18.716 Y33.816 E7.69566
G1 X-18.716 Y-33.616 E11.33740
G1 F2400 E10.33740
G0 F7500 X0.216 Y0.216
;TYPE:WALL-OUTER
G1 F2400 E11.33740
G1 F1800 X0.284 Y0.216 E11.34107
G1 X0.284 Y0.284 E11.34475
G1 X0.216 Y0.284 E11.34842
G1 X0.216 Y0.216 E11.35209
G0 F7500 X-0.700 Y-0.700
;TYPE:SUPPORT
G1 F1800 X-0.700 Y1.200 E11.45470
G1 X1.200 Y1.200 E11.55731
G1 X1.200 Y-0.700 E11.65993
G1 X-0.700 Y-0.700 E11.76254
G0 F7500 X-0.690 Y-0.800
G0 X-15.500 Y-30.400
G1 F1800 X15.600 Y-30.400 E13.44213
G1 X15.600 Y30.600 E16.73650
G1 X-15.500 Y30.600 E18.41610
G1 X-15.500 Y-30.400 E21.71047
G0 F7500 X-14.440 Y-30.464
G1 F1800 X-14.440 Y30.664 E25.01176
G0 F7500 X-14.440 Y30.500
G0 X-15.400 Y25.991
G0 X-15.564 Y25.991
G1 F1800 X15.663 Y25.992 E26.69821
G0 F7500 X15.500 Y25.992
G0 X14.440 Y30.500
G0 X14.440 Y30.664
G1 F1800 X14.440 Y-30.464 E29.99950
G0 F7500 X14.440 Y-30.300
G0 X15.500 Y-25.991
G0 X15.664 Y-25.991
G1 F1800 X-15.563 Y-25.992 E31.68594
G0 F7500 X-15.400 Y-25.992
G0 X-15.400 Y-20.216
G0 X-15.563 Y-20.216
G1 F1800 X15.664 Y-20.215 E33.37239
G0 F7500 X15.500 Y-20.215
G0 X8.664 Y-30.300
G0 X8.664 Y-30.464
G1 F1800 X8.664 Y30.664 E36.67368
G0 F7500 X8.664 Y30.500
G0 X2.888 Y30.500
G0 X2.888 Y30.664
G1 F1800 X2.888 Y-30.464 E39.97497
G0 F7500 X2.888 Y-30.300
G0 X-2.888 Y-30.300
G0 X-2.888 Y-30.464
G1 F1800 X-2.888 Y30.664 E43.27626
G0 F7500 X-2.888 Y30.500
G0 X-8.664 Y30.500
G0 X-8.664 Y30.664
G1 F1800 X-8.664 Y-30.464 E46.57755
G0 F7500 X-8.664 Y-30.300
G0 X-15.400 Y-14.440
G0 X-15.563 Y-14.440
G1 F1800 X15.664 Y-14.439 E48.26400
G0 F7500 X15.500 Y-14.439
G0 X15.500 Y-8.663
G0 X15.664 Y-8.663
G1 F1800 X-15.563 Y-8.664 E49.95044
G0 F7500 X-15.400 Y-8.664
G0 X-15.400 Y-2.888
G0 X-15.563 Y-2.888
G1 F1800 X15.664 Y-2.887 E51.63689
G0 F7500 X15.500 Y-2.887
G0 X15.500 Y2.888
G0 X15.663 Y2.888
G1 F1800 X-15.564 Y2.887 E53.32334
G0 F7500 X-15.400 Y2.887
G0 X-15.400 Y8.663
G0 X-15.564 Y8.663
G1 F1800 X15.663 Y8.664 E55.00979
G0 F7500 X15.500 Y8.664
G0 X15.500 Y14.440
G0 X15.663 Y14.440
G1 F1800 X-15.564 Y14.439 E56.69624
G0 F7500 X-15.400 Y14.439
G0 X-15.400 Y20.215
G0 X-15.564 Y20.215
G1 F1800 X15.663 Y20.216 E58.38269
;LAYER:1
M106 S63
G1 F2400 E57.38269
G0 F7500 X0.284 Y0.284 Z0.500
;TYPE:WALL-OUTER
G1 F2400 E58.38269
G1 F1980 X0.216 Y0.284 E58.38514
G1 X0.216 Y0.216 E58.38759
G1 X0.284 Y0.216 E58.39004
G1 X0.284 Y0.284 E58.39249
G0 F7500 X1.200 Y1.200
;TYPE:SUPPORT
G1 F1920 X1.200 Y-0.700 E58.46090
G1 X-0.700 Y-0.700 E58.52930
G1 X-0.700 Y1.200 E58.59771
G1 X1.200 Y1.200 E58.66612
G0 F7500 X1.190 Y1.300
G0 X15.500 Y30.590
G0 X15.600 Y30.600
G1 F1920 X-15.500 Y30.600 E59.78585
G1 X-15.500 Y-30.400 E61.98210
G1 X15.600 Y-30.400 E63.10182
G1 X15.600 Y30.600 E65.29807
G0 F7500 X14.440 Y30.664
G1 F1920 X14.440 Y-30.464 E67.49893
G0 F7500 X14.440 Y-30.300
G0 X15.500 Y-25.991
G0 X15.664 Y-25.991
G1 F1920 X-15.563 Y-25.992 E68.62323
G0 F7500 X-15.400 Y-25.992
G0 X-14.440 Y-30.300
G0 X-14.440 Y-30.464
G1 F1920 X-14.440 Y30.664 E70.82409
G0 F7500 X-14.440 Y30.500
G0 X-15.400 Y25.991
G0 X-15.564 Y25.991
G1 F1920 X15.663 Y25.992 E71.94839
G0 F7500 X15.500 Y25.992
G0 X15.500 Y20.216
G0 X15.663 Y20.216
G1 F1920 X-15.564 Y20.215 E73.07269
G0 F7500 X-15.400 Y20.215
G0 X-8.664 Y30.500
G0 X-8.664 Y30.664
G1 F1920 X-8.664 Y-30.464 E75.27355
G0 F7500 X-8.664 Y-30.300
G0 X-2.888 Y-30.300
G0 X-2.888 Y-30.464
G1 F1920 X-2.888 Y30.664 E77.47441
G0 F7500 X-2.888 Y30.500
G0 X2.888 Y30.500
G0 X2.888 Y30.664
G1 F1920 X2.888 Y-30.464 E79.67526
G0 F7500 X2.888 Y-30.300
G0 X8.664 Y-30.300
G0 X8.664 Y-30.464
G1 F1920 X8.664 Y30.664 E81.87612
G0 F7500 X8.664 Y30.500
G0 X15.500 Y14.440
G0 X15.663 Y14.440
G1 F1920 X-15.564 Y14.439 E83.00042
G0 F7500 X-15.400 Y14.439
G0 X-15.400 Y8.663
G0 X-15.564 Y8.663
G1 F1920 X15.663 Y8.664 E84.12472
G0 F7500 X15.500 Y8.664
G0 X15.500 Y2.888
G0 X15.663 Y2.888
G1 F1920 X-15.564 Y2.887 E85.24902
G0 F7500 X-15.400 Y2.887
G0 X-15.400 Y-2.888
G0 X-15.563 Y-2.888
G1 F1920 X15.664 Y-2.887 E86.37332
G0 F7500 X15.500 Y-2.887
G0 X15.500 Y-8.663
G0 X15.664 Y-8.663
G1 F1920 X-15.563 Y-8.664 E87.49762
G0 F7500 X-15.400 Y-8.664
G0 X-15.400 Y-14.440
G0 X-15.563 Y-14.440
G1 F1920 X15.664 Y-14.439 E88.62192
G0 F7500 X15.500 Y-14.439
G0 X15.500 Y-20.215
G0 X15.664 Y-20.215
G1 F1920 X-15.563 Y-20.216 E89.74622
;LAYER:2
M106 S127
G1 F2400 E88.74622
G0 F7500 X0.216 Y0.216 Z0.700
;TYPE:WALL-OUTER
G1 F2400 E89.74622
G1 F2220 X0.284 Y0.216 E89.74867
G1 X0.284 Y0.284 E89.75112
G1 X0.216 Y0.284 E89.75357
G1 X0.216 Y0.216 E89.75602
G0 F7500 X-0.700 Y-0.700
;TYPE:SUPPORT
G1 F2100 X-0.700 Y1.200 E89.82442
G1 X1.200 Y1.200 E89.89283
G1 X1.200 Y-0.700 E89.96124
G1 X-0.700 Y-0.700 E90.02965
G0 F7500 X-0.690 Y-0.800
G0 X-15.500 Y-30.400
G1 F2100 X15.600 Y-30.400 E91.14937
G1 X15.600 Y30.600 E93.34562
G1 X-15.500 Y30.600 E94.46535
G1 X-15.500 Y-30.400 E96.66160
G0 F7500 X-14.440 Y-30.464
G1 F2100 X-14.440 Y30.664 E98.86246
G0 F7500 X-14.440 Y30.500
G0 X-15.400 Y25.991
G0 X-15.564 Y25.991
G1 F2100 X15.663 Y25.992 E99.98676
G0 F7500 X15.500 Y25.992
G0 X14.440 Y30.500
G0 X14.440 Y30.664
G1 F2100 X14.440 Y-30.464 E102.18762
G0 F7500 X14.440 Y-30.300
G0 X15.500 Y-25.991
G0 X15.664 Y-25.991
G1 F2100 X-15.563 Y-25.992 E103.31192
G0 F7500 X-15.400 Y-25.992
G0 X-15.400 Y-20.216
G0 X-15.563 Y-20.216
G1 F2100 X15.664 Y-20.215 E104.43622
G0 F7500 X15.500 Y-20.215
G0 X8.664 Y-30.300
G0 X8.664 Y-30.464
G1 F2100 X8.664 Y30.664 E106.63708
G0 F7500 X8.664 Y30.500
G0 X2.888 Y30.500
G0 X2.888 Y30.664
G1 F2100 X2.888 Y-30.464 E108.83793
G0 F7500 X2.888 Y-30.300
G0 X-2.888 Y-30.300
G0 X-2.888 Y-30.464
G1 F2100 X-2.888 Y30.664 E111.03879
G0 F7500 X-2.888 Y30.500
G0 X-8.664 Y30.500
G0 X-8.664 Y30.664
G1 F2100 X-8.664 Y-30.464 E113.23965
G0 F7500 X-8.664 Y-30.300
G0 X-15.400 Y-14.440
G0 X-15.563 Y-14.440
G1 F2100 X15.664 Y-14.439 E114.36395
G0 F7500 X15.500 Y-14.439
G0 X15.500 Y-8.663
G0 X15.664 Y-8.663
G1 F2100 X-15.563 Y-8.664 E115.48825
G0 F7500 X-15.400 Y-8.664
G0 X-15.400 Y-2.888
G0 X-15.563 Y-2.888
G1 F2100 X15.664 Y-2.887 E116.61255
G0 F7500 X15.500 Y-2.887
G0 X15.500 Y2.888
G0 X15.663 Y2.888
G1 F2100 X-15.564 Y2.887 E117.73685
G0 F7500 X-15.400 Y2.887
G0 X-15.400 Y8.663
G0 X-15.564 Y8.663
G1 F2100 X15.663 Y8.664 E118.86115
G0 F7500 X15.500 Y8.664
G0 X15.500 Y14.440
G0 X15.663 Y14.440
G1 F2100 X-15.564 Y14.439 E119.98545
G0 F7500 X-15.400 Y14.439
G0 X-15.400 Y20.215
G0 X-15.564 Y20.215
G1 F2100 X15.663 Y20.216 E121.10975
;LAYER:3
G1 F2400 E120.10975
G0 F7500 X0.284 Y0.284 Z0.900
;TYPE:WALL-OUTER
G1 F2400 E121.10975
G1 X0.216 Y0.284 E121.11220
G1 X0.216 Y0.216 E121.11465
G1 X0.284 Y0.216 E121.11710
G1 X0.284 Y0.284 E121.11954
G0 F7500 X1.200 Y1.200
;TYPE:SUPPORT
G1 F2220 X1.200 Y-0.700 E121.18795
G1 X-0.700 Y-0.700 E121.25636
G1 X-0.700 Y1.200 E121.32477
G1 X1.200 Y1.200 E121.39317
G0 F7500 X1.190 Y1.300
G0 X15.500 Y30.590
G0 X15.600 Y30.600
G1 F2220 X-15.500 Y30.600 E122.51290
G1 X-15.500 Y-30.400 E124.70915
G1 X15.600 Y-30.400 E125.82888
G1 X15.600 Y30.600 E128.02513
G0 F7500 X14.440 Y30.664
G1 F2220 X14.440 Y-30.464 E130.22599
G0 F7500 X14.440 Y-30.300
G0 X15.500 Y-25.991
G0 X15.664 Y-25.991
G1 F2220 X-15.563 Y-25.992 E131.35029
G0 F7500 X-15.400 Y-25.992
G0 X-14.440 Y-30.300
G0 X-14.440 Y-30.464
G1 F2220 X-14.440 Y30.664 E133.55115
G0 F7500 X-14.440 Y30.500
G0 X-15.400 Y25.991
G0 X-15.564 Y25.991
G1 F2220 X15.663 Y25.992 E134.67545
G0 F7500 X15.500 Y25.992
G0 X15.500 Y20.216
G0 X15.663 Y20.216
G1 F2220 X-15.564 Y20.215 E135.79975
G0 F7500 X-15.400 Y20.215
G0 X-8.664 Y30.500
G0 X-8.664 Y30.664
G1 F2220 X-8.664 Y-30.464 E138.00060
G0 F7500 X-8.664 Y-30.300
G0 X-2.888 Y-30.300
G0 X-2.888 Y-30.464
G1 F2220 X-2.888 Y30.664 E140.20146
G0 F7500 X-2.888 Y30.500
G0 X2.888 Y30.500
G0 X2.888 Y30.664
G1 F2220 X2.888 Y-30.464 E142.40232
G0 F7500 X2.888 Y-30.300
G0 X8.664 Y-30.300
G0 X8.664 Y-30.464
G1 F2220 X8.664 Y30.664 E144.60318
G0 F7500 X8.664 Y30.500
G0 X15.500 Y14.440
G0 X15.663 Y14.440
G1 F2220 X-15.564 Y14.439 E145.72748
G0 F7500 X-15.400 Y14.439
G0 X-15.400 Y8.663
G0 X-15.564 Y8.663
G1 F2220 X15.663 Y8.664 E146.85178
G0 F7500 X15.500 Y8.664
G0 X15.500 Y2.888
G0 X15.663 Y2.888
G1 F2220 X-15.564 Y2.887 E147.97608
G0 F7500 X-15.400 Y2.887
G0 X-15.400 Y-2.888
G0 X-15.563 Y-2.888
G1 F2220 X15.664 Y-2.887 E149.10038
G0 F7500 X15.500 Y-2.887
G0 X15.500 Y-8.663
G0 X15.664 Y-8.663
G1 F2220 X-15.563 Y-8.664 E150.22468
G0 F7500 X-15.400 Y-8.664
G0 X-15.400 Y-14.440
G0 X-15.563 Y-14.440
G1 F2220 X15.664 Y-14.439 E151.34898
G0 F7500 X15.500 Y-14.439
G0 X15.500 Y-20.215
G0 X15.664 Y-20.215
G1 F2220 X-15.563 Y-20.216 E152.47328
;LAYER:4
G1 F2400 E151.47328
G0 F7500 X0.216 Y0.216 Z1.100
;TYPE:WALL-OUTER
G1 F2400 E152.47328
G1 F2700 X0.284 Y0.216 E152.47573
G1 X0.284 Y0.284 E152.47818
G1 X0.216 Y0.284 E152.48062
G1 X0.216 Y0.216 E152.48307
G0 F7500 X-0.700 Y-0.700
;TYPE:SUPPORT
G1 F2400 X-0.700 Y1.200 E152.55148
G1 X1.200 Y1.200 E152.61989
G1 X1.200 Y-0.700 E152.68830
G1 X-0.700 Y-0.700 E152.75670
G0 F7500 X-0.690 Y-0.800
G0 X-15.500 Y-30.400
G1 F2400 X15.600 Y-30.400 E153.87643
G1 X15.600 Y30.600 E156.07268
G1 X-15.500 Y30.600 E157.19241
G1 X-15.500 Y-30.400 E159.38866
G0 F7500 X-14.440 Y-30.464
G1 F2400 X-14.440 Y30.664 E161.58952
G0 F7500 X-14.440 Y30.500
G0 X-15.400 Y25.991
G0 X-15.564 Y25.991
G1 F2400 X15.663 Y25.992 E162.71382
G0 F7500 X15.500 Y25.992
G0 X14.440 Y30.500
G0 X14.440 Y30.664
G1 F2400 X14.440 Y-30.464 E164.91467
G0 F7500 X14.440 Y-30.300
G0 X15.500 Y-25.991
G0 X15.664 Y-25.991
G1 F2400 X-15.563 Y-25.992 E166.03897
G0 F7500 X-15.400 Y-25.992
G0 X-15.400 Y-20.216
G0 X-15.563 Y-20.216
G1 F2400 X15.664 Y-20.215 E167.16327
G0 F7500 X15.500 Y-20.215
G0 X8.664 Y-30.300
G0 X8.664 Y-30.464
G1 F2400 X8.664 Y30.664 E169.36413
G0 F7500 X8.664 Y30.500
G0 X2.888 Y30.500
G0 X2.888 Y30.664
G1 F2400 X2.888 Y-30.464 E171.56499
G0 F7500 X2.888 Y-30.300
G0 X-2.888 Y-30.300
G0 X-2.888 Y-30.464
G1 F2400 X-2.888 Y30.664 E173.76585
G0 F7500 X-2.888 Y30.500
G0 X-8.664 Y30.500
G0 X-8.664 Y30.664
G1 F2400 X-8.664 Y-30.464 E175.96671
G0 F7500 X-8.664 Y-30.300
G0 X-15.400 Y-14.440
G0 X-15.563 Y-14.440
G1 F2400 X15.664 Y-14.439 E177.09101
G0 F7500 X15.500 Y-14.439
G0 X15.500 Y-8.663
G0 X15.664 Y-8.663
G1 F2400 X-15.563 Y-8.664 E178.21531
G0 F7500 X-15.400 Y-8.664
G0 X-15.400 Y-2.888
G0 X-15.563 Y-2.888
G1 F2400 X15.664 Y-2.887 E179.33961
G0 F7500 X15.500 Y-2.887
G0 X15.500 Y2.888
G0 X15.663 Y2.888
G1 F2400 X-15.564 Y2.887 E180.46391
G0 F7500 X-15.400 Y2.887
G0 X-15.400 Y8.663
G0 X-15.564 Y8.663
G1 F2400 X15.663 Y8.664 E181.58821
G0 F7500 X15.500 Y8.664
G0 X15.500 Y14.440
G0 X15.663 Y14.440
G1 F2400 X-15.564 Y14.439 E182.71251
G0 F7500 X-15.400 Y14.439
G0 X-15.400 Y20.215
G0 X-15.564 Y20.215
G1 F2400 X15.663 Y20.216 E183.83681
;LAYER:5
G1 F2400 E182.83681
G0 F7500 X0.284 Y0.284 Z1.300
;TYPE:WALL-OUTER
G1 F2400 E183.83681
G1 F2700 X0.216 Y0.284 E183.83926
G1 X0.216 Y0.216 E183.84170
G1 X0.284 Y0.216 E183.84415
G1 X0.284 Y0.284 E183.84660
G0 F7500 X1.200 Y1.200
;TYPE:SUPPORT
G1 F2400 X1.200 Y-0.700 E183.91501
G1 X-0.700 Y-0.700 E183.98342
G1 X-0.700 Y1.200 E184.05182
G1 X1.200 Y1.200 E184.12023
G0 F7500 X1.190 Y1.300
G0 X15.500 Y30.590
G0 X15.600 Y30.600
G1 F2400 X-15.500 Y30.600 E185.23996
G1 X-15.500 Y-30.400 E187.43621
G1 X15.600 Y-30.400 E188.55594
G1 X15.600 Y30.600 E190.75219
G0 F7500 X14.440 Y30.664
G1 F2400 X14.440 Y-30.464 E192.95304
G0 F7500 X14.440 Y-30.300
G0 X15.500 Y-25.991
G0 X15.664 Y-25.991
G1 F2400 X-15.563 Y-25.992 E194.07734
G0 F7500 X-15.400 Y-25.992
G0 X-14.440 Y-30.300
G0 X-14.440 Y-30.464
G1 F2400 X-14.440 Y30.664 E196.27820
G0 F7500 X-14.440 Y30.500
G0 X-15.400 Y25.991
G0 X-15.564 Y25.991
G1 F2400 X15.663 Y25.992 E197.40250
G0 F7500 X15.500 Y25.992
G0 X15.500 Y20.216
G0 X15.663 Y20.216
G1 F2400 X-15.564 Y20.215 E198.52680
G0 F7500 X-15.400 Y20.215
G0 X-8.664 Y30.500
G0 X-8.664 Y30.664
G1 F2400 X-8.664 Y-30.464 E200.72766
G0 F7500 X-8.664 Y-30.300
G0 X-2.888 Y-30.300
G0 X-2.888 Y-30.464
G1 F2400 X-2.888 Y30.664 E202.92852
G0 F7500 X-2.888 Y30.500
G0 X2.888 Y30.500
G0 X2.888 Y30.664
G1 F2400 X2.888 Y-30.464 E205.12938
G0 F7500 X2.888 Y-30.300
G0 X8.664 Y-30.300
G0 X8.664 Y-30.464
G1 F2400 X8.664 Y30.664 E207.33024
G0 F7500 X8.664 Y30.500
G0 X15.500 Y14.440
G0 X15.663 Y14.440
G1 F2400 X-15.564 Y14.439 E208.45454
G0 F7500 X-15.400 Y14.439
G0 X-15.400 Y8.663
G0 X-15.564 Y8.663
G1 F2400 X15.663 Y8.664 E209.57884
G0 F7500 X15.500 Y8.664
G0 X15.500 Y2.888
G0 X15.663 Y2.888
G1 F2400 X-15.564 Y2.887 E210.70314
G0 F7500 X-15.400 Y2.887
G0 X-15.400 Y-2.888
G0 X-15.563 Y-2.888
G1 F2400 X15.664 Y-2.887 E211.82744
G0 F7500 X15.500 Y-2.887
G0 X15.500 Y-8.663
G0 X15.664 Y-8.663
G1 F2400 X-15.563 Y-8.664 E212.95174
G0 F7500 X-15.400 Y-8.664
G0 X-15.400 Y-14.440
G0 X-15.563 Y-14.440
G1 F2400 X15.664 Y-14.439 E214.07604
G0 F7500 X15.500 Y-14.439
G0 X15.500 Y-20.215
G0 X15.664 Y-20.215
G1 F2400 X-15.563 Y-20.216 E215.20034
;LAYER:6
G1 F2400 E214.20034
G0 F7500 X0.216 Y0.216 Z1.500
;TYPE:WALL-OUTER
G1 F2400 E215.20034
G1 F2700 X0.284 Y0.216 E215.20278
G1 X0.284 Y0.284 E215.20523
G1 X0.216 Y0.284 E215.20768
G1 X0.216 Y0.216 E215.21013
G0 F7500 X-0.700 Y-0.700
;TYPE:SUPPORT
G1 F2400 X-0.700 Y1.200 E215.27854
G1 X1.200 Y1.200 E215.34694
G1 X1.200 Y-0.700 E215.41535
G1 X-0.700 Y-0.700 E215.48376
G0 F7500 X-0.690 Y-0.800
G0 X-15.500 Y-30.400
G1 F2400 X15.600 Y-30.400 E216.60349
G1 X15.600 Y30.600 E218.79974
G1 X-15.500 Y30.600 E219.91946
G1 X-15.500 Y-30.400 E222.11571
G0 F7500 X-14.440 Y-30.464
G1 F2400 X-14.440 Y30.664 E224.31657
G0 F7500 X-14.440 Y30.500
G0 X-15.400 Y25.991
G0 X-15.564 Y25.991
G1 F2400 X15.663 Y25.992 E225.44087
G0 F7500 X15.500 Y25.992
G0 X14.440 Y30.500
G0 X14.440 Y30.664
G1 F2400 X14.440 Y-30.464 E227.64173
G0 F7500 X14.440 Y-30.300
G0 X15.500 Y-25.991
G0 X15.664 Y-25.991
G1 F2400 X-15.563 Y-25.992 E228.76603
G0 F7500 X-15.400 Y-25.992
G0 X-15.400 Y-20.216
G0 X-15.563 Y-20.216
G1 F2400 X15.664 Y-20.215 E229.89033
G0 F7500 X15.500 Y-20.215
G0 X8.664 Y-30.300
G0 X8.664 Y-30.464
G1 F2400 X8.664 Y30.664 E232.09119
G0 F7500 X8.664 Y30.500
G0 X2.888 Y30.500
G0 X2.888 Y30.664
G1 F2400 X2.888 Y-30.464 E234.29205
G0 F7500 X2.888 Y-30.300
G0 X-2.888 Y-30.300
G0 X-2.888 Y-30.464
G1 F2400 X-2.888 Y30.664 E236.49291
G0 F7500 X-2.888 Y30.500
G0 X-8.664 Y30.500
G0 X-8.664 Y30.664
G1 F2400 X-8.664 Y-30.464 E238.69376
G0 F7500 X-8.664 Y-30.300
G0 X-15.400 Y-14.440
G0 X-15.563 Y-14.440
G1 F2400 X15.664 Y-14.439 E239.81806
G0 F7500 X15.500 Y-14.439
G0 X15.500 Y-8.663
G0 X15.664 Y-8.663
G1 F2400 X-15.563 Y-8.664 E240.94236
G0 F7500 X-15.400 Y-8.664
G0 X-15.400 Y-2.888
G0 X-15.563 Y-2.888
G1 F2400 X15.664 Y-2.887 E242.06666
G0 F7500 X15.500 Y-2.887
G0 X15.500 Y2.888
G0 X15.663 Y2.888
G1 F2400 X-15.564 Y2.887 E243.19096
G0 F7500 X-15.400 Y2.887
G0 X-15.400 Y8.663
G0 X-15.564 Y8.663
G1 F2400 X15.663 Y8.664 E244.31526
G0 F7500 X15.500 Y8.664
G0 X15.500 Y14.440
G0 X15.663 Y14.440
G1 F2400 X-15.564 Y14.439 E245.43956
G0 F7500 X-15.400 Y14.439
G0 X-15.400 Y20.215
G0 X-15.564 Y20.215
G1 F2400 X15.663 Y20.216 E246.56386
;LAYER:7
G1 F2400 E245.56386
G0 F7500 X0.284 Y0.284 Z1.700
;TYPE:WALL-OUTER
G1 F2400 E246.56386
G1 F2700 X0.216 Y0.284 E246.56631
G1 X0.216 Y0.216 E246.56876
G1 X0.284 Y0.216 E246.57121
G1 X0.284 Y0.284 E246.57366
G0 F7500 X1.200 Y1.200
;TYPE:SUPPORT
G1 F2400 X1.200 Y-0.700 E246.64206
G1 X-0.700 Y-0.700 E246.71047
G1 X-0.700 Y1.200 E246.77888
G1 X1.200 Y1.200 E246.84729
G0 F7500 X1.190 Y1.300
G0 X15.500 Y30.590
G0 X15.600 Y30.600
G1 F2400 X-15.500 Y30.600 E247.96702
G1 X-15.500 Y-30.400 E250.16327
G1 X15.600 Y-30.400 E251.28299
G1 X15.600 Y30.600 E253.47924
G0 F7500 X14.440 Y30.664
G1 F2400 X14.440 Y-30.464 E255.68010
G0 F7500 X14.440 Y-30.300
G0 X15.500 Y-25.991
G0 X15.664 Y-25.991
G1 F2400 X-15.563 Y-25.992 E256.80440
G0 F7500 X-15.400 Y-25.992
G0 X-14.440 Y-30.300
G0 X-14.440 Y-30.464
G1 F2400 X-14.440 Y30.664 E259.00526
G0 F7500 X-14.440 Y30.500
G0 X-15.400 Y25.991
G0 X-15.564 Y25.991
