;Generated with Cura_SteamEngine 15.04.6

;Layer count: 16
;LAYER:0
M107
G0 F7500 X-18.716 Y-38.616 Z0.300
;TYPE:SKIRT
G1 F1800 X18.816 Y-38.616 E2.02696
G1 X18.816 Y38.816 E6.20876
G1 X-18.716 Y38.816 E8.23572
G1 X-18.716 Y-38.616 E12.41752
G1 F2400 E11.41752
G0 F7500 X0.216 Y0.216
;TYPE:WALL-OUTER
G1 F2400 E12.41752
G1 F1800 X0.284 Y0.216 E12.42120
G1 X0.284 Y0.284 E12.42487
G1 X0.216 Y0.284 E12.42854
G1 X0.216 Y0.216 E12.43221
G0 F7500 X-0.700 Y-0.700
;TYPE:SUPPORT
G1 F1800 X-0.700 Y1.200 E12.53483
G1 X1.200 Y1.200 E12.63744
G1 X1.200 Y-0.700 E12.74005
G1 X-0.700 Y-0.700 E12.84266
G0 F7500 X-0.690 Y-0.800
G0 X-15.500 Y-35.400
G1 F1800 X15.600 Y-35.400 E14.52225
G1 X15.600 Y35.600 E18.35669
G1 X-15.500 Y35.600 E20.03628
G1 X-15.500 Y-35.400 E23.87072
G0 F7500 X-14.440 Y-35.464
G1 F1800 X-14.440 Y35.664 E27.71206
G0 F7500 X-14.440 Y35.500
G0 X-15.400 Y31.767
G0 X-15.564 Y31.767
G1 F1800 X15.663 Y31.768 E29.39851
G0 F7500 X15.500 Y31.768
G0 X14.440 Y35.500
G0 X14.440 Y35.664
G1 F1800 X14.440 Y-35.464 E33.23986
G0 F7500 X14.440 Y-35.300
G0 X15.500 Y-31.767
G0 X15.664 Y-31.767
G1 F1800 X-15.563 Y-31.768 E34.92631
G0 F7500 X-15.400 Y-31.768
G0 X-15.400 Y-25.992
G0 X-15.563 Y-25.992
G1 F1800 X15.664 Y-25.991 E36.61276
G0 F7500 X15.500 Y-25.991
G0 X15.500 Y-20.215
G0 X15.664 Y-20.215
G1 F1800 X-15.563 Y-20.216 E38.29921
G0 F7500 X-15.400 Y-20.216
G0 X-8.664 Y-35.300
G0 X-8.664 Y-35.464
G1 F1800 X-8.664 Y35.664 E42.14056
G0 F7500 X-8.664 Y35.500
G0 X-2.888 Y35.500
G0 X-2.888 Y35.664
G1 F1800 X-2.888 Y-35.464 E45.98191
G0 F7500 X-2.888 Y-35.300
G0 X2.888 Y-35.300
G0 X2.888 Y-35.464
G1 F1800 X2.888 Y35.664 E49.82326
G0 F7500 X2.888 Y35.500
G0 X8.664 Y35.500
G0 X8.664 Y35.664
G1 F1800 X8.664 Y-35.464 E53.66461
G0 F7500 X8.664 Y-35.300
G0 X15.500 Y-14.439
G0 X15.664 Y-14.439
G1 F1800 X-15.563 Y-14.440 E55.35106
G0 F7500 X-15.400 Y-14.440
G0 X-15.400 Y-8.664
G0 X-15.563 Y-8.664
G1 F1800 X15.664 Y-8.663 E57.03751
G0 F7500 X15.500 Y-8.663
G0 X15.500 Y-2.887
G0 X15.664 Y-2.887
G1 F1800 X-15.563 Y-2.888 E58.72396
G0 F7500 X-15.400 Y-2.888
G0 X-15.400 Y2.887
G0 X-15.564 Y2.887
G1 F1800 X15.663 Y2.888 E60.41041
G0 F7500 X15.500 Y2.888
G0 X15.500 Y8.664
G0 X15.663 Y8.664
G1 F1800 X-15.564 Y8.663 E62.09686
G0 F7500 X-15.400 Y8.663
G0 X-15.400 Y14.439
G0 X-15.564 Y14.439
G1 F1800 X15.663 Y14.440 E63.78331
G0 F7500 X15.500 Y14.440
G0 X15.500 Y20.216
G0 X15.663 Y20.216
G1 F1800 X-15.564 Y20.215 E65.46976
G0 F7500 X-15.400 Y20.215
G0 X-15.400 Y25.991
G0 X-15.564 Y25.991
G1 F1800 X15.663 Y25.992 E67.15621
;LAYER:1
M106 S63
G1 F2400 E66.15621
G0 F7500 X0.284 Y0.284 Z0.500
;TYPE:WALL-OUTER
G1 F2400 E67.15621
G1 F1980 X0.216 Y0.284 E67.15866
G1 X0.216 Y0.216 E67.16110
G1 X0.284 Y0.216 E67.16355
G1 X0.284 Y0.284 E67.16600
G0 F7500 X1.200 Y1.200
;TYPE:SUPPORT
G1 F1920 X1.200 Y-0.700 E67.23441
G1 X-0.700 Y-0.700 E67.30282
G1 X-0.700 Y1.200 E67.37122
G1 X1.200 Y1.200 E67.43963
G0 F7500 X1.190 Y1.300
G0 X15.500 Y35.590
G0 X15.600 Y35.600
G1 F1920 X-15.500 Y35.600 E68.55936
G1 X-15.500 Y-35.400 E71.11565
G1 X15.600 Y-35.400 E72.23538
G1 X15.600 Y35.600 E74.79167
G0 F7500 X14.440 Y35.664
G1 F1920 X14.440 Y-35.464 E77.35257
G0 F7500 X14.440 Y-35.300
G0 X15.500 Y-31.767
G0 X15.664 Y-31.767
G1 F1920 X-15.563 Y-31.768 E78.47687
G0 F7500 X-15.400 Y-31.768
G0 X-14.440 Y-35.300
G0 X-14.440 Y-35.464
G1 F1920 X-14.440 Y35.664 E81.03777
G0 F7500 X-14.440 Y35.500
G0 X-15.400 Y31.767
G0 X-15.564 Y31.767
G1 F1920 X15.663 Y31.768 E82.16207
G0 F7500 X15.500 Y31.768
G0 X15.500 Y25.992
G0 X15.663 Y25.992
G1 F1920 X-15.564 Y25.991 E83.28637
G0 F7500 X-15.400 Y25.991
G0 X-15.400 Y20.215
G0 X-15.564 Y20.215
G1 F1920 X15.663 Y20.216 E84.41067
G0 F7500 X15.500 Y20.216
G0 X8.664 Y35.500
G0 X8.664 Y35.664
G1 F1920 X8.664 Y-35.464 E86.97157
G0 F7500 X8.664 Y-35.300
G0 X2.888 Y-35.300
G0 X2.888 Y-35.464
G1 F1920 X2.888 Y35.664 E89.53247
G0 F7500 X2.888 Y35.500
G0 X-2.888 Y35.500
G0 X-2.888 Y35.664
G1 F1920 X-2.888 Y-35.464 E92.09337
G0 F7500 X-2.888 Y-35.300
G0 X-8.664 Y-35.300
G0 X-8.664 Y-35.464
G1 F1920 X-8.664 Y35.664 E94.65426
G0 F7500 X-8.664 Y35.500
G0 X-15.400 Y14.439
G0 X-15.564 Y14.439
G1 F1920 X15.663 Y14.440 E95.77856
G0 F7500 X15.500 Y14.440
G0 X15.500 Y8.664
G0 X15.663 Y8.664
G1 F1920 X-15.564 Y8.663 E96.90286
G0 F7500 X-15.400 Y8.663
G0 X-15.400 Y2.887
G0 X-15.564 Y2.887
G1 F1920 X15.663 Y2.888 E98.02716
G0 F7500 X15.500 Y2.888
G0 X15.500 Y-2.887
G0 X15.664 Y-2.887
G1 F1920 X-15.563 Y-2.888 E99.15146
G0 F7500 X-15.400 Y-2.888
G0 X-15.400 Y-8.664
G0 X-15.563 Y-8.664
G1 F1920 X15.664 Y-8.663 E100.27576
G0 F7500 X15.500 Y-8.663
G0 X15.500 Y-14.439
G0 X15.664 Y-14.439
G1 F1920 X-15.563 Y-14.440 E101.40006
G0 F7500 X-15.400 Y-14.440
G0 X-15.400 Y-20.216
G0 X-15.563 Y-20.216
G1 F1920 X15.664 Y-20.215 E102.52436
G0 F7500 X15.500 Y-20.215
G0 X15.500 Y-25.991
G0 X15.664 Y-25.991
G1 F1920 X-15.563 Y-25.992 E103.64866
;LAYER:2
M106 S127
G1 F2400 E102.64866
G0 F7500 X0.216 Y0.216 Z0.700
;TYPE:WALL-OUTER
G1 F2400 E103.64866
G1 F2220 X0.284 Y0.216 E103.65111
G1 X0.284 Y0.284 E103.65356
G1 X0.216 Y0.284 E103.65601
G1 X0.216 Y0.216 E103.65846
G0 F7500 X-0.700 Y-0.700
;TYPE:SUPPORT
G1 F2100 X-0.700 Y1.200 E103.72687
G1 X1.200 Y1.200 E103.79527
G1 X1.200 Y-0.700 E103.86368
G1 X-0.700 Y-0.700 E103.93209
G0 F7500 X-0.690 Y-0.800
G0 X-15.500 Y-35.400
G1 F2100 X15.600 Y-35.400 E105.05182
G1 X15.600 Y35.600 E107.60811
G1 X-15.500 Y35.600 E108.72783
G1 X-15.500 Y-35.400 E111.28412
G0 F7500 X-14.440 Y-35.464
G1 F2100 X-14.440 Y35.664 E113.84502
G0 F7500 X-14.440 Y35.500
G0 X-15.400 Y31.767
G0 X-15.564 Y31.767
G1 F2100 X15.663 Y31.768 E114.96932
G0 F7500 X15.500 Y31.768
G0 X14.440 Y35.500
G0 X14.440 Y35.664
G1 F2100 X14.440 Y-35.464 E117.53022
G0 F7500 X14.440 Y-35.300
G0 X15.500 Y-31.767
G0 X15.664 Y-31.767
G1 F2100 X-15.563 Y-31.768 E118.65452
G0 F7500 X-15.400 Y-31.768
G0 X-15.400 Y-25.992
G0 X-15.563 Y-25.992
G1 F2100 X15.664 Y-25.991 E119.77882
G0 F7500 X15.500 Y-25.991
G0 X15.500 Y-20.215
G0 X15.664 Y-20.215
G1 F2100 X-15.563 Y-20.216 E120.90312
G0 F7500 X-15.400 Y-20.216
G0 X-8.664 Y-35.300
G0 X-8.664 Y-35.464
G1 F2100 X-8.664 Y35.664 E123.46402
G0 F7500 X-8.664 Y35.500
G0 X-2.888 Y35.500
G0 X-2.888 Y35.664
G1 F2100 X-2.888 Y-35.464 E126.02492
G0 F7500 X-2.888 Y-35.300
G0 X2.888 Y-35.300
G0 X2.888 Y-35.464
G1 F2100 X2.888 Y35.664 E128.58582
G0 F7500 X2.888 Y35.500
G0 X8.664 Y35.500
G0 X8.664 Y35.664
G1 F2100 X8.664 Y-35.464 E131.14672
G0 F7500 X8.664 Y-35.300
G0 X15.500 Y-14.439
G0 X15.664 Y-14.439
G1 F2100 X-15.563 Y-14.440 E132.27102
G0 F7500 X-15.400 Y-14.440
G0 X-15.400 Y-8.664
G0 X-15.563 Y-8.664
G1 F2100 X15.664 Y-8.663 E133.39532
G0 F7500 X15.500 Y-8.663
G0 X15.500 Y-2.887
G0 X15.664 Y-2.887
G1 F2100 X-15.563 Y-2.888 E134.51962
G0 F7500 X-15.400 Y-2.888
G0 X-15.400 Y2.887
G0 X-15.564 Y2.887
G1 F2100 X15.663 Y2.888 E135.64392
G0 F7500 X15.500 Y2.888
G0 X15.500 Y8.664
G0 X15.663 Y8.664
G1 F2100 X-15.564 Y8.663 E136.76822
G0 F7500 X-15.400 Y8.663
G0 X-15.400 Y14.439
G0 X-15.564 Y14.439
G1 F2100 X15.663 Y14.440 E137.89252
G0 F7500 X15.500 Y14.440
G0 X15.500 Y20.216
G0 X15.663 Y20.216
G1 F2100 X-15.564 Y20.215 E139.01682
G0 F7500 X-15.400 Y20.215
G0 X-15.400 Y25.991
G0 X-15.564 Y25.991
G1 F2100 X15.663 Y25.992 E140.14112
;LAYER:3
G1 F2400 E139.14112
G0 F7500 X0.284 Y0.284 Z0.900
;TYPE:WALL-OUTER
G1 F2400 E140.14112
G1 X0.216 Y0.284 E140.14357
G1 X0.216 Y0.216 E140.14602
G1 X0.284 Y0.216 E140.14846
G1 X0.284 Y0.284 E140.15091
G0 F7500 X1.200 Y1.200
;TYPE:SUPPORT
G1 F2220 X1.200 Y-0.700 E140.21932
G1 X-0.700 Y-0.700 E140.28773
G1 X-0.700 Y1.200 E140.35614
G1 X1.200 Y1.200 E140.42454
G0 F7500 X1.190 Y1.300
G0 X15.500 Y35.590
G0 X15.600 Y35.600
G1 F2220 X-15.500 Y35.600 E141.54427
G1 X-15.500 Y-35.400 E144.10056
G1 X15.600 Y-35.400 E145.22029
G1 X15.600 Y35.600 E147.77658
G0 F7500 X14.440 Y35.664
G1 F2220 X14.440 Y-35.464 E150.33748
G0 F7500 X14.440 Y-35.300
G0 X15.500 Y-31.767
G0 X15.664 Y-31.767
G1 F2220 X-15.563 Y-31.768 E151.46178
G0 F7500 X-15.400 Y-31.768
G0 X-14.440 Y-35.300
G0 X-14.440 Y-35.464
G1 F2220 X-14.440 Y35.664 E154.02268
G0 F7500 X-14.440 Y35.500
G0 X-15.400 Y31.767
G0 X-15.564 Y31.767
G1 F2220 X15.663 Y31.768 E155.14698
G0 F7500 X15.500 Y31.768
G0 X15.500 Y25.992
G0 X15.663 Y25.992
G1 F2220 X-15.564 Y25.991 E156.27128
G0 F7500 X-15.400 Y25.991
G0 X-15.400 Y20.215
G0 X-15.564 Y20.215
G1 F2220 X15.663 Y20.216 E157.39558
G0 F7500 X15.500 Y20.216
G0 X8.664 Y35.500
G0 X8.664 Y35.664
G1 F2220 X8.664 Y-35.464 E159.95648
G0 F7500 X8.664 Y-35.300
G0 X2.888 Y-35.300
G0 X2.888 Y-35.464
G1 F2220 X2.888 Y35.664 E162.51738
G0 F7500 X2.888 Y35.500
G0 X-2.888 Y35.500
G0 X-2.888 Y35.664
G1 F2220 X-2.888 Y-35.464 E165.07828
G0 F7500 X-2.888 Y-35.300
G0 X-8.664 Y-35.300
G0 X-8.664 Y-35.464
G1 F2220 X-8.664 Y35.664 E167.63918
G0 F7500 X-8.664 Y35.500
G0 X-15.400 Y14.439
G0 X-15.564 Y14.439
G1 F2220 X15.663 Y14.440 E168.76348
G0 F7500 X15.500 Y14.440
G0 X15.500 Y8.664
G0 X15.663 Y8.664
G1 F2220 X-15.564 Y8.663 E169.88778
G0 F7500 X-15.400 Y8.663
G0 X-15.400 Y2.887
G0 X-15.564 Y2.887
G1 F2220 X15.663 Y2.888 E171.01208
G0 F7500 X15.500 Y2.888
G0 X15.500 Y-2.887
G0 X15.664 Y-2.887
G1 F2220 X-15.563 Y-2.888 E172.13638
G0 F7500 X-15.400 Y-2.888
G0 X-15.400 Y-8.664
G0 X-15.563 Y-8.664
G1 F2220 X15.664 Y-8.663 E173.26068
G0 F7500 X15.500 Y-8.663
G0 X15.500 Y-14.439
G0 X15.664 Y-14.439
G1 F2220 X-15.563 Y-14.440 E174.38498
G0 F7500 X-15.400 Y-14.440
G0 X-15.400 Y-20.216
G0 X-15.563 Y-20.216
G1 F2220 X15.664 Y-20.215 E175.50928
G0 F7500 X15.500 Y-20.215
G0 X15.500 Y-25.991
G0 X15.664 Y-25.991
G1 F2220 X-15.563 Y-25.992 E176.63358
;LAYER:4
G1 F2400 E175.63358
G0 F7500 X0.216 Y0.216 Z1.100
;TYPE:WALL-OUTER
G1 F2400 E176.63358
G1 F2700 X0.284 Y0.216 E176.63602
G1 X0.284 Y0.284 E176.63847
G1 X0.216 Y0.284 E176.64092
G1 X0.216 Y0.216 E176.64337
G0 F7500 X-0.700 Y-0.700
;TYPE:SUPPORT
G1 F2400 X-0.700 Y1.200 E176.71178
G1 X1.200 Y1.200 E176.78018
G1 X1.200 Y-0.700 E176.84859
G1 X-0.700 Y-0.700 E176.91700
G0 F7500 X-0.690 Y-0.800
G0 X-15.500 Y-35.400
G1 F2400 X15.600 Y-35.400 E178.03673
G1 X15.600 Y35.600 E180.59302
G1 X-15.500 Y35.600 E181.71275
G1 X-15.500 Y-35.400 E184.26904
G0 F7500 X-14.440 Y-35.464
G1 F2400 X-14.440 Y35.664 E186.82994
G0 F7500 X-14.440 Y35.500
G0 X-15.400 Y31.767
G0 X-15.564 Y31.767
G1 F2400 X15.663 Y31.768 E187.95424
G0 F7500 X15.500 Y31.768
G0 X14.440 Y35.500
G0 X14.440 Y35.664
G1 F2400 X14.440 Y-35.464 E190.51513
G0 F7500 X14.440 Y-35.300
G0 X15.500 Y-31.767
G0 X15.664 Y-31.767
G1 F2400 X-15.563 Y-31.768 E191.63943
G0 F7500 X-15.400 Y-31.768
G0 X-15.400 Y-25.992
G0 X-15.563 Y-25.992
G1 F2400 X15.664 Y-25.991 E192.76373
G0 F7500 X15.500 Y-25.991
G0 X15.500 Y-20.215
G0 X15.664 Y-20.215
G1 F2400 X-15.563 Y-20.216 E193.88803
G0 F7500 X-15.400 Y-20.216
G0 X-8.664 Y-35.300
G0 X-8.664 Y-35.464
G1 F2400 X-8.664 Y35.664 E196.44893
G0 F7500 X-8.664 Y35.500
G0 X-2.888 Y35.500
G0 X-2.888 Y35.664
G1 F2400 X-2.888 Y-35.464 E199.00983
G0 F7500 X-2.888 Y-35.300
G0 X2.888 Y-35.300
G0 X2.888 Y-35.464
G1 F2400 X2.888 Y35.664 E201.57073
G0 F7500 X2.888 Y35.500
G0 X8.664 Y35.500
G0 X8.664 Y35.664
G1 F2400 X8.664 Y-35.464 E204.13163
G0 F7500 X8.664 Y-35.300
G0 X15.500 Y-14.439
G0 X15.664 Y-14.439
G1 F2400 X-15.563 Y-14.440 E205.25593
G0 F7500 X-15.400 Y-14.440
G0 X-15.400 Y-8.664
G0 X-15.563 Y-8.664
G1 F2400 X15.664 Y-8.663 E206.38023
G0 F7500 X15.500 Y-8.663
G0 X15.500 Y-2.887
G0 X15.664 Y-2.887
G1 F2400 X-15.563 Y-2.888 E207.50453
G0 F7500 X-15.400 Y-2.888
G0 X-15.400 Y2.887
G0 X-15.564 Y2.887
G1 F2400 X15.663 Y2.888 E208.62883
G0 F7500 X15.500 Y2.888
G0 X15.500 Y8.664
G0 X15.663 Y8.664
G1 F2400 X-15.564 Y8.663 E209.75313
G0 F7500 X-15.400 Y8.663
G0 X-15.400 Y14.439
G0 X-15.564 Y14.439
G1 F2400 X15.663 Y14.440 E210.87743
G0 F7500 X15.500 Y14.440
G0 X15.500 Y20.216
G0 X15.663 Y20.216
G1 F2400 X-15.564 Y20.215 E212.00173
G0 F7500 X-15.400 Y20.215
G0 X-15.400 Y25.991
G0 X-15.564 Y25.991
G1 F2400 X15.663 Y25.992 E213.12603
;LAYER:5
G1 F2400 E212.12603
G0 F7500 X0.284 Y0.284 Z1.300
;TYPE:WALL-OUTER
G1 F2400 E213.12603
G1 F2700 X0.216 Y0.284 E213.12848
G1 X0.216 Y0.216 E213.13093
G1 X0.284 Y0.216 E213.13338
G1 X0.284 Y0.284 E213.13582
G0 F7500 X1.200 Y1.200
;TYPE:SUPPORT
G1 F2400 X1.200 Y-0.700 E213.20423
G1 X-0.700 Y-0.700 E213.27264
G1 X-0.700 Y1.200 E213.34105
G1 X1.200 Y1.200 E213.40946
G0 F7500 X1.190 Y1.300
G0 X15.500 Y35.590
G0 X15.600 Y35.600
G1 F2400 X-15.500 Y35.600 E214.52918
G1 X-15.500 Y-35.400 E217.08547
G1 X15.600 Y-35.400 E218.20520
G1 X15.600 Y35.600 E220.76149
G0 F7500 X14.440 Y35.664
G1 F2400 X14.440 Y-35.464 E223.32239
G0 F7500 X14.440 Y-35.300
G0 X15.500 Y-31.767
G0 X15.664 Y-31.767
G1 F2400 X-15.563 Y-31.768 E224.44669
G0 F7500 X-15.400 Y-31.768
G0 X-14.440 Y-35.300
G0 X-14.440 Y-35.464
G1 F2400 X-14.440 Y35.664 E227.00759
G0 F7500 X-14.440 Y35.500
G0 X-15.400 Y31.767
G0 X-15.564 Y31.767
G1 F2400 X15.663 Y31.768 E228.13189
G0 F7500 X15.500 Y31.768
G0 X15.500 Y25.992
G0 X15.663 Y25.992
G1 F2400 X-15.564 Y25.991 E229.25619
G0 F7500 X-15.400 Y25.991
G0 X-15.400 Y20.215
G0 X-15.564 Y20.215
G1 F2400 X15.663 Y20.216 E230.38049
G0 F7500 X15.500 Y20.216
G0 X8.664 Y35.500
G0 X8.664 Y35.664
G1 F2400 X8.664 Y-35.464 E232.94139
G0 F7500 X8.664 Y-35.300
G0 X2.888 Y-35.300
G0 X2.888 Y-35.464
G1 F2400 X2.888 Y35.664 E235.50229
G0 F7500 X2.888 Y35.500
G0 X-2.888 Y35.500
G0 X-2.888 Y35.664
G1 F2400 X-2.888 Y-35.464 E238.06319
G0 F7500 X-2.888 Y-35.300
G0 X-8.664 Y-35.300
G0 X-8.664 Y-35.464
G1 F2400 X-8.664 Y35.664 E240.62409
G0 F7500 X-8.664 Y35.500
G0 X-15.400 Y14.439
G0 X-15.564 Y14.439
G1 F2400 X15.663 Y14.440 E241.74839
G0 F7500 X15.500 Y14.440
G0 X15.500 Y8.664
G0 X15.663 Y8.664
G1 F2400 X-15.564 Y8.663 E242.87269
G0 F7500 X-15.400 Y8.663
G0 X-15.400 Y2.887
G0 X-15.564 Y2.887
G1 F2400 X15.663 Y2.888 E243.99699
G0 F7500 X15.500 Y2.888
G0 X15.500 Y-2.887
G0 X15.664 Y-2.887
G1 F2400 X-15.563 Y-2.888 E245.12129
G0 F7500 X-15.400 Y-2.888
G0 X-15.400 Y-8.664
G0 X-15.563 Y-8.664
G1 F2400 X15.664 Y-8.663 E246.24559
G0 F7500 X15.500 Y-8.663
G0 X15.500 Y-14.439
G0 X15.664 Y-14.439
G1 F2400 X-15.563 Y-14.440 E247.36989
G0 F7500 X-15.400 Y-14.440
G0 X-15.400 Y-20.216
G0 X-15.563 Y-20.216
G1 F2400 X15.664 Y-20.215 E248.49419
G0 F7500 X15.500 Y-20.215
G0 X15.500 Y-25.991
G0 X15.664 Y-25.991
G1 F2400 X-15.563 Y-25.992 E249.61849
;LAYER:6
G1 F2400 E248.61849
G0 F7500 X0.216 Y0.216 Z1.500
;TYPE:WALL-OUTER
G1 F2400 E249.61849
G1 F2700 X0.284 Y0.216 E249.62094
G1 X0.284 Y0.284 E249.62338
G1 X0.216 Y0.284 E249.62583
G1 X0.216 Y0.216 E249.62828
G0 F7500 X-0.700 Y-0.700
;TYPE:SUPPORT
G1 F2400 X-0.700 Y1.200 E249.69669
G1 X1.200 Y1.200 E249.76510
G1 X1.200 Y-0.700 E249.83350
G1 X-0.700 Y-0.700 E249.90191
G0 F7500 X-0.690 Y-0.800
G0 X-15.500 Y-35.400
G1 F2400 X15.600 Y-35.400 E251.02164
G1 X15.600 Y35.600 E253.57793
G1 X-15.500 Y35.600 E254.69766
G1 X-15.500 Y-35.400 E257.25395
G0 F7500 X-14.440 Y-35.464
G1 F2400 X-14.440 Y35.664 E259.81485
G0 F7500 X-14.440 Y35.500
G0 X-15.400 Y31.767
G0 X-15.564 Y31.767
G1 F2400 X15.663 Y31.768 E260.93915
G0 F7500 X15.500 Y31.768
G0 X14.440 Y35.500
G0 X14.440 Y35.664
G1 F2400 X14.440 Y-35.464 E263.50005
G0 F7500 X14.440 Y-35.300
G0 X15.500 Y-31.767
G0 X15.664 Y-31.767
G1 F2400 X-15.563 Y-31.768 E264.62435
G0 F7500 X-15.400 Y-31.768
G0 X-15.400 Y-25.992
G0 X-15.563 Y-25.992
G1 F2400 X15.664 Y-25.991 E265.74865
G0 F7500 X15.500 Y-25.991
G0 X15.500 Y-20.215
G0 X15.664 Y-20.215
G1 F2400 X-15.563 Y-20.216 E266.87295
G0 F7500 X-15.400 Y-20.216
G0 X-8.664 Y-35.300
G0 X-8.664 Y-35.464
G1 F2400 X-8.664 Y35.664 E269.43385
G0 F7500 X-8.664 Y35.500
G0 X-2.888 Y35.500
G0 X-2.888 Y35.664
G1 F2400 X-2.888 Y-35.464 E271.99474
G0 F7500 X-2.888 Y-35.300
G0 X2.888 Y-35.300
G0 X2.888 Y-35.464
G1 F2400 X2.888 Y35.664 E274.55564
G0 F7500 X2.888 Y35.500
G0 X8.664 Y35.500
G0 X8.664 Y35.664
G1 F2400 X8.664 Y-35.464 E277.11654
G0 F7500 X8.664 Y-35.300
G0 X15.500 Y-14.439
G0 X15.664 Y-14.439
G1 F2400 X-15.563 Y-14.440 E278.24084
G0 F7500 X-15.400 Y-14.440
G0 X-15.400 Y-8.664
G0 X-15.563 Y-8.664
G1 F2400 X15.664 Y-8.663 E279.36514
G0 F7500 X15.500 Y-8.663
G0 X15.500 Y-2.887
