;Generated with Cura_SteamEngine 15.04.6

;Layer count: 16
;LAYER:0
M107
G0 F7500 X-18.716 Y-43.616 Z0.300
;TYPE:SKIRT
G1 F1800 X18.816 Y-43.616 E2.02696
G1 X18.816 Y43.816 E6.74882
G1 X-18.716 Y43.816 E8.77578
G1 X-18.716 Y-43.616 E13.49765
G1 F2400 E12.49765
G0 F7500 X0.216 Y0.216
;TYPE:WALL-OUTER
G1 F2400 E13.49765
G1 F1800 X0.284 Y0.216 E13.50132
G1 X0.284 Y0.284 E13.50499
G1 X0.216 Y0.284 E13.50866
G1 X0.216 Y0.216 E13.51234
G0 F7500 X-0.700 Y-0.700
;TYPE:SUPPORT
G1 F1800 X-0.700 Y1.200 E13.61495
G1 X1.200 Y1.200 E13.71756
G1 X1.200 Y-0.700 E13.82017
G1 X-0.700 Y-0.700 E13.92278
G0 F7500 X-0.690 Y-0.800
G0 X-15.500 Y-40.400
G1 F1800 X15.600 Y-40.400 E15.60238
G1 X15.600 Y40.600 E19.97687
G1 X-15.500 Y40.600 E21.65646
G1 X-15.500 Y-40.400 E26.03096
G0 F7500 X-14.440 Y-40.464
G1 F1800 X-14.440 Y40.664 E30.41237
G0 F7500 X-14.440 Y40.500
G0 X-8.664 Y40.500
G0 X-8.664 Y40.664
G1 F1800 X-8.664 Y-40.464 E34.79378
G0 F7500 X-8.664 Y-40.300
G0 X-2.888 Y-40.300
G0 X-2.888 Y-40.464
G1 F1800 X-2.888 Y40.664 E39.17519
G0 F7500 X-2.888 Y40.500
G0 X2.888 Y40.500
G0 X2.888 Y40.664
G1 F1800 X2.888 Y-40.464 E43.55660
G0 F7500 X2.888 Y-40.300
G0 X8.664 Y-40.300
G0 X8.664 Y-40.464
G1 F1800 X8.664 Y40.664 E47.93801
G0 F7500 X8.664 Y40.500
G0 X14.440 Y40.500
G0 X14.440 Y40.664
G1 F1800 X14.440 Y-40.464 E52.31942
G0 F7500 X14.440 Y-40.300
G0 X15.500 Y-37.543
G0 X15.664 Y-37.543
G1 F1800 X-15.563 Y-37.544 E54.00587
G0 F7500 X-15.400 Y-37.544
G0 X-15.400 Y-31.768
G0 X-15.563 Y-31.768
G1 F1800 X15.664 Y-31.767 E55.69232
G0 F7500 X15.500 Y-31.767
G0 X15.500 Y-25.991
G0 X15.664 Y-25.991
G1 F1800 X-15.563 Y-25.992 E57.37877
G0 F7500 X-15.400 Y-25.992
G0 X-15.400 Y-20.216
G0 X-15.563 Y-20.216
G1 F1800 X15.664 Y-20.215 E59.06522
G0 F7500 X15.500 Y-20.215
G0 X15.500 Y-14.439
G0 X15.664 Y-14.439
G1 F1800 X-15.563 Y-14.440 E60.75167
G0 F7500 X-15.400 Y-14.440
G0 X-15.400 Y-8.664
G0 X-15.563 Y-8.664
G1 F1800 X15.664 Y-8.663 E62.43812
G0 F7500 X15.500 Y-8.663
G0 X15.500 Y-2.887
G0 X15.664 Y-2.887
G1 F1800 X-15.563 Y-2.888 E64.12457
G0 F7500 X-15.400 Y-2.888
G0 X-15.400 Y2.887
G0 X-15.564 Y2.887
G1 F1800 X15.663 Y2.888 E65.81102
G0 F7500 X15.500 Y2.888
G0 X15.500 Y8.664
G0 X15.663 Y8.664
G1 F1800 X-15.564 Y8.663 E67.49747
G0 F7500 X-15.400 Y8.663
G0 X-15.400 Y14.439
G0 X-15.564 Y14.439
G1 F1800 X15.663 Y14.440 E69.18392
G0 F7500 X15.500 Y14.440
G0 X15.500 Y20.216
G0 X15.663 Y20.216
G1 F1800 X-15.564 Y20.215 E70.87037
G0 F7500 X-15.400 Y20.215
G0 X-15.400 Y25.991
G0 X-15.564 Y25.991
G1 F1800 X15.663 Y25.992 E72.55682
G0 F7500 X15.500 Y25.992
G0 X15.500 Y31.768
G0 X15.663 Y31.768
G1 F1800 X-15.564 Y31.767 E74.24327
G0 F7500 X-15.400 Y31.767
G0 X-15.400 Y37.543
G0 X-15.564 Y37.543
G1 F1800 X15.663 Y37.544 E75.92972
;LAYER:1
M106 S63
G1 F2400 E74.92972
G0 F7500 X0.284 Y0.284 Z0.500
;TYPE:WALL-OUTER
G1 F2400 E75.92972
G1 F1980 X0.216 Y0.284 E75.93217
G1 X0.216 Y0.216 E75.93462
G1 X0.284 Y0.216 E75.93707
G1 X0.284 Y0.284 E75.93952
G0 F7500 X1.200 Y1.200
;TYPE:SUPPORT
G1 F1920 X1.200 Y-0.700 E76.00792
G1 X-0.700 Y-0.700 E76.07633
G1 X-0.700 Y1.200 E76.14474
G1 X1.200 Y1.200 E76.21315
G0 F7500 X1.190 Y1.300
G0 X15.500 Y40.590
G0 X15.600 Y40.600
G1 F1920 X-15.500 Y40.600 E77.33287
G1 X-15.500 Y-40.400 E80.24921
G1 X15.600 Y-40.400 E81.36893
G1 X15.600 Y40.600 E84.28527
G0 F7500 X14.440 Y40.664
G1 F1920 X14.440 Y-40.464 E87.20621
G0 F7500 X14.440 Y-40.300
G0 X8.664 Y-40.300
G0 X8.664 Y-40.464
G1 F1920 X8.664 Y40.664 E90.12715
G0 F7500 X8.664 Y40.500
G0 X2.888 Y40.500
G0 X2.888 Y40.664
G1 F1920 X2.888 Y-40.464 E93.04809
G0 F7500 X2.888 Y-40.300
G0 X-2.888 Y-40.300
G0 X-2.888 Y-40.464
G1 F1920 X-2.888 Y40.664 E95.96903
G0 F7500 X-2.888 Y40.500
G0 X-8.664 Y40.500
G0 X-8.664 Y40.664
G1 F1920 X-8.664 Y-40.464 E98.88997
G0 F7500 X-8.664 Y-40.300
G0 X-14.440 Y-40.300
G0 X-14.440 Y-40.464
G1 F1920 X-14.440 Y40.664 E101.81091
G0 F7500 X-14.440 Y40.500
G0 X-15.400 Y37.543
G0 X-15.564 Y37.543
G1 F1920 X15.663 Y37.544 E102.93521
G0 F7500 X15.500 Y37.544
G0 X15.500 Y31.768
G0 X15.663 Y31.768
G1 F1920 X-15.564 Y31.767 E104.05951
G0 F7500 X-15.400 Y31.767
G0 X-15.400 Y25.991
G0 X-15.564 Y25.991
G1 F1920 X15.663 Y25.992 E105.18381
G0 F7500 X15.500 Y25.992
G0 X15.500 Y20.216
G0 X15.663 Y20.216
G1 F1920 X-15.564 Y20.215 E106.30811
G0 F7500 X-15.400 Y20.215
G0 X-15.400 Y14.439
G0 X-15.564 Y14.439
G1 F1920 X15.663 Y14.440 E107.43241
G0 F7500 X15.500 Y14.440
G0 X15.500 Y8.664
G0 X15.663 Y8.664
G1 F1920 X-15.564 Y8.663 E108.55671
G0 F7500 X-15.400 Y8.663
G0 X-15.400 Y2.887
G0 X-15.564 Y2.887
G1 F1920 X15.663 Y2.888 E109.68101
G0 F7500 X15.500 Y2.888
G0 X15.500 Y-2.887
G0 X15.664 Y-2.887
G1 F1920 X-15.563 Y-2.888 E110.80531
G0 F7500 X-15.400 Y-2.888
G0 X-15.400 Y-8.664
G0 X-15.563 Y-8.664
G1 F1920 X15.664 Y-8.663 E111.92961
G0 F7500 X15.500 Y-8.663
G0 X15.500 Y-14.439
G0 X15.664 Y-14.439
G1 F1920 X-15.563 Y-14.440 E113.05391
G0 F7500 X-15.400 Y-14.440
G0 X-15.400 Y-20.216
G0 X-15.563 Y-20.216
G1 F1920 X15.664 Y-20.215 E114.17821
G0 F7500 X15.500 Y-20.215
G0 X15.500 Y-25.991
G0 X15.664 Y-25.991
G1 F1920 X-15.563 Y-25.992 E115.30251
G0 F7500 X-15.400 Y-25.992
G0 X-15.400 Y-31.768
G0 X-15.563 Y-31.768
G1 F1920 X15.664 Y-31.767 E116.42681
G0 F7500 X15.500 Y-31.767
G0 X15.500 Y-37.543
G0 X15.664 Y-37.543
G1 F1920 X-15.563 Y-37.544 E117.55111
;LAYER:2
M106 S127
G1 F2400 E116.55111
G0 F7500 X0.216 Y0.216 Z0.700
;TYPE:WALL-OUTER
G1 F2400 E117.55111
G1 F2220 X0.284 Y0.216 E117.55355
G1 X0.284 Y0.284 E117.55600
G1 X0.216 Y0.284 E117.55845
G1 X0.216 Y0.216 E117.56090
G0 F7500 X-0.700 Y-0.700
;TYPE:SUPPORT
G1 F2100 X-0.700 Y1.200 E117.62931
G1 X1.200 Y1.200 E117.69771
G1 X1.200 Y-0.700 E117.76612
G1 X-0.700 Y-0.700 E117.83453
G0 F7500 X-0.690 Y-0.800
G0 X-15.500 Y-40.400
G1 F2100 X15.600 Y-40.400 E118.95426
G1 X15.600 Y40.600 E121.87059
G1 X-15.500 Y40.600 E122.99032
G1 X-15.500 Y-40.400 E125.90665
G0 F7500 X-14.440 Y-40.464
G1 F2100 X-14.440 Y40.664 E128.82759
G0 F7500 X-14.440 Y40.500
G0 X-8.664 Y40.500
G0 X-8.664 Y40.664
G1 F2100 X-8.664 Y-40.464 E131.74853
G0 F7500 X-8.664 Y-40.300
G0 X-2.888 Y-40.300
G0 X-2.888 Y-40.464
G1 F2100 X-2.888 Y40.664 E134.66947
G0 F7500 X-2.888 Y40.500
G0 X2.888 Y40.500
G0 X2.888 Y40.664
G1 F2100 X2.888 Y-40.464 E137.59041
G0 F7500 X2.888 Y-40.300
G0 X8.664 Y-40.300
G0 X8.664 Y-40.464
G1 F2100 X8.664 Y40.664 E140.51135
G0 F7500 X8.664 Y40.500
G0 X14.440 Y40.500
G0 X14.440 Y40.664
G1 F2100 X14.440 Y-40.464 E143.43229
G0 F7500 X14.440 Y-40.300
G0 X15.500 Y-37.543
G0 X15.664 Y-37.543
G1 F2100 X-15.563 Y-37.544 E144.55659
G0 F7500 X-15.400 Y-37.544
G0 X-15.400 Y-31.768
G0 X-15.563 Y-31.768
G1 F2100 X15.664 Y-31.767 E145.68089
G0 F7500 X15.500 Y-31.767
G0 X15.500 Y-25.991
G0 X15.664 Y-25.991
G1 F2100 X-15.563 Y-25.992 E146.80519
G0 F7500 X-15.400 Y-25.992
G0 X-15.400 Y-20.216
G0 X-15.563 Y-20.216
G1 F2100 X15.664 Y-20.215 E147.92949
G0 F7500 X15.500 Y-20.215
G0 X15.500 Y-14.439
G0 X15.664 Y-14.439
G1 F2100 X-15.563 Y-14.440 E149.05379
G0 F7500 X-15.400 Y-14.440
G0 X-15.400 Y-8.664
G0 X-15.563 Y-8.664
G1 F2100 X15.664 Y-8.663 E150.17809
G0 F7500 X15.500 Y-8.663
G0 X15.500 Y-2.887
G0 X15.664 Y-2.887
G1 F2100 X-15.563 Y-2.888 E151.30239
G0 F7500 X-15.400 Y-2.888
G0 X-15.400 Y2.887
G0 X-15.564 Y2.887
G1 F2100 X15.663 Y2.888 E152.42669
G0 F7500 X15.500 Y2.888
G0 X15.500 Y8.664
G0 X15.663 Y8.664
G1 F2100 X-15.564 Y8.663 E153.55099
G0 F7500 X-15.400 Y8.663
G0 X-15.400 Y14.439
G0 X-15.564 Y14.439
G1 F2100 X15.663 Y14.440 E154.67529
G0 F7500 X15.500 Y14.440
G0 X15.500 Y20.216
G0 X15.663 Y20.216
G1 F2100 X-15.564 Y20.215 E155.79959
G0 F7500 X-15.400 Y20.215
G0 X-15.400 Y25.991
G0 X-15.564 Y25.991
G1 F2100 X15.663 Y25.992 E156.92389
G0 F7500 X15.500 Y25.992
G0 X15.500 Y31.768
G0 X15.663 Y31.768
G1 F2100 X-15.564 Y31.767 E158.04819
G0 F7500 X-15.400 Y31.767
G0 X-15.400 Y37.543
G0 X-15.564 Y37.543
G1 F2100 X15.663 Y37.544 E159.17249
;LAYER:3
G1 F2400 E158.17249
G0 F7500 X0.284 Y0.284 Z0.900
;TYPE:WALL-OUTER
G1 F2400 E159.17249
G1 X0.216 Y0.284 E159.17494
G1 X0.216 Y0.216 E159.17739
G1 X0.284 Y0.216 E159.17983
G1 X0.284 Y0.284 E159.18228
G0 F7500 X1.200 Y1.200
;TYPE:SUPPORT
G1 F2220 X1.200 Y-0.700 E159.25069
G1 X-0.700 Y-0.700 E159.31910
G1 X-0.700 Y1.200 E159.38751
G1 X1.200 Y1.200 E159.45591
G0 F7500 X1.190 Y1.300
G0 X15.500 Y40.590
G0 X15.600 Y40.600
G1 F2220 X-15.500 Y40.600 E160.57564
G1 X-15.500 Y-40.400 E163.49197
G1 X15.600 Y-40.400 E164.61170
G1 X15.600 Y40.600 E167.52803
G0 F7500 X14.440 Y40.664
G1 F2220 X14.440 Y-40.464 E170.44897
G0 F7500 X14.440 Y-40.300
G0 X8.664 Y-40.300
G0 X8.664 Y-40.464
G1 F2220 X8.664 Y40.664 E173.36991
G0 F7500 X8.664 Y40.500
G0 X2.888 Y40.500
G0 X2.888 Y40.664
G1 F2220 X2.888 Y-40.464 E176.29085
G0 F7500 X2.888 Y-40.300
G0 X-2.888 Y-40.300
G0 X-2.888 Y-40.464
G1 F2220 X-2.888 Y40.664 E179.21179
G0 F7500 X-2.888 Y40.500
G0 X-8.664 Y40.500
G0 X-8.664 Y40.664
G1 F2220 X-8.664 Y-40.464 E182.13273
G0 F7500 X-8.664 Y-40.300
G0 X-14.440 Y-40.300
G0 X-14.440 Y-40.464
G1 F2220 X-14.440 Y40.664 E185.05367
G0 F7500 X-14.440 Y40.500
G0 X-15.400 Y37.543
G0 X-15.564 Y37.543
G1 F2220 X15.663 Y37.544 E186.17797
G0 F7500 X15.500 Y37.544
G0 X15.500 Y31.768
G0 X15.663 Y31.768
G1 F2220 X-15.564 Y31.767 E187.30227
G0 F7500 X-15.400 Y31.767
G0 X-15.400 Y25.991
G0 X-15.564 Y25.991
G1 F2220 X15.663 Y25.992 E188.42657
G0 F7500 X15.500 Y25.992
G0 X15.500 Y20.216
G0 X15.663 Y20.216
G1 F2220 X-15.564 Y20.215 E189.55087
G0 F7500 X-15.400 Y20.215
G0 X-15.400 Y14.439
G0 X-15.564 Y14.439
G1 F2220 X15.663 Y14.440 E190.67517
G0 F7500 X15.500 Y14.440
G0 X15.500 Y8.664
G0 X15.663 Y8.664
G1 F2220 X-15.564 Y8.663 E191.79947
G0 F7500 X-15.400 Y8.663
G0 X-15.400 Y2.887
G0 X-15.564 Y2.887
G1 F2220 X15.663 Y2.888 E192.92377
G0 F7500 X15.500 Y2.888
G0 X15.500 Y-2.887
G0 X15.664 Y-2.887
G1 F2220 X-15.563 Y-2.888 E194.04807
G0 F7500 X-15.400 Y-2.888
G0 X-15.400 Y-8.664
G0 X-15.563 Y-8.664
G1 F2220 X15.664 Y-8.663 E195.17237
G0 F7500 X15.500 Y-8.663
G0 X15.500 Y-14.439
G0 X15.664 Y-14.439
G1 F2220 X-15.563 Y-14.440 E196.29667
G0 F7500 X-15.400 Y-14.440
G0 X-15.400 Y-20.216
G0 X-15.563 Y-20.216
G1 F2220 X15.664 Y-20.215 E197.42097
G0 F7500 X15.500 Y-20.215
G0 X15.500 Y-25.991
G0 X15.664 Y-25.991
G1 F2220 X-15.563 Y-25.992 E198.54527
G0 F7500 X-15.400 Y-25.992
G0 X-15.400 Y-31.768
G0 X-15.563 Y-31.768
G1 F2220 X15.664 Y-31.767 E199.66957
G0 F7500 X15.500 Y-31.767
G0 X15.500 Y-37.543
G0 X15.664 Y-37.543
G1 F2220 X-15.563 Y-37.544 E200.79387
;LAYER:4
G1 F2400 E199.79387
G0 F7500 X0.216 Y0.216 Z1.100
;TYPE:WALL-OUTER
G1 F2400 E200.79387
G1 F2700 X0.284 Y0.216 E200.79632
G1 X0.284 Y0.284 E200.79877
G1 X0.216 Y0.284 E200.80122
G1 X0.216 Y0.216 E200.80367
G0 F7500 X-0.700 Y-0.700
;TYPE:SUPPORT
G1 F2400 X-0.700 Y1.200 E200.87207
G1 X1.200 Y1.200 E200.94048
G1 X1.200 Y-0.700 E201.00889
G1 X-0.700 Y-0.700 E201.07730
G0 F7500 X-0.690 Y-0.800
G0 X-15.500 Y-40.400
G1 F2400 X15.600 Y-40.400 E202.19702
G1 X15.600 Y40.600 E205.11336
G1 X-15.500 Y40.600 E206.23308
G1 X-15.500 Y-40.400 E209.14941
G0 F7500 X-14.440 Y-40.464
G1 F2400 X-14.440 Y40.664 E212.07036
G0 F7500 X-14.440 Y40.500
G0 X-8.664 Y40.500
G0 X-8.664 Y40.664
G1 F2400 X-8.664 Y-40.464 E214.99130
G0 F7500 X-8.664 Y-40.300
G0 X-2.888 Y-40.300
G0 X-2.888 Y-40.464
G1 F2400 X-2.888 Y40.664 E217.91224
G0 F7500 X-2.888 Y40.500
G0 X2.888 Y40.500
G0 X2.888 Y40.664
G1 F2400 X2.888 Y-40.464 E220.83318
G0 F7500 X2.888 Y-40.300
G0 X8.664 Y-40.300
G0 X8.664 Y-40.464
G1 F2400 X8.664 Y40.664 E223.75412
G0 F7500 X8.664 Y40.500
G0 X14.440 Y40.500
G0 X14.440 Y40.664
G1 F2400 X14.440 Y-40.464 E226.67506
G0 F7500 X14.440 Y-40.300
G0 X15.500 Y-37.543
G0 X15.664 Y-37.543
G1 F2400 X-15.563 Y-37.544 E227.79936
G0 F7500 X-15.400 Y-37.544
G0 X-15.400 Y-31.768
G0 X-15.563 Y-31.768
G1 F2400 X15.664 Y-31.767 E228.92366
G0 F7500 X15.500 Y-31.767
G0 X15.500 Y-25.991
G0 X15.664 Y-25.991
G1 F2400 X-15.563 Y-25.992 E230.04796
G0 F7500 X-15.400 Y-25.992
G0 X-15.400 Y-20.216
G0 X-15.563 Y-20.216
G1 F2400 X15.664 Y-20.215 E231.17226
G0 F7500 X15.500 Y-20.215
G0 X15.500 Y-14.439
G0 X15.664 Y-14.439
G1 F2400 X-15.563 Y-14.440 E232.29656
G0 F7500 X-15.400 Y-14.440
G0 X-15.400 Y-8.664
G0 X-15.563 Y-8.664
G1 F2400 X15.664 Y-8.663 E233.42086
G0 F7500 X15.500 Y-8.663
G0 X15.500 Y-2.887
G0 X15.664 Y-2.887
G1 F2400 X-15.563 Y-2.888 E234.54516
G0 F7500 X-15.400 Y-2.888
G0 X-15.400 Y2.887
G0 X-15.564 Y2.887
G1 F2400 X15.663 Y2.888 E235.66946
G0 F7500 X15.500 Y2.888
G0 X15.500 Y8.664
G0 X15.663 Y8.664
G1 F2400 X-15.564 Y8.663 E236.79376
G0 F7500 X-15.400 Y8.663
G0 X-15.400 Y14.439
G0 X-15.564 Y14.439
G1 F2400 X15.663 Y14.440 E237.91806
G0 F7500 X15.500 Y14.440
G0 X15.500 Y20.216
G0 X15.663 Y20.216
G1 F2400 X-15.564 Y20.215 E239.04236
G0 F7500 X-15.400 Y20.215
G0 X-15.400 Y25.991
G0 X-15.564 Y25.991
G1 F2400 X15.663 Y25.992 E240.16666
G0 F7500 X15.500 Y25.992
G0 X15.500 Y31.768
G0 X15.663 Y31.768
G1 F2400 X-15.564 Y31.767 E241.29096
G0 F7500 X-15.400 Y31.767
G0 X-15.400 Y37.543
G0 X-15.564 Y37.543
G1 F2400 X15.663 Y37.544 E242.41526
;LAYER:5
G1 F2400 E241.41526
G0 F7500 X0.284 Y0.284 Z1.300
;TYPE:WALL-OUTER
G1 F2400 E242.41526
G1 F2700 X0.216 Y0.284 E242.41770
G1 X0.216 Y0.216 E242.42015
G1 X0.284 Y0.216 E242.42260
G1 X0.284 Y0.284 E242.42505
G0 F7500 X1.200 Y1.200
;TYPE:SUPPORT
G1 F2400 X1.200 Y-0.700 E242.49346
G1 X-0.700 Y-0.700 E242.56186
G1 X-0.700 Y1.200 E242.63027
G1 X1.200 Y1.200 E242.69868
G0 F7500 X1.190 Y1.300
G0 X15.500 Y40.590
G0 X15.600 Y40.600
G1 F2400 X-15.500 Y40.600 E243.81841
G1 X-15.500 Y-40.400 E246.73474
G1 X15.600 Y-40.400 E247.85447
G1 X15.600 Y40.600 E250.77080
G0 F7500 X14.440 Y40.664
G1 F2400 X14.440 Y-40.464 E253.69174
G0 F7500 X14.440 Y-40.300
G0 X8.664 Y-40.300
G0 X8.664 Y-40.464
G1 F2400 X8.664 Y40.664 E256.61268
G0 F7500 X8.664 Y40.500
G0 X2.888 Y40.500
G0 X2.888 Y40.664
G1 F2400 X2.888 Y-40.464 E259.53362
G0 F7500 X2.888 Y-40.300
G0 X-2.888 Y-40.300
G0 X-2.888 Y-40.464
G1 F2400 X-2.888 Y40.664 E262.45456
G0 F7500 X-2.888 Y40.500
G0 X-8.664 Y40.500
G0 X-8.664 Y40.664
G1 F2400 X-8.664 Y-40.464 E265.37550
G0 F7500 X-8.664 Y-40.300
G0 X-14.440 Y-40.300
G0 X-14.440 Y-40.464
G1 F2400 X-14.440 Y40.664 E268.29644
G0 F7500 X-14.440 Y40.500
G0 X-15.400 Y37.543
G0 X-15.564 Y37.543
G1 F2400 X15.663 Y37.544 E269.42074
G0 F7500 X15.500 Y37.544
G0 X15.500 Y31.768
G0 X15.663 Y31.768
G1 F2400 X-15.564 Y31.767 E270.54504
G0 F7500 X-15.400 Y31.767
G0 X-15.400 Y25.991
G0 X-15.564 Y25.991
G1 F2400 X15.663 Y25.992 E271.66934
G0 F7500 X15.500 Y25.992
G0 X15.500 Y20.216
G0 X15.663 Y20.216
G1 F2400 X-15.564 Y20.215 E272.79364
G0 F7500 X-15.400 Y20.215
G0 X-15.400 Y14.439
G0 X-15.564 Y14.439
G1 F2400 X15.663 Y14.440 E273.91794
G0 F7500 X15.500 Y14.440
G0 X15.500 Y8.664
G0 X15.663 Y8.664
G1 F2400 X-15.564 Y8.663 E275.04224
G0 F7500 X-15.400 Y8.663
G0 X-15.400 Y2.887
G0 X-15.564 Y2.887
G1 F2400 X15.663 Y2.888 E276.16654
G0 F7500 X15.500 Y2.888
G0 X15.500 Y-2.887
G0 X15.664 Y-2.887
G1 F2400 X-15.563 Y-2.888 E277.29084
G0 F7500 X-15.400 Y-2.888
G0 X-15.400 Y-8.664
G0 X-15.563 Y-8.664
G1 F2400 X15.664 Y-8.663 E278.41514
G0 F7500 X15.500 Y-8.663
G0 X15.500 Y-14.439
G0 X15.664 Y-14.439
G1 F2400 X-15.563 Y-14.440 E279.53944
G0 F7500 X-15.400 Y-14.440
G0 X-15.400 Y-20.216
G0 X-15.563 Y-20.216
G1 F2400 X15.664 Y-20.215 E280.66374
G0 F7500 X15.500 Y-20.215
G0 X15.500 Y-25.991
G0 X15.664 Y-25.991
G1 F2400 X-15.563 Y-25.992 E281.78804
G0 F7500 X-15.400 Y-25.992
G0 X-15.400 Y-31.768
G0 X-15.563 Y-31.768
G1 F2400 X15.664 Y-31.767 E282.91234
G0 F7500 X15.500 Y-31.767
G0 X15.500 Y-37.543
G0 X15.664 Y-37.543
G1 F2400 X-15.563 Y-37.544 E284.03664
;LAYER:6
G1 F2400 E283.03664
G0 F7500 X0.216 Y0.216 Z1.500
;TYPE:WALL-OUTER
G1 F2400 E284.03664
G1 F2700 X0.284 Y0.216 E284.03909
G1 X0.284 Y0.284 E284.04154
G1 X0.216 Y0.284 E284.04398
G1 X0.216 Y0.216 E284.04643
G0 F7500 X-0.700 Y-0.700
;TYPE:SUPPORT
G1 F2400 X-0.700 Y1.200 E284.11484
G1 X1.200 Y1.200 E284.18325
G1 X1.200 Y-0.700 E284.25166
G1 X-0.700 Y-0.700 E284.32006
G0 F7500 X-0.690 Y-0.800
G0 X-15.500 Y-40.400
G1 F2400 X15.600 Y-40.400 E285.43979
G1 X15.600 Y40.600 E288.35612
G1 X-15.500 Y40.600 E289.47585
