;Generated with Cura_SteamEngine 15.04.6

;Layer count: 16
;LAYER:0
M107
G0 F7500 X-18.716 Y-48.616 Z0.300
;TYPE:SKIRT
G1 F1800 X18.816 Y-48.616 E2.02696
G1 X18.816 Y48.816 E7.28889
G1 X-18.716 Y48.816 E9.31584
G1 X-18.716 Y-48.616 E14.57777
G1 F2400 E13.57777
G0 F7500 X0.216 Y0.216
;TYPE:WALL-OUTER
G1 F2400 E14.57777
G1 F1800 X0.284 Y0.216 E14.58144
G1 X0.284 Y0.284 E14.58512
G1 X0.216 Y0.284 E14.58879
G1 X0.216 Y0.216 E14.59246
G0 F7500 X-0.700 Y-0.700
;TYPE:SUPPORT
G1 F1800 X-0.700 Y1.200 E14.69507
G1 X1.200 Y1.200 E14.79768
G1 X1.200 Y-0.700 E14.90030
G1 X-0.700 Y-0.700 E15.00291
G0 F7500 X-0.690 Y-0.800
G0 X-15.500 Y-45.400
G1 F1800 X15.600 Y-45.400 E16.68250
G1 X15.600 Y45.600 E21.59706
G1 X-15.500 Y45.600 E23.27665
G1 X-15.500 Y-45.400 E28.19121
G0 F7500 X-14.440 Y-45.464
G1 F1800 X-14.440 Y45.664 E33.11268
G0 F7500 X-14.440 Y45.500
G0 X-15.400 Y43.319
G0 X-15.564 Y43.319
G1 F1800 X15.663 Y43.320 E34.79913
G0 F7500 X15.500 Y43.320
G0 X14.440 Y45.500
G0 X14.440 Y45.664
G1 F1800 X14.440 Y-45.464 E39.72060
G0 F7500 X14.440 Y-45.300
G0 X15.500 Y-43.319
G0 X15.664 Y-43.319
G1 F1800 X-15.563 Y-43.320 E41.40705
G0 F7500 X-15.400 Y-43.320
G0 X-8.664 Y-45.300
G0 X-8.664 Y-45.464
G1 F1800 X-8.664 Y45.664 E46.32852
G0 F7500 X-8.664 Y45.500
G0 X-2.888 Y45.500
G0 X-2.888 Y45.664
G1 F1800 X-2.888 Y-45.464 E51.24999
G0 F7500 X-2.888 Y-45.300
G0 X2.888 Y-45.300
G0 X2.888 Y-45.464
G1 F1800 X2.888 Y45.664 E56.17147
G0 F7500 X2.888 Y45.500
G0 X8.664 Y45.500
G0 X8.664 Y45.664
G1 F1800 X8.664 Y-45.464 E61.09294
G0 F7500 X8.664 Y-45.300
G0 X15.500 Y-37.543
G0 X15.664 Y-37.543
G1 F1800 X-15.563 Y-37.544 E62.77939
G0 F7500 X-15.400 Y-37.544
G0 X-15.400 Y-31.768
G0 X-15.563 Y-31.768
G1 F1800 X15.664 Y-31.767 E64.46584
G0 F7500 X15.500 Y-31.767
G0 X15.500 Y-25.991
G0 X15.664 Y-25.991
G1 F1800 X-15.563 Y-25.992 E66.15229
G0 F7500 X-15.400 Y-25.992
G0 X-15.400 Y-20.216
G0 X-15.563 Y-20.216
G1 F1800 X15.664 Y-20.215 E67.83874
G0 F7500 X15.500 Y-20.215
G0 X15.500 Y-14.439
G0 X15.664 Y-14.439
G1 F1800 X-15.563 Y-14.440 E69.52519
G0 F7500 X-15.400 Y-14.440
G0 X-15.400 Y-8.664
G0 X-15.563 Y-8.664
G1 F1800 X15.664 Y-8.663 E71.21164
G0 F7500 X15.500 Y-8.663
G0 X15.500 Y-2.887
G0 X15.664 Y-2.887
G1 F1800 X-15.563 Y-2.888 E72.89809
G0 F7500 X-15.400 Y-2.888
G0 X-15.400 Y2.887
G0 X-15.564 Y2.887
G1 F1800 X15.663 Y2.888 E74.58454
G0 F7500 X15.500 Y2.888
G0 X15.500 Y8.664
G0 X15.663 Y8.664
G1 F1800 X-15.564 Y8.663 E76.27099
G0 F7500 X-15.400 Y8.663
G0 X-15.400 Y14.439
G0 X-15.564 Y14.439
G1 F1800 X15.663 Y14.440 E77.95744
G0 F7500 X15.500 Y14.440
G0 X15.500 Y20.216
G0 X15.663 Y20.216
G1 F1800 X-15.564 Y20.215 E79.64389
G0 F7500 X-15.400 Y20.215
G0 X-15.400 Y25.991
G0 X-15.564 Y25.991
G1 F1800 X15.663 Y25.992 E81.33034
G0 F7500 X15.500 Y25.992
G0 X15.500 Y31.768
G0 X15.663 Y31.768
G1 F1800 X-15.564 Y31.767 E83.01679
G0 F7500 X-15.400 Y31.767
G0 X-15.400 Y37.543
G0 X-15.564 Y37.543
G1 F1800 X15.663 Y37.544 E84.70324
;LAYER:1
M106 S63
G1 F2400 E83.70324
G0 F7500 X0.284 Y0.284 Z0.500
;TYPE:WALL-OUTER
G1 F2400 E84.70324
G1 F1980 X0.216 Y0.284 E84.70568
G1 X0.216 Y0.216 E84.70813
G1 X0.284 Y0.216 E84.71058
G1 X0.284 Y0.284 E84.71303
G0 F7500 X1.200 Y1.200
;TYPE:SUPPORT
G1 F1920 X1.200 Y-0.700 E84.78144
G1 X-0.700 Y-0.700 E84.84985
G1 X-0.700 Y1.200 E84.91825
G1 X1.200 Y1.200 E84.98666
G0 F7500 X1.190 Y1.300
G0 X15.500 Y45.590
G0 X15.600 Y45.600
G1 F1920 X-15.500 Y45.600 E86.10639
G1 X-15.500 Y-45.400 E89.38276
G1 X15.600 Y-45.400 E90.50249
G1 X15.600 Y45.600 E93.77886
G0 F7500 X14.440 Y45.664
G1 F1920 X14.440 Y-45.464 E97.05984
G0 F7500 X14.440 Y-45.300
G0 X15.500 Y-43.319
G0 X15.664 Y-43.319
G1 F1920 X-15.563 Y-43.320 E98.18414
G0 F7500 X-15.400 Y-43.320
G0 X-14.440 Y-45.300
G0 X-14.440 Y-45.464
G1 F1920 X-14.440 Y45.664 E101.46512
G0 F7500 X-14.440 Y45.500
G0 X-15.400 Y43.319
G0 X-15.564 Y43.319
G1 F1920 X15.663 Y43.320 E102.58942
G0 F7500 X15.500 Y43.320
G0 X8.664 Y45.500
G0 X8.664 Y45.664
G1 F1920 X8.664 Y-45.464 E105.87040
G0 F7500 X8.664 Y-45.300
G0 X2.888 Y-45.300
G0 X2.888 Y-45.464
G1 F1920 X2.888 Y45.664 E109.15139
G0 F7500 X2.888 Y45.500
G0 X-2.888 Y45.500
G0 X-2.888 Y45.664
G1 F1920 X-2.888 Y-45.464 E112.43237
G0 F7500 X-2.888 Y-45.300
G0 X-8.664 Y-45.300
G0 X-8.664 Y-45.464
G1 F1920 X-8.664 Y45.664 E115.71335
G0 F7500 X-8.664 Y45.500
G0 X-15.400 Y37.543
G0 X-15.564 Y37.543
G1 F1920 X15.663 Y37.544 E116.83765
G0 F7500 X15.500 Y37.544
G0 X15.500 Y31.768
G0 X15.663 Y31.768
G1 F1920 X-15.564 Y31.767 E117.96195
G0 F7500 X-15.400 Y31.767
G0 X-15.400 Y25.991
G0 X-15.564 Y25.991
G1 F1920 X15.663 Y25.992 E119.08625
G0 F7500 X15.500 Y25.992
G0 X15.500 Y20.216
G0 X15.663 Y20.216
G1 F1920 X-15.564 Y20.215 E120.21055
G0 F7500 X-15.400 Y20.215
G0 X-15.400 Y14.439
G0 X-15.564 Y14.439
G1 F1920 X15.663 Y14.440 E121.33485
G0 F7500 X15.500 Y14.440
G0 X15.500 Y8.664
G0 X15.663 Y8.664
G1 F1920 X-15.564 Y8.663 E122.45915
G0 F7500 X-15.400 Y8.663
G0 X-15.400 Y2.887
G0 X-15.564 Y2.887
G1 F1920 X15.663 Y2.888 E123.58345
G0 F7500 X15.500 Y2.888
G0 X15.500 Y-2.887
G0 X15.664 Y-2.887
G1 F1920 X-15.563 Y-2.888 E124.70775
G0 F7500 X-15.400 Y-2.888
G0 X-15.400 Y-8.664
G0 X-15.563 Y-8.664
G1 F1920 X15.664 Y-8.663 E125.83205
G0 F7500 X15.500 Y-8.663
G0 X15.500 Y-14.439
G0 X15.664 Y-14.439
G1 F1920 X-15.563 Y-14.440 E126.95635
G0 F7500 X-15.400 Y-14.440
G0 X-15.400 Y-20.216
G0 X-15.563 Y-20.216
G1 F1920 X15.664 Y-20.215 E128.08065
G0 F7500 X15.500 Y-20.215
G0 X15.500 Y-25.991
G0 X15.664 Y-25.991
G1 F1920 X-15.563 Y-25.992 E129.20495
G0 F7500 X-15.400 Y-25.992
G0 X-15.400 Y-31.768
G0 X-15.563 Y-31.768
G1 F1920 X15.664 Y-31.767 E130.32925
G0 F7500 X15.500 Y-31.767
G0 X15.500 Y-37.543
G0 X15.664 Y-37.543
G1 F1920 X-15.563 Y-37.544 E131.45355
;LAYER:2
M106 S127
G1 F2400 E130.45355
G0 F7500 X0.216 Y0.216 Z0.700
;TYPE:WALL-OUTER
G1 F2400 E131.45355
G1 F2220 X0.284 Y0.216 E131.45600
G1 X0.284 Y0.284 E131.45844
G1 X0.216 Y0.284 E131.46089
G1 X0.216 Y0.216 E131.46334
G0 F7500 X-0.700 Y-0.700
;TYPE:SUPPORT
G1 F2100 X-0.700 Y1.200 E131.53175
G1 X1.200 Y1.200 E131.60016
G1 X1.200 Y-0.700 E131.66856
G1 X-0.700 Y-0.700 E131.73697
G0 F7500 X-0.690 Y-0.800
G0 X-15.500 Y-45.400
G1 F2100 X15.600 Y-45.400 E132.85670
G1 X15.600 Y45.600 E136.13307
G1 X-15.500 Y45.600 E137.25280
G1 X-15.500 Y-45.400 E140.52917
G0 F7500 X-14.440 Y-45.464
G1 F2100 X-14.440 Y45.664 E143.81015
G0 F7500 X-14.440 Y45.500
G0 X-15.400 Y43.319
G0 X-15.564 Y43.319
G1 F2100 X15.663 Y43.320 E144.93445
G0 F7500 X15.500 Y43.320
G0 X14.440 Y45.500
G0 X14.440 Y45.664
G1 F2100 X14.440 Y-45.464 E148.21543
G0 F7500 X14.440 Y-45.300
G0 X15.500 Y-43.319
G0 X15.664 Y-43.319
G1 F2100 X-15.563 Y-43.320 E149.33973
G0 F7500 X-15.400 Y-43.320
G0 X-8.664 Y-45.300
G0 X-8.664 Y-45.464
G1 F2100 X-8.664 Y45.664 E152.62072
G0 F7500 X-8.664 Y45.500
G0 X-2.888 Y45.500
G0 X-2.888 Y45.664
G1 F2100 X-2.888 Y-45.464 E155.90170
G0 F7500 X-2.888 Y-45.300
G0 X2.888 Y-45.300
G0 X2.888 Y-45.464
G1 F2100 X2.888 Y45.664 E159.18268
G0 F7500 X2.888 Y45.500
G0 X8.664 Y45.500
G0 X8.664 Y45.664
G1 F2100 X8.664 Y-45.464 E162.46366
G0 F7500 X8.664 Y-45.300
G0 X15.500 Y-37.543
G0 X15.664 Y-37.543
G1 F2100 X-15.563 Y-37.544 E163.58796
G0 F7500 X-15.400 Y-37.544
G0 X-15.400 Y-31.768
G0 X-15.563 Y-31.768
G1 F2100 X15.664 Y-31.767 E164.71226
G0 F7500 X15.500 Y-31.767
G0 X15.500 Y-25.991
G0 X15.664 Y-25.991
G1 F2100 X-15.563 Y-25.992 E165.83656
G0 F7500 X-15.400 Y-25.992
G0 X-15.400 Y-20.216
G0 X-15.563 Y-20.216
G1 F2100 X15.664 Y-20.215 E166.96086
G0 F7500 X15.500 Y-20.215
G0 X15.500 Y-14.439
G0 X15.664 Y-14.439
G1 F2100 X-15.563 Y-14.440 E168.08516
G0 F7500 X-15.400 Y-14.440
G0 X-15.400 Y-8.664
G0 X-15.563 Y-8.664
G1 F2100 X15.664 Y-8.663 E169.20946
G0 F7500 X15.500 Y-8.663
G0 X15.500 Y-2.887
G0 X15.664 Y-2.887
G1 F2100 X-15.563 Y-2.888 E170.33376
G0 F7500 X-15.400 Y-2.888
G0 X-15.400 Y2.887
G0 X-15.564 Y2.887
G1 F2100 X15.663 Y2.888 E171.45806
G0 F7500 X15.500 Y2.888
G0 X15.500 Y8.664
G0 X15.663 Y8.664
G1 F2100 X-15.564 Y8.663 E172.58236
G0 F7500 X-15.400 Y8.663
G0 X-15.400 Y14.439
G0 X-15.564 Y14.439
G1 F2100 X15.663 Y14.440 E173.70666
G0 F7500 X15.500 Y14.440
G0 X15.500 Y20.216
G0 X15.663 Y20.216
G1 F2100 X-15.564 Y20.215 E174.83096
G0 F7500 X-15.400 Y20.215
G0 X-15.400 Y25.991
G0 X-15.564 Y25.991
G1 F2100 X15.663 Y25.992 E175.95526
G0 F7500 X15.500 Y25.992
G0 X15.500 Y31.768
G0 X15.663 Y31.768
G1 F2100 X-15.564 Y31.767 E177.07956
G0 F7500 X-15.400 Y31.767
G0 X-15.400 Y37.543
G0 X-15.564 Y37.543
G1 F2100 X15.663 Y37.544 E178.20386
;LAYER:3
G1 F2400 E177.20386
G0 F7500 X0.284 Y0.284 Z0.900
;TYPE:WALL-OUTER
G1 F2400 E178.20386
G1 X0.216 Y0.284 E178.20631
G1 X0.216 Y0.216 E178.20875
G1 X0.284 Y0.216 E178.21120
G1 X0.284 Y0.284 E178.21365
G0 F7500 X1.200 Y1.200
;TYPE:SUPPORT
G1 F2220 X1.200 Y-0.700 E178.28206
G1 X-0.700 Y-0.700 E178.35047
G1 X-0.700 Y1.200 E178.41887
G1 X1.200 Y1.200 E178.48728
G0 F7500 X1.190 Y1.300
G0 X15.500 Y45.590
G0 X15.600 Y45.600
G1 F2220 X-15.500 Y45.600 E179.60701
G1 X-15.500 Y-45.400 E182.88338
G1 X15.600 Y-45.400 E184.00311
G1 X15.600 Y45.600 E187.27948
G0 F7500 X14.440 Y45.664
G1 F2220 X14.440 Y-45.464 E190.56046
G0 F7500 X14.440 Y-45.300
G0 X15.500 Y-43.319
G0 X15.664 Y-43.319
G1 F2220 X-15.563 Y-43.320 E191.68476
G0 F7500 X-15.400 Y-43.320
G0 X-14.440 Y-45.300
G0 X-14.440 Y-45.464
G1 F2220 X-14.440 Y45.664 E194.96575
G0 F7500 X-14.440 Y45.500
G0 X-15.400 Y43.319
G0 X-15.564 Y43.319
G1 F2220 X15.663 Y43.320 E196.09005
G0 F7500 X15.500 Y43.320
G0 X8.664 Y45.500
G0 X8.664 Y45.664
G1 F2220 X8.664 Y-45.464 E199.37103
G0 F7500 X8.664 Y-45.300
G0 X2.888 Y-45.300
G0 X2.888 Y-45.464
G1 F2220 X2.888 Y45.664 E202.65201
G0 F7500 X2.888 Y45.500
G0 X-2.888 Y45.500
G0 X-2.888 Y45.664
G1 F2220 X-2.888 Y-45.464 E205.93299
G0 F7500 X-2.888 Y-45.300
G0 X-8.664 Y-45.300
G0 X-8.664 Y-45.464
G1 F2220 X-8.664 Y45.664 E209.21397
G0 F7500 X-8.664 Y45.500
G0 X-15.400 Y37.543
G0 X-15.564 Y37.543
G1 F2220 X15.663 Y37.544 E210.33827
G0 F7500 X15.500 Y37.544
G0 X15.500 Y31.768
G0 X15.663 Y31.768
G1 F2220 X-15.564 Y31.767 E211.46257
G0 F7500 X-15.400 Y31.767
G0 X-15.400 Y25.991
G0 X-15.564 Y25.991
G1 F2220 X15.663 Y25.992 E212.58687
G0 F7500 X15.500 Y25.992
G0 X15.500 Y20.216
G0 X15.663 Y20.216
G1 F2220 X-15.564 Y20.215 E213.71117
G0 F7500 X-15.400 Y20.215
G0 X-15.400 Y14.439
G0 X-15.564 Y14.439
G1 F2220 X15.663 Y14.440 E214.83547
G0 F7500 X15.500 Y14.440
G0 X15.500 Y8.664
G0 X15.663 Y8.664
G1 F2220 X-15.564 Y8.663 E215.95977
G0 F7500 X-15.400 Y8.663
G0 X-15.400 Y2.887
G0 X-15.564 Y2.887
G1 F2220 X15.663 Y2.888 E217.08407
G0 F7500 X15.500 Y2.888
G0 X15.500 Y-2.887
G0 X15.664 Y-2.887
G1 F2220 X-15.563 Y-2.888 E218.20837
G0 F7500 X-15.400 Y-2.888
G0 X-15.400 Y-8.664
G0 X-15.563 Y-8.664
G1 F2220 X15.664 Y-8.663 E219.33267
G0 F7500 X15.500 Y-8.663
G0 X15.500 Y-14.439
G0 X15.664 Y-14.439
G1 F2220 X-15.563 Y-14.440 E220.45697
G0 F7500 X-15.400 Y-14.440
G0 X-15.400 Y-20.216
G0 X-15.563 Y-20.216
G1 F2220 X15.664 Y-20.215 E221.58127
G0 F7500 X15.500 Y-20.215
G0 X15.500 Y-25.991
G0 X15.664 Y-25.991
G1 F2220 X-15.563 Y-25.992 E222.70557
G0 F7500 X-15.400 Y-25.992
G0 X-15.400 Y-31.768
G0 X-15.563 Y-31.768
G1 F2220 X15.664 Y-31.767 E223.82987
G0 F7500 X15.500 Y-31.767
G0 X15.500 Y-37.543
G0 X15.664 Y-37.543
G1 F2220 X-15.563 Y-37.544 E224.95417
;LAYER:4
G1 F2400 E223.95417
G0 F7500 X0.216 Y0.216 Z1.100
;TYPE:WALL-OUTER
G1 F2400 E224.95417
G1 F2700 X0.284 Y0.216 E224.95662
G1 X0.284 Y0.284 E224.95907
G1 X0.216 Y0.284 E224.96151
G1 X0.216 Y0.216 E224.96396
G0 F7500 X-0.700 Y-0.700
;TYPE:SUPPORT
G1 F2400 X-0.700 Y1.200 E225.03237
G1 X1.200 Y1.200 E225.10078
G1 X1.200 Y-0.700 E225.16919
G1 X-0.700 Y-0.700 E225.23759
G0 F7500 X-0.690 Y-0.800
G0 X-15.500 Y-45.400
G1 F2400 X15.600 Y-45.400 E226.35732
G1 X15.600 Y45.600 E229.63369
G1 X-15.500 Y45.600 E230.75342
G1 X-15.500 Y-45.400 E234.02979
G0 F7500 X-14.440 Y-45.464
G1 F2400 X-14.440 Y45.664 E237.31077
G0 F7500 X-14.440 Y45.500
G0 X-15.400 Y43.319
G0 X-15.564 Y43.319
G1 F2400 X15.663 Y43.320 E238.43507
G0 F7500 X15.500 Y43.320
G0 X14.440 Y45.500
G0 X14.440 Y45.664
G1 F2400 X14.440 Y-45.464 E241.71606
G0 F7500 X14.440 Y-45.300
G0 X15.500 Y-43.319
G0 X15.664 Y-43.319
G1 F2400 X-15.563 Y-43.320 E242.84036
G0 F7500 X-15.400 Y-43.320
G0 X-8.664 Y-45.300
G0 X-8.664 Y-45.464
G1 F2400 X-8.664 Y45.664 E246.12134
G0 F7500 X-8.664 Y45.500
G0 X-2.888 Y45.500
G0 X-2.888 Y45.664
G1 F2400 X-2.888 Y-45.464 E249.40232
G0 F7500 X-2.888 Y-45.300
G0 X2.888 Y-45.300
G0 X2.888 Y-45.464
G1 F2400 X2.888 Y45.664 E252.68330
G0 F7500 X2.888 Y45.500
G0 X8.664 Y45.500
G0 X8.664 Y45.664
G1 F2400 X8.664 Y-45.464 E255.96428
G0 F7500 X8.664 Y-45.300
G0 X15.500 Y-37.543
G0 X15.664 Y-37.543
G1 F2400 X-15.563 Y-37.544 E257.08858
G0 F7500 X-15.400 Y-37.544
G0 X-15.400 Y-31.768
G0 X-15.563 Y-31.768
G1 F2400 X15.664 Y-31.767 E258.21288
G0 F7500 X15.500 Y-31.767
G0 X15.500 Y-25.991
G0 X15.664 Y-25.991
G1 F2400 X-15.563 Y-25.992 E259.33718
G0 F7500 X-15.400 Y-25.992
G0 X-15.400 Y-20.216
G0 X-15.563 Y-20.216
G1 F2400 X15.664 Y-20.215 E260.46148
G0 F7500 X15.500 Y-20.215
G0 X15.500 Y-14.439
G0 X15.664 Y-14.439
G1 F2400 X-15.563 Y-14.440 E261.58578
G0 F7500 X-15.400 Y-14.440
G0 X-15.400 Y-8.664
G0 X-15.563 Y-8.664
G1 F2400 X15.664 Y-8.663 E262.71008
G0 F7500 X15.500 Y-8.663
G0 X15.500 Y-2.887
G0 X15.664 Y-2.887
G1 F2400 X-15.563 Y-2.888 E263.83438
G0 F7500 X-15.400 Y-2.888
G0 X-15.400 Y2.887
G0 X-15.564 Y2.887
G1 F2400 X15.663 Y2.888 E264.95868
G0 F7500 X15.500 Y2.888
G0 X15.500 Y8.664
G0 X15.663 Y8.664
G1 F2400 X-15.564 Y8.663 E266.08298
G0 F7500 X-15.400 Y8.663
G0 X-15.400 Y14.439
G0 X-15.564 Y14.439
G1 F2400 X15.663 Y14.440 E267.20728
G0 F7500 X15.500 Y14.440
G0 X15.500 Y20.216
G0 X15.663 Y20.216
G1 F2400 X-15.564 Y20.215 E268.33158
G0 F7500 X-15.400 Y20.215
G0 X-15.400 Y25.991
G0 X-15.564 Y25.991
G1 F2400 X15.663 Y25.992 E269.45588
G0 F7500 X15.500 Y25.992
G0 X15.500 Y31.768
G0 X15.663 Y31.768
G1 F2400 X-15.564 Y31.767 E270.58018
G0 F7500 X-15.400 Y31.767
G0 X-15.400 Y37.543
G0 X-15.564 Y37.543
G1 F2400 X15.663 Y37.544 E271.70448
;LAYER:5
G1 F2400 E270.70448
G0 F7500 X0.284 Y0.284 Z1.300
;TYPE:WALL-OUTER
G1 F2400 E271.70448
G1 F2700 X0.216 Y0.284 E271.70693
G1 X0.216 Y0.216 E271.70938
G1 X0.284 Y0.216 E271.71182
G1 X0.284 Y0.284 E271.71427
G0 F7500 X1.200 Y1.200
;TYPE:SUPPORT
G1 F2400 X1.200 Y-0.700 E271.78268
G1 X-0.700 Y-0.700 E271.85109
G1 X-0.700 Y1.200 E271.91950
G1 X1.200 Y1.200 E271.98790
G0 F7500 X1.190 Y1.300
G0 X15.500 Y45.590
G0 X15.600 Y45.600
G1 F2400 X-15.500 Y45.600 E273.10763
G1 X-15.500 Y-45.400 E276.38400
G1 X15.600 Y-45.400 E277.50373
G1 X15.600 Y45.600 E280.78010
G0 F7500 X14.440 Y45.664
G1 F2400 X14.440 Y-45.464 E284.06109
G0 F7500 X14.440 Y-45.300
G0 X15.500 Y-43.319
G0 X15.664 Y-43.319
G1 F2400 X-15.563 Y-43.320 E285.18539
G0 F7500 X-15.400 Y-43.320
G0 X-14.440 Y-45.300
G0 X-14.440 Y-45.464
G1 F2400 X-14.440 Y45.664 E288.46637
G0 F7500 X-14.440 Y45.500
G0 X-15.400 Y43.319
G0 X-15.564 Y43.319
G1 F2400 X15.663 Y43.320 E289.59067
G0 F7500 X15.500 Y43.320
G0 X8.664 Y45.500
G0 X8.664 Y45.664
G1 F2400 X8.664 Y-45.464 E292.87165
G0 F7500 X8.664 Y-45.300
G0 X2.888 Y-45.300
G0 X2.888 Y-45.464
G1 F2400 X2.888 Y45.664 E296.15263
G0 F7500 X2.888 Y45.500
G0 X-2.888 Y45.500
G0 X-2.888 Y45.664
G1 F2400 X-2.888 Y-45.464 E299.43361
G0 F7500 X-2.888 Y-45.300
G0 X-8.664 Y-45.300
G0 X-8.664 Y-45.464
G1 F2400 X-8.664 Y45.664 E302.71459
G0 F7500 X-8.664 Y45.500
G0 X-15.400 Y37.543
G0 X-15.564 Y37.543
G1 F2400 X15.663 Y37.544 E303.83889
G0 F7500 X15.500 Y37.544
G0 X15.500 Y31.768
G0 X15.663 Y31.768
G1 F2400 X-15.564 Y31.767 E304.96319
G0 F7500 X-15.400 Y31.767
G0 X-15.400 Y25.991
G0 X-15.564 Y25.991
G1 F2400 X15.663 Y25.992 E306.08749
G0 F7500 X15.500 Y25.992
G0 X15.500 Y20.216
G0 X15.663 Y20.216
G1 F2400 X-15.564 Y20.215 E307.21179
G0 F7500 X-15.400 Y20.215
G0 X-15.400 Y14.439
G0 X-15.564 Y14.439
G1 F2400 X15.663 Y14.440 E308.33609
G0 F7500 X15.500 Y14.440
G0 X15.500 Y8.664
G0 X15.663 Y8.664
G1 F2400 X-15.564 Y8.663 E309.46039
G0 F7500 X-15.400 Y8.663
G0 X-15.400 Y2.887
G0 X-15.564 Y2.887
G1 F2400 X15.663 Y2.888 E310.58469
G0 F7500 X15.500 Y2.888
