;Generated with Cura_SteamEngine 15.04.6

;Layer count: 16
;LAYER:0
M107
G0 F7500 X-24.149 Y-9.049 Z0.300
;TYPE:SKIRT
G1 F1800 X24.249 Y-9.049 E2.61379
G1 X24.249 Y9.249 E3.60199
G1 X-24.149 Y9.249 E6.21578
G1 X-24.149 Y-9.049 E7.20399
G0 F7500 X-23.716 Y-8.616
G1 F1800 X23.816 Y-8.616 E9.77101
G1 X23.816 Y8.816 E10.71244
G1 X-23.716 Y8.816 E13.27946
G1 X-23.716 Y-8.616 E14.22090
G1 F2400 E13.22090
G0 F7500 X0.216 Y0.216
;TYPE:WALL-OUTER
G1 F2400 E14.22090
G1 F1800 X0.284 Y0.216 E14.22457
G1 X0.284 Y0.284 E14.22824
G1 X0.216 Y0.284 E14.23192
G1 X0.216 Y0.216 E14.23559
G0 F7500 X-0.700 Y-0.700
;TYPE:SUPPORT
G1 F1800 X-0.700 Y1.200 E14.33820
G1 X1.200 Y1.200 E14.44081
G1 X1.200 Y-0.700 E14.54342
G1 X-0.700 Y-0.700 E14.64603
G0 F7500 X-0.690 Y-0.800
G0 X-20.500 Y-5.400
G1 F1800 X20.600 Y-5.400 E16.86569
G1 X20.600 Y5.600 E17.45975
G1 X-20.500 Y5.600 E19.67941
G1 X-20.500 Y-5.400 E20.27347
G0 F7500 X-20.216 Y-5.464
G1 F1800 X-20.216 Y5.664 E20.87445
G0 F7500 X-20.216 Y5.500
G0 X-20.400 Y2.887
G0 X-20.564 Y2.887
G1 F1800 X20.663 Y2.888 E23.10097
G0 F7500 X20.500 Y2.888
G0 X20.216 Y5.500
G0 X20.216 Y5.664
G1 F1800 X20.216 Y-5.464 E23.70195
G0 F7500 X20.216 Y-5.300
G0 X20.500 Y-2.887
G0 X20.664 Y-2.887
G1 F1800 X-20.563 Y-2.888 E25.92846
G0 F7500 X-20.400 Y-2.888
G0 X-14.440 Y-5.300
G0 X-14.440 Y-5.464
G1 F1800 X-14.440 Y5.664 E26.52944
G0 F7500 X-14.440 Y5.500
G0 X-8.664 Y5.500
G0 X-8.664 Y5.664
G1 F1800 X-8.664 Y-5.464 E27.13042
G0 F7500 X-8.664 Y-5.300
G0 X-2.888 Y-5.300
G0 X-2.888 Y-5.464
G1 F1800 X-2.888 Y5.664 E27.73140
G0 F7500 X-2.888 Y5.500
G0 X2.888 Y5.500
G0 X2.888 Y5.664
G1 F1800 X2.888 Y-5.464 E28.33238
G0 F7500 X2.888 Y-5.300
G0 X8.664 Y-5.300
G0 X8.664 Y-5.464
G1 F1800 X8.664 Y5.664 E28.93336
G0 F7500 X8.664 Y5.500
G0 X14.440 Y5.500
G0 X14.440 Y5.664
G1 F1800 X14.440 Y-5.464 E29.53434
;LAYER:1
M106 S63
G1 F2400 E28.53434
G0 F7500 X0.284 Y0.216 Z0.500
;TYPE:WALL-OUTER
G1 F2400 E29.53434
G1 F1980 X0.284 Y0.284 E29.53679
G1 X0.216 Y0.284 E29.53924
G1 X0.216 Y0.216 E29.54168
G1 X0.284 Y0.216 E29.54413
G0 F7500 X1.200 Y-0.700
;TYPE:SUPPORT
G1 F1920 X-0.700 Y-0.700 E29.61254
G1 X-0.700 Y1.200 E29.68095
G1 X1.200 Y1.200 E29.74936
G1 X1.200 Y-0.700 E29.81776
G0 F7500 X20.600 Y-5.400
G1 F1920 X20.600 Y5.600 E30.21381
G1 X-20.500 Y5.600 E31.69358
G1 X-20.500 Y-5.400 E32.08962
G1 X20.600 Y-5.400 E33.56939
G0 F7500 X20.216 Y-5.464
G1 F1920 X20.216 Y5.664 E33.97004
G0 F7500 X20.216 Y5.500
G0 X20.500 Y2.888
G0 X20.663 Y2.888
G1 F1920 X-20.564 Y2.887 E35.45439
G0 F7500 X-20.400 Y2.887
G0 X-20.216 Y5.500
G0 X-20.216 Y5.664
G1 F1920 X-20.216 Y-5.464 E35.85504
G0 F7500 X-20.216 Y-5.300
G0 X-20.400 Y-2.888
G0 X-20.563 Y-2.888
G1 F1920 X20.664 Y-2.887 E37.33938
G0 F7500 X20.500 Y-2.887
G0 X14.440 Y-5.300
G0 X14.440 Y-5.464
G1 F1920 X14.440 Y5.664 E37.74003
G0 F7500 X14.440 Y5.500
G0 X8.664 Y5.500
G0 X8.664 Y5.664
G1 F1920 X8.664 Y-5.464 E38.14069
G0 F7500 X8.664 Y-5.300
G0 X2.888 Y-5.300
G0 X2.888 Y-5.464
G1 F1920 X2.888 Y5.664 E38.54134
G0 F7500 X2.888 Y5.500
G0 X-2.888 Y5.500
G0 X-2.888 Y5.664
G1 F1920 X-2.888 Y-5.464 E38.94199
G0 F7500 X-2.888 Y-5.300
G0 X-8.664 Y-5.300
G0 X-8.664 Y-5.464
G1 F1920 X-8.664 Y5.664 E39.34265
G0 F7500 X-8.664 Y5.500
G0 X-14.440 Y5.500
G0 X-14.440 Y5.664
G1 F1920 X-14.440 Y-5.464 E39.74330
;LAYER:2
M106 S127
G1 F2400 E38.74330
G0 F7500 X0.216 Y0.216 Z0.700
;TYPE:WALL-OUTER
G1 F2400 E39.74330
G1 F2220 X0.284 Y0.216 E39.74575
G1 X0.284 Y0.284 E39.74820
G1 X0.216 Y0.284 E39.75065
G1 X0.216 Y0.216 E39.75309
G0 F7500 X-0.700 Y-0.700
;TYPE:SUPPORT
G1 F2100 X-0.700 Y1.200 E39.82150
G1 X1.200 Y1.200 E39.88991
G1 X1.200 Y-0.700 E39.95832
G1 X-0.700 Y-0.700 E40.02673
G0 F7500 X-0.690 Y-0.800
G0 X-20.500 Y-5.400
G1 F2100 X20.600 Y-5.400 E41.50649
G1 X20.600 Y5.600 E41.90254
G1 X-20.500 Y5.600 E43.38231
G1 X-20.500 Y-5.400 E43.77835
G0 F7500 X-20.216 Y-5.464
G1 F2100 X-20.216 Y5.664 E44.17901
G0 F7500 X-20.216 Y5.500
G0 X-20.400 Y2.887
G0 X-20.564 Y2.887
G1 F2100 X20.663 Y2.888 E45.66335
G0 F7500 X20.500 Y2.888
G0 X20.216 Y5.500
G0 X20.216 Y5.664
G1 F2100 X20.216 Y-5.464 E46.06400
G0 F7500 X20.216 Y-5.300
G0 X20.500 Y-2.887
G0 X20.664 Y-2.887
G1 F2100 X-20.563 Y-2.888 E47.54834
G0 F7500 X-20.400 Y-2.888
G0 X-14.440 Y-5.300
G0 X-14.440 Y-5.464
G1 F2100 X-14.440 Y5.664 E47.94900
G0 F7500 X-14.440 Y5.500
G0 X-8.664 Y5.500
G0 X-8.664 Y5.664
G1 F2100 X-8.664 Y-5.464 E48.34965
G0 F7500 X-8.664 Y-5.300
G0 X-2.888 Y-5.300
G0 X-2.888 Y-5.464
G1 F2100 X-2.888 Y5.664 E48.75030
G0 F7500 X-2.888 Y5.500
G0 X2.888 Y5.500
G0 X2.888 Y5.664
G1 F2100 X2.888 Y-5.464 E49.15096
G0 F7500 X2.888 Y-5.300
G0 X8.664 Y-5.300
G0 X8.664 Y-5.464
G1 F2100 X8.664 Y5.664 E49.55161
G0 F7500 X8.664 Y5.500
G0 X14.440 Y5.500
G0 X14.440 Y5.664
G1 F2100 X14.440 Y-5.464 E49.95226
;LAYER:3
G1 F2400 E48.95226
G0 F7500 X0.284 Y0.216 Z0.900
;TYPE:WALL-OUTER
G1 F2400 E49.95226
G1 X0.284 Y0.284 E49.95471
G1 X0.216 Y0.284 E49.95716
G1 X0.216 Y0.216 E49.95961
G1 X0.284 Y0.216 E49.96206
G0 F7500 X1.200 Y-0.700
;TYPE:SUPPORT
G1 F2220 X-0.700 Y-0.700 E50.03046
G1 X-0.700 Y1.200 E50.09887
G1 X1.200 Y1.200 E50.16728
G1 X1.200 Y-0.700 E50.23569
G0 F7500 X20.600 Y-5.400
G1 F2220 X20.600 Y5.600 E50.63173
G1 X-20.500 Y5.600 E52.11150
G1 X-20.500 Y-5.400 E52.50755
G1 X20.600 Y-5.400 E53.98731
G0 F7500 X20.216 Y-5.464
G1 F2220 X20.216 Y5.664 E54.38797
G0 F7500 X20.216 Y5.500
G0 X20.500 Y2.888
G0 X20.663 Y2.888
G1 F2220 X-20.564 Y2.887 E55.87231
G0 F7500 X-20.400 Y2.887
G0 X-20.216 Y5.500
G0 X-20.216 Y5.664
G1 F2220 X-20.216 Y-5.464 E56.27296
G0 F7500 X-20.216 Y-5.300
G0 X-20.400 Y-2.888
G0 X-20.563 Y-2.888
G1 F2220 X20.664 Y-2.887 E57.75730
G0 F7500 X20.500 Y-2.887
G0 X14.440 Y-5.300
G0 X14.440 Y-5.464
G1 F2220 X14.440 Y5.664 E58.15796
G0 F7500 X14.440 Y5.500
G0 X8.664 Y5.500
G0 X8.664 Y5.664
G1 F2220 X8.664 Y-5.464 E58.55861
G0 F7500 X8.664 Y-5.300
G0 X2.888 Y-5.300
G0 X2.888 Y-5.464
G1 F2220 X2.888 Y5.664 E58.95926
G0 F7500 X2.888 Y5.500
G0 X-2.888 Y5.500
G0 X-2.888 Y5.664
G1 F2220 X-2.888 Y-5.464 E59.35992
G0 F7500 X-2.888 Y-5.300
G0 X-8.664 Y-5.300
G0 X-8.664 Y-5.464
G1 F2220 X-8.664 Y5.664 E59.76057
G0 F7500 X-8.664 Y5.500
G0 X-14.440 Y5.500
G0 X-14.440 Y5.664
G1 F2220 X-14.440 Y-5.464 E60.16122
;LAYER:4
G1 F2400 E59.16122
G0 F7500 X0.216 Y0.216 Z1.100
;TYPE:WALL-OUTER
G1 F2400 E60.16122
G1 F2700 X0.284 Y0.216 E60.16367
G1 X0.284 Y0.284 E60.16612
G1 X0.216 Y0.284 E60.16857
G1 X0.216 Y0.216 E60.17102
G0 F7500 X-0.700 Y-0.700
;TYPE:SUPPORT
G1 F2400 X-0.700 Y1.200 E60.23943
G1 X1.200 Y1.200 E60.30783
G1 X1.200 Y-0.700 E60.37624
G1 X-0.700 Y-0.700 E60.44465
G0 F7500 X-0.690 Y-0.800
G0 X-20.500 Y-5.400
G1 F2400 X20.600 Y-5.400 E61.92442
G1 X20.600 Y5.600 E62.32046
G1 X-20.500 Y5.600 E63.80023
G1 X-20.500 Y-5.400 E64.19628
G0 F7500 X-20.216 Y-5.464
G1 F2400 X-20.216 Y5.664 E64.59693
G0 F7500 X-20.216 Y5.500
G0 X-20.400 Y2.887
G0 X-20.564 Y2.887
G1 F2400 X20.663 Y2.888 E66.08127
G0 F7500 X20.500 Y2.888
G0 X20.216 Y5.500
G0 X20.216 Y5.664
G1 F2400 X20.216 Y-5.464 E66.48192
G0 F7500 X20.216 Y-5.300
G0 X20.500 Y-2.887
G0 X20.664 Y-2.887
G1 F2400 X-20.563 Y-2.888 E67.96626
G0 F7500 X-20.400 Y-2.888
G0 X-14.440 Y-5.300
G0 X-14.440 Y-5.464
G1 F2400 X-14.440 Y5.664 E68.36692
G0 F7500 X-14.440 Y5.500
G0 X-8.664 Y5.500
G0 X-8.664 Y5.664
G1 F2400 X-8.664 Y-5.464 E68.76757
G0 F7500 X-8.664 Y-5.300
G0 X-2.888 Y-5.300
G0 X-2.888 Y-5.464
G1 F2400 X-2.888 Y5.664 E69.16823
G0 F7500 X-2.888 Y5.500
G0 X2.888 Y5.500
G0 X2.888 Y5.664
G1 F2400 X2.888 Y-5.464 E69.56888
G0 F7500 X2.888 Y-5.300
G0 X8.664 Y-5.300
G0 X8.664 Y-5.464
G1 F2400 X8.664 Y5.664 E69.96953
G0 F7500 X8.664 Y5.500
G0 X14.440 Y5.500
G0 X14.440 Y5.664
G1 F2400 X14.440 Y-5.464 E70.37019
;LAYER:5
G1 F2400 E69.37019
G0 F7500 X0.284 Y0.216 Z1.300
;TYPE:WALL-OUTER
G1 F2400 E70.37019
G1 F2700 X0.284 Y0.284 E70.37263
G1 X0.216 Y0.284 E70.37508
G1 X0.216 Y0.216 E70.37753
G1 X0.284 Y0.216 E70.37998
G0 F7500 X1.200 Y-0.700
;TYPE:SUPPORT
G1 F2400 X-0.700 Y-0.700 E70.44839
G1 X-0.700 Y1.200 E70.51679
G1 X1.200 Y1.200 E70.58520
G1 X1.200 Y-0.700 E70.65361
G0 F7500 X20.600 Y-5.400
G1 F2400 X20.600 Y5.600 E71.04966
G1 X-20.500 Y5.600 E72.52942
G1 X-20.500 Y-5.400 E72.92547
G1 X20.600 Y-5.400 E74.40524
G0 F7500 X20.216 Y-5.464
G1 F2400 X20.216 Y5.664 E74.80589
G0 F7500 X20.216 Y5.500
G0 X20.500 Y2.888
G0 X20.663 Y2.888
G1 F2400 X-20.564 Y2.887 E76.29023
G0 F7500 X-20.400 Y2.887
G0 X-20.216 Y5.500
G0 X-20.216 Y5.664
G1 F2400 X-20.216 Y-5.464 E76.69089
G0 F7500 X-20.216 Y-5.300
G0 X-20.400 Y-2.888
G0 X-20.563 Y-2.888
G1 F2400 X20.664 Y-2.887 E78.17523
G0 F7500 X20.500 Y-2.887
G0 X14.440 Y-5.300
G0 X14.440 Y-5.464
G1 F2400 X14.440 Y5.664 E78.57588
G0 F7500 X14.440 Y5.500
G0 X8.664 Y5.500
G0 X8.664 Y5.664
G1 F2400 X8.664 Y-5.464 E78.97653
G0 F7500 X8.664 Y-5.300
G0 X2.888 Y-5.300
G0 X2.888 Y-5.464
G1 F2400 X2.888 Y5.664 E79.37719
G0 F7500 X2.888 Y5.500
G0 X-2.888 Y5.500
G0 X-2.888 Y5.664
G1 F2400 X-2.888 Y-5.464 E79.77784
G0 F7500 X-2.888 Y-5.300
G0 X-8.664 Y-5.300
G0 X-8.664 Y-5.464
G1 F2400 X-8.664 Y5.664 E80.17849
G0 F7500 X-8.664 Y5.500
G0 X-14.440 Y5.500
G0 X-14.440 Y5.664
G1 F2400 X-14.440 Y-5.464 E80.57915
;LAYER:6
G1 F2400 E79.57915
G0 F7500 X0.216 Y0.216 Z1.500
;TYPE:WALL-OUTER
G1 F2400 E80.57915
G1 F2700 X0.284 Y0.216 E80.58160
G1 X0.284 Y0.284 E80.58404
G1 X0.216 Y0.284 E80.58649
G1 X0.216 Y0.216 E80.58894
G0 F7500 X-0.700 Y-0.700
;TYPE:SUPPORT
G1 F2400 X-0.700 Y1.200 E80.65735
G1 X1.200 Y1.200 E80.72576
G1 X1.200 Y-0.700 E80.79416
G1 X-0.700 Y-0.700 E80.86257
G0 F7500 X-0.690 Y-0.800
G0 X-20.500 Y-5.400
G1 F2400 X20.600 Y-5.400 E82.34234
G1 X20.600 Y5.600 E82.73839
G1 X-20.500 Y5.600 E84.21815
G1 X-20.500 Y-5.400 E84.61420
G0 F7500 X-20.216 Y-5.464
G1 F2400 X-20.216 Y5.664 E85.01485
G0 F7500 X-20.216 Y5.500
G0 X-20.400 Y2.887
G0 X-20.564 Y2.887
G1 F2400 X20.663 Y2.888 E86.49919
G0 F7500 X20.500 Y2.888
G0 X20.216 Y5.500
G0 X20.216 Y5.664
G1 F2400 X20.216 Y-5.464 E86.89985
G0 F7500 X20.216 Y-5.300
G0 X20.500 Y-2.887
G0 X20.664 Y-2.887
G1 F2400 X-20.563 Y-2.888 E88.38419
G0 F7500 X-20.400 Y-2.888
G0 X-14.440 Y-5.300
G0 X-14.440 Y-5.464
G1 F2400 X-14.440 Y5.664 E88.78484
G0 F7500 X-14.440 Y5.500
G0 X-8.664 Y5.500
G0 X-8.664 Y5.664
G1 F2400 X-8.664 Y-5.464 E89.18549
G0 F7500 X-8.664 Y-5.300
G0 X-2.888 Y-5.300
G0 X-2.888 Y-5.464
G1 F2400 X-2.888 Y5.664 E89.58615
G0 F7500 X-2.888 Y5.500
G0 X2.888 Y5.500
G0 X2.888 Y5.664
G1 F2400 X2.888 Y-5.464 E89.98680
G0 F7500 X2.888 Y-5.300
G0 X8.664 Y-5.300
G0 X8.664 Y-5.464
G1 F2400 X8.664 Y5.664 E90.38746
G0 F7500 X8.664 Y5.500
G0 X14.440 Y5.500
G0 X14.440 Y5.664
G1 F2400 X14.440 Y-5.464 E90.78811
;LAYER:7
G1 F2400 E89.78811
G0 F7500 X0.284 Y0.216 Z1.700
;TYPE:WALL-OUTER
G1 F2400 E90.78811
G1 F2700 X0.284 Y0.284 E90.79056
G1 X0.216 Y0.284 E90.79301
G1 X0.216 Y0.216 E90.79545
G1 X0.284 Y0.216 E90.79790
G0 F7500 X1.200 Y-0.700
;TYPE:SUPPORT
G1 F2400 X-0.700 Y-0.700 E90.86631
G1 X-0.700 Y1.200 E90.93472
G1 X1.200 Y1.200 E91.00313
G1 X1.200 Y-0.700 E91.07153
G0 F7500 X20.600 Y-5.400
G1 F2400 X20.600 Y5.600 E91.46758
G1 X-20.500 Y5.600 E92.94735
G1 X-20.500 Y-5.400 E93.34339
G1 X20.600 Y-5.400 E94.82316
G0 F7500 X20.216 Y-5.464
G1 F2400 X20.216 Y5.664 E95.22381
G0 F7500 X20.216 Y5.500
G0 X20.500 Y2.888
G0 X20.663 Y2.888
G1 F2400 X-20.564 Y2.887 E96.70815
G0 F7500 X-20.400 Y2.887
G0 X-20.216 Y5.500
G0 X-20.216 Y5.664
G1 F2400 X-20.216 Y-5.464 E97.10881
G0 F7500 X-20.216 Y-5.300
G0 X-20.400 Y-2.888
G0 X-20.563 Y-2.888
G1 F2400 X20.664 Y-2.887 E98.59315
G0 F7500 X20.500 Y-2.887
G0 X14.440 Y-5.300
G0 X14.440 Y-5.464
G1 F2400 X14.440 Y5.664 E98.99380
G0 F7500 X14.440 Y5.500
G0 X8.664 Y5.500
G0 X8.664 Y5.664
G1 F2400 X8.664 Y-5.464 E99.39446
G0 F7500 X8.664 Y-5.300
G0 X2.888 Y-5.300
G0 X2.888 Y-5.464
G1 F2400 X2.888 Y5.664 E99.79511
G0 F7500 X2.888 Y5.500
G0 X-2.888 Y5.500
G0 X-2.888 Y5.664
G1 F2400 X-2.888 Y-5.464 E100.19576
G0 F7500 X-2.888 Y-5.300
G0 X-8.664 Y-5.300
G0 X-8.664 Y-5.464
G1 F2400 X-8.664 Y5.664 E100.59642
G0 F7500 X-8.664 Y5.500
G0 X-14.440 Y5.500
G0 X-14.440 Y5.664
G1 F2400 X-14.440 Y-5.464 E100.99707
;LAYER:8
G1 F2400 E99.99707
G0 F7500 X0.216 Y0.216 Z1.900
;TYPE:WALL-OUTER
G1 F2400 E100.99707
G1 F2700 X0.284 Y0.216 E100.99952
G1 X0.284 Y0.284 E101.00197
G1 X0.216 Y0.284 E101.00442
G1 X0.216 Y0.216 E101.00686
G0 F7500 X-0.700 Y-0.700
;TYPE:SUPPORT
G1 F2400 X-0.700 Y1.200 E101.07527
G1 X1.200 Y1.200 E101.14368
G1 X1.200 Y-0.700 E101.21209
G1 X-0.700 Y-0.700 E101.28049
G0 F7500 X-0.690 Y-0.800
G0 X-20.500 Y-5.400
G1 F2400 X20.600 Y-5.400 E102.76026
G1 X20.600 Y5.600 E103.15631
G1 X-20.500 Y5.600 E104.63608
G1 X-20.500 Y-5.400 E105.03212
G0 F7500 X-20.216 Y-5.464
G1 F2400 X-20.216 Y5.664 E105.43278
G0 F7500 X-20.216 Y5.500
G0 X-20.400 Y2.887
G0 X-20.564 Y2.887
G1 F2400 X20.663 Y2.888 E106.91712
G0 F7500 X20.500 Y2.888
G0 X20.216 Y5.500
G0 X20.216 Y5.664
G1 F2400 X20.216 Y-5.464 E107.31777
G0 F7500 X20.216 Y-5.300
G0 X20.500 Y-2.887
G0 X20.664 Y-2.887
G1 F2400 X-20.563 Y-2.888 E108.80211
G0 F7500 X-20.400 Y-2.888
G0 X-14.440 Y-5.300
G0 X-14.440 Y-5.464
G1 F2400 X-14.440 Y5.664 E109.20276
G0 F7500 X-14.440 Y5.500
G0 X-8.664 Y5.500
G0 X-8.664 Y5.664
G1 F2400 X-8.664 Y-5.464 E109.60342
G0 F7500 X-8.664 Y-5.300
G0 X-2.888 Y-5.300
G0 X-2.888 Y-5.464
G1 F2400 X-2.888 Y5.664 E110.00407
G0 F7500 X-2.888 Y5.500
G0 X2.888 Y5.500
G0 X2.888 Y5.664
G1 F2400 X2.888 Y-5.464 E110.40472
G0 F7500 X2.888 Y-5.300
G0 X8.664 Y-5.300
G0 X8.664 Y-5.464
G1 F2400 X8.664 Y5.664 E110.80538
G0 F7500 X8.664 Y5.500
G0 X14.440 Y5.500
G0 X14.440 Y5.664
G1 F2400 X14.440 Y-5.464 E111.20603
;LAYER:9
G1 F2400 E110.20603
G0 F7500 X0.284 Y0.216 Z2.100
;TYPE:WALL-OUTER
G1 F2400 E111.20603
G1 F2700 X0.284 Y0.284 E111.20848
G1 X0.216 Y0.284 E111.21093
G1 X0.216 Y0.216 E111.21338
G1 X0.284 Y0.216 E111.21583
G0 F7500 X1.200 Y-0.700
;TYPE:SUPPORT
G1 F2400 X-0.700 Y-0.700 E111.28423
G1 X-0.700 Y1.200 E111.35264
G1 X1.200 Y1.200 E111.42105
G1 X1.200 Y-0.700 E111.48946
G0 F7500 X20.600 Y-5.400
G1 F2400 X20.600 Y5.600 E111.88550
G1 X-20.500 Y5.600 E113.36527
G1 X-20.500 Y-5.400 E113.76131
G1 X20.600 Y-5.400 E115.24108
G0 F7500 X20.216 Y-5.464
G1 F2400 X20.216 Y5.664 E115.64174
G0 F7500 X20.216 Y5.500
G0 X20.500 Y2.888
G0 X20.663 Y2.888
G1 F2400 X-20.564 Y2.887 E117.12608
G0 F7500 X-20.400 Y2.887
G0 X-20.216 Y5.500
G0 X-20.216 Y5.664
G1 F2400 X-20.216 Y-5.464 E117.52673
G0 F7500 X-20.216 Y-5.300
G0 X-20.400 Y-2.888
G0 X-20.563 Y-2.888
G1 F2400 X20.664 Y-2.887 E119.01107
G0 F7500 X20.500 Y-2.887
G0 X14.440 Y-5.300
G0 X14.440 Y-5.464
G1 F2400 X14.440 Y5.664 E119.41173
G0 F7500 X14.440 Y5.500
G0 X8.664 Y5.500
G0 X8.664 Y5.664
G1 F2400 X8.664 Y-5.464 E119.81238
G0 F7500 X8.664 Y-5.300
G0 X2.888 Y-5.300
G0 X2.888 Y-5.464
G1 F2400 X2.888 Y5.664 E120.21303
G0 F7500 X2.888 Y5.500
G0 X-2.888 Y5.500
G0 X-2.888 Y5.664
G1 F2400 X-2.888 Y-5.464 E120.61369
G0 F7500 X-2.888 Y-5.300
G0 X-8.664 Y-5.300
G0 X-8.664 Y-5.464
G1 F2400 X-8.664 Y5.664 E121.01434
G0 F7500 X-8.664 Y5.500
G0 X-14.440 Y5.500
G0 X-14.440 Y5.664
G1 F2400 X-14.440 Y-5.464 E121.41499
;LAYER:10
G1 F2400 E120.41499
G0 F7500 X0.216 Y0.216 Z2.300
;TYPE:WALL-OUTER
G1 F2400 E121.41499
G1 F2700 X0.284 Y0.216 E121.41744
G1 X0.284 Y0.284 E121.41989
G1 X0.216 Y0.284 E121.42234
G1 X0.216 Y0.216 E121.42479
G0 F7500 X-0.700 Y-0.700
;TYPE:SUPPORT
G1 F2400 X-0.700 Y1.200 E121.49319
G1 X1.200 Y1.200 E121.56160
G1 X1.200 Y-0.700 E121.63001
G1 X-0.700 Y-0.700 E121.69842
G0 F7500 X-0.690 Y-0.800
G0 X-20.500 Y-5.400
G1 F2400 X20.600 Y-5.400 E123.17819
G1 X20.600 Y5.600 E123.57423
G1 X-20.500 Y5.600 E125.05400
G1 X-20.500 Y-5.400 E125.45004
G0 F7500 X-20.216 Y-5.464
G1 F2400 X-20.216 Y5.664 E125.85070
G0 F7500 X-20.216 Y5.500
G0 X-20.400 Y2.887
G0 X-20.564 Y2.887
G1 F2400 X20.663 Y2.888 E127.33504
G0 F7500 X20.500 Y2.888
G0 X20.216 Y5.500
G0 X20.216 Y5.664
G1 F2400 X20.216 Y-5.464 E127.73569
G0 F7500 X20.216 Y-5.300
G0 X20.500 Y-2.887
G0 X20.664 Y-2.887
G1 F2400 X-20.563 Y-2.888 E129.22003
G0 F7500 X-20.400 Y-2.888
G0 X-14.440 Y-5.300
G0 X-14.440 Y-5.464
G1 F2400 X-14.440 Y5.664 E129.62069
G0 F7500 X-14.440 Y5.500
G0 X-8.664 Y5.500
G0 X-8.664 Y5.664
G1 F2400 X-8.664 Y-5.464 E130.02134
