;Generated with Cura_SteamEngine 15.04.6

;Layer count: 16
;LAYER:0
M107
G0 F7500 X-23.716 Y-53.616 Z0.300
;TYPE:SKIRT
G1 F1800 X23.816 Y-53.616 E2.56702
G1 X23.816 Y53.816 E8.36901
G1 X-23.716 Y53.816 E10.93603
G1 X-23.716 Y-53.616 E16.73802
G1 F2400 E15.73802
G0 F7500 X0.216 Y0.216
;TYPE:WALL-OUTER
G1 F2400 E16.73802
G1 F1800 X0.284 Y0.216 E16.74169
G1 X0.284 Y0.284 E16.74536
G1 X0.216 Y0.284 E16.74903
G1 X0.216 Y0.216 E16.75271
G0 F7500 X-0.700 Y-0.700
;TYPE:SUPPORT
G1 F1800 X-0.700 Y1.200 E16.85532
G1 X1.200 Y1.200 E16.95793
G1 X1.200 Y-0.700 E17.06054
G1 X-0.700 Y-0.700 E17.16315
G0 F7500 X-0.690 Y-0.800
G0 X-20.500 Y-50.400
G1 F1800 X20.600 Y-50.400 E19.38281
G1 X20.600 Y50.600 E24.83743
G1 X-20.500 Y50.600 E27.05708
G1 X-20.500 Y-50.400 E32.51170
G0 F7500 X-20.216 Y-50.464
G1 F1800 X-20.216 Y50.664 E37.97323
G0 F7500 X-20.216 Y50.500
G0 X-20.400 Y49.095
G0 X-20.564 Y49.095
G1 F1800 X20.663 Y49.096 E40.19974
G0 F7500 X20.500 Y49.096
G0 X20.216 Y50.500
G0 X20.216 Y50.664
G1 F1800 X20.216 Y-50.464 E45.66128
G0 F7500 X20.664 Y-49.095
G1 F1800 X-20.563 Y-49.096 E47.88779
G0 F7500 X-20.400 Y-49.096
G0 X-20.400 Y-43.320
G0 X-20.563 Y-43.320
G1 F1800 X20.664 Y-43.319 E50.11430
G0 F7500 X20.500 Y-43.319
G0 X20.500 Y-37.543
G0 X20.664 Y-37.543
G1 F1800 X-20.563 Y-37.544 E52.34081
G0 F7500 X-20.400 Y-37.544
G0 X-20.400 Y-31.768
G0 X-20.563 Y-31.768
G1 F1800 X20.664 Y-31.767 E54.56732
G0 F7500 X20.500 Y-31.767
G0 X20.500 Y-25.991
G0 X20.664 Y-25.991
G1 F1800 X-20.563 Y-25.992 E56.79383
G0 F7500 X-20.400 Y-25.992
G0 X-20.400 Y-20.216
G0 X-20.563 Y-20.216
G1 F1800 X20.664 Y-20.215 E59.02034
G0 F7500 X20.500 Y-20.215
G0 X20.500 Y-14.439
G0 X20.664 Y-14.439
G1 F1800 X-20.563 Y-14.440 E61.24686
G0 F7500 X-20.400 Y-14.440
G0 X-20.400 Y-8.664
G0 X-20.563 Y-8.664
G1 F1800 X20.664 Y-8.663 E63.47337
G0 F7500 X20.500 Y-8.663
G0 X20.500 Y-2.887
G0 X20.664 Y-2.887
G1 F1800 X-20.563 Y-2.888 E65.69988
G0 F7500 X-20.400 Y-2.888
G0 X-20.400 Y2.887
G0 X-20.564 Y2.887
G1 F1800 X20.663 Y2.888 E67.92639
G0 F7500 X20.500 Y2.888
G0 X20.500 Y8.664
G0 X20.663 Y8.664
G1 F1800 X-20.564 Y8.663 E70.15290
G0 F7500 X-20.400 Y8.663
G0 X-20.400 Y14.439
G0 X-20.564 Y14.439
G1 F1800 X20.663 Y14.440 E72.37941
G0 F7500 X20.500 Y14.440
G0 X20.500 Y20.216
G0 X20.663 Y20.216
G1 F1800 X-20.564 Y20.215 E74.60592
G0 F7500 X-20.400 Y20.215
G0 X-20.400 Y25.991
G0 X-20.564 Y25.991
G1 F1800 X20.663 Y25.992 E76.83244
G0 F7500 X20.500 Y25.992
G0 X20.500 Y31.768
G0 X20.663 Y31.768
G1 F1800 X-20.564 Y31.767 E79.05895
G0 F7500 X-20.400 Y31.767
G0 X-20.400 Y37.543
G0 X-20.564 Y37.543
G1 F1800 X20.663 Y37.544 E81.28546
G0 F7500 X20.500 Y37.544
G0 X20.500 Y43.320
G0 X20.663 Y43.320
G1 F1800 X-20.564 Y43.319 E83.51197
G0 F7500 X-20.400 Y43.319
G0 X-14.440 Y50.500
G0 X-14.440 Y50.664
G1 F1800 X-14.440 Y-50.464 E88.97350
G0 F7500 X-14.440 Y-50.300
G0 X-8.664 Y-50.300
G0 X-8.664 Y-50.464
G1 F1800 X-8.664 Y50.664 E94.43504
G0 F7500 X-8.664 Y50.500
G0 X-2.888 Y50.500
G0 X-2.888 Y50.664
G1 F1800 X-2.888 Y-50.464 E99.89657
G0 F7500 X-2.888 Y-50.300
G0 X2.888 Y-50.300
G0 X2.888 Y-50.464
G1 F1800 X2.888 Y50.664 E105.35810
G0 F7500 X2.888 Y50.500
G0 X8.664 Y50.500
G0 X8.664 Y50.664
G1 F1800 X8.664 Y-50.464 E110.81964
G0 F7500 X8.664 Y-50.300
G0 X14.440 Y-50.300
G0 X14.440 Y-50.464
G1 F1800 X14.440 Y50.664 E116.28117
;LAYER:1
M106 S63
G1 F2400 E115.28117
G0 F7500 X0.284 Y0.284 Z0.500
;TYPE:WALL-OUTER
G1 F2400 E116.28117
G1 F1980 X0.216 Y0.284 E116.28362
G1 X0.216 Y0.216 E116.28607
G1 X0.284 Y0.216 E116.28851
G1 X0.284 Y0.284 E116.29096
G0 F7500 X1.200 Y1.200
;TYPE:SUPPORT
G1 F1920 X1.200 Y-0.700 E116.35937
G1 X-0.700 Y-0.700 E116.42778
G1 X-0.700 Y1.200 E116.49619
G1 X1.200 Y1.200 E116.56459
G0 F7500 X1.190 Y1.300
G0 X20.500 Y50.590
G0 X20.600 Y50.600
G1 F1920 X-20.500 Y50.600 E118.04436
G1 X-20.500 Y-50.400 E121.68078
G1 X20.600 Y-50.400 E123.16054
G1 X20.600 Y50.600 E126.79696
G0 F7500 X20.216 Y50.664
G1 F1920 X20.216 Y-50.464 E130.43798
G0 F7500 X20.664 Y-49.095
G1 F1920 X-20.563 Y-49.096 E131.92232
G0 F7500 X-20.216 Y-50.464
G1 F1920 X-20.216 Y50.664 E135.56334
G0 F7500 X-20.216 Y50.500
G0 X-20.400 Y49.095
G0 X-20.564 Y49.095
G1 F1920 X20.663 Y49.096 E137.04768
G0 F7500 X20.500 Y49.096
G0 X20.500 Y43.320
G0 X20.663 Y43.320
G1 F1920 X-20.564 Y43.319 E138.53202
G0 F7500 X-20.400 Y43.319
G0 X-20.400 Y37.543
G0 X-20.564 Y37.543
G1 F1920 X20.663 Y37.544 E140.01637
G0 F7500 X20.500 Y37.544
G0 X20.500 Y31.768
G0 X20.663 Y31.768
G1 F1920 X-20.564 Y31.767 E141.50071
G0 F7500 X-20.400 Y31.767
G0 X-20.400 Y25.991
G0 X-20.564 Y25.991
G1 F1920 X20.663 Y25.992 E142.98505
G0 F7500 X20.500 Y25.992
G0 X20.500 Y20.216
G0 X20.663 Y20.216
G1 F1920 X-20.564 Y20.215 E144.46939
G0 F7500 X-20.400 Y20.215
G0 X-20.400 Y14.439
G0 X-20.564 Y14.439
G1 F1920 X20.663 Y14.440 E145.95373
G0 F7500 X20.500 Y14.440
G0 X20.500 Y8.664
G0 X20.663 Y8.664
G1 F1920 X-20.564 Y8.663 E147.43807
G0 F7500 X-20.400 Y8.663
G0 X-20.400 Y2.887
G0 X-20.564 Y2.887
G1 F1920 X20.663 Y2.888 E148.92241
G0 F7500 X20.500 Y2.888
G0 X20.500 Y-2.887
G0 X20.664 Y-2.887
G1 F1920 X-20.563 Y-2.888 E150.40675
G0 F7500 X-20.400 Y-2.888
G0 X-20.400 Y-8.664
G0 X-20.563 Y-8.664
G1 F1920 X20.664 Y-8.663 E151.89109
G0 F7500 X20.500 Y-8.663
G0 X20.500 Y-14.439
G0 X20.664 Y-14.439
G1 F1920 X-20.563 Y-14.440 E153.37543
G0 F7500 X-20.400 Y-14.440
G0 X-20.400 Y-20.216
G0 X-20.563 Y-20.216
G1 F1920 X20.664 Y-20.215 E154.85977
G0 F7500 X20.500 Y-20.215
G0 X20.500 Y-25.991
G0 X20.664 Y-25.991
G1 F1920 X-20.563 Y-25.992 E156.34412
G0 F7500 X-20.400 Y-25.992
G0 X-20.400 Y-31.768
G0 X-20.563 Y-31.768
G1 F1920 X20.664 Y-31.767 E157.82846
G0 F7500 X20.500 Y-31.767
G0 X20.500 Y-37.543
G0 X20.664 Y-37.543
G1 F1920 X-20.563 Y-37.544 E159.31280
G0 F7500 X-20.400 Y-37.544
G0 X-20.400 Y-43.320
G0 X-20.563 Y-43.320
G1 F1920 X20.664 Y-43.319 E160.79714
G0 F7500 X20.500 Y-43.319
G0 X14.440 Y-50.300
G0 X14.440 Y-50.464
G1 F1920 X14.440 Y50.664 E164.43816
G0 F7500 X14.440 Y50.500
G0 X8.664 Y50.500
G0 X8.664 Y50.664
G1 F1920 X8.664 Y-50.464 E168.07918
G0 F7500 X8.664 Y-50.300
G0 X2.888 Y-50.300
G0 X2.888 Y-50.464
G1 F1920 X2.888 Y50.664 E171.72020
G0 F7500 X2.888 Y50.500
G0 X-2.888 Y50.500
G0 X-2.888 Y50.664
G1 F1920 X-2.888 Y-50.464 E175.36123
G0 F7500 X-2.888 Y-50.300
G0 X-8.664 Y-50.300
G0 X-8.664 Y-50.464
G1 F1920 X-8.664 Y50.664 E179.00225
G0 F7500 X-8.664 Y50.500
G0 X-14.440 Y50.500
G0 X-14.440 Y50.664
G1 F1920 X-14.440 Y-50.464 E182.64327
;LAYER:2
M106 S127
G1 F2400 E181.64327
G0 F7500 X0.216 Y0.216 Z0.700
;TYPE:WALL-OUTER
G1 F2400 E182.64327
G1 F2220 X0.284 Y0.216 E182.64572
G1 X0.284 Y0.284 E182.64817
G1 X0.216 Y0.284 E182.65062
G1 X0.216 Y0.216 E182.65306
G0 F7500 X-0.700 Y-0.700
;TYPE:SUPPORT
G1 F2100 X-0.700 Y1.200 E182.72147
G1 X1.200 Y1.200 E182.78988
G1 X1.200 Y-0.700 E182.85829
G1 X-0.700 Y-0.700 E182.92670
G0 F7500 X-0.690 Y-0.800
G0 X-20.500 Y-50.400
G1 F2100 X20.600 Y-50.400 E184.40646
G1 X20.600 Y50.600 E188.04288
G1 X-20.500 Y50.600 E189.52265
G1 X-20.500 Y-50.400 E193.15906
G0 F7500 X-20.216 Y-50.464
G1 F2100 X-20.216 Y50.664 E196.80008
G0 F7500 X-20.216 Y50.500
G0 X-20.400 Y49.095
G0 X-20.564 Y49.095
G1 F2100 X20.663 Y49.096 E198.28442
G0 F7500 X20.500 Y49.096
G0 X20.216 Y50.500
G0 X20.216 Y50.664
G1 F2100 X20.216 Y-50.464 E201.92545
G0 F7500 X20.664 Y-49.095
G1 F2100 X-20.563 Y-49.096 E203.40979
G0 F7500 X-20.400 Y-49.096
G0 X-20.400 Y-43.320
G0 X-20.563 Y-43.320
G1 F2100 X20.664 Y-43.319 E204.89413
G0 F7500 X20.500 Y-43.319
G0 X20.500 Y-37.543
G0 X20.664 Y-37.543
G1 F2100 X-20.563 Y-37.544 E206.37847
G0 F7500 X-20.400 Y-37.544
G0 X-20.400 Y-31.768
G0 X-20.563 Y-31.768
G1 F2100 X20.664 Y-31.767 E207.86281
G0 F7500 X20.500 Y-31.767
G0 X20.500 Y-25.991
G0 X20.664 Y-25.991
G1 F2100 X-20.563 Y-25.992 E209.34715
G0 F7500 X-20.400 Y-25.992
G0 X-20.400 Y-20.216
G0 X-20.563 Y-20.216
G1 F2100 X20.664 Y-20.215 E210.83149
G0 F7500 X20.500 Y-20.215
G0 X20.500 Y-14.439
G0 X20.664 Y-14.439
G1 F2100 X-20.563 Y-14.440 E212.31583
G0 F7500 X-20.400 Y-14.440
G0 X-20.400 Y-8.664
G0 X-20.563 Y-8.664
G1 F2100 X20.664 Y-8.663 E213.80017
G0 F7500 X20.500 Y-8.663
G0 X20.500 Y-2.887
G0 X20.664 Y-2.887
G1 F2100 X-20.563 Y-2.888 E215.28451
G0 F7500 X-20.400 Y-2.888
G0 X-20.400 Y2.887
G0 X-20.564 Y2.887
G1 F2100 X20.663 Y2.888 E216.76885
G0 F7500 X20.500 Y2.888
G0 X20.500 Y8.664
G0 X20.663 Y8.664
G1 F2100 X-20.564 Y8.663 E218.25319
G0 F7500 X-20.400 Y8.663
G0 X-20.400 Y14.439
G0 X-20.564 Y14.439
G1 F2100 X20.663 Y14.440 E219.73754
G0 F7500 X20.500 Y14.440
G0 X20.500 Y20.216
G0 X20.663 Y20.216
G1 F2100 X-20.564 Y20.215 E221.22188
G0 F7500 X-20.400 Y20.215
G0 X-20.400 Y25.991
G0 X-20.564 Y25.991
G1 F2100 X20.663 Y25.992 E222.70622
G0 F7500 X20.500 Y25.992
G0 X20.500 Y31.768
G0 X20.663 Y31.768
G1 F2100 X-20.564 Y31.767 E224.19056
G0 F7500 X-20.400 Y31.767
G0 X-20.400 Y37.543
G0 X-20.564 Y37.543
G1 F2100 X20.663 Y37.544 E225.67490
G0 F7500 X20.500 Y37.544
G0 X20.500 Y43.320
G0 X20.663 Y43.320
G1 F2100 X-20.564 Y43.319 E227.15924
G0 F7500 X-20.400 Y43.319
G0 X-14.440 Y50.500
G0 X-14.440 Y50.664
G1 F2100 X-14.440 Y-50.464 E230.80026
G0 F7500 X-14.440 Y-50.300
G0 X-8.664 Y-50.300
G0 X-8.664 Y-50.464
G1 F2100 X-8.664 Y50.664 E234.44128
G0 F7500 X-8.664 Y50.500
G0 X-2.888 Y50.500
G0 X-2.888 Y50.664
G1 F2100 X-2.888 Y-50.464 E238.08231
G0 F7500 X-2.888 Y-50.300
G0 X2.888 Y-50.300
G0 X2.888 Y-50.464
G1 F2100 X2.888 Y50.664 E241.72333
G0 F7500 X2.888 Y50.500
G0 X8.664 Y50.500
G0 X8.664 Y50.664
G1 F2100 X8.664 Y-50.464 E245.36435
G0 F7500 X8.664 Y-50.300
G0 X14.440 Y-50.300
G0 X14.440 Y-50.464
G1 F2100 X14.440 Y50.664 E249.00537
;LAYER:3
G1 F2400 E248.00537
G0 F7500 X0.284 Y0.284 Z0.900
;TYPE:WALL-OUTER
G1 F2400 E249.00537
G1 X0.216 Y0.284 E249.00782
G1 X0.216 Y0.216 E249.01027
G1 X0.284 Y0.216 E249.01272
G1 X0.284 Y0.284 E249.01517
G0 F7500 X1.200 Y1.200
;TYPE:SUPPORT
G1 F2220 X1.200 Y-0.700 E249.08357
G1 X-0.700 Y-0.700 E249.15198
G1 X-0.700 Y1.200 E249.22039
G1 X1.200 Y1.200 E249.28880
G0 F7500 X1.190 Y1.300
G0 X20.500 Y50.590
G0 X20.600 Y50.600
G1 F2220 X-20.500 Y50.600 E250.76857
G1 X-20.500 Y-50.400 E254.40498
G1 X20.600 Y-50.400 E255.88475
G1 X20.600 Y50.600 E259.52116
G0 F7500 X20.216 Y50.664
G1 F2220 X20.216 Y-50.464 E263.16218
G0 F7500 X20.664 Y-49.095
G1 F2220 X-20.563 Y-49.096 E264.64652
G0 F7500 X-20.216 Y-50.464
G1 F2220 X-20.216 Y50.664 E268.28755
G0 F7500 X-20.216 Y50.500
G0 X-20.400 Y49.095
G0 X-20.564 Y49.095
G1 F2220 X20.663 Y49.096 E269.77189
G0 F7500 X20.500 Y49.096
G0 X20.500 Y43.320
G0 X20.663 Y43.320
G1 F2220 X-20.564 Y43.319 E271.25623
G0 F7500 X-20.400 Y43.319
G0 X-20.400 Y37.543
G0 X-20.564 Y37.543
G1 F2220 X20.663 Y37.544 E272.74057
G0 F7500 X20.500 Y37.544
G0 X20.500 Y31.768
G0 X20.663 Y31.768
G1 F2220 X-20.564 Y31.767 E274.22491
G0 F7500 X-20.400 Y31.767
G0 X-20.400 Y25.991
G0 X-20.564 Y25.991
G1 F2220 X20.663 Y25.992 E275.70925
G0 F7500 X20.500 Y25.992
G0 X20.500 Y20.216
G0 X20.663 Y20.216
G1 F2220 X-20.564 Y20.215 E277.19359
G0 F7500 X-20.400 Y20.215
G0 X-20.400 Y14.439
G0 X-20.564 Y14.439
G1 F2220 X20.663 Y14.440 E278.67793
G0 F7500 X20.500 Y14.440
G0 X20.500 Y8.664
G0 X20.663 Y8.664
G1 F2220 X-20.564 Y8.663 E280.16227
G0 F7500 X-20.400 Y8.663
G0 X-20.400 Y2.887
G0 X-20.564 Y2.887
G1 F2220 X20.663 Y2.888 E281.64661
G0 F7500 X20.500 Y2.888
G0 X20.500 Y-2.887
G0 X20.664 Y-2.887
G1 F2220 X-20.563 Y-2.888 E283.13096
G0 F7500 X-20.400 Y-2.888
G0 X-20.400 Y-8.664
G0 X-20.563 Y-8.664
G1 F2220 X20.664 Y-8.663 E284.61530
G0 F7500 X20.500 Y-8.663
G0 X20.500 Y-14.439
G0 X20.664 Y-14.439
G1 F2220 X-20.563 Y-14.440 E286.09964
G0 F7500 X-20.400 Y-14.440
G0 X-20.400 Y-20.216
G0 X-20.563 Y-20.216
G1 F2220 X20.664 Y-20.215 E287.58398
G0 F7500 X20.500 Y-20.215
G0 X20.500 Y-25.991
G0 X20.664 Y-25.991
G1 F2220 X-20.563 Y-25.992 E289.06832
G0 F7500 X-20.400 Y-25.992
G0 X-20.400 Y-31.768
G0 X-20.563 Y-31.768
G1 F2220 X20.664 Y-31.767 E290.55266
G0 F7500 X20.500 Y-31.767
G0 X20.500 Y-37.543
G0 X20.664 Y-37.543
G1 F2220 X-20.563 Y-37.544 E292.03700
G0 F7500 X-20.400 Y-37.544
G0 X-20.400 Y-43.320
G0 X-20.563 Y-43.320
G1 F2220 X20.664 Y-43.319 E293.52134
G0 F7500 X20.500 Y-43.319
G0 X14.440 Y-50.300
G0 X14.440 Y-50.464
G1 F2220 X14.440 Y50.664 E297.16236
G0 F7500 X14.440 Y50.500
G0 X8.664 Y50.500
G0 X8.664 Y50.664
G1 F2220 X8.664 Y-50.464 E300.80339
G0 F7500 X8.664 Y-50.300
G0 X2.888 Y-50.300
G0 X2.888 Y-50.464
G1 F2220 X2.888 Y50.664 E304.44441
G0 F7500 X2.888 Y50.500
G0 X-2.888 Y50.500
G0 X-2.888 Y50.664
G1 F2220 X-2.888 Y-50.464 E308.08543
G0 F7500 X-2.888 Y-50.300
G0 X-8.664 Y-50.300
G0 X-8.664 Y-50.464
G1 F2220 X-8.664 Y50.664 E311.72645
G0 F7500 X-8.664 Y50.500
G0 X-14.440 Y50.500
G0 X-14.440 Y50.664
G1 F2220 X-14.440 Y-50.464 E315.36748
;LAYER:4
G1 F2400 E314.36748
G0 F7500 X0.216 Y0.216 Z1.100
;TYPE:WALL-OUTER
G1 F2400 E315.36748
G1 F2700 X0.284 Y0.216 E315.36992
G1 X0.284 Y0.284 E315.37237
G1 X0.216 Y0.284 E315.37482
G1 X0.216 Y0.216 E315.37727
G0 F7500 X-0.700 Y-0.700
;TYPE:SUPPORT
G1 F2400 X-0.700 Y1.200 E315.44568
G1 X1.200 Y1.200 E315.51408
G1 X1.200 Y-0.700 E315.58249
G1 X-0.700 Y-0.700 E315.65090
G0 F7500 X-0.690 Y-0.800
G0 X-20.500 Y-50.400
G1 F2400 X20.600 Y-50.400 E317.13067
G1 X20.600 Y50.600 E320.76708
G1 X-20.500 Y50.600 E322.24685
G1 X-20.500 Y-50.400 E325.88326
G0 F7500 X-20.216 Y-50.464
G1 F2400 X-20.216 Y50.664 E329.52429
G0 F7500 X-20.216 Y50.500
G0 X-20.400 Y49.095
G0 X-20.564 Y49.095
G1 F2400 X20.663 Y49.096 E331.00863
G0 F7500 X20.500 Y49.096
G0 X20.216 Y50.500
G0 X20.216 Y50.664
G1 F2400 X20.216 Y-50.464 E334.64965
G0 F7500 X20.664 Y-49.095
G1 F2400 X-20.563 Y-49.096 E336.13399
G0 F7500 X-20.400 Y-49.096
G0 X-20.400 Y-43.320
G0 X-20.563 Y-43.320
G1 F2400 X20.664 Y-43.319 E337.61833
G0 F7500 X20.500 Y-43.319
G0 X20.500 Y-37.543
G0 X20.664 Y-37.543
G1 F2400 X-20.563 Y-37.544 E339.10267
G0 F7500 X-20.400 Y-37.544
G0 X-20.400 Y-31.768
G0 X-20.563 Y-31.768
G1 F2400 X20.664 Y-31.767 E340.58701
G0 F7500 X20.500 Y-31.767
G0 X20.500 Y-25.991
G0 X20.664 Y-25.991
G1 F2400 X-20.563 Y-25.992 E342.07135
G0 F7500 X-20.400 Y-25.992
G0 X-20.400 Y-20.216
G0 X-20.563 Y-20.216
G1 F2400 X20.664 Y-20.215 E343.55569
G0 F7500 X20.500 Y-20.215
G0 X20.500 Y-14.439
G0 X20.664 Y-14.439
G1 F2400 X-20.563 Y-14.440 E345.04004
G0 F7500 X-20.400 Y-14.440
G0 X-20.400 Y-8.664
G0 X-20.563 Y-8.664
G1 F2400 X20.664 Y-8.663 E346.52438
G0 F7500 X20.500 Y-8.663
G0 X20.500 Y-2.887
G0 X20.664 Y-2.887
G1 F2400 X-20.563 Y-2.888 E348.00872
G0 F7500 X-20.400 Y-2.888
G0 X-20.400 Y2.887
G0 X-20.564 Y2.887
G1 F2400 X20.663 Y2.888 E349.49306
G0 F7500 X20.500 Y2.888
G0 X20.500 Y8.664
G0 X20.663 Y8.664
G1 F2400 X-20.564 Y8.663 E350.97740
G0 F7500 X-20.400 Y8.663
G0 X-20.400 Y14.439
G0 X-20.564 Y14.439
G1 F2400 X20.663 Y14.440 E352.46174
G0 F7500 X20.500 Y14.440
G0 X20.500 Y20.216
G0 X20.663 Y20.216
G1 F2400 X-20.564 Y20.215 E353.94608
G0 F7500 X-20.400 Y20.215
G0 X-20.400 Y25.991
G0 X-20.564 Y25.991
G1 F2400 X20.663 Y25.992 E355.43042
G0 F7500 X20.500 Y25.992
G0 X20.500 Y31.768
G0 X20.663 Y31.768
G1 F2400 X-20.564 Y31.767 E356.91476
G0 F7500 X-20.400 Y31.767
G0 X-20.400 Y37.543
G0 X-20.564 Y37.543
G1 F2400 X20.663 Y37.544 E358.39910
G0 F7500 X20.500 Y37.544
G0 X20.500 Y43.320
G0 X20.663 Y43.320
G1 F2400 X-20.564 Y43.319 E359.88344
G0 F7500 X-20.400 Y43.319
G0 X-14.440 Y50.500
G0 X-14.440 Y50.664
G1 F2400 X-14.440 Y-50.464 E363.52447
G0 F7500 X-14.440 Y-50.300
G0 X-8.664 Y-50.300
G0 X-8.664 Y-50.464
G1 F2400 X-8.664 Y50.664 E367.16549
G0 F7500 X-8.664 Y50.500
G0 X-2.888 Y50.500
G0 X-2.888 Y50.664
G1 F2400 X-2.888 Y-50.464 E370.80651
G0 F7500 X-2.888 Y-50.300
G0 X2.888 Y-50.300
G0 X2.888 Y-50.464
G1 F2400 X2.888 Y50.664 E374.44753
G0 F7500 X2.888 Y50.500
G0 X8.664 Y50.500
G0 X8.664 Y50.664
G1 F2400 X8.664 Y-50.464 E378.08856
G0 F7500 X8.664 Y-50.300
G0 X14.440 Y-50.300
G0 X14.440 Y-50.464
G1 F2400 X14.440 Y50.664 E381.72958
;LAYER:5
G1 F2400 E380.72958
G0 F7500 X0.284 Y0.284 Z1.300
;TYPE:WALL-OUTER
G1 F2400 E381.72958
G1 F2700 X0.216 Y0.284 E381.73203
G1 X0.216 Y0.216 E381.73447
G1 X0.284 Y0.216 E381.73692
G1 X0.284 Y0.284 E381.73937
G0 F7500 X1.200 Y1.200
;TYPE:SUPPORT
