;Generated with Cura_SteamEngine 15.04.6

;Layer count: 16
;LAYER:0
M107
G0 F7500 X-24.149 Y-14.049 Z0.300
;TYPE:SKIRT
G1 F1800 X24.249 Y-14.049 E2.61379
G1 X24.249 Y14.249 E4.14206
G1 X-24.149 Y14.249 E6.75584
G1 X-24.149 Y-14.049 E8.28411
G0 F7500 X-23.716 Y-13.616
G1 F1800 X23.816 Y-13.616 E10.85113
G1 X23.816 Y13.816 E12.33263
G1 X-23.716 Y13.816 E14.89965
G1 X-23.716 Y-13.616 E16.38114
G1 F2400 E15.38114
G0 F7500 X0.216 Y0.216
;TYPE:WALL-OUTER
G1 F2400 E16.38114
G1 F1800 X0.284 Y0.216 E16.38482
G1 X0.284 Y0.284 E16.38849
G1 X0.216 Y0.284 E16.39216
G1 X0.216 Y0.216 E16.39583
G0 F7500 X-0.700 Y-0.700
;TYPE:SUPPORT
G1 F1800 X-0.700 Y1.200 E16.49845
G1 X1.200 Y1.200 E16.60106
G1 X1.200 Y-0.700 E16.70367
G1 X-0.700 Y-0.700 E16.80628
G0 F7500 X-0.690 Y-0.800
G0 X-20.500 Y-10.400
G1 F1800 X20.600 Y-10.400 E19.02593
G1 X20.600 Y10.600 E20.16006
G1 X-20.500 Y10.600 E22.37971
G1 X-20.500 Y-10.400 E23.51384
G0 F7500 X-20.216 Y-10.464
G1 F1800 X-20.216 Y10.664 E24.65488
G0 F7500 X-20.216 Y10.500
G0 X-20.400 Y8.663
G0 X-20.564 Y8.663
G1 F1800 X20.663 Y8.664 E26.88140
G0 F7500 X20.500 Y8.664
G0 X20.216 Y10.500
G0 X20.216 Y10.664
G1 F1800 X20.216 Y-10.464 E28.02244
G0 F7500 X20.216 Y-10.300
G0 X20.500 Y-8.663
G0 X20.664 Y-8.663
G1 F1800 X-20.563 Y-8.664 E30.24895
G0 F7500 X-20.400 Y-8.664
G0 X-20.400 Y-2.888
G0 X-20.563 Y-2.888
G1 F1800 X20.664 Y-2.887 E32.47546
G0 F7500 X20.500 Y-2.887
G0 X20.500 Y2.888
G0 X20.663 Y2.888
G1 F1800 X-20.564 Y2.887 E34.70197
G0 F7500 X-20.400 Y2.887
G0 X-14.440 Y10.500
G0 X-14.440 Y10.664
G1 F1800 X-14.440 Y-10.464 E35.84301
G0 F7500 X-14.440 Y-10.300
G0 X-8.664 Y-10.300
G0 X-8.664 Y-10.464
G1 F1800 X-8.664 Y10.664 E36.98406
G0 F7500 X-8.664 Y10.500
G0 X-2.888 Y10.500
G0 X-2.888 Y10.664
G1 F1800 X-2.888 Y-10.464 E38.12510
G0 F7500 X-2.888 Y-10.300
G0 X2.888 Y-10.300
G0 X2.888 Y-10.464
G1 F1800 X2.888 Y10.664 E39.26614
G0 F7500 X2.888 Y10.500
G0 X8.664 Y10.500
G0 X8.664 Y10.664
G1 F1800 X8.664 Y-10.464 E40.40718
G0 F7500 X8.664 Y-10.300
G0 X14.440 Y-10.300
G0 X14.440 Y-10.464
G1 F1800 X14.440 Y10.664 E41.54822
;LAYER:1
M106 S63
G1 F2400 E40.54822
G0 F7500 X0.284 Y0.284 Z0.500
;TYPE:WALL-OUTER
G1 F2400 E41.54822
G1 F1980 X0.216 Y0.284 E41.55067
G1 X0.216 Y0.216 E41.55312
G1 X0.284 Y0.216 E41.55557
G1 X0.284 Y0.284 E41.55802
G0 F7500 X1.200 Y1.200
;TYPE:SUPPORT
G1 F1920 X1.200 Y-0.700 E41.62642
G1 X-0.700 Y-0.700 E41.69483
G1 X-0.700 Y1.200 E41.76324
G1 X1.200 Y1.200 E41.83165
G0 F7500 X1.190 Y1.300
G0 X20.500 Y10.590
G0 X20.600 Y10.600
G1 F1920 X-20.500 Y10.600 E43.31142
G1 X-20.500 Y-10.400 E44.06750
G1 X20.600 Y-10.400 E45.54727
G1 X20.600 Y10.600 E46.30336
G0 F7500 X20.216 Y10.664
G1 F1920 X20.216 Y-10.464 E47.06405
G0 F7500 X20.216 Y-10.300
G0 X20.500 Y-8.663
G0 X20.664 Y-8.663
G1 F1920 X-20.563 Y-8.664 E48.54839
G0 F7500 X-20.400 Y-8.664
G0 X-20.216 Y-10.300
G0 X-20.216 Y-10.464
G1 F1920 X-20.216 Y10.664 E49.30909
G0 F7500 X-20.216 Y10.500
G0 X-20.400 Y8.663
G0 X-20.564 Y8.663
G1 F1920 X20.663 Y8.664 E50.79343
G0 F7500 X20.500 Y8.664
G0 X20.500 Y2.888
G0 X20.663 Y2.888
G1 F1920 X-20.564 Y2.887 E52.27777
G0 F7500 X-20.400 Y2.887
G0 X-20.400 Y-2.888
G0 X-20.563 Y-2.888
G1 F1920 X20.664 Y-2.887 E53.76211
G0 F7500 X20.500 Y-2.887
G0 X14.440 Y-10.300
G0 X14.440 Y-10.464
G1 F1920 X14.440 Y10.664 E54.52280
G0 F7500 X14.440 Y10.500
G0 X8.664 Y10.500
G0 X8.664 Y10.664
G1 F1920 X8.664 Y-10.464 E55.28350
G0 F7500 X8.664 Y-10.300
G0 X2.888 Y-10.300
G0 X2.888 Y-10.464
G1 F1920 X2.888 Y10.664 E56.04419
G0 F7500 X2.888 Y10.500
G0 X-2.888 Y10.500
G0 X-2.888 Y10.664
G1 F1920 X-2.888 Y-10.464 E56.80489
G0 F7500 X-2.888 Y-10.300
G0 X-8.664 Y-10.300
G0 X-8.664 Y-10.464
G1 F1920 X-8.664 Y10.664 E57.56558
G0 F7500 X-8.664 Y10.500
G0 X-14.440 Y10.500
G0 X-14.440 Y10.664
G1 F1920 X-14.440 Y-10.464 E58.32628
;LAYER:2
M106 S127
G1 F2400 E57.32628
G0 F7500 X0.216 Y0.216 Z0.700
;TYPE:WALL-OUTER
G1 F2400 E58.32628
G1 F2220 X0.284 Y0.216 E58.32872
G1 X0.284 Y0.284 E58.33117
G1 X0.216 Y0.284 E58.33362
G1 X0.216 Y0.216 E58.33607
G0 F7500 X-0.700 Y-0.700
;TYPE:SUPPORT
G1 F2100 X-0.700 Y1.200 E58.40448
G1 X1.200 Y1.200 E58.47288
G1 X1.200 Y-0.700 E58.54129
G1 X-0.700 Y-0.700 E58.60970
G0 F7500 X-0.690 Y-0.800
G0 X-20.500 Y-10.400
G1 F2100 X20.600 Y-10.400 E60.08947
G1 X20.600 Y10.600 E60.84555
G1 X-20.500 Y10.600 E62.32532
G1 X-20.500 Y-10.400 E63.08141
G0 F7500 X-20.216 Y-10.464
G1 F2100 X-20.216 Y10.664 E63.84210
G0 F7500 X-20.216 Y10.500
G0 X-20.400 Y8.663
G0 X-20.564 Y8.663
G1 F2100 X20.663 Y8.664 E65.32644
G0 F7500 X20.500 Y8.664
G0 X20.216 Y10.500
G0 X20.216 Y10.664
G1 F2100 X20.216 Y-10.464 E66.08714
G0 F7500 X20.216 Y-10.300
G0 X20.500 Y-8.663
G0 X20.664 Y-8.663
G1 F2100 X-20.563 Y-8.664 E67.57148
G0 F7500 X-20.400 Y-8.664
G0 X-20.400 Y-2.888
G0 X-20.563 Y-2.888
G1 F2100 X20.664 Y-2.887 E69.05582
G0 F7500 X20.500 Y-2.887
G0 X20.500 Y2.888
G0 X20.663 Y2.888
G1 F2100 X-20.564 Y2.887 E70.54016
G0 F7500 X-20.400 Y2.887
G0 X-14.440 Y10.500
G0 X-14.440 Y10.664
G1 F2100 X-14.440 Y-10.464 E71.30086
G0 F7500 X-14.440 Y-10.300
G0 X-8.664 Y-10.300
G0 X-8.664 Y-10.464
G1 F2100 X-8.664 Y10.664 E72.06155
G0 F7500 X-8.664 Y10.500
G0 X-2.888 Y10.500
G0 X-2.888 Y10.664
G1 F2100 X-2.888 Y-10.464 E72.82224
G0 F7500 X-2.888 Y-10.300
G0 X2.888 Y-10.300
G0 X2.888 Y-10.464
G1 F2100 X2.888 Y10.664 E73.58294
G0 F7500 X2.888 Y10.500
G0 X8.664 Y10.500
G0 X8.664 Y10.664
G1 F2100 X8.664 Y-10.464 E74.34363
G0 F7500 X8.664 Y-10.300
G0 X14.440 Y-10.300
G0 X14.440 Y-10.464
G1 F2100 X14.440 Y10.664 E75.10433
;LAYER:3
G1 F2400 E74.10433
G0 F7500 X0.284 Y0.284 Z0.900
;TYPE:WALL-OUTER
G1 F2400 E75.10433
G1 X0.216 Y0.284 E75.10678
G1 X0.216 Y0.216 E75.10923
G1 X0.284 Y0.216 E75.11167
G1 X0.284 Y0.284 E75.11412
G0 F7500 X1.200 Y1.200
;TYPE:SUPPORT
G1 F2220 X1.200 Y-0.700 E75.18253
G1 X-0.700 Y-0.700 E75.25094
G1 X-0.700 Y1.200 E75.31935
G1 X1.200 Y1.200 E75.38775
G0 F7500 X1.190 Y1.300
G0 X20.500 Y10.590
G0 X20.600 Y10.600
G1 F2220 X-20.500 Y10.600 E76.86752
G1 X-20.500 Y-10.400 E77.62361
G1 X20.600 Y-10.400 E79.10338
G1 X20.600 Y10.600 E79.85946
G0 F7500 X20.216 Y10.664
G1 F2220 X20.216 Y-10.464 E80.62016
G0 F7500 X20.216 Y-10.300
G0 X20.500 Y-8.663
G0 X20.664 Y-8.663
G1 F2220 X-20.563 Y-8.664 E82.10450
G0 F7500 X-20.400 Y-8.664
G0 X-20.216 Y-10.300
G0 X-20.216 Y-10.464
G1 F2220 X-20.216 Y10.664 E82.86519
G0 F7500 X-20.216 Y10.500
G0 X-20.400 Y8.663
G0 X-20.564 Y8.663
G1 F2220 X20.663 Y8.664 E84.34953
G0 F7500 X20.500 Y8.664
G0 X20.500 Y2.888
G0 X20.663 Y2.888
G1 F2220 X-20.564 Y2.887 E85.83387
G0 F7500 X-20.400 Y2.887
G0 X-20.400 Y-2.888
G0 X-20.563 Y-2.888
G1 F2220 X20.664 Y-2.887 E87.31821
G0 F7500 X20.500 Y-2.887
G0 X14.440 Y-10.300
G0 X14.440 Y-10.464
G1 F2220 X14.440 Y10.664 E88.07891
G0 F7500 X14.440 Y10.500
G0 X8.664 Y10.500
G0 X8.664 Y10.664
G1 F2220 X8.664 Y-10.464 E88.83960
G0 F7500 X8.664 Y-10.300
G0 X2.888 Y-10.300
G0 X2.888 Y-10.464
G1 F2220 X2.888 Y10.664 E89.60030
G0 F7500 X2.888 Y10.500
G0 X-2.888 Y10.500
G0 X-2.888 Y10.664
G1 F2220 X-2.888 Y-10.464 E90.36099
G0 F7500 X-2.888 Y-10.300
G0 X-8.664 Y-10.300
G0 X-8.664 Y-10.464
G1 F2220 X-8.664 Y10.664 E91.12169
G0 F7500 X-8.664 Y10.500
G0 X-14.440 Y10.500
G0 X-14.440 Y10.664
G1 F2220 X-14.440 Y-10.464 E91.88238
;LAYER:4
G1 F2400 E90.88238
G0 F7500 X0.216 Y0.216 Z1.100
;TYPE:WALL-OUTER
G1 F2400 E91.88238
G1 F2700 X0.284 Y0.216 E91.88483
G1 X0.284 Y0.284 E91.88728
G1 X0.216 Y0.284 E91.88973
G1 X0.216 Y0.216 E91.89217
G0 F7500 X-0.700 Y-0.700
;TYPE:SUPPORT
G1 F2400 X-0.700 Y1.200 E91.96058
G1 X1.200 Y1.200 E92.02899
G1 X1.200 Y-0.700 E92.09740
G1 X-0.700 Y-0.700 E92.16581
G0 F7500 X-0.690 Y-0.800
G0 X-20.500 Y-10.400
G1 F2400 X20.600 Y-10.400 E93.64557
G1 X20.600 Y10.600 E94.40166
G1 X-20.500 Y10.600 E95.88143
G1 X-20.500 Y-10.400 E96.63751
G0 F7500 X-20.216 Y-10.464
G1 F2400 X-20.216 Y10.664 E97.39821
G0 F7500 X-20.216 Y10.500
G0 X-20.400 Y8.663
G0 X-20.564 Y8.663
G1 F2400 X20.663 Y8.664 E98.88255
G0 F7500 X20.500 Y8.664
G0 X20.216 Y10.500
G0 X20.216 Y10.664
G1 F2400 X20.216 Y-10.464 E99.64324
G0 F7500 X20.216 Y-10.300
G0 X20.500 Y-8.663
G0 X20.664 Y-8.663
G1 F2400 X-20.563 Y-8.664 E101.12759
G0 F7500 X-20.400 Y-8.664
G0 X-20.400 Y-2.888
G0 X-20.563 Y-2.888
G1 F2400 X20.664 Y-2.887 E102.61193
G0 F7500 X20.500 Y-2.887
G0 X20.500 Y2.888
G0 X20.663 Y2.888
G1 F2400 X-20.564 Y2.887 E104.09627
G0 F7500 X-20.400 Y2.887
G0 X-14.440 Y10.500
G0 X-14.440 Y10.664
G1 F2400 X-14.440 Y-10.464 E104.85696
G0 F7500 X-14.440 Y-10.300
G0 X-8.664 Y-10.300
G0 X-8.664 Y-10.464
G1 F2400 X-8.664 Y10.664 E105.61766
G0 F7500 X-8.664 Y10.500
G0 X-2.888 Y10.500
G0 X-2.888 Y10.664
G1 F2400 X-2.888 Y-10.464 E106.37835
G0 F7500 X-2.888 Y-10.300
G0 X2.888 Y-10.300
G0 X2.888 Y-10.464
G1 F2400 X2.888 Y10.664 E107.13905
G0 F7500 X2.888 Y10.500
G0 X8.664 Y10.500
G0 X8.664 Y10.664
G1 F2400 X8.664 Y-10.464 E107.89974
G0 F7500 X8.664 Y-10.300
G0 X14.440 Y-10.300
G0 X14.440 Y-10.464
G1 F2400 X14.440 Y10.664 E108.66043
;LAYER:5
G1 F2400 E107.66043
G0 F7500 X0.284 Y0.284 Z1.300
;TYPE:WALL-OUTER
G1 F2400 E108.66043
G1 F2700 X0.216 Y0.284 E108.66288
G1 X0.216 Y0.216 E108.66533
G1 X0.284 Y0.216 E108.66778
G1 X0.284 Y0.284 E108.67023
G0 F7500 X1.200 Y1.200
;TYPE:SUPPORT
G1 F2400 X1.200 Y-0.700 E108.73864
G1 X-0.700 Y-0.700 E108.80704
G1 X-0.700 Y1.200 E108.87545
G1 X1.200 Y1.200 E108.94386
G0 F7500 X1.190 Y1.300
G0 X20.500 Y10.590
G0 X20.600 Y10.600
G1 F2400 X-20.500 Y10.600 E110.42363
G1 X-20.500 Y-10.400 E111.17971
G1 X20.600 Y-10.400 E112.65948
G1 X20.600 Y10.600 E113.41557
G0 F7500 X20.216 Y10.664
G1 F2400 X20.216 Y-10.464 E114.17626
G0 F7500 X20.216 Y-10.300
G0 X20.500 Y-8.663
G0 X20.664 Y-8.663
G1 F2400 X-20.563 Y-8.664 E115.66060
G0 F7500 X-20.400 Y-8.664
G0 X-20.216 Y-10.300
G0 X-20.216 Y-10.464
G1 F2400 X-20.216 Y10.664 E116.42130
G0 F7500 X-20.216 Y10.500
G0 X-20.400 Y8.663
G0 X-20.564 Y8.663
G1 F2400 X20.663 Y8.664 E117.90564
G0 F7500 X20.500 Y8.664
G0 X20.500 Y2.888
G0 X20.663 Y2.888
G1 F2400 X-20.564 Y2.887 E119.38998
G0 F7500 X-20.400 Y2.887
G0 X-20.400 Y-2.888
G0 X-20.563 Y-2.888
G1 F2400 X20.664 Y-2.887 E120.87432
G0 F7500 X20.500 Y-2.887
G0 X14.440 Y-10.300
G0 X14.440 Y-10.464
G1 F2400 X14.440 Y10.664 E121.63501
G0 F7500 X14.440 Y10.500
G0 X8.664 Y10.500
G0 X8.664 Y10.664
G1 F2400 X8.664 Y-10.464 E122.39571
G0 F7500 X8.664 Y-10.300
G0 X2.888 Y-10.300
G0 X2.888 Y-10.464
G1 F2400 X2.888 Y10.664 E123.15640
G0 F7500 X2.888 Y10.500
G0 X-2.888 Y10.500
G0 X-2.888 Y10.664
G1 F2400 X-2.888 Y-10.464 E123.91710
G0 F7500 X-2.888 Y-10.300
G0 X-8.664 Y-10.300
G0 X-8.664 Y-10.464
G1 F2400 X-8.664 Y10.664 E124.67779
G0 F7500 X-8.664 Y10.500
G0 X-14.440 Y10.500
G0 X-14.440 Y10.664
G1 F2400 X-14.440 Y-10.464 E125.43849
;LAYER:6
G1 F2400 E124.43849
G0 F7500 X0.216 Y0.216 Z1.500
;TYPE:WALL-OUTER
G1 F2400 E125.43849
G1 F2700 X0.284 Y0.216 E125.44094
G1 X0.284 Y0.284 E125.44338
G1 X0.216 Y0.284 E125.44583
G1 X0.216 Y0.216 E125.44828
G0 F7500 X-0.700 Y-0.700
;TYPE:SUPPORT
G1 F2400 X-0.700 Y1.200 E125.51669
G1 X1.200 Y1.200 E125.58510
G1 X1.200 Y-0.700 E125.65350
G1 X-0.700 Y-0.700 E125.72191
G0 F7500 X-0.690 Y-0.800
G0 X-20.500 Y-10.400
G1 F2400 X20.600 Y-10.400 E127.20168
G1 X20.600 Y10.600 E127.95777
G1 X-20.500 Y10.600 E129.43753
G1 X-20.500 Y-10.400 E130.19362
G0 F7500 X-20.216 Y-10.464
G1 F2400 X-20.216 Y10.664 E130.95431
G0 F7500 X-20.216 Y10.500
G0 X-20.400 Y8.663
G0 X-20.564 Y8.663
G1 F2400 X20.663 Y8.664 E132.43866
G0 F7500 X20.500 Y8.664
G0 X20.216 Y10.500
G0 X20.216 Y10.664
G1 F2400 X20.216 Y-10.464 E133.19935
G0 F7500 X20.216 Y-10.300
G0 X20.500 Y-8.663
G0 X20.664 Y-8.663
G1 F2400 X-20.563 Y-8.664 E134.68369
G0 F7500 X-20.400 Y-8.664
G0 X-20.400 Y-2.888
G0 X-20.563 Y-2.888
G1 F2400 X20.664 Y-2.887 E136.16803
G0 F7500 X20.500 Y-2.887
G0 X20.500 Y2.888
G0 X20.663 Y2.888
G1 F2400 X-20.564 Y2.887 E137.65237
G0 F7500 X-20.400 Y2.887
G0 X-14.440 Y10.500
G0 X-14.440 Y10.664
G1 F2400 X-14.440 Y-10.464 E138.41307
G0 F7500 X-14.440 Y-10.300
G0 X-8.664 Y-10.300
G0 X-8.664 Y-10.464
G1 F2400 X-8.664 Y10.664 E139.17376
G0 F7500 X-8.664 Y10.500
G0 X-2.888 Y10.500
G0 X-2.888 Y10.664
G1 F2400 X-2.888 Y-10.464 E139.93446
G0 F7500 X-2.888 Y-10.300
G0 X2.888 Y-10.300
G0 X2.888 Y-10.464
G1 F2400 X2.888 Y10.664 E140.69515
G0 F7500 X2.888 Y10.500
G0 X8.664 Y10.500
G0 X8.664 Y10.664
G1 F2400 X8.664 Y-10.464 E141.45585
G0 F7500 X8.664 Y-10.300
G0 X14.440 Y-10.300
G0 X14.440 Y-10.464
G1 F2400 X14.440 Y10.664 E142.21654
;LAYER:7
G1 F2400 E141.21654
G0 F7500 X0.284 Y0.284 Z1.700
;TYPE:WALL-OUTER
G1 F2400 E142.21654
G1 F2700 X0.216 Y0.284 E142.21899
G1 X0.216 Y0.216 E142.22144
G1 X0.284 Y0.216 E142.22388
G1 X0.284 Y0.284 E142.22633
G0 F7500 X1.200 Y1.200
;TYPE:SUPPORT
G1 F2400 X1.200 Y-0.700 E142.29474
G1 X-0.700 Y-0.700 E142.36315
G1 X-0.700 Y1.200 E142.43156
G1 X1.200 Y1.200 E142.49996
G0 F7500 X1.190 Y1.300
G0 X20.500 Y10.590
G0 X20.600 Y10.600
G1 F2400 X-20.500 Y10.600 E143.97973
G1 X-20.500 Y-10.400 E144.73582
G1 X20.600 Y-10.400 E146.21559
G1 X20.600 Y10.600 E146.97167
G0 F7500 X20.216 Y10.664
G1 F2400 X20.216 Y-10.464 E147.73237
G0 F7500 X20.216 Y-10.300
G0 X20.500 Y-8.663
G0 X20.664 Y-8.663
G1 F2400 X-20.563 Y-8.664 E149.21671
G0 F7500 X-20.400 Y-8.664
G0 X-20.216 Y-10.300
G0 X-20.216 Y-10.464
G1 F2400 X-20.216 Y10.664 E149.97740
G0 F7500 X-20.216 Y10.500
G0 X-20.400 Y8.663
G0 X-20.564 Y8.663
G1 F2400 X20.663 Y8.664 E151.46174
G0 F7500 X20.500 Y8.664
G0 X20.500 Y2.888
G0 X20.663 Y2.888
G1 F2400 X-20.564 Y2.887 E152.94608
G0 F7500 X-20.400 Y2.887
G0 X-20.400 Y-2.888
G0 X-20.563 Y-2.888
G1 F2400 X20.664 Y-2.887 E154.43043
G0 F7500 X20.500 Y-2.887
G0 X14.440 Y-10.300
G0 X14.440 Y-10.464
G1 F2400 X14.440 Y10.664 E155.19112
G0 F7500 X14.440 Y10.500
G0 X8.664 Y10.500
G0 X8.664 Y10.664
G1 F2400 X8.664 Y-10.464 E155.95181
G0 F7500 X8.664 Y-10.300
G0 X2.888 Y-10.300
G0 X2.888 Y-10.464
G1 F2400 X2.888 Y10.664 E156.71251
G0 F7500 X2.888 Y10.500
G0 X-2.888 Y10.500
G0 X-2.888 Y10.664
G1 F2400 X-2.888 Y-10.464 E157.47320
G0 F7500 X-2.888 Y-10.300
G0 X-8.664 Y-10.300
G0 X-8.664 Y-10.464
G1 F2400 X-8.664 Y10.664 E158.23390
G0 F7500 X-8.664 Y10.500
G0 X-14.440 Y10.500
G0 X-14.440 Y10.664
G1 F2400 X-14.440 Y-10.464 E158.99459
;LAYER:8
G1 F2400 E157.99459
G0 F7500 X0.216 Y0.216 Z1.900
;TYPE:WALL-OUTER
G1 F2400 E158.99459
G1 F2700 X0.284 Y0.216 E158.99704
G1 X0.284 Y0.284 E158.99949
G1 X0.216 Y0.284 E159.00194
G1 X0.216 Y0.216 E159.00439
G0 F7500 X-0.700 Y-0.700
;TYPE:SUPPORT
G1 F2400 X-0.700 Y1.200 E159.07279
G1 X1.200 Y1.200 E159.14120
G1 X1.200 Y-0.700 E159.20961
G1 X-0.700 Y-0.700 E159.27802
G0 F7500 X-0.690 Y-0.800
G0 X-20.500 Y-10.400
G1 F2400 X20.600 Y-10.400 E160.75779
G1 X20.600 Y10.600 E161.51387
G1 X-20.500 Y10.600 E162.99364
G1 X-20.500 Y-10.400 E163.74973
G0 F7500 X-20.216 Y-10.464
G1 F2400 X-20.216 Y10.664 E164.51042
G0 F7500 X-20.216 Y10.500
G0 X-20.400 Y8.663
G0 X-20.564 Y8.663
G1 F2400 X20.663 Y8.664 E165.99476
G0 F7500 X20.500 Y8.664
G0 X20.216 Y10.500
G0 X20.216 Y10.664
G1 F2400 X20.216 Y-10.464 E166.75546
G0 F7500 X20.216 Y-10.300
G0 X20.500 Y-8.663
G0 X20.664 Y-8.663
G1 F2400 X-20.563 Y-8.664 E168.23980
G0 F7500 X-20.400 Y-8.664
G0 X-20.400 Y-2.888
G0 X-20.563 Y-2.888
G1 F2400 X20.664 Y-2.887 E169.72414
G0 F7500 X20.500 Y-2.887
G0 X20.500 Y2.888
G0 X20.663 Y2.888
G1 F2400 X-20.564 Y2.887 E171.20848
G0 F7500 X-20.400 Y2.887
G0 X-14.440 Y10.500
G0 X-14.440 Y10.664
G1 F2400 X-14.440 Y-10.464 E171.96917
G0 F7500 X-14.440 Y-10.300
G0 X-8.664 Y-10.300
G0 X-8.664 Y-10.464
G1 F2400 X-8.664 Y10.664 E172.72987
G0 F7500 X-8.664 Y10.500
G0 X-2.888 Y10.500
G0 X-2.888 Y10.664
G1 F2400 X-2.888 Y-10.464 E173.49056
G0 F7500 X-2.888 Y-10.300
G0 X2.888 Y-10.300
G0 X2.888 Y-10.464
G1 F2400 X2.888 Y10.664 E174.25126
G0 F7500 X2.888 Y10.500
G0 X8.664 Y10.500
G0 X8.664 Y10.664
G1 F2400 X8.664 Y-10.464 E175.01195
G0 F7500 X8.664 Y-10.300
G0 X14.440 Y-10.300
G0 X14.440 Y-10.464
G1 F2400 X14.440 Y10.664 E175.77265
;LAYER:9
G1 F2400 E174.77265
G0 F7500 X0.284 Y0.284 Z2.100
;TYPE:WALL-OUTER
G1 F2400 E175.77265
G1 F2700 X0.216 Y0.284 E175.77509
G1 X0.216 Y0.216 E175.77754
G1 X0.284 Y0.216 E175.77999
G1 X0.284 Y0.284 E175.78244
G0 F7500 X1.200 Y1.200
