;Generated with Cura_SteamEngine 15.04.6

;Layer count: 16
;LAYER:0
M107
G0 F7500 X-23.716 Y-18.616 Z0.300
;TYPE:SKIRT
G1 F1800 X23.816 Y-18.616 E2.56702
G1 X23.816 Y18.816 E4.58858
G1 X-23.716 Y18.816 E7.15560
G1 X-23.716 Y-18.616 E9.17716
G1 F2400 E8.17716
G0 F7500 X0.216 Y0.216
;TYPE:WALL-OUTER
G1 F2400 E9.17716
G1 F1800 X0.284 Y0.216 E9.18083
G1 X0.284 Y0.284 E9.18450
G1 X0.216 Y0.284 E9.18817
G1 X0.216 Y0.216 E9.19185
G0 F7500 X-0.700 Y-0.700
;TYPE:SUPPORT
G1 F1800 X-0.700 Y1.200 E9.29446
G1 X1.200 Y1.200 E9.39707
G1 X1.200 Y-0.700 E9.49968
G1 X-0.700 Y-0.700 E9.60229
G0 F7500 X-0.690 Y-0.800
G0 X-20.500 Y-15.400
G1 F1800 X20.600 Y-15.400 E11.82194
G1 X20.600 Y15.600 E13.49614
G1 X-20.500 Y15.600 E15.71579
G1 X-20.500 Y-15.400 E17.38998
G0 F7500 X-20.216 Y-15.464
G1 F1800 X-20.216 Y15.664 E19.07108
G0 F7500 X-20.564 Y14.439
G1 F1800 X20.663 Y14.440 E21.29759
G0 F7500 X20.216 Y15.664
G1 F1800 X20.216 Y-15.464 E22.97870
G0 F7500 X20.664 Y-14.439
G1 F1800 X-20.563 Y-14.440 E25.20521
G0 F7500 X-20.400 Y-14.440
G0 X-20.400 Y-8.664
G0 X-20.563 Y-8.664
G1 F1800 X20.664 Y-8.663 E27.43172
G0 F7500 X20.500 Y-8.663
G0 X20.500 Y-2.887
G0 X20.664 Y-2.887
G1 F1800 X-20.563 Y-2.888 E29.65823
G0 F7500 X-20.400 Y-2.888
G0 X-20.400 Y2.887
G0 X-20.564 Y2.887
G1 F1800 X20.663 Y2.888 E31.88474
G0 F7500 X20.500 Y2.888
G0 X20.500 Y8.664
G0 X20.663 Y8.664
G1 F1800 X-20.564 Y8.663 E34.11125
G0 F7500 X-20.400 Y8.663
G0 X-14.440 Y15.500
G0 X-14.440 Y15.664
G1 F1800 X-14.440 Y-15.464 E35.79236
G0 F7500 X-14.440 Y-15.300
G0 X-8.664 Y-15.300
G0 X-8.664 Y-15.464
G1 F1800 X-8.664 Y15.664 E37.47346
G0 F7500 X-8.664 Y15.500
G0 X-2.888 Y15.500
G0 X-2.888 Y15.664
G1 F1800 X-2.888 Y-15.464 E39.15456
G0 F7500 X-2.888 Y-15.300
G0 X2.888 Y-15.300
G0 X2.888 Y-15.464
G1 F1800 X2.888 Y15.664 E40.83567
G0 F7500 X2.888 Y15.500
G0 X8.664 Y15.500
G0 X8.664 Y15.664
G1 F1800 X8.664 Y-15.464 E42.51677
G0 F7500 X8.664 Y-15.300
G0 X14.440 Y-15.300
G0 X14.440 Y-15.464
G1 F1800 X14.440 Y15.664 E44.19787
;LAYER:1
M106 S63
G1 F2400 E43.19787
G0 F7500 X0.284 Y0.284 Z0.500
;TYPE:WALL-OUTER
G1 F2400 E44.19787
G1 F1980 X0.216 Y0.284 E44.20032
G1 X0.216 Y0.216 E44.20277
G1 X0.284 Y0.216 E44.20522
G1 X0.284 Y0.284 E44.20767
G0 F7500 X1.200 Y1.200
;TYPE:SUPPORT
G1 F1920 X1.200 Y-0.700 E44.27607
G1 X-0.700 Y-0.700 E44.34448
G1 X-0.700 Y1.200 E44.41289
G1 X1.200 Y1.200 E44.48130
G0 F7500 X1.190 Y1.300
G0 X20.500 Y15.590
G0 X20.600 Y15.600
G1 F1920 X-20.500 Y15.600 E45.96106
G1 X-20.500 Y-15.400 E47.07719
G1 X20.600 Y-15.400 E48.55696
G1 X20.600 Y15.600 E49.67309
G0 F7500 X20.216 Y15.664
G1 F1920 X20.216 Y-15.464 E50.79382
G0 F7500 X20.664 Y-14.439
G1 F1920 X-20.563 Y-14.440 E52.27816
G0 F7500 X-20.216 Y-15.464
G1 F1920 X-20.216 Y15.664 E53.39890
G0 F7500 X-20.564 Y14.439
G1 F1920 X20.663 Y14.440 E54.88324
G0 F7500 X20.500 Y14.440
G0 X20.500 Y8.664
G0 X20.663 Y8.664
G1 F1920 X-20.564 Y8.663 E56.36758
G0 F7500 X-20.400 Y8.663
G0 X-20.400 Y2.887
G0 X-20.564 Y2.887
G1 F1920 X20.663 Y2.888 E57.85192
G0 F7500 X20.500 Y2.888
G0 X20.500 Y-2.887
G0 X20.664 Y-2.887
G1 F1920 X-20.563 Y-2.888 E59.33626
G0 F7500 X-20.400 Y-2.888
G0 X-20.400 Y-8.664
G0 X-20.563 Y-8.664
G1 F1920 X20.664 Y-8.663 E60.82060
G0 F7500 X20.500 Y-8.663
G0 X14.440 Y-15.300
G0 X14.440 Y-15.464
G1 F1920 X14.440 Y15.664 E61.94134
G0 F7500 X14.440 Y15.500
G0 X8.664 Y15.500
G0 X8.664 Y15.664
G1 F1920 X8.664 Y-15.464 E63.06207
G0 F7500 X8.664 Y-15.300
G0 X2.888 Y-15.300
G0 X2.888 Y-15.464
G1 F1920 X2.888 Y15.664 E64.18281
G0 F7500 X2.888 Y15.500
G0 X-2.888 Y15.500
G0 X-2.888 Y15.664
G1 F1920 X-2.888 Y-15.464 E65.30355
G0 F7500 X-2.888 Y-15.300
G0 X-8.664 Y-15.300
G0 X-8.664 Y-15.464
G1 F1920 X-8.664 Y15.664 E66.42428
G0 F7500 X-8.664 Y15.500
G0 X-14.440 Y15.500
G0 X-14.440 Y15.664
G1 F1920 X-14.440 Y-15.464 E67.54502
;LAYER:2
M106 S127
G1 F2400 E66.54502
G0 F7500 X0.216 Y0.216 Z0.700
;TYPE:WALL-OUTER
G1 F2400 E67.54502
G1 F2220 X0.284 Y0.216 E67.54746
G1 X0.284 Y0.284 E67.54991
G1 X0.216 Y0.284 E67.55236
G1 X0.216 Y0.216 E67.55481
G0 F7500 X-0.700 Y-0.700
;TYPE:SUPPORT
G1 F2100 X-0.700 Y1.200 E67.62322
G1 X1.200 Y1.200 E67.69163
G1 X1.200 Y-0.700 E67.76003
G1 X-0.700 Y-0.700 E67.82844
G0 F7500 X-0.690 Y-0.800
G0 X-20.500 Y-15.400
G1 F2100 X20.600 Y-15.400 E69.30821
G1 X20.600 Y15.600 E70.42434
G1 X-20.500 Y15.600 E71.90410
G1 X-20.500 Y-15.400 E73.02023
G0 F7500 X-20.216 Y-15.464
G1 F2100 X-20.216 Y15.664 E74.14097
G0 F7500 X-20.564 Y14.439
G1 F2100 X20.663 Y14.440 E75.62531
G0 F7500 X20.216 Y15.664
G1 F2100 X20.216 Y-15.464 E76.74604
G0 F7500 X20.664 Y-14.439
G1 F2100 X-20.563 Y-14.440 E78.23038
G0 F7500 X-20.400 Y-14.440
G0 X-20.400 Y-8.664
G0 X-20.563 Y-8.664
G1 F2100 X20.664 Y-8.663 E79.71473
G0 F7500 X20.500 Y-8.663
G0 X20.500 Y-2.887
G0 X20.664 Y-2.887
G1 F2100 X-20.563 Y-2.888 E81.19907
G0 F7500 X-20.400 Y-2.888
G0 X-20.400 Y2.887
G0 X-20.564 Y2.887
G1 F2100 X20.663 Y2.888 E82.68341
G0 F7500 X20.500 Y2.888
G0 X20.500 Y8.664
G0 X20.663 Y8.664
G1 F2100 X-20.564 Y8.663 E84.16775
G0 F7500 X-20.400 Y8.663
G0 X-14.440 Y15.500
G0 X-14.440 Y15.664
G1 F2100 X-14.440 Y-15.464 E85.28848
G0 F7500 X-14.440 Y-15.300
G0 X-8.664 Y-15.300
G0 X-8.664 Y-15.464
G1 F2100 X-8.664 Y15.664 E86.40922
G0 F7500 X-8.664 Y15.500
G0 X-2.888 Y15.500
G0 X-2.888 Y15.664
G1 F2100 X-2.888 Y-15.464 E87.52995
G0 F7500 X-2.888 Y-15.300
G0 X2.888 Y-15.300
G0 X2.888 Y-15.464
G1 F2100 X2.888 Y15.664 E88.65069
G0 F7500 X2.888 Y15.500
G0 X8.664 Y15.500
G0 X8.664 Y15.664
G1 F2100 X8.664 Y-15.464 E89.77143
G0 F7500 X8.664 Y-15.300
G0 X14.440 Y-15.300
G0 X14.440 Y-15.464
G1 F2100 X14.440 Y15.664 E90.89216
;LAYER:3
G1 F2400 E89.89216
G0 F7500 X0.284 Y0.284 Z0.900
;TYPE:WALL-OUTER
G1 F2400 E90.89216
G1 X0.216 Y0.284 E90.89461
G1 X0.216 Y0.216 E90.89706
G1 X0.284 Y0.216 E90.89951
G1 X0.284 Y0.284 E90.90195
G0 F7500 X1.200 Y1.200
;TYPE:SUPPORT
G1 F2220 X1.200 Y-0.700 E90.97036
G1 X-0.700 Y-0.700 E91.03877
G1 X-0.700 Y1.200 E91.10718
G1 X1.200 Y1.200 E91.17559
G0 F7500 X1.190 Y1.300
G0 X20.500 Y15.590
G0 X20.600 Y15.600
G1 F2220 X-20.500 Y15.600 E92.65535
G1 X-20.500 Y-15.400 E93.77148
G1 X20.600 Y-15.400 E95.25125
G1 X20.600 Y15.600 E96.36738
G0 F7500 X20.216 Y15.664
G1 F2220 X20.216 Y-15.464 E97.48811
G0 F7500 X20.664 Y-14.439
G1 F2220 X-20.563 Y-14.440 E98.97245
G0 F7500 X-20.216 Y-15.464
G1 F2220 X-20.216 Y15.664 E100.09319
G0 F7500 X-20.564 Y14.439
G1 F2220 X20.663 Y14.440 E101.57753
G0 F7500 X20.500 Y14.440
G0 X20.500 Y8.664
G0 X20.663 Y8.664
G1 F2220 X-20.564 Y8.663 E103.06187
G0 F7500 X-20.400 Y8.663
G0 X-20.400 Y2.887
G0 X-20.564 Y2.887
G1 F2220 X20.663 Y2.888 E104.54621
G0 F7500 X20.500 Y2.888
G0 X20.500 Y-2.887
G0 X20.664 Y-2.887
G1 F2220 X-20.563 Y-2.888 E106.03055
G0 F7500 X-20.400 Y-2.888
G0 X-20.400 Y-8.664
G0 X-20.563 Y-8.664
G1 F2220 X20.664 Y-8.663 E107.51489
G0 F7500 X20.500 Y-8.663
G0 X14.440 Y-15.300
G0 X14.440 Y-15.464
G1 F2220 X14.440 Y15.664 E108.63563
G0 F7500 X14.440 Y15.500
G0 X8.664 Y15.500
G0 X8.664 Y15.664
G1 F2220 X8.664 Y-15.464 E109.75636
G0 F7500 X8.664 Y-15.300
G0 X2.888 Y-15.300
G0 X2.888 Y-15.464
G1 F2220 X2.888 Y15.664 E110.87710
G0 F7500 X2.888 Y15.500
G0 X-2.888 Y15.500
G0 X-2.888 Y15.664
G1 F2220 X-2.888 Y-15.464 E111.99783
G0 F7500 X-2.888 Y-15.300
G0 X-8.664 Y-15.300
G0 X-8.664 Y-15.464
G1 F2220 X-8.664 Y15.664 E113.11857
G0 F7500 X-8.664 Y15.500
G0 X-14.440 Y15.500
G0 X-14.440 Y15.664
G1 F2220 X-14.440 Y-15.464 E114.23931
;LAYER:4
G1 F2400 E113.23931
G0 F7500 X0.216 Y0.216 Z1.100
;TYPE:WALL-OUTER
G1 F2400 E114.23931
G1 F2700 X0.284 Y0.216 E114.24175
G1 X0.284 Y0.284 E114.24420
G1 X0.216 Y0.284 E114.24665
G1 X0.216 Y0.216 E114.24910
G0 F7500 X-0.700 Y-0.700
;TYPE:SUPPORT
G1 F2400 X-0.700 Y1.200 E114.31751
G1 X1.200 Y1.200 E114.38591
G1 X1.200 Y-0.700 E114.45432
G1 X-0.700 Y-0.700 E114.52273
G0 F7500 X-0.690 Y-0.800
G0 X-20.500 Y-15.400
G1 F2400 X20.600 Y-15.400 E116.00250
G1 X20.600 Y15.600 E117.11862
G1 X-20.500 Y15.600 E118.59839
G1 X-20.500 Y-15.400 E119.71452
G0 F7500 X-20.216 Y-15.464
G1 F2400 X-20.216 Y15.664 E120.83526
G0 F7500 X-20.564 Y14.439
G1 F2400 X20.663 Y14.440 E122.31960
G0 F7500 X20.216 Y15.664
G1 F2400 X20.216 Y-15.464 E123.44033
G0 F7500 X20.664 Y-14.439
G1 F2400 X-20.563 Y-14.440 E124.92467
G0 F7500 X-20.400 Y-14.440
G0 X-20.400 Y-8.664
G0 X-20.563 Y-8.664
G1 F2400 X20.664 Y-8.663 E126.40901
G0 F7500 X20.500 Y-8.663
G0 X20.500 Y-2.887
G0 X20.664 Y-2.887
G1 F2400 X-20.563 Y-2.888 E127.89335
G0 F7500 X-20.400 Y-2.888
G0 X-20.400 Y2.887
G0 X-20.564 Y2.887
G1 F2400 X20.663 Y2.888 E129.37770
G0 F7500 X20.500 Y2.888
G0 X20.500 Y8.664
G0 X20.663 Y8.664
G1 F2400 X-20.564 Y8.663 E130.86204
G0 F7500 X-20.400 Y8.663
G0 X-14.440 Y15.500
G0 X-14.440 Y15.664
G1 F2400 X-14.440 Y-15.464 E131.98277
G0 F7500 X-14.440 Y-15.300
G0 X-8.664 Y-15.300
G0 X-8.664 Y-15.464
G1 F2400 X-8.664 Y15.664 E133.10351
G0 F7500 X-8.664 Y15.500
G0 X-2.888 Y15.500
G0 X-2.888 Y15.664
G1 F2400 X-2.888 Y-15.464 E134.22424
G0 F7500 X-2.888 Y-15.300
G0 X2.888 Y-15.300
G0 X2.888 Y-15.464
G1 F2400 X2.888 Y15.664 E135.34498
G0 F7500 X2.888 Y15.500
G0 X8.664 Y15.500
G0 X8.664 Y15.664
G1 F2400 X8.664 Y-15.464 E136.46571
G0 F7500 X8.664 Y-15.300
G0 X14.440 Y-15.300
G0 X14.440 Y-15.464
G1 F2400 X14.440 Y15.664 E137.58645
;LAYER:5
G1 F2400 E136.58645
G0 F7500 X0.284 Y0.284 Z1.300
;TYPE:WALL-OUTER
G1 F2400 E137.58645
G1 F2700 X0.216 Y0.284 E137.58890
G1 X0.216 Y0.216 E137.59135
G1 X0.284 Y0.216 E137.59379
G1 X0.284 Y0.284 E137.59624
G0 F7500 X1.200 Y1.200
;TYPE:SUPPORT
G1 F2400 X1.200 Y-0.700 E137.66465
G1 X-0.700 Y-0.700 E137.73306
G1 X-0.700 Y1.200 E137.80147
G1 X1.200 Y1.200 E137.86987
G0 F7500 X1.190 Y1.300
G0 X20.500 Y15.590
G0 X20.600 Y15.600
G1 F2400 X-20.500 Y15.600 E139.34964
G1 X-20.500 Y-15.400 E140.46577
G1 X20.600 Y-15.400 E141.94554
G1 X20.600 Y15.600 E143.06166
G0 F7500 X20.216 Y15.664
G1 F2400 X20.216 Y-15.464 E144.18240
G0 F7500 X20.664 Y-14.439
G1 F2400 X-20.563 Y-14.440 E145.66674
G0 F7500 X-20.216 Y-15.464
G1 F2400 X-20.216 Y15.664 E146.78748
G0 F7500 X-20.564 Y14.439
G1 F2400 X20.663 Y14.440 E148.27182
G0 F7500 X20.500 Y14.440
G0 X20.500 Y8.664
G0 X20.663 Y8.664
G1 F2400 X-20.564 Y8.663 E149.75616
G0 F7500 X-20.400 Y8.663
G0 X-20.400 Y2.887
G0 X-20.564 Y2.887
G1 F2400 X20.663 Y2.888 E151.24050
G0 F7500 X20.500 Y2.888
G0 X20.500 Y-2.887
G0 X20.664 Y-2.887
G1 F2400 X-20.563 Y-2.888 E152.72484
G0 F7500 X-20.400 Y-2.888
G0 X-20.400 Y-8.664
G0 X-20.563 Y-8.664
G1 F2400 X20.664 Y-8.663 E154.20918
G0 F7500 X20.500 Y-8.663
G0 X14.440 Y-15.300
G0 X14.440 Y-15.464
G1 F2400 X14.440 Y15.664 E155.32992
G0 F7500 X14.440 Y15.500
G0 X8.664 Y15.500
G0 X8.664 Y15.664
G1 F2400 X8.664 Y-15.464 E156.45065
G0 F7500 X8.664 Y-15.300
G0 X2.888 Y-15.300
G0 X2.888 Y-15.464
G1 F2400 X2.888 Y15.664 E157.57139
G0 F7500 X2.888 Y15.500
G0 X-2.888 Y15.500
G0 X-2.888 Y15.664
G1 F2400 X-2.888 Y-15.464 E158.69212
G0 F7500 X-2.888 Y-15.300
G0 X-8.664 Y-15.300
G0 X-8.664 Y-15.464
G1 F2400 X-8.664 Y15.664 E159.81286
G0 F7500 X-8.664 Y15.500
G0 X-14.440 Y15.500
G0 X-14.440 Y15.664
G1 F2400 X-14.440 Y-15.464 E160.93359
;LAYER:6
G1 F2400 E159.93359
G0 F7500 X0.216 Y0.216 Z1.500
;TYPE:WALL-OUTER
G1 F2400 E160.93359
G1 F2700 X0.284 Y0.216 E160.93604
G1 X0.284 Y0.284 E160.93849
G1 X0.216 Y0.284 E160.94094
G1 X0.216 Y0.216 E160.94339
G0 F7500 X-0.700 Y-0.700
;TYPE:SUPPORT
G1 F2400 X-0.700 Y1.200 E161.01179
G1 X1.200 Y1.200 E161.08020
G1 X1.200 Y-0.700 E161.14861
G1 X-0.700 Y-0.700 E161.21702
G0 F7500 X-0.690 Y-0.800
G0 X-20.500 Y-15.400
G1 F2400 X20.600 Y-15.400 E162.69679
G1 X20.600 Y15.600 E163.81291
G1 X-20.500 Y15.600 E165.29268
G1 X-20.500 Y-15.400 E166.40881
G0 F7500 X-20.216 Y-15.464
G1 F2400 X-20.216 Y15.664 E167.52954
G0 F7500 X-20.564 Y14.439
G1 F2400 X20.663 Y14.440 E169.01388
G0 F7500 X20.216 Y15.664
G1 F2400 X20.216 Y-15.464 E170.13462
G0 F7500 X20.664 Y-14.439
G1 F2400 X-20.563 Y-14.440 E171.61896
G0 F7500 X-20.400 Y-14.440
G0 X-20.400 Y-8.664
G0 X-20.563 Y-8.664
G1 F2400 X20.664 Y-8.663 E173.10330
G0 F7500 X20.500 Y-8.663
G0 X20.500 Y-2.887
G0 X20.664 Y-2.887
G1 F2400 X-20.563 Y-2.888 E174.58764
G0 F7500 X-20.400 Y-2.888
G0 X-20.400 Y2.887
G0 X-20.564 Y2.887
G1 F2400 X20.663 Y2.888 E176.07198
G0 F7500 X20.500 Y2.888
G0 X20.500 Y8.664
G0 X20.663 Y8.664
G1 F2400 X-20.564 Y8.663 E177.55632
G0 F7500 X-20.400 Y8.663
G0 X-14.440 Y15.500
G0 X-14.440 Y15.664
G1 F2400 X-14.440 Y-15.464 E178.67706
G0 F7500 X-14.440 Y-15.300
G0 X-8.664 Y-15.300
G0 X-8.664 Y-15.464
G1 F2400 X-8.664 Y15.664 E179.79780
G0 F7500 X-8.664 Y15.500
G0 X-2.888 Y15.500
G0 X-2.888 Y15.664
G1 F2400 X-2.888 Y-15.464 E180.91853
G0 F7500 X-2.888 Y-15.300
G0 X2.888 Y-15.300
G0 X2.888 Y-15.464
G1 F2400 X2.888 Y15.664 E182.03927
G0 F7500 X2.888 Y15.500
G0 X8.664 Y15.500
G0 X8.664 Y15.664
G1 F2400 X8.664 Y-15.464 E183.16000
G0 F7500 X8.664 Y-15.300
G0 X14.440 Y-15.300
G0 X14.440 Y-15.464
G1 F2400 X14.440 Y15.664 E184.28074
;LAYER:7
G1 F2400 E183.28074
G0 F7500 X0.284 Y0.284 Z1.700
;TYPE:WALL-OUTER
G1 F2400 E184.28074
G1 F2700 X0.216 Y0.284 E184.28319
G1 X0.216 Y0.216 E184.28563
G1 X0.284 Y0.216 E184.28808
G1 X0.284 Y0.284 E184.29053
G0 F7500 X1.200 Y1.200
;TYPE:SUPPORT
G1 F2400 X1.200 Y-0.700 E184.35894
G1 X-0.700 Y-0.700 E184.42735
G1 X-0.700 Y1.200 E184.49575
G1 X1.200 Y1.200 E184.56416
G0 F7500 X1.190 Y1.300
G0 X20.500 Y15.590
G0 X20.600 Y15.600
G1 F2400 X-20.500 Y15.600 E186.04393
G1 X-20.500 Y-15.400 E187.16006
G1 X20.600 Y-15.400 E188.63983
G1 X20.600 Y15.600 E189.75595
G0 F7500 X20.216 Y15.664
G1 F2400 X20.216 Y-15.464 E190.87669
G0 F7500 X20.664 Y-14.439
G1 F2400 X-20.563 Y-14.440 E192.36103
G0 F7500 X-20.216 Y-15.464
G1 F2400 X-20.216 Y15.664 E193.48176
G0 F7500 X-20.564 Y14.439
G1 F2400 X20.663 Y14.440 E194.96611
G0 F7500 X20.500 Y14.440
G0 X20.500 Y8.664
G0 X20.663 Y8.664
G1 F2400 X-20.564 Y8.663 E196.45045
G0 F7500 X-20.400 Y8.663
G0 X-20.400 Y2.887
G0 X-20.564 Y2.887
G1 F2400 X20.663 Y2.888 E197.93479
G0 F7500 X20.500 Y2.888
G0 X20.500 Y-2.887
G0 X20.664 Y-2.887
G1 F2400 X-20.563 Y-2.888 E199.41913
G0 F7500 X-20.400 Y-2.888
G0 X-20.400 Y-8.664
G0 X-20.563 Y-8.664
G1 F2400 X20.664 Y-8.663 E200.90347
G0 F7500 X20.500 Y-8.663
G0 X14.440 Y-15.300
G0 X14.440 Y-15.464
G1 F2400 X14.440 Y15.664 E202.02420
G0 F7500 X14.440 Y15.500
G0 X8.664 Y15.500
G0 X8.664 Y15.664
G1 F2400 X8.664 Y-15.464 E203.14494
G0 F7500 X8.664 Y-15.300
G0 X2.888 Y-15.300
G0 X2.888 Y-15.464
G1 F2400 X2.888 Y15.664 E204.26568
G0 F7500 X2.888 Y15.500
G0 X-2.888 Y15.500
G0 X-2.888 Y15.664
G1 F2400 X-2.888 Y-15.464 E205.38641
G0 F7500 X-2.888 Y-15.300
G0 X-8.664 Y-15.300
G0 X-8.664 Y-15.464
G1 F2400 X-8.664 Y15.664 E206.50715
G0 F7500 X-8.664 Y15.500
G0 X-14.440 Y15.500
G0 X-14.440 Y15.664
G1 F2400 X-14.440 Y-15.464 E207.62788
;LAYER:8
G1 F2400 E206.62788
G0 F7500 X0.216 Y0.216 Z1.900
;TYPE:WALL-OUTER
G1 F2400 E207.62788
G1 F2700 X0.284 Y0.216 E207.63033
G1 X0.284 Y0.284 E207.63278
G1 X0.216 Y0.284 E207.63523
G1 X0.216 Y0.216 E207.63767
G0 F7500 X-0.700 Y-0.700
;TYPE:SUPPORT
G1 F2400 X-0.700 Y1.200 E207.70608
G1 X1.200 Y1.200 E207.77449
G1 X1.200 Y-0.700 E207.84290
G1 X-0.700 Y-0.700 E207.91131
G0 F7500 X-0.690 Y-0.800
G0 X-20.500 Y-15.400
G1 F2400 X20.600 Y-15.400 E209.39107
G1 X20.600 Y15.600 E210.50720
G1 X-20.500 Y15.600 E211.98697
G1 X-20.500 Y-15.400 E213.10310
G0 F7500 X-20.216 Y-15.464
G1 F2400 X-20.216 Y15.664 E214.22383
G0 F7500 X-20.564 Y14.439
G1 F2400 X20.663 Y14.440 E215.70817
G0 F7500 X20.216 Y15.664
G1 F2400 X20.216 Y-15.464 E216.82891
G0 F7500 X20.664 Y-14.439
G1 F2400 X-20.563 Y-14.440 E218.31325
G0 F7500 X-20.400 Y-14.440
G0 X-20.400 Y-8.664
G0 X-20.563 Y-8.664
G1 F2400 X20.664 Y-8.663 E219.79759
G0 F7500 X20.500 Y-8.663
G0 X20.500 Y-2.887
G0 X20.664 Y-2.887
G1 F2400 X-20.563 Y-2.888 E221.28193
G0 F7500 X-20.400 Y-2.888
G0 X-20.400 Y2.887
G0 X-20.564 Y2.887
G1 F2400 X20.663 Y2.888 E222.76627
G0 F7500 X20.500 Y2.888
G0 X20.500 Y8.664
G0 X20.663 Y8.664
G1 F2400 X-20.564 Y8.663 E224.25061
G0 F7500 X-20.400 Y8.663
G0 X-14.440 Y15.500
G0 X-14.440 Y15.664
G1 F2400 X-14.440 Y-15.464 E225.37135
G0 F7500 X-14.440 Y-15.300
G0 X-8.664 Y-15.300
G0 X-8.664 Y-15.464
G1 F2400 X-8.664 Y15.664 E226.49208
