;Generated with Cura_SteamEngine 15.04.6

;Layer count: 16
;LAYER:0
M107
G0 F7500 X-23.716 Y-23.616 Z0.300
;TYPE:SKIRT
G1 F1800 X23.816 Y-23.616 E2.56702
G1 X23.816 Y23.816 E5.12864
G1 X-23.716 Y23.816 E7.69566
G1 X-23.716 Y-23.616 E10.25728
G1 F2400 E9.25728
G0 F7500 X0.216 Y0.216
;TYPE:WALL-OUTER
G1 F2400 E10.25728
G1 F1800 X0.284 Y0.216 E10.26095
G1 X0.284 Y0.284 E10.26462
G1 X0.216 Y0.284 E10.26830
G1 X0.216 Y0.216 E10.27197
G0 F7500 X-0.700 Y-0.700
;TYPE:SUPPORT
G1 F1800 X-0.700 Y1.200 E10.37458
G1 X1.200 Y1.200 E10.47719
G1 X1.200 Y-0.700 E10.57980
G1 X-0.700 Y-0.700 E10.68242
G0 F7500 X-0.690 Y-0.800
G0 X-20.500 Y-20.400
G1 F1800 X20.600 Y-20.400 E12.90207
G1 X20.600 Y20.600 E15.11632
G1 X-20.500 Y20.600 E17.33597
G1 X-20.500 Y-20.400 E19.55022
G0 F7500 X-20.563 Y-20.216
G1 F1800 X20.664 Y-20.215 E21.77674
G0 F7500 X20.216 Y-20.464
G1 F1800 X20.216 Y20.664 E23.99790
G0 F7500 X20.663 Y20.216
G1 F1800 X-20.564 Y20.215 E26.22441
G0 F7500 X-20.216 Y20.664
G1 F1800 X-20.216 Y-20.464 E28.44558
G0 F7500 X-20.216 Y-20.300
G0 X-14.440 Y-20.300
G0 X-14.440 Y-20.464
G1 F1800 X-14.440 Y20.664 E30.66674
G0 F7500 X-14.440 Y20.500
G0 X-8.664 Y20.500
G0 X-8.664 Y20.664
G1 F1800 X-8.664 Y-20.464 E32.88791
G0 F7500 X-8.664 Y-20.300
G0 X-2.888 Y-20.300
G0 X-2.888 Y-20.464
G1 F1800 X-2.888 Y20.664 E35.10907
G0 F7500 X-2.888 Y20.500
G0 X2.888 Y20.500
G0 X2.888 Y20.664
G1 F1800 X2.888 Y-20.464 E37.33024
G0 F7500 X2.888 Y-20.300
G0 X8.664 Y-20.300
G0 X8.664 Y-20.464
G1 F1800 X8.664 Y20.664 E39.55140
G0 F7500 X8.664 Y20.500
G0 X14.440 Y20.500
G0 X14.440 Y20.664
G1 F1800 X14.440 Y-20.464 E41.77256
G0 F7500 X14.440 Y-20.300
G0 X20.500 Y-14.439
G0 X20.664 Y-14.439
G1 F1800 X-20.563 Y-14.440 E43.99908
G0 F7500 X-20.400 Y-14.440
G0 X-20.400 Y-8.664
G0 X-20.563 Y-8.664
G1 F1800 X20.664 Y-8.663 E46.22559
G0 F7500 X20.500 Y-8.663
G0 X20.500 Y-2.887
G0 X20.664 Y-2.887
G1 F1800 X-20.563 Y-2.888 E48.45210
G0 F7500 X-20.400 Y-2.888
G0 X-20.400 Y2.887
G0 X-20.564 Y2.887
G1 F1800 X20.663 Y2.888 E50.67861
G0 F7500 X20.500 Y2.888
G0 X20.500 Y8.664
G0 X20.663 Y8.664
G1 F1800 X-20.564 Y8.663 E52.90512
G0 F7500 X-20.400 Y8.663
G0 X-20.400 Y14.439
G0 X-20.564 Y14.439
G1 F1800 X20.663 Y14.440 E55.13163
;LAYER:1
M106 S63
G1 F2400 E54.13163
G0 F7500 X0.284 Y0.284 Z0.500
;TYPE:WALL-OUTER
G1 F2400 E55.13163
G1 F1980 X0.216 Y0.284 E55.13408
G1 X0.216 Y0.216 E55.13653
G1 X0.284 Y0.216 E55.13898
G1 X0.284 Y0.284 E55.14143
G0 F7500 X1.200 Y1.200
;TYPE:SUPPORT
G1 F1920 X1.200 Y-0.700 E55.20983
G1 X-0.700 Y-0.700 E55.27824
G1 X-0.700 Y1.200 E55.34665
G1 X1.200 Y1.200 E55.41506
G0 F7500 X1.190 Y1.300
G0 X20.500 Y20.590
G0 X20.600 Y20.600
G1 F1920 X-20.500 Y20.600 E56.89482
G1 X-20.500 Y-20.400 E58.37099
G1 X20.600 Y-20.400 E59.85076
G1 X20.600 Y20.600 E61.32693
G0 F7500 X20.663 Y20.216
G1 F1920 X-20.564 Y20.215 E62.81127
G0 F7500 X-20.216 Y20.664
G1 F1920 X-20.216 Y-20.464 E64.29205
G0 F7500 X-20.563 Y-20.216
G1 F1920 X20.664 Y-20.215 E65.77639
G0 F7500 X20.216 Y-20.464
G1 F1920 X20.216 Y20.664 E67.25716
G0 F7500 X20.216 Y20.500
G0 X14.440 Y20.500
G0 X14.440 Y20.664
G1 F1920 X14.440 Y-20.464 E68.73794
G0 F7500 X14.440 Y-20.300
G0 X8.664 Y-20.300
G0 X8.664 Y-20.464
G1 F1920 X8.664 Y20.664 E70.21872
G0 F7500 X8.664 Y20.500
G0 X2.888 Y20.500
G0 X2.888 Y20.664
G1 F1920 X2.888 Y-20.464 E71.69949
G0 F7500 X2.888 Y-20.300
G0 X-2.888 Y-20.300
G0 X-2.888 Y-20.464
G1 F1920 X-2.888 Y20.664 E73.18027
G0 F7500 X-2.888 Y20.500
G0 X-8.664 Y20.500
G0 X-8.664 Y20.664
G1 F1920 X-8.664 Y-20.464 E74.66105
G0 F7500 X-8.664 Y-20.300
G0 X-14.440 Y-20.300
G0 X-14.440 Y-20.464
G1 F1920 X-14.440 Y20.664 E76.14182
G0 F7500 X-14.440 Y20.500
G0 X-20.400 Y14.439
G0 X-20.564 Y14.439
G1 F1920 X20.663 Y14.440 E77.62616
G0 F7500 X20.500 Y14.440
G0 X20.500 Y8.664
G0 X20.663 Y8.664
G1 F1920 X-20.564 Y8.663 E79.11050
G0 F7500 X-20.400 Y8.663
G0 X-20.400 Y2.887
G0 X-20.564 Y2.887
G1 F1920 X20.663 Y2.888 E80.59485
G0 F7500 X20.500 Y2.888
G0 X20.500 Y-2.887
G0 X20.664 Y-2.887
G1 F1920 X-20.563 Y-2.888 E82.07919
G0 F7500 X-20.400 Y-2.888
G0 X-20.400 Y-8.664
G0 X-20.563 Y-8.664
G1 F1920 X20.664 Y-8.663 E83.56353
G0 F7500 X20.500 Y-8.663
G0 X20.500 Y-14.439
G0 X20.664 Y-14.439
G1 F1920 X-20.563 Y-14.440 E85.04787
;LAYER:2
M106 S127
G1 F2400 E84.04787
G0 F7500 X0.216 Y0.216 Z0.700
;TYPE:WALL-OUTER
G1 F2400 E85.04787
G1 F2220 X0.284 Y0.216 E85.05032
G1 X0.284 Y0.284 E85.05276
G1 X0.216 Y0.284 E85.05521
G1 X0.216 Y0.216 E85.05766
G0 F7500 X-0.700 Y-0.700
;TYPE:SUPPORT
G1 F2100 X-0.700 Y1.200 E85.12607
G1 X1.200 Y1.200 E85.19448
G1 X1.200 Y-0.700 E85.26288
G1 X-0.700 Y-0.700 E85.33129
G0 F7500 X-0.690 Y-0.800
G0 X-20.500 Y-20.400
G1 F2100 X20.600 Y-20.400 E86.81106
G1 X20.600 Y20.600 E88.28723
G1 X-20.500 Y20.600 E89.76700
G1 X-20.500 Y-20.400 E91.24316
G0 F7500 X-20.563 Y-20.216
G1 F2100 X20.664 Y-20.215 E92.72751
G0 F7500 X20.216 Y-20.464
G1 F2100 X20.216 Y20.664 E94.20828
G0 F7500 X20.663 Y20.216
G1 F2100 X-20.564 Y20.215 E95.69262
G0 F7500 X-20.216 Y20.664
G1 F2100 X-20.216 Y-20.464 E97.17340
G0 F7500 X-20.216 Y-20.300
G0 X-14.440 Y-20.300
G0 X-14.440 Y-20.464
G1 F2100 X-14.440 Y20.664 E98.65418
G0 F7500 X-14.440 Y20.500
G0 X-8.664 Y20.500
G0 X-8.664 Y20.664
G1 F2100 X-8.664 Y-20.464 E100.13495
G0 F7500 X-8.664 Y-20.300
G0 X-2.888 Y-20.300
G0 X-2.888 Y-20.464
G1 F2100 X-2.888 Y20.664 E101.61573
G0 F7500 X-2.888 Y20.500
G0 X2.888 Y20.500
G0 X2.888 Y20.664
G1 F2100 X2.888 Y-20.464 E103.09651
G0 F7500 X2.888 Y-20.300
G0 X8.664 Y-20.300
G0 X8.664 Y-20.464
G1 F2100 X8.664 Y20.664 E104.57728
G0 F7500 X8.664 Y20.500
G0 X14.440 Y20.500
G0 X14.440 Y20.664
G1 F2100 X14.440 Y-20.464 E106.05806
G0 F7500 X14.440 Y-20.300
G0 X20.500 Y-14.439
G0 X20.664 Y-14.439
G1 F2100 X-20.563 Y-14.440 E107.54240
G0 F7500 X-20.400 Y-14.440
G0 X-20.400 Y-8.664
G0 X-20.563 Y-8.664
G1 F2100 X20.664 Y-8.663 E109.02674
G0 F7500 X20.500 Y-8.663
G0 X20.500 Y-2.887
G0 X20.664 Y-2.887
G1 F2100 X-20.563 Y-2.888 E110.51108
G0 F7500 X-20.400 Y-2.888
G0 X-20.400 Y2.887
G0 X-20.564 Y2.887
G1 F2100 X20.663 Y2.888 E111.99542
G0 F7500 X20.500 Y2.888
G0 X20.500 Y8.664
G0 X20.663 Y8.664
G1 F2100 X-20.564 Y8.663 E113.47976
G0 F7500 X-20.400 Y8.663
G0 X-20.400 Y14.439
G0 X-20.564 Y14.439
G1 F2100 X20.663 Y14.440 E114.96410
;LAYER:3
G1 F2400 E113.96410
G0 F7500 X0.284 Y0.284 Z0.900
;TYPE:WALL-OUTER
G1 F2400 E114.96410
G1 X0.216 Y0.284 E114.96655
G1 X0.216 Y0.216 E114.96900
G1 X0.284 Y0.216 E114.97145
G1 X0.284 Y0.284 E114.97390
G0 F7500 X1.200 Y1.200
;TYPE:SUPPORT
G1 F2220 X1.200 Y-0.700 E115.04230
G1 X-0.700 Y-0.700 E115.11071
G1 X-0.700 Y1.200 E115.17912
G1 X1.200 Y1.200 E115.24753
G0 F7500 X1.190 Y1.300
G0 X20.500 Y20.590
G0 X20.600 Y20.600
G1 F2220 X-20.500 Y20.600 E116.72730
G1 X-20.500 Y-20.400 E118.20346
G1 X20.600 Y-20.400 E119.68323
G1 X20.600 Y20.600 E121.15940
G0 F7500 X20.663 Y20.216
G1 F2220 X-20.564 Y20.215 E122.64374
G0 F7500 X-20.216 Y20.664
G1 F2220 X-20.216 Y-20.464 E124.12452
G0 F7500 X-20.563 Y-20.216
G1 F2220 X20.664 Y-20.215 E125.60886
G0 F7500 X20.216 Y-20.464
G1 F2220 X20.216 Y20.664 E127.08964
G0 F7500 X20.216 Y20.500
G0 X14.440 Y20.500
G0 X14.440 Y20.664
G1 F2220 X14.440 Y-20.464 E128.57041
G0 F7500 X14.440 Y-20.300
G0 X8.664 Y-20.300
G0 X8.664 Y-20.464
G1 F2220 X8.664 Y20.664 E130.05119
G0 F7500 X8.664 Y20.500
G0 X2.888 Y20.500
G0 X2.888 Y20.664
G1 F2220 X2.888 Y-20.464 E131.53196
G0 F7500 X2.888 Y-20.300
G0 X-2.888 Y-20.300
G0 X-2.888 Y-20.464
G1 F2220 X-2.888 Y20.664 E133.01274
G0 F7500 X-2.888 Y20.500
G0 X-8.664 Y20.500
G0 X-8.664 Y20.664
G1 F2220 X-8.664 Y-20.464 E134.49352
G0 F7500 X-8.664 Y-20.300
G0 X-14.440 Y-20.300
G0 X-14.440 Y-20.464
G1 F2220 X-14.440 Y20.664 E135.97429
G0 F7500 X-14.440 Y20.500
G0 X-20.400 Y14.439
G0 X-20.564 Y14.439
G1 F2220 X20.663 Y14.440 E137.45863
G0 F7500 X20.500 Y14.440
G0 X20.500 Y8.664
G0 X20.663 Y8.664
G1 F2220 X-20.564 Y8.663 E138.94298
G0 F7500 X-20.400 Y8.663
G0 X-20.400 Y2.887
G0 X-20.564 Y2.887
G1 F2220 X20.663 Y2.888 E140.42732
G0 F7500 X20.500 Y2.888
G0 X20.500 Y-2.887
G0 X20.664 Y-2.887
G1 F2220 X-20.563 Y-2.888 E141.91166
G0 F7500 X-20.400 Y-2.888
G0 X-20.400 Y-8.664
G0 X-20.563 Y-8.664
G1 F2220 X20.664 Y-8.663 E143.39600
G0 F7500 X20.500 Y-8.663
G0 X20.500 Y-14.439
G0 X20.664 Y-14.439
G1 F2220 X-20.563 Y-14.440 E144.88034
;LAYER:4
G1 F2400 E143.88034
G0 F7500 X0.216 Y0.216 Z1.100
;TYPE:WALL-OUTER
G1 F2400 E144.88034
G1 F2700 X0.284 Y0.216 E144.88279
G1 X0.284 Y0.284 E144.88524
G1 X0.216 Y0.284 E144.88768
G1 X0.216 Y0.216 E144.89013
G0 F7500 X-0.700 Y-0.700
;TYPE:SUPPORT
G1 F2400 X-0.700 Y1.200 E144.95854
G1 X1.200 Y1.200 E145.02695
G1 X1.200 Y-0.700 E145.09536
G1 X-0.700 Y-0.700 E145.16376
G0 F7500 X-0.690 Y-0.800
G0 X-20.500 Y-20.400
G1 F2400 X20.600 Y-20.400 E146.64353
G1 X20.600 Y20.600 E148.11970
G1 X-20.500 Y20.600 E149.59947
G1 X-20.500 Y-20.400 E151.07564
G0 F7500 X-20.563 Y-20.216
G1 F2400 X20.664 Y-20.215 E152.55998
G0 F7500 X20.216 Y-20.464
G1 F2400 X20.216 Y20.664 E154.04075
G0 F7500 X20.663 Y20.216
G1 F2400 X-20.564 Y20.215 E155.52509
G0 F7500 X-20.216 Y20.664
G1 F2400 X-20.216 Y-20.464 E157.00587
G0 F7500 X-20.216 Y-20.300
G0 X-14.440 Y-20.300
G0 X-14.440 Y-20.464
G1 F2400 X-14.440 Y20.664 E158.48665
G0 F7500 X-14.440 Y20.500
G0 X-8.664 Y20.500
G0 X-8.664 Y20.664
G1 F2400 X-8.664 Y-20.464 E159.96742
G0 F7500 X-8.664 Y-20.300
G0 X-2.888 Y-20.300
G0 X-2.888 Y-20.464
G1 F2400 X-2.888 Y20.664 E161.44820
G0 F7500 X-2.888 Y20.500
G0 X2.888 Y20.500
G0 X2.888 Y20.664
G1 F2400 X2.888 Y-20.464 E162.92898
G0 F7500 X2.888 Y-20.300
G0 X8.664 Y-20.300
G0 X8.664 Y-20.464
G1 F2400 X8.664 Y20.664 E164.40975
G0 F7500 X8.664 Y20.500
G0 X14.440 Y20.500
G0 X14.440 Y20.664
G1 F2400 X14.440 Y-20.464 E165.89053
G0 F7500 X14.440 Y-20.300
G0 X20.500 Y-14.439
G0 X20.664 Y-14.439
G1 F2400 X-20.563 Y-14.440 E167.37487
G0 F7500 X-20.400 Y-14.440
G0 X-20.400 Y-8.664
G0 X-20.563 Y-8.664
G1 F2400 X20.664 Y-8.663 E168.85921
G0 F7500 X20.500 Y-8.663
G0 X20.500 Y-2.887
G0 X20.664 Y-2.887
G1 F2400 X-20.563 Y-2.888 E170.34355
G0 F7500 X-20.400 Y-2.888
G0 X-20.400 Y2.887
G0 X-20.564 Y2.887
G1 F2400 X20.663 Y2.888 E171.82789
G0 F7500 X20.500 Y2.888
G0 X20.500 Y8.664
G0 X20.663 Y8.664
G1 F2400 X-20.564 Y8.663 E173.31223
G0 F7500 X-20.400 Y8.663
G0 X-20.400 Y14.439
G0 X-20.564 Y14.439
G1 F2400 X20.663 Y14.440 E174.79657
;LAYER:5
G1 F2400 E173.79657
G0 F7500 X0.284 Y0.284 Z1.300
;TYPE:WALL-OUTER
G1 F2400 E174.79657
G1 F2700 X0.216 Y0.284 E174.79902
G1 X0.216 Y0.216 E174.80147
G1 X0.284 Y0.216 E174.80392
G1 X0.284 Y0.284 E174.80637
G0 F7500 X1.200 Y1.200
;TYPE:SUPPORT
G1 F2400 X1.200 Y-0.700 E174.87478
G1 X-0.700 Y-0.700 E174.94318
G1 X-0.700 Y1.200 E175.01159
G1 X1.200 Y1.200 E175.08000
G0 F7500 X1.190 Y1.300
G0 X20.500 Y20.590
G0 X20.600 Y20.600
G1 F2400 X-20.500 Y20.600 E176.55977
G1 X-20.500 Y-20.400 E178.03594
G1 X20.600 Y-20.400 E179.51570
G1 X20.600 Y20.600 E180.99187
G0 F7500 X20.663 Y20.216
G1 F2400 X-20.564 Y20.215 E182.47621
G0 F7500 X-20.216 Y20.664
G1 F2400 X-20.216 Y-20.464 E183.95699
G0 F7500 X-20.563 Y-20.216
G1 F2400 X20.664 Y-20.215 E185.44133
G0 F7500 X20.216 Y-20.464
G1 F2400 X20.216 Y20.664 E186.92211
G0 F7500 X20.216 Y20.500
G0 X14.440 Y20.500
G0 X14.440 Y20.664
G1 F2400 X14.440 Y-20.464 E188.40288
G0 F7500 X14.440 Y-20.300
G0 X8.664 Y-20.300
G0 X8.664 Y-20.464
G1 F2400 X8.664 Y20.664 E189.88366
G0 F7500 X8.664 Y20.500
G0 X2.888 Y20.500
G0 X2.888 Y20.664
G1 F2400 X2.888 Y-20.464 E191.36444
G0 F7500 X2.888 Y-20.300
G0 X-2.888 Y-20.300
G0 X-2.888 Y-20.464
G1 F2400 X-2.888 Y20.664 E192.84521
G0 F7500 X-2.888 Y20.500
G0 X-8.664 Y20.500
G0 X-8.664 Y20.664
G1 F2400 X-8.664 Y-20.464 E194.32599
G0 F7500 X-8.664 Y-20.300
G0 X-14.440 Y-20.300
G0 X-14.440 Y-20.464
G1 F2400 X-14.440 Y20.664 E195.80676
G0 F7500 X-14.440 Y20.500
G0 X-20.400 Y14.439
G0 X-20.564 Y14.439
G1 F2400 X20.663 Y14.440 E197.29111
G0 F7500 X20.500 Y14.440
G0 X20.500 Y8.664
G0 X20.663 Y8.664
G1 F2400 X-20.564 Y8.663 E198.77545
G0 F7500 X-20.400 Y8.663
G0 X-20.400 Y2.887
G0 X-20.564 Y2.887
G1 F2400 X20.663 Y2.888 E200.25979
G0 F7500 X20.500 Y2.888
G0 X20.500 Y-2.887
G0 X20.664 Y-2.887
G1 F2400 X-20.563 Y-2.888 E201.74413
G0 F7500 X-20.400 Y-2.888
G0 X-20.400 Y-8.664
G0 X-20.563 Y-8.664
G1 F2400 X20.664 Y-8.663 E203.22847
G0 F7500 X20.500 Y-8.663
G0 X20.500 Y-14.439
G0 X20.664 Y-14.439
G1 F2400 X-20.563 Y-14.440 E204.71281
;LAYER:6
G1 F2400 E203.71281
G0 F7500 X0.216 Y0.216 Z1.500
;TYPE:WALL-OUTER
G1 F2400 E204.71281
G1 F2700 X0.284 Y0.216 E204.71526
G1 X0.284 Y0.284 E204.71771
G1 X0.216 Y0.284 E204.72016
G1 X0.216 Y0.216 E204.72260
G0 F7500 X-0.700 Y-0.700
;TYPE:SUPPORT
G1 F2400 X-0.700 Y1.200 E204.79101
G1 X1.200 Y1.200 E204.85942
G1 X1.200 Y-0.700 E204.92783
G1 X-0.700 Y-0.700 E204.99623
G0 F7500 X-0.690 Y-0.800
G0 X-20.500 Y-20.400
G1 F2400 X20.600 Y-20.400 E206.47600
G1 X20.600 Y20.600 E207.95217
G1 X-20.500 Y20.600 E209.43194
G1 X-20.500 Y-20.400 E210.90811
G0 F7500 X-20.563 Y-20.216
G1 F2400 X20.664 Y-20.215 E212.39245
G0 F7500 X20.216 Y-20.464
G1 F2400 X20.216 Y20.664 E213.87322
G0 F7500 X20.663 Y20.216
G1 F2400 X-20.564 Y20.215 E215.35757
G0 F7500 X-20.216 Y20.664
G1 F2400 X-20.216 Y-20.464 E216.83834
G0 F7500 X-20.216 Y-20.300
G0 X-14.440 Y-20.300
G0 X-14.440 Y-20.464
G1 F2400 X-14.440 Y20.664 E218.31912
G0 F7500 X-14.440 Y20.500
G0 X-8.664 Y20.500
G0 X-8.664 Y20.664
G1 F2400 X-8.664 Y-20.464 E219.79989
G0 F7500 X-8.664 Y-20.300
G0 X-2.888 Y-20.300
G0 X-2.888 Y-20.464
G1 F2400 X-2.888 Y20.664 E221.28067
G0 F7500 X-2.888 Y20.500
G0 X2.888 Y20.500
G0 X2.888 Y20.664
G1 F2400 X2.888 Y-20.464 E222.76145
G0 F7500 X2.888 Y-20.300
G0 X8.664 Y-20.300
G0 X8.664 Y-20.464
G1 F2400 X8.664 Y20.664 E224.24222
G0 F7500 X8.664 Y20.500
G0 X14.440 Y20.500
G0 X14.440 Y20.664
G1 F2400 X14.440 Y-20.464 E225.72300
G0 F7500 X14.440 Y-20.300
G0 X20.500 Y-14.439
G0 X20.664 Y-14.439
G1 F2400 X-20.563 Y-14.440 E227.20734
G0 F7500 X-20.400 Y-14.440
G0 X-20.400 Y-8.664
G0 X-20.563 Y-8.664
G1 F2400 X20.664 Y-8.663 E228.69168
G0 F7500 X20.500 Y-8.663
G0 X20.500 Y-2.887
G0 X20.664 Y-2.887
G1 F2400 X-20.563 Y-2.888 E230.17602
G0 F7500 X-20.400 Y-2.888
G0 X-20.400 Y2.887
G0 X-20.564 Y2.887
G1 F2400 X20.663 Y2.888 E231.66036
G0 F7500 X20.500 Y2.888
G0 X20.500 Y8.664
G0 X20.663 Y8.664
G1 F2400 X-20.564 Y8.663 E233.14470
G0 F7500 X-20.400 Y8.663
G0 X-20.400 Y14.439
G0 X-20.564 Y14.439
G1 F2400 X20.663 Y14.440 E234.62905
;LAYER:7
G1 F2400 E233.62905
G0 F7500 X0.284 Y0.284 Z1.700
;TYPE:WALL-OUTER
G1 F2400 E234.62905
G1 F2700 X0.216 Y0.284 E234.63149
G1 X0.216 Y0.216 E234.63394
G1 X0.284 Y0.216 E234.63639
G1 X0.284 Y0.284 E234.63884
G0 F7500 X1.200 Y1.200
;TYPE:SUPPORT
G1 F2400 X1.200 Y-0.700 E234.70725
G1 X-0.700 Y-0.700 E234.77565
G1 X-0.700 Y1.200 E234.84406
G1 X1.200 Y1.200 E234.91247
G0 F7500 X1.190 Y1.300
G0 X20.500 Y20.590
G0 X20.600 Y20.600
G1 F2400 X-20.500 Y20.600 E236.39224
G1 X-20.500 Y-20.400 E237.86841
G1 X20.600 Y-20.400 E239.34817
G1 X20.600 Y20.600 E240.82434
G0 F7500 X20.663 Y20.216
G1 F2400 X-20.564 Y20.215 E242.30868
G0 F7500 X-20.216 Y20.664
G1 F2400 X-20.216 Y-20.464 E243.78946
G0 F7500 X-20.563 Y-20.216
G1 F2400 X20.664 Y-20.215 E245.27380
G0 F7500 X20.216 Y-20.464
G1 F2400 X20.216 Y20.664 E246.75458
G0 F7500 X20.216 Y20.500
G0 X14.440 Y20.500
G0 X14.440 Y20.664
G1 F2400 X14.440 Y-20.464 E248.23535
G0 F7500 X14.440 Y-20.300
G0 X8.664 Y-20.300
G0 X8.664 Y-20.464
G1 F2400 X8.664 Y20.664 E249.71613
G0 F7500 X8.664 Y20.500
G0 X2.888 Y20.500
G0 X2.888 Y20.664
G1 F2400 X2.888 Y-20.464 E251.19691
G0 F7500 X2.888 Y-20.300
G0 X-2.888 Y-20.300
G0 X-2.888 Y-20.464
G1 F2400 X-2.888 Y20.664 E252.67768
G0 F7500 X-2.888 Y20.500
G0 X-8.664 Y20.500
G0 X-8.664 Y20.664
G1 F2400 X-8.664 Y-20.464 E254.15846
G0 F7500 X-8.664 Y-20.300
G0 X-14.440 Y-20.300
G0 X-14.440 Y-20.464
G1 F2400 X-14.440 Y20.664 E255.63924
G0 F7500 X-14.440 Y20.500
G0 X-20.400 Y14.439
G0 X-20.564 Y14.439
G1 F2400 X20.663 Y14.440 E257.12358
G0 F7500 X20.500 Y14.440
G0 X20.500 Y8.664
G0 X20.663 Y8.664
G1 F2400 X-20.564 Y8.663 E258.60792
G0 F7500 X-20.400 Y8.663
G0 X-20.400 Y2.887
G0 X-20.564 Y2.887
G1 F2400 X20.663 Y2.888 E260.09226
G0 F7500 X20.500 Y2.888
