;Generated with Cura_SteamEngine 15.04.6

;Layer count: 16
;LAYER:0
M107
G0 F7500 X-23.716 Y-28.616 Z0.300
;TYPE:SKIRT
G1 F1800 X23.816 Y-28.616 E2.56702
G1 X23.816 Y28.816 E5.66870
G1 X-23.716 Y28.816 E8.23572
G1 X-23.716 Y-28.616 E11.33740
G1 F2400 E10.33740
G0 F7500 X0.216 Y0.216
;TYPE:WALL-OUTER
G1 F2400 E11.33740
G1 F1800 X0.284 Y0.216 E11.34107
G1 X0.284 Y0.284 E11.34475
G1 X0.216 Y0.284 E11.34842
G1 X0.216 Y0.216 E11.35209
G0 F7500 X-0.700 Y-0.700
;TYPE:SUPPORT
G1 F1800 X-0.700 Y1.200 E11.45470
G1 X1.200 Y1.200 E11.55731
G1 X1.200 Y-0.700 E11.65993
G1 X-0.700 Y-0.700 E11.76254
G0 F7500 X-0.690 Y-0.800
G0 X-20.500 Y-25.400
G1 F1800 X20.600 Y-25.400 E13.98219
G1 X20.600 Y25.600 E16.73650
G1 X-20.500 Y25.600 E18.95616
G1 X-20.500 Y-25.400 E21.71047
G0 F7500 X-20.216 Y-25.464
G1 F1800 X-20.216 Y25.664 E24.47170
G0 F7500 X-20.216 Y25.500
G0 X-20.400 Y20.215
G0 X-20.564 Y20.215
G1 F1800 X20.663 Y20.216 E26.69821
G0 F7500 X20.500 Y20.216
G0 X20.216 Y25.500
G0 X20.216 Y25.664
G1 F1800 X20.216 Y-25.464 E29.45943
G0 F7500 X20.216 Y-25.300
G0 X20.500 Y-20.215
G0 X20.664 Y-20.215
G1 F1800 X-20.563 Y-20.216 E31.68594
G0 F7500 X-20.400 Y-20.216
G0 X-20.400 Y-14.440
G0 X-20.563 Y-14.440
G1 F1800 X20.664 Y-14.439 E33.91246
G0 F7500 X20.500 Y-14.439
G0 X20.500 Y-8.663
G0 X20.664 Y-8.663
G1 F1800 X-20.563 Y-8.664 E36.13897
G0 F7500 X-20.400 Y-8.664
G0 X-20.400 Y-2.888
G0 X-20.563 Y-2.888
G1 F1800 X20.664 Y-2.887 E38.36548
G0 F7500 X20.500 Y-2.887
G0 X20.500 Y2.888
G0 X20.663 Y2.888
G1 F1800 X-20.564 Y2.887 E40.59199
G0 F7500 X-20.400 Y2.887
G0 X-20.400 Y8.663
G0 X-20.564 Y8.663
G1 F1800 X20.663 Y8.664 E42.81850
G0 F7500 X20.500 Y8.664
G0 X20.500 Y14.440
G0 X20.663 Y14.440
G1 F1800 X-20.564 Y14.439 E45.04501
G0 F7500 X-20.400 Y14.439
G0 X-14.440 Y25.500
G0 X-14.440 Y25.664
G1 F1800 X-14.440 Y-25.464 E47.80624
G0 F7500 X-14.440 Y-25.300
G0 X-8.664 Y-25.300
G0 X-8.664 Y-25.464
G1 F1800 X-8.664 Y25.664 E50.56747
G0 F7500 X-8.664 Y25.500
G0 X-2.888 Y25.500
G0 X-2.888 Y25.664
G1 F1800 X-2.888 Y-25.464 E53.32869
G0 F7500 X-2.888 Y-25.300
G0 X2.888 Y-25.300
G0 X2.888 Y-25.464
G1 F1800 X2.888 Y25.664 E56.08992
G0 F7500 X2.888 Y25.500
G0 X8.664 Y25.500
G0 X8.664 Y25.664
G1 F1800 X8.664 Y-25.464 E58.85114
G0 F7500 X8.664 Y-25.300
G0 X14.440 Y-25.300
G0 X14.440 Y-25.464
G1 F1800 X14.440 Y25.664 E61.61237
;LAYER:1
M106 S63
G1 F2400 E60.61237
G0 F7500 X0.284 Y0.284 Z0.500
;TYPE:WALL-OUTER
G1 F2400 E61.61237
G1 F1980 X0.216 Y0.284 E61.61482
G1 X0.216 Y0.216 E61.61727
G1 X0.284 Y0.216 E61.61971
G1 X0.284 Y0.284 E61.62216
G0 F7500 X1.200 Y1.200
;TYPE:SUPPORT
G1 F1920 X1.200 Y-0.700 E61.69057
G1 X-0.700 Y-0.700 E61.75898
G1 X-0.700 Y1.200 E61.82739
G1 X1.200 Y1.200 E61.89579
G0 F7500 X1.190 Y1.300
G0 X20.500 Y25.590
G0 X20.600 Y25.600
G1 F1920 X-20.500 Y25.600 E63.37556
G1 X-20.500 Y-25.400 E65.21177
G1 X20.600 Y-25.400 E66.69154
G1 X20.600 Y25.600 E68.52775
G0 F7500 X20.216 Y25.664
G1 F1920 X20.216 Y-25.464 E70.36857
G0 F7500 X20.216 Y-25.300
G0 X20.500 Y-20.215
G0 X20.664 Y-20.215
G1 F1920 X-20.563 Y-20.216 E71.85291
G0 F7500 X-20.400 Y-20.216
G0 X-20.216 Y-25.300
G0 X-20.216 Y-25.464
G1 F1920 X-20.216 Y25.664 E73.69372
G0 F7500 X-20.216 Y25.500
G0 X-20.400 Y20.215
G0 X-20.564 Y20.215
G1 F1920 X20.663 Y20.216 E75.17807
G0 F7500 X20.500 Y20.216
G0 X20.500 Y14.440
G0 X20.663 Y14.440
G1 F1920 X-20.564 Y14.439 E76.66241
G0 F7500 X-20.400 Y14.439
G0 X-20.400 Y8.663
G0 X-20.564 Y8.663
G1 F1920 X20.663 Y8.664 E78.14675
G0 F7500 X20.500 Y8.664
G0 X20.500 Y2.888
G0 X20.663 Y2.888
G1 F1920 X-20.564 Y2.887 E79.63109
G0 F7500 X-20.400 Y2.887
G0 X-20.400 Y-2.888
G0 X-20.563 Y-2.888
G1 F1920 X20.664 Y-2.887 E81.11543
G0 F7500 X20.500 Y-2.887
G0 X20.500 Y-8.663
G0 X20.664 Y-8.663
G1 F1920 X-20.563 Y-8.664 E82.59977
G0 F7500 X-20.400 Y-8.664
G0 X-20.400 Y-14.440
G0 X-20.563 Y-14.440
G1 F1920 X20.664 Y-14.439 E84.08411
G0 F7500 X20.500 Y-14.439
G0 X14.440 Y-25.300
G0 X14.440 Y-25.464
G1 F1920 X14.440 Y25.664 E85.92493
G0 F7500 X14.440 Y25.500
G0 X8.664 Y25.500
G0 X8.664 Y25.664
G1 F1920 X8.664 Y-25.464 E87.76575
G0 F7500 X8.664 Y-25.300
G0 X2.888 Y-25.300
G0 X2.888 Y-25.464
G1 F1920 X2.888 Y25.664 E89.60656
G0 F7500 X2.888 Y25.500
G0 X-2.888 Y25.500
G0 X-2.888 Y25.664
G1 F1920 X-2.888 Y-25.464 E91.44738
G0 F7500 X-2.888 Y-25.300
G0 X-8.664 Y-25.300
G0 X-8.664 Y-25.464
G1 F1920 X-8.664 Y25.664 E93.28820
G0 F7500 X-8.664 Y25.500
G0 X-14.440 Y25.500
G0 X-14.440 Y25.664
G1 F1920 X-14.440 Y-25.464 E95.12901
;LAYER:2
M106 S127
G1 F2400 E94.12901
G0 F7500 X0.216 Y0.216 Z0.700
;TYPE:WALL-OUTER
G1 F2400 E95.12901
G1 F2220 X0.284 Y0.216 E95.13146
G1 X0.284 Y0.284 E95.13391
G1 X0.216 Y0.284 E95.13636
G1 X0.216 Y0.216 E95.13881
G0 F7500 X-0.700 Y-0.700
;TYPE:SUPPORT
G1 F2100 X-0.700 Y1.200 E95.20722
G1 X1.200 Y1.200 E95.27562
G1 X1.200 Y-0.700 E95.34403
G1 X-0.700 Y-0.700 E95.41244
G0 F7500 X-0.690 Y-0.800
G0 X-20.500 Y-25.400
G1 F2100 X20.600 Y-25.400 E96.89221
G1 X20.600 Y25.600 E98.72842
G1 X-20.500 Y25.600 E100.20818
G1 X-20.500 Y-25.400 E102.04439
G0 F7500 X-20.216 Y-25.464
G1 F2100 X-20.216 Y25.664 E103.88521
G0 F7500 X-20.216 Y25.500
G0 X-20.400 Y20.215
G0 X-20.564 Y20.215
G1 F2100 X20.663 Y20.216 E105.36955
G0 F7500 X20.500 Y20.216
G0 X20.216 Y25.500
G0 X20.216 Y25.664
G1 F2100 X20.216 Y-25.464 E107.21037
G0 F7500 X20.216 Y-25.300
G0 X20.500 Y-20.215
G0 X20.664 Y-20.215
G1 F2100 X-20.563 Y-20.216 E108.69471
G0 F7500 X-20.400 Y-20.216
G0 X-20.400 Y-14.440
G0 X-20.563 Y-14.440
G1 F2100 X20.664 Y-14.439 E110.17905
G0 F7500 X20.500 Y-14.439
G0 X20.500 Y-8.663
G0 X20.664 Y-8.663
G1 F2100 X-20.563 Y-8.664 E111.66339
G0 F7500 X-20.400 Y-8.664
G0 X-20.400 Y-2.888
G0 X-20.563 Y-2.888
G1 F2100 X20.664 Y-2.887 E113.14773
G0 F7500 X20.500 Y-2.887
G0 X20.500 Y2.888
G0 X20.663 Y2.888
G1 F2100 X-20.564 Y2.887 E114.63207
G0 F7500 X-20.400 Y2.887
G0 X-20.400 Y8.663
G0 X-20.564 Y8.663
G1 F2100 X20.663 Y8.664 E116.11641
G0 F7500 X20.500 Y8.664
G0 X20.500 Y14.440
G0 X20.663 Y14.440
G1 F2100 X-20.564 Y14.439 E117.60076
G0 F7500 X-20.400 Y14.439
G0 X-14.440 Y25.500
G0 X-14.440 Y25.664
G1 F2100 X-14.440 Y-25.464 E119.44157
G0 F7500 X-14.440 Y-25.300
G0 X-8.664 Y-25.300
G0 X-8.664 Y-25.464
G1 F2100 X-8.664 Y25.664 E121.28239
G0 F7500 X-8.664 Y25.500
G0 X-2.888 Y25.500
G0 X-2.888 Y25.664
G1 F2100 X-2.888 Y-25.464 E123.12321
G0 F7500 X-2.888 Y-25.300
G0 X2.888 Y-25.300
G0 X2.888 Y-25.464
G1 F2100 X2.888 Y25.664 E124.96403
G0 F7500 X2.888 Y25.500
G0 X8.664 Y25.500
G0 X8.664 Y25.664
G1 F2100 X8.664 Y-25.464 E126.80484
G0 F7500 X8.664 Y-25.300
G0 X14.440 Y-25.300
G0 X14.440 Y-25.464
G1 F2100 X14.440 Y25.664 E128.64566
;LAYER:3
G1 F2400 E127.64566
G0 F7500 X0.284 Y0.284 Z0.900
;TYPE:WALL-OUTER
G1 F2400 E128.64566
G1 X0.216 Y0.284 E128.64811
G1 X0.216 Y0.216 E128.65056
G1 X0.284 Y0.216 E128.65300
G1 X0.284 Y0.284 E128.65545
G0 F7500 X1.200 Y1.200
;TYPE:SUPPORT
G1 F2220 X1.200 Y-0.700 E128.72386
G1 X-0.700 Y-0.700 E128.79227
G1 X-0.700 Y1.200 E128.86068
G1 X1.200 Y1.200 E128.92908
G0 F7500 X1.190 Y1.300
G0 X20.500 Y25.590
G0 X20.600 Y25.600
G1 F2220 X-20.500 Y25.600 E130.40885
G1 X-20.500 Y-25.400 E132.24506
G1 X20.600 Y-25.400 E133.72483
G1 X20.600 Y25.600 E135.56104
G0 F7500 X20.216 Y25.664
G1 F2220 X20.216 Y-25.464 E137.40186
G0 F7500 X20.216 Y-25.300
G0 X20.500 Y-20.215
G0 X20.664 Y-20.215
G1 F2220 X-20.563 Y-20.216 E138.88620
G0 F7500 X-20.400 Y-20.216
G0 X-20.216 Y-25.300
G0 X-20.216 Y-25.464
G1 F2220 X-20.216 Y25.664 E140.72701
G0 F7500 X-20.216 Y25.500
G0 X-20.400 Y20.215
G0 X-20.564 Y20.215
G1 F2220 X20.663 Y20.216 E142.21136
G0 F7500 X20.500 Y20.216
G0 X20.500 Y14.440
G0 X20.663 Y14.440
G1 F2220 X-20.564 Y14.439 E143.69570
G0 F7500 X-20.400 Y14.439
G0 X-20.400 Y8.663
G0 X-20.564 Y8.663
G1 F2220 X20.663 Y8.664 E145.18004
G0 F7500 X20.500 Y8.664
G0 X20.500 Y2.888
G0 X20.663 Y2.888
G1 F2220 X-20.564 Y2.887 E146.66438
G0 F7500 X-20.400 Y2.887
G0 X-20.400 Y-2.888
G0 X-20.563 Y-2.888
G1 F2220 X20.664 Y-2.887 E148.14872
G0 F7500 X20.500 Y-2.887
G0 X20.500 Y-8.663
G0 X20.664 Y-8.663
G1 F2220 X-20.563 Y-8.664 E149.63306
G0 F7500 X-20.400 Y-8.664
G0 X-20.400 Y-14.440
G0 X-20.563 Y-14.440
G1 F2220 X20.664 Y-14.439 E151.11740
G0 F7500 X20.500 Y-14.439
G0 X14.440 Y-25.300
G0 X14.440 Y-25.464
G1 F2220 X14.440 Y25.664 E152.95822
G0 F7500 X14.440 Y25.500
G0 X8.664 Y25.500
G0 X8.664 Y25.664
G1 F2220 X8.664 Y-25.464 E154.79904
G0 F7500 X8.664 Y-25.300
G0 X2.888 Y-25.300
G0 X2.888 Y-25.464
G1 F2220 X2.888 Y25.664 E156.63985
G0 F7500 X2.888 Y25.500
G0 X-2.888 Y25.500
G0 X-2.888 Y25.664
G1 F2220 X-2.888 Y-25.464 E158.48067
G0 F7500 X-2.888 Y-25.300
G0 X-8.664 Y-25.300
G0 X-8.664 Y-25.464
G1 F2220 X-8.664 Y25.664 E160.32149
G0 F7500 X-8.664 Y25.500
G0 X-14.440 Y25.500
G0 X-14.440 Y25.664
G1 F2220 X-14.440 Y-25.464 E162.16231
;LAYER:4
G1 F2400 E161.16231
G0 F7500 X0.216 Y0.216 Z1.100
;TYPE:WALL-OUTER
G1 F2400 E162.16231
G1 F2700 X0.284 Y0.216 E162.16475
G1 X0.284 Y0.284 E162.16720
G1 X0.216 Y0.284 E162.16965
G1 X0.216 Y0.216 E162.17210
G0 F7500 X-0.700 Y-0.700
;TYPE:SUPPORT
G1 F2400 X-0.700 Y1.200 E162.24051
G1 X1.200 Y1.200 E162.30891
G1 X1.200 Y-0.700 E162.37732
G1 X-0.700 Y-0.700 E162.44573
G0 F7500 X-0.690 Y-0.800
G0 X-20.500 Y-25.400
G1 F2400 X20.600 Y-25.400 E163.92550
G1 X20.600 Y25.600 E165.76171
G1 X-20.500 Y25.600 E167.24148
G1 X-20.500 Y-25.400 E169.07768
G0 F7500 X-20.216 Y-25.464
G1 F2400 X-20.216 Y25.664 E170.91850
G0 F7500 X-20.216 Y25.500
G0 X-20.400 Y20.215
G0 X-20.564 Y20.215
G1 F2400 X20.663 Y20.216 E172.40284
G0 F7500 X20.500 Y20.216
G0 X20.216 Y25.500
G0 X20.216 Y25.664
G1 F2400 X20.216 Y-25.464 E174.24366
G0 F7500 X20.216 Y-25.300
G0 X20.500 Y-20.215
G0 X20.664 Y-20.215
G1 F2400 X-20.563 Y-20.216 E175.72800
G0 F7500 X-20.400 Y-20.216
G0 X-20.400 Y-14.440
G0 X-20.563 Y-14.440
G1 F2400 X20.664 Y-14.439 E177.21234
G0 F7500 X20.500 Y-14.439
G0 X20.500 Y-8.663
G0 X20.664 Y-8.663
G1 F2400 X-20.563 Y-8.664 E178.69668
G0 F7500 X-20.400 Y-8.664
G0 X-20.400 Y-2.888
G0 X-20.563 Y-2.888
G1 F2400 X20.664 Y-2.887 E180.18102
G0 F7500 X20.500 Y-2.887
G0 X20.500 Y2.888
G0 X20.663 Y2.888
G1 F2400 X-20.564 Y2.887 E181.66536
G0 F7500 X-20.400 Y2.887
G0 X-20.400 Y8.663
G0 X-20.564 Y8.663
G1 F2400 X20.663 Y8.664 E183.14970
G0 F7500 X20.500 Y8.664
G0 X20.500 Y14.440
G0 X20.663 Y14.440
G1 F2400 X-20.564 Y14.439 E184.63405
G0 F7500 X-20.400 Y14.439
G0 X-14.440 Y25.500
G0 X-14.440 Y25.664
G1 F2400 X-14.440 Y-25.464 E186.47486
G0 F7500 X-14.440 Y-25.300
G0 X-8.664 Y-25.300
G0 X-8.664 Y-25.464
G1 F2400 X-8.664 Y25.664 E188.31568
G0 F7500 X-8.664 Y25.500
G0 X-2.888 Y25.500
G0 X-2.888 Y25.664
G1 F2400 X-2.888 Y-25.464 E190.15650
G0 F7500 X-2.888 Y-25.300
G0 X2.888 Y-25.300
G0 X2.888 Y-25.464
G1 F2400 X2.888 Y25.664 E191.99732
G0 F7500 X2.888 Y25.500
G0 X8.664 Y25.500
G0 X8.664 Y25.664
G1 F2400 X8.664 Y-25.464 E193.83813
G0 F7500 X8.664 Y-25.300
G0 X14.440 Y-25.300
G0 X14.440 Y-25.464
G1 F2400 X14.440 Y25.664 E195.67895
;LAYER:5
G1 F2400 E194.67895
G0 F7500 X0.284 Y0.284 Z1.300
;TYPE:WALL-OUTER
G1 F2400 E195.67895
G1 F2700 X0.216 Y0.284 E195.68140
G1 X0.216 Y0.216 E195.68385
G1 X0.284 Y0.216 E195.68630
G1 X0.284 Y0.284 E195.68874
G0 F7500 X1.200 Y1.200
;TYPE:SUPPORT
G1 F2400 X1.200 Y-0.700 E195.75715
G1 X-0.700 Y-0.700 E195.82556
G1 X-0.700 Y1.200 E195.89397
G1 X1.200 Y1.200 E195.96237
G0 F7500 X1.190 Y1.300
G0 X20.500 Y25.590
G0 X20.600 Y25.600
G1 F2400 X-20.500 Y25.600 E197.44214
G1 X-20.500 Y-25.400 E199.27835
G1 X20.600 Y-25.400 E200.75812
G1 X20.600 Y25.600 E202.59433
G0 F7500 X20.216 Y25.664
G1 F2400 X20.216 Y-25.464 E204.43515
G0 F7500 X20.216 Y-25.300
G0 X20.500 Y-20.215
G0 X20.664 Y-20.215
G1 F2400 X-20.563 Y-20.216 E205.91949
G0 F7500 X-20.400 Y-20.216
G0 X-20.216 Y-25.300
G0 X-20.216 Y-25.464
G1 F2400 X-20.216 Y25.664 E207.76030
G0 F7500 X-20.216 Y25.500
G0 X-20.400 Y20.215
G0 X-20.564 Y20.215
G1 F2400 X20.663 Y20.216 E209.24465
G0 F7500 X20.500 Y20.216
G0 X20.500 Y14.440
G0 X20.663 Y14.440
G1 F2400 X-20.564 Y14.439 E210.72899
G0 F7500 X-20.400 Y14.439
G0 X-20.400 Y8.663
G0 X-20.564 Y8.663
G1 F2400 X20.663 Y8.664 E212.21333
G0 F7500 X20.500 Y8.664
G0 X20.500 Y2.888
G0 X20.663 Y2.888
G1 F2400 X-20.564 Y2.887 E213.69767
G0 F7500 X-20.400 Y2.887
G0 X-20.400 Y-2.888
G0 X-20.563 Y-2.888
G1 F2400 X20.664 Y-2.887 E215.18201
G0 F7500 X20.500 Y-2.887
G0 X20.500 Y-8.663
G0 X20.664 Y-8.663
G1 F2400 X-20.563 Y-8.664 E216.66635
G0 F7500 X-20.400 Y-8.664
G0 X-20.400 Y-14.440
G0 X-20.563 Y-14.440
G1 F2400 X20.664 Y-14.439 E218.15069
G0 F7500 X20.500 Y-14.439
G0 X14.440 Y-25.300
G0 X14.440 Y-25.464
G1 F2400 X14.440 Y25.664 E219.99151
G0 F7500 X14.440 Y25.500
G0 X8.664 Y25.500
G0 X8.664 Y25.664
G1 F2400 X8.664 Y-25.464 E221.83233
G0 F7500 X8.664 Y-25.300
G0 X2.888 Y-25.300
G0 X2.888 Y-25.464
G1 F2400 X2.888 Y25.664 E223.67314
G0 F7500 X2.888 Y25.500
G0 X-2.888 Y25.500
G0 X-2.888 Y25.664
G1 F2400 X-2.888 Y-25.464 E225.51396
G0 F7500 X-2.888 Y-25.300
G0 X-8.664 Y-25.300
G0 X-8.664 Y-25.464
G1 F2400 X-8.664 Y25.664 E227.35478
G0 F7500 X-8.664 Y25.500
G0 X-14.440 Y25.500
G0 X-14.440 Y25.664
G1 F2400 X-14.440 Y-25.464 E229.19560
;LAYER:6
G1 F2400 E228.19560
G0 F7500 X0.216 Y0.216 Z1.500
;TYPE:WALL-OUTER
G1 F2400 E229.19560
G1 F2700 X0.284 Y0.216 E229.19804
G1 X0.284 Y0.284 E229.20049
G1 X0.216 Y0.284 E229.20294
G1 X0.216 Y0.216 E229.20539
G0 F7500 X-0.700 Y-0.700
;TYPE:SUPPORT
G1 F2400 X-0.700 Y1.200 E229.27380
G1 X1.200 Y1.200 E229.34220
G1 X1.200 Y-0.700 E229.41061
G1 X-0.700 Y-0.700 E229.47902
G0 F7500 X-0.690 Y-0.800
G0 X-20.500 Y-25.400
G1 F2400 X20.600 Y-25.400 E230.95879
G1 X20.600 Y25.600 E232.79500
G1 X-20.500 Y25.600 E234.27477
G1 X-20.500 Y-25.400 E236.11097
G0 F7500 X-20.216 Y-25.464
G1 F2400 X-20.216 Y25.664 E237.95179
G0 F7500 X-20.216 Y25.500
G0 X-20.400 Y20.215
G0 X-20.564 Y20.215
G1 F2400 X20.663 Y20.216 E239.43613
G0 F7500 X20.500 Y20.216
G0 X20.216 Y25.500
G0 X20.216 Y25.664
G1 F2400 X20.216 Y-25.464 E241.27695
G0 F7500 X20.216 Y-25.300
G0 X20.500 Y-20.215
G0 X20.664 Y-20.215
G1 F2400 X-20.563 Y-20.216 E242.76129
G0 F7500 X-20.400 Y-20.216
G0 X-20.400 Y-14.440
G0 X-20.563 Y-14.440
G1 F2400 X20.664 Y-14.439 E244.24563
G0 F7500 X20.500 Y-14.439
G0 X20.500 Y-8.663
G0 X20.664 Y-8.663
G1 F2400 X-20.563 Y-8.664 E245.72997
G0 F7500 X-20.400 Y-8.664
G0 X-20.400 Y-2.888
G0 X-20.563 Y-2.888
G1 F2400 X20.664 Y-2.887 E247.21431
G0 F7500 X20.500 Y-2.887
G0 X20.500 Y2.888
G0 X20.663 Y2.888
G1 F2400 X-20.564 Y2.887 E248.69865
G0 F7500 X-20.400 Y2.887
G0 X-20.400 Y8.663
G0 X-20.564 Y8.663
G1 F2400 X20.663 Y8.664 E250.18300
G0 F7500 X20.500 Y8.664
G0 X20.500 Y14.440
G0 X20.663 Y14.440
G1 F2400 X-20.564 Y14.439 E251.66734
G0 F7500 X-20.400 Y14.439
G0 X-14.440 Y25.500
G0 X-14.440 Y25.664
G1 F2400 X-14.440 Y-25.464 E253.50815
G0 F7500 X-14.440 Y-25.300
G0 X-8.664 Y-25.300
G0 X-8.664 Y-25.464
G1 F2400 X-8.664 Y25.664 E255.34897
G0 F7500 X-8.664 Y25.500
G0 X-2.888 Y25.500
G0 X-2.888 Y25.664
G1 F2400 X-2.888 Y-25.464 E257.18979
G0 F7500 X-2.888 Y-25.300
G0 X2.888 Y-25.300
G0 X2.888 Y-25.464
G1 F2400 X2.888 Y25.664 E259.03061
G0 F7500 X2.888 Y25.500
G0 X8.664 Y25.500
G0 X8.664 Y25.664
G1 F2400 X8.664 Y-25.464 E260.87142
G0 F7500 X8.664 Y-25.300
G0 X14.440 Y-25.300
G0 X14.440 Y-25.464
G1 F2400 X14.440 Y25.664 E262.71224
;LAYER:7
G1 F2400 E261.71224
G0 F7500 X0.284 Y0.284 Z1.700
;TYPE:WALL-OUTER
G1 F2400 E262.71224
G1 F2700 X0.216 Y0.284 E262.71469
G1 X0.216 Y0.216 E262.71714
G1 X0.284 Y0.216 E262.71959
G1 X0.284 Y0.284 E262.72203
G0 F7500 X1.200 Y1.200
;TYPE:SUPPORT
G1 F2400 X1.200 Y-0.700 E262.79044
G1 X-0.700 Y-0.700 E262.85885
G1 X-0.700 Y1.200 E262.92726
G1 X1.200 Y1.200 E262.99567
G0 F7500 X1.190 Y1.300
G0 X20.500 Y25.590
G0 X20.600 Y25.600
G1 F2400 X-20.500 Y25.600 E264.47543
G1 X-20.500 Y-25.400 E266.31164
G1 X20.600 Y-25.400 E267.79141
G1 X20.600 Y25.600 E269.62762
G0 F7500 X20.216 Y25.664
G1 F2400 X20.216 Y-25.464 E271.46844
G0 F7500 X20.216 Y-25.300
G0 X20.500 Y-20.215
G0 X20.664 Y-20.215
G1 F2400 X-20.563 Y-20.216 E272.95278
G0 F7500 X-20.400 Y-20.216
G0 X-20.216 Y-25.300
G0 X-20.216 Y-25.464
G1 F2400 X-20.216 Y25.664 E274.79360
G0 F7500 X-20.216 Y25.500
G0 X-20.400 Y20.215
G0 X-20.564 Y20.215
