;Generated with Cura_SteamEngine 15.04.6

;Layer count: 16
;LAYER:0
M107
G0 F7500 X-23.716 Y-33.616 Z0.300
;TYPE:SKIRT
G1 F1800 X23.816 Y-33.616 E2.56702
G1 X23.816 Y33.816 E6.20876
G1 X-23.716 Y33.816 E8.77578
G1 X-23.716 Y-33.616 E12.41752
G1 F2400 E11.41752
G0 F7500 X0.216 Y0.216
;TYPE:WALL-OUTER
G1 F2400 E12.41752
G1 F1800 X0.284 Y0.216 E12.42120
G1 X0.284 Y0.284 E12.42487
G1 X0.216 Y0.284 E12.42854
G1 X0.216 Y0.216 E12.43221
G0 F7500 X-0.700 Y-0.700
;TYPE:SUPPORT
G1 F1800 X-0.700 Y1.200 E12.53483
G1 X1.200 Y1.200 E12.63744
G1 X1.200 Y-0.700 E12.74005
G1 X-0.700 Y-0.700 E12.84266
G0 F7500 X-0.690 Y-0.800
G0 X-20.500 Y-30.400
G1 F1800 X20.600 Y-30.400 E15.06231
G1 X20.600 Y30.600 E18.35669
G1 X-20.500 Y30.600 E20.57634
G1 X-20.500 Y-30.400 E23.87072
G0 F7500 X-20.216 Y-30.464
G1 F1800 X-20.216 Y30.664 E27.17200
G0 F7500 X-20.216 Y30.500
G0 X-20.400 Y25.991
G0 X-20.564 Y25.991
G1 F1800 X20.663 Y25.992 E29.39851
G0 F7500 X20.500 Y25.992
G0 X20.216 Y30.500
G0 X20.216 Y30.664
G1 F1800 X20.216 Y-30.464 E32.69980
G0 F7500 X20.216 Y-30.300
G0 X20.500 Y-25.991
G0 X20.664 Y-25.991
G1 F1800 X-20.563 Y-25.992 E34.92631
G0 F7500 X-20.400 Y-25.992
G0 X-20.400 Y-20.216
G0 X-20.563 Y-20.216
G1 F1800 X20.664 Y-20.215 E37.15282
G0 F7500 X20.500 Y-20.215
G0 X20.500 Y-14.439
G0 X20.664 Y-14.439
G1 F1800 X-20.563 Y-14.440 E39.37934
G0 F7500 X-20.400 Y-14.440
G0 X-20.400 Y-8.664
G0 X-20.563 Y-8.664
G1 F1800 X20.664 Y-8.663 E41.60585
G0 F7500 X20.500 Y-8.663
G0 X20.500 Y-2.887
G0 X20.664 Y-2.887
G1 F1800 X-20.563 Y-2.888 E43.83236
G0 F7500 X-20.400 Y-2.888
G0 X-20.400 Y2.887
G0 X-20.564 Y2.887
G1 F1800 X20.663 Y2.888 E46.05887
G0 F7500 X20.500 Y2.888
G0 X20.500 Y8.664
G0 X20.663 Y8.664
G1 F1800 X-20.564 Y8.663 E48.28538
G0 F7500 X-20.400 Y8.663
G0 X-20.400 Y14.439
G0 X-20.564 Y14.439
G1 F1800 X20.663 Y14.440 E50.51189
G0 F7500 X20.500 Y14.440
G0 X20.500 Y20.216
G0 X20.663 Y20.216
G1 F1800 X-20.564 Y20.215 E52.73840
G0 F7500 X-20.400 Y20.215
G0 X-14.440 Y30.500
G0 X-14.440 Y30.664
G1 F1800 X-14.440 Y-30.464 E56.03969
G0 F7500 X-14.440 Y-30.300
G0 X-8.664 Y-30.300
G0 X-8.664 Y-30.464
G1 F1800 X-8.664 Y30.664 E59.34098
G0 F7500 X-8.664 Y30.500
G0 X-2.888 Y30.500
G0 X-2.888 Y30.664
G1 F1800 X-2.888 Y-30.464 E62.64227
G0 F7500 X-2.888 Y-30.300
G0 X2.888 Y-30.300
G0 X2.888 Y-30.464
G1 F1800 X2.888 Y30.664 E65.94355
G0 F7500 X2.888 Y30.500
G0 X8.664 Y30.500
G0 X8.664 Y30.664
G1 F1800 X8.664 Y-30.464 E69.24484
G0 F7500 X8.664 Y-30.300
G0 X14.440 Y-30.300
G0 X14.440 Y-30.464
G1 F1800 X14.440 Y30.664 E72.54613
;LAYER:1
M106 S63
G1 F2400 E71.54613
G0 F7500 X0.284 Y0.284 Z0.500
;TYPE:WALL-OUTER
G1 F2400 E72.54613
G1 F1980 X0.216 Y0.284 E72.54858
G1 X0.216 Y0.216 E72.55103
G1 X0.284 Y0.216 E72.55347
G1 X0.284 Y0.284 E72.55592
G0 F7500 X1.200 Y1.200
;TYPE:SUPPORT
G1 F1920 X1.200 Y-0.700 E72.62433
G1 X-0.700 Y-0.700 E72.69274
G1 X-0.700 Y1.200 E72.76115
G1 X1.200 Y1.200 E72.82955
G0 F7500 X1.190 Y1.300
G0 X20.500 Y30.590
G0 X20.600 Y30.600
G1 F1920 X-20.500 Y30.600 E74.30932
G1 X-20.500 Y-30.400 E76.50557
G1 X20.600 Y-30.400 E77.98534
G1 X20.600 Y30.600 E80.18159
G0 F7500 X20.216 Y30.664
G1 F1920 X20.216 Y-30.464 E82.38245
G0 F7500 X20.216 Y-30.300
G0 X20.500 Y-25.991
G0 X20.664 Y-25.991
G1 F1920 X-20.563 Y-25.992 E83.86679
G0 F7500 X-20.400 Y-25.992
G0 X-20.216 Y-30.300
G0 X-20.216 Y-30.464
G1 F1920 X-20.216 Y30.664 E86.06765
G0 F7500 X-20.216 Y30.500
G0 X-20.400 Y25.991
G0 X-20.564 Y25.991
G1 F1920 X20.663 Y25.992 E87.55199
G0 F7500 X20.500 Y25.992
G0 X20.500 Y20.216
G0 X20.663 Y20.216
G1 F1920 X-20.564 Y20.215 E89.03633
G0 F7500 X-20.400 Y20.215
G0 X-20.400 Y14.439
G0 X-20.564 Y14.439
G1 F1920 X20.663 Y14.440 E90.52067
G0 F7500 X20.500 Y14.440
G0 X20.500 Y8.664
G0 X20.663 Y8.664
G1 F1920 X-20.564 Y8.663 E92.00501
G0 F7500 X-20.400 Y8.663
G0 X-20.400 Y2.887
G0 X-20.564 Y2.887
G1 F1920 X20.663 Y2.888 E93.48935
G0 F7500 X20.500 Y2.888
G0 X20.500 Y-2.887
G0 X20.664 Y-2.887
G1 F1920 X-20.563 Y-2.888 E94.97369
G0 F7500 X-20.400 Y-2.888
G0 X-20.400 Y-8.664
G0 X-20.563 Y-8.664
G1 F1920 X20.664 Y-8.663 E96.45803
G0 F7500 X20.500 Y-8.663
G0 X20.500 Y-14.439
G0 X20.664 Y-14.439
G1 F1920 X-20.563 Y-14.440 E97.94237
G0 F7500 X-20.400 Y-14.440
G0 X-20.400 Y-20.216
G0 X-20.563 Y-20.216
G1 F1920 X20.664 Y-20.215 E99.42672
G0 F7500 X20.500 Y-20.215
G0 X14.440 Y-30.300
G0 X14.440 Y-30.464
G1 F1920 X14.440 Y30.664 E101.62757
G0 F7500 X14.440 Y30.500
G0 X8.664 Y30.500
G0 X8.664 Y30.664
G1 F1920 X8.664 Y-30.464 E103.82843
G0 F7500 X8.664 Y-30.300
G0 X2.888 Y-30.300
G0 X2.888 Y-30.464
G1 F1920 X2.888 Y30.664 E106.02929
G0 F7500 X2.888 Y30.500
G0 X-2.888 Y30.500
G0 X-2.888 Y30.664
G1 F1920 X-2.888 Y-30.464 E108.23015
G0 F7500 X-2.888 Y-30.300
G0 X-8.664 Y-30.300
G0 X-8.664 Y-30.464
G1 F1920 X-8.664 Y30.664 E110.43101
G0 F7500 X-8.664 Y30.500
G0 X-14.440 Y30.500
G0 X-14.440 Y30.664
G1 F1920 X-14.440 Y-30.464 E112.63187
;LAYER:2
M106 S127
G1 F2400 E111.63187
G0 F7500 X0.216 Y0.216 Z0.700
;TYPE:WALL-OUTER
G1 F2400 E112.63187
G1 F2220 X0.284 Y0.216 E112.63431
G1 X0.284 Y0.284 E112.63676
G1 X0.216 Y0.284 E112.63921
G1 X0.216 Y0.216 E112.64166
G0 F7500 X-0.700 Y-0.700
;TYPE:SUPPORT
G1 F2100 X-0.700 Y1.200 E112.71007
G1 X1.200 Y1.200 E112.77847
G1 X1.200 Y-0.700 E112.84688
G1 X-0.700 Y-0.700 E112.91529
G0 F7500 X-0.690 Y-0.800
G0 X-20.500 Y-30.400
G1 F2100 X20.600 Y-30.400 E114.39506
G1 X20.600 Y30.600 E116.59131
G1 X-20.500 Y30.600 E118.07108
G1 X-20.500 Y-30.400 E120.26733
G0 F7500 X-20.216 Y-30.464
G1 F2100 X-20.216 Y30.664 E122.46819
G0 F7500 X-20.216 Y30.500
G0 X-20.400 Y25.991
G0 X-20.564 Y25.991
G1 F2100 X20.663 Y25.992 E123.95253
G0 F7500 X20.500 Y25.992
G0 X20.216 Y30.500
G0 X20.216 Y30.664
G1 F2100 X20.216 Y-30.464 E126.15338
G0 F7500 X20.216 Y-30.300
G0 X20.500 Y-25.991
G0 X20.664 Y-25.991
G1 F2100 X-20.563 Y-25.992 E127.63773
G0 F7500 X-20.400 Y-25.992
G0 X-20.400 Y-20.216
G0 X-20.563 Y-20.216
G1 F2100 X20.664 Y-20.215 E129.12207
G0 F7500 X20.500 Y-20.215
G0 X20.500 Y-14.439
G0 X20.664 Y-14.439
G1 F2100 X-20.563 Y-14.440 E130.60641
G0 F7500 X-20.400 Y-14.440
G0 X-20.400 Y-8.664
G0 X-20.563 Y-8.664
G1 F2100 X20.664 Y-8.663 E132.09075
G0 F7500 X20.500 Y-8.663
G0 X20.500 Y-2.887
G0 X20.664 Y-2.887
G1 F2100 X-20.563 Y-2.888 E133.57509
G0 F7500 X-20.400 Y-2.888
G0 X-20.400 Y2.887
G0 X-20.564 Y2.887
G1 F2100 X20.663 Y2.888 E135.05943
G0 F7500 X20.500 Y2.888
G0 X20.500 Y8.664
G0 X20.663 Y8.664
G1 F2100 X-20.564 Y8.663 E136.54377
G0 F7500 X-20.400 Y8.663
G0 X-20.400 Y14.439
G0 X-20.564 Y14.439
G1 F2100 X20.663 Y14.440 E138.02811
G0 F7500 X20.500 Y14.440
G0 X20.500 Y20.216
G0 X20.663 Y20.216
G1 F2100 X-20.564 Y20.215 E139.51245
G0 F7500 X-20.400 Y20.215
G0 X-14.440 Y30.500
G0 X-14.440 Y30.664
G1 F2100 X-14.440 Y-30.464 E141.71331
G0 F7500 X-14.440 Y-30.300
G0 X-8.664 Y-30.300
G0 X-8.664 Y-30.464
G1 F2100 X-8.664 Y30.664 E143.91417
G0 F7500 X-8.664 Y30.500
G0 X-2.888 Y30.500
G0 X-2.888 Y30.664
G1 F2100 X-2.888 Y-30.464 E146.11503
G0 F7500 X-2.888 Y-30.300
G0 X2.888 Y-30.300
G0 X2.888 Y-30.464
G1 F2100 X2.888 Y30.664 E148.31589
G0 F7500 X2.888 Y30.500
G0 X8.664 Y30.500
G0 X8.664 Y30.664
G1 F2100 X8.664 Y-30.464 E150.51674
G0 F7500 X8.664 Y-30.300
G0 X14.440 Y-30.300
G0 X14.440 Y-30.464
G1 F2100 X14.440 Y30.664 E152.71760
;LAYER:3
G1 F2400 E151.71760
G0 F7500 X0.284 Y0.284 Z0.900
;TYPE:WALL-OUTER
G1 F2400 E152.71760
G1 X0.216 Y0.284 E152.72005
G1 X0.216 Y0.216 E152.72250
G1 X0.284 Y0.216 E152.72495
G1 X0.284 Y0.284 E152.72740
G0 F7500 X1.200 Y1.200
;TYPE:SUPPORT
G1 F2220 X1.200 Y-0.700 E152.79580
G1 X-0.700 Y-0.700 E152.86421
G1 X-0.700 Y1.200 E152.93262
G1 X1.200 Y1.200 E153.00103
G0 F7500 X1.190 Y1.300
G0 X20.500 Y30.590
G0 X20.600 Y30.600
G1 F2220 X-20.500 Y30.600 E154.48080
G1 X-20.500 Y-30.400 E156.67705
G1 X20.600 Y-30.400 E158.15681
G1 X20.600 Y30.600 E160.35306
G0 F7500 X20.216 Y30.664
G1 F2220 X20.216 Y-30.464 E162.55392
G0 F7500 X20.216 Y-30.300
G0 X20.500 Y-25.991
G0 X20.664 Y-25.991
G1 F2220 X-20.563 Y-25.992 E164.03826
G0 F7500 X-20.400 Y-25.992
G0 X-20.216 Y-30.300
G0 X-20.216 Y-30.464
G1 F2220 X-20.216 Y30.664 E166.23912
G0 F7500 X-20.216 Y30.500
G0 X-20.400 Y25.991
G0 X-20.564 Y25.991
G1 F2220 X20.663 Y25.992 E167.72346
G0 F7500 X20.500 Y25.992
G0 X20.500 Y20.216
G0 X20.663 Y20.216
G1 F2220 X-20.564 Y20.215 E169.20780
G0 F7500 X-20.400 Y20.215
G0 X-20.400 Y14.439
G0 X-20.564 Y14.439
G1 F2220 X20.663 Y14.440 E170.69214
G0 F7500 X20.500 Y14.440
G0 X20.500 Y8.664
G0 X20.663 Y8.664
G1 F2220 X-20.564 Y8.663 E172.17648
G0 F7500 X-20.400 Y8.663
G0 X-20.400 Y2.887
G0 X-20.564 Y2.887
G1 F2220 X20.663 Y2.888 E173.66083
G0 F7500 X20.500 Y2.888
G0 X20.500 Y-2.887
G0 X20.664 Y-2.887
G1 F2220 X-20.563 Y-2.888 E175.14517
G0 F7500 X-20.400 Y-2.888
G0 X-20.400 Y-8.664
G0 X-20.563 Y-8.664
G1 F2220 X20.664 Y-8.663 E176.62951
G0 F7500 X20.500 Y-8.663
G0 X20.500 Y-14.439
G0 X20.664 Y-14.439
G1 F2220 X-20.563 Y-14.440 E178.11385
G0 F7500 X-20.400 Y-14.440
G0 X-20.400 Y-20.216
G0 X-20.563 Y-20.216
G1 F2220 X20.664 Y-20.215 E179.59819
G0 F7500 X20.500 Y-20.215
G0 X14.440 Y-30.300
G0 X14.440 Y-30.464
G1 F2220 X14.440 Y30.664 E181.79905
G0 F7500 X14.440 Y30.500
G0 X8.664 Y30.500
G0 X8.664 Y30.664
G1 F2220 X8.664 Y-30.464 E183.99991
G0 F7500 X8.664 Y-30.300
G0 X2.888 Y-30.300
G0 X2.888 Y-30.464
G1 F2220 X2.888 Y30.664 E186.20076
G0 F7500 X2.888 Y30.500
G0 X-2.888 Y30.500
G0 X-2.888 Y30.664
G1 F2220 X-2.888 Y-30.464 E188.40162
G0 F7500 X-2.888 Y-30.300
G0 X-8.664 Y-30.300
G0 X-8.664 Y-30.464
G1 F2220 X-8.664 Y30.664 E190.60248
G0 F7500 X-8.664 Y30.500
G0 X-14.440 Y30.500
G0 X-14.440 Y30.664
G1 F2220 X-14.440 Y-30.464 E192.80334
;LAYER:4
G1 F2400 E191.80334
G0 F7500 X0.216 Y0.216 Z1.100
;TYPE:WALL-OUTER
G1 F2400 E192.80334
G1 F2700 X0.284 Y0.216 E192.80579
G1 X0.284 Y0.284 E192.80824
G1 X0.216 Y0.284 E192.81068
G1 X0.216 Y0.216 E192.81313
G0 F7500 X-0.700 Y-0.700
;TYPE:SUPPORT
G1 F2400 X-0.700 Y1.200 E192.88154
G1 X1.200 Y1.200 E192.94995
G1 X1.200 Y-0.700 E193.01836
G1 X-0.700 Y-0.700 E193.08676
G0 F7500 X-0.690 Y-0.800
G0 X-20.500 Y-30.400
G1 F2400 X20.600 Y-30.400 E194.56653
G1 X20.600 Y30.600 E196.76278
G1 X-20.500 Y30.600 E198.24255
G1 X-20.500 Y-30.400 E200.43880
G0 F7500 X-20.216 Y-30.464
G1 F2400 X-20.216 Y30.664 E202.63966
G0 F7500 X-20.216 Y30.500
G0 X-20.400 Y25.991
G0 X-20.564 Y25.991
G1 F2400 X20.663 Y25.992 E204.12400
G0 F7500 X20.500 Y25.992
G0 X20.216 Y30.500
G0 X20.216 Y30.664
G1 F2400 X20.216 Y-30.464 E206.32486
G0 F7500 X20.216 Y-30.300
G0 X20.500 Y-25.991
G0 X20.664 Y-25.991
G1 F2400 X-20.563 Y-25.992 E207.80920
G0 F7500 X-20.400 Y-25.992
G0 X-20.400 Y-20.216
G0 X-20.563 Y-20.216
G1 F2400 X20.664 Y-20.215 E209.29354
G0 F7500 X20.500 Y-20.215
G0 X20.500 Y-14.439
G0 X20.664 Y-14.439
G1 F2400 X-20.563 Y-14.440 E210.77788
G0 F7500 X-20.400 Y-14.440
G0 X-20.400 Y-8.664
G0 X-20.563 Y-8.664
G1 F2400 X20.664 Y-8.663 E212.26222
G0 F7500 X20.500 Y-8.663
G0 X20.500 Y-2.887
G0 X20.664 Y-2.887
G1 F2400 X-20.563 Y-2.888 E213.74656
G0 F7500 X-20.400 Y-2.888
G0 X-20.400 Y2.887
G0 X-20.564 Y2.887
G1 F2400 X20.663 Y2.888 E215.23090
G0 F7500 X20.500 Y2.888
G0 X20.500 Y8.664
G0 X20.663 Y8.664
G1 F2400 X-20.564 Y8.663 E216.71524
G0 F7500 X-20.400 Y8.663
G0 X-20.400 Y14.439
G0 X-20.564 Y14.439
G1 F2400 X20.663 Y14.440 E218.19958
G0 F7500 X20.500 Y14.440
G0 X20.500 Y20.216
G0 X20.663 Y20.216
G1 F2400 X-20.564 Y20.215 E219.68393
G0 F7500 X-20.400 Y20.215
G0 X-14.440 Y30.500
G0 X-14.440 Y30.664
G1 F2400 X-14.440 Y-30.464 E221.88478
G0 F7500 X-14.440 Y-30.300
G0 X-8.664 Y-30.300
G0 X-8.664 Y-30.464
G1 F2400 X-8.664 Y30.664 E224.08564
G0 F7500 X-8.664 Y30.500
G0 X-2.888 Y30.500
G0 X-2.888 Y30.664
G1 F2400 X-2.888 Y-30.464 E226.28650
G0 F7500 X-2.888 Y-30.300
G0 X2.888 Y-30.300
G0 X2.888 Y-30.464
G1 F2400 X2.888 Y30.664 E228.48736
G0 F7500 X2.888 Y30.500
G0 X8.664 Y30.500
G0 X8.664 Y30.664
G1 F2400 X8.664 Y-30.464 E230.68822
G0 F7500 X8.664 Y-30.300
G0 X14.440 Y-30.300
G0 X14.440 Y-30.464
G1 F2400 X14.440 Y30.664 E232.88908
;LAYER:5
G1 F2400 E231.88908
G0 F7500 X0.284 Y0.284 Z1.300
;TYPE:WALL-OUTER
G1 F2400 E232.88908
G1 F2700 X0.216 Y0.284 E232.89152
G1 X0.216 Y0.216 E232.89397
G1 X0.284 Y0.216 E232.89642
G1 X0.284 Y0.284 E232.89887
G0 F7500 X1.200 Y1.200
;TYPE:SUPPORT
G1 F2400 X1.200 Y-0.700 E232.96728
G1 X-0.700 Y-0.700 E233.03568
G1 X-0.700 Y1.200 E233.10409
G1 X1.200 Y1.200 E233.17250
G0 F7500 X1.190 Y1.300
G0 X20.500 Y30.590
G0 X20.600 Y30.600
G1 F2400 X-20.500 Y30.600 E234.65227
G1 X-20.500 Y-30.400 E236.84852
G1 X20.600 Y-30.400 E238.32829
G1 X20.600 Y30.600 E240.52454
G0 F7500 X20.216 Y30.664
G1 F2400 X20.216 Y-30.464 E242.72539
G0 F7500 X20.216 Y-30.300
G0 X20.500 Y-25.991
G0 X20.664 Y-25.991
G1 F2400 X-20.563 Y-25.992 E244.20974
G0 F7500 X-20.400 Y-25.992
G0 X-20.216 Y-30.300
G0 X-20.216 Y-30.464
G1 F2400 X-20.216 Y30.664 E246.41059
G0 F7500 X-20.216 Y30.500
G0 X-20.400 Y25.991
G0 X-20.564 Y25.991
G1 F2400 X20.663 Y25.992 E247.89494
G0 F7500 X20.500 Y25.992
G0 X20.500 Y20.216
G0 X20.663 Y20.216
G1 F2400 X-20.564 Y20.215 E249.37928
G0 F7500 X-20.400 Y20.215
G0 X-20.400 Y14.439
G0 X-20.564 Y14.439
G1 F2400 X20.663 Y14.440 E250.86362
G0 F7500 X20.500 Y14.440
G0 X20.500 Y8.664
G0 X20.663 Y8.664
G1 F2400 X-20.564 Y8.663 E252.34796
G0 F7500 X-20.400 Y8.663
G0 X-20.400 Y2.887
G0 X-20.564 Y2.887
G1 F2400 X20.663 Y2.888 E253.83230
G0 F7500 X20.500 Y2.888
G0 X20.500 Y-2.887
G0 X20.664 Y-2.887
G1 F2400 X-20.563 Y-2.888 E255.31664
G0 F7500 X-20.400 Y-2.888
G0 X-20.400 Y-8.664
G0 X-20.563 Y-8.664
G1 F2400 X20.664 Y-8.663 E256.80098
G0 F7500 X20.500 Y-8.663
G0 X20.500 Y-14.439
G0 X20.664 Y-14.439
G1 F2400 X-20.563 Y-14.440 E258.28532
G0 F7500 X-20.400 Y-14.440
G0 X-20.400 Y-20.216
G0 X-20.563 Y-20.216
G1 F2400 X20.664 Y-20.215 E259.76966
G0 F7500 X20.500 Y-20.215
G0 X14.440 Y-30.300
G0 X14.440 Y-30.464
G1 F2400 X14.440 Y30.664 E261.97052
G0 F7500 X14.440 Y30.500
G0 X8.664 Y30.500
G0 X8.664 Y30.664
G1 F2400 X8.664 Y-30.464 E264.17138
G0 F7500 X8.664 Y-30.300
G0 X2.888 Y-30.300
G0 X2.888 Y-30.464
G1 F2400 X2.888 Y30.664 E266.37224
G0 F7500 X2.888 Y30.500
G0 X-2.888 Y30.500
G0 X-2.888 Y30.664
G1 F2400 X-2.888 Y-30.464 E268.57310
G0 F7500 X-2.888 Y-30.300
G0 X-8.664 Y-30.300
G0 X-8.664 Y-30.464
G1 F2400 X-8.664 Y30.664 E270.77395
G0 F7500 X-8.664 Y30.500
G0 X-14.440 Y30.500
G0 X-14.440 Y30.664
G1 F2400 X-14.440 Y-30.464 E272.97481
;LAYER:6
G1 F2400 E271.97481
G0 F7500 X0.216 Y0.216 Z1.500
;TYPE:WALL-OUTER
G1 F2400 E272.97481
G1 F2700 X0.284 Y0.216 E272.97726
G1 X0.284 Y0.284 E272.97971
G1 X0.216 Y0.284 E272.98216
G1 X0.216 Y0.216 E272.98461
G0 F7500 X-0.700 Y-0.700
;TYPE:SUPPORT
G1 F2400 X-0.700 Y1.200 E273.05301
G1 X1.200 Y1.200 E273.12142
G1 X1.200 Y-0.700 E273.18983
G1 X-0.700 Y-0.700 E273.25824
G0 F7500 X-0.690 Y-0.800
G0 X-20.500 Y-30.400
G1 F2400 X20.600 Y-30.400 E274.73800
G1 X20.600 Y30.600 E276.93425
G1 X-20.500 Y30.600 E278.41402
G1 X-20.500 Y-30.400 E280.61027
G0 F7500 X-20.216 Y-30.464
G1 F2400 X-20.216 Y30.664 E282.81113
G0 F7500 X-20.216 Y30.500
G0 X-20.400 Y25.991
G0 X-20.564 Y25.991
G1 F2400 X20.663 Y25.992 E284.29547
G0 F7500 X20.500 Y25.992
G0 X20.216 Y30.500
G0 X20.216 Y30.664
G1 F2400 X20.216 Y-30.464 E286.49633
G0 F7500 X20.216 Y-30.300
G0 X20.500 Y-25.991
G0 X20.664 Y-25.991
G1 F2400 X-20.563 Y-25.992 E287.98067
G0 F7500 X-20.400 Y-25.992
G0 X-20.400 Y-20.216
G0 X-20.563 Y-20.216
G1 F2400 X20.664 Y-20.215 E289.46501
G0 F7500 X20.500 Y-20.215
G0 X20.500 Y-14.439
G0 X20.664 Y-14.439
G1 F2400 X-20.563 Y-14.440 E290.94935
G0 F7500 X-20.400 Y-14.440
G0 X-20.400 Y-8.664
G0 X-20.563 Y-8.664
G1 F2400 X20.664 Y-8.663 E292.43369
G0 F7500 X20.500 Y-8.663
G0 X20.500 Y-2.887
G0 X20.664 Y-2.887
G1 F2400 X-20.563 Y-2.888 E293.91804
G0 F7500 X-20.400 Y-2.888
G0 X-20.400 Y2.887
G0 X-20.564 Y2.887
G1 F2400 X20.663 Y2.888 E295.40238
G0 F7500 X20.500 Y2.888
G0 X20.500 Y8.664
G0 X20.663 Y8.664
G1 F2400 X-20.564 Y8.663 E296.88672
G0 F7500 X-20.400 Y8.663
G0 X-20.400 Y14.439
G0 X-20.564 Y14.439
G1 F2400 X20.663 Y14.440 E298.37106
G0 F7500 X20.500 Y14.440
G0 X20.500 Y20.216
G0 X20.663 Y20.216
G1 F2400 X-20.564 Y20.215 E299.85540
G0 F7500 X-20.400 Y20.215
G0 X-14.440 Y30.500
