;Generated with Cura_SteamEngine 15.04.6

;Layer count: 16
;LAYER:0
M107
G0 F7500 X-23.716 Y-38.616 Z0.300
;TYPE:SKIRT
G1 F1800 X23.816 Y-38.616 E2.56702
G1 X23.816 Y38.816 E6.74882
G1 X-23.716 Y38.816 E9.31584
G1 X-23.716 Y-38.616 E13.49765
G1 F2400 E12.49765
G0 F7500 X0.216 Y0.216
;TYPE:WALL-OUTER
G1 F2400 E13.49765
G1 F1800 X0.284 Y0.216 E13.50132
G1 X0.284 Y0.284 E13.50499
G1 X0.216 Y0.284 E13.50866
G1 X0.216 Y0.216 E13.51234
G0 F7500 X-0.700 Y-0.700
;TYPE:SUPPORT
G1 F1800 X-0.700 Y1.200 E13.61495
G1 X1.200 Y1.200 E13.71756
G1 X1.200 Y-0.700 E13.82017
G1 X-0.700 Y-0.700 E13.92278
G0 F7500 X-0.690 Y-0.800
G0 X-20.500 Y-35.400
G1 F1800 X20.600 Y-35.400 E16.14244
G1 X20.600 Y35.600 E19.97687
G1 X-20.500 Y35.600 E22.19653
G1 X-20.500 Y-35.400 E26.03096
G0 F7500 X-20.216 Y-35.464
G1 F1800 X-20.216 Y35.664 E29.87231
G0 F7500 X-20.216 Y35.500
G0 X-20.400 Y31.767
G0 X-20.564 Y31.767
G1 F1800 X20.663 Y31.768 E32.09882
G0 F7500 X20.500 Y31.768
G0 X20.216 Y35.500
G0 X20.216 Y35.664
G1 F1800 X20.216 Y-35.464 E35.94017
G0 F7500 X20.216 Y-35.300
G0 X20.500 Y-31.767
G0 X20.664 Y-31.767
G1 F1800 X-20.563 Y-31.768 E38.16668
G0 F7500 X-20.400 Y-31.768
G0 X-20.400 Y-25.992
G0 X-20.563 Y-25.992
G1 F1800 X20.664 Y-25.991 E40.39319
G0 F7500 X20.500 Y-25.991
G0 X20.500 Y-20.215
G0 X20.664 Y-20.215
G1 F1800 X-20.563 Y-20.216 E42.61970
G0 F7500 X-20.400 Y-20.216
G0 X-20.400 Y-14.440
G0 X-20.563 Y-14.440
G1 F1800 X20.664 Y-14.439 E44.84622
G0 F7500 X20.500 Y-14.439
G0 X20.500 Y-8.663
G0 X20.664 Y-8.663
G1 F1800 X-20.563 Y-8.664 E47.07273
G0 F7500 X-20.400 Y-8.664
G0 X-20.400 Y-2.888
G0 X-20.563 Y-2.888
G1 F1800 X20.664 Y-2.887 E49.29924
G0 F7500 X20.500 Y-2.887
G0 X20.500 Y2.888
G0 X20.663 Y2.888
G1 F1800 X-20.564 Y2.887 E51.52575
G0 F7500 X-20.400 Y2.887
G0 X-20.400 Y8.663
G0 X-20.564 Y8.663
G1 F1800 X20.663 Y8.664 E53.75226
G0 F7500 X20.500 Y8.664
G0 X20.500 Y14.440
G0 X20.663 Y14.440
G1 F1800 X-20.564 Y14.439 E55.97877
G0 F7500 X-20.400 Y14.439
G0 X-20.400 Y20.215
G0 X-20.564 Y20.215
G1 F1800 X20.663 Y20.216 E58.20528
G0 F7500 X20.500 Y20.216
G0 X20.500 Y25.992
G0 X20.663 Y25.992
G1 F1800 X-20.564 Y25.991 E60.43180
G0 F7500 X-20.400 Y25.991
G0 X-14.440 Y35.500
G0 X-14.440 Y35.664
G1 F1800 X-14.440 Y-35.464 E64.27314
G0 F7500 X-14.440 Y-35.300
G0 X-8.664 Y-35.300
G0 X-8.664 Y-35.464
G1 F1800 X-8.664 Y35.664 E68.11449
G0 F7500 X-8.664 Y35.500
G0 X-2.888 Y35.500
G0 X-2.888 Y35.664
G1 F1800 X-2.888 Y-35.464 E71.95584
G0 F7500 X-2.888 Y-35.300
G0 X2.888 Y-35.300
G0 X2.888 Y-35.464
G1 F1800 X2.888 Y35.664 E75.79719
G0 F7500 X2.888 Y35.500
G0 X8.664 Y35.500
G0 X8.664 Y35.664
G1 F1800 X8.664 Y-35.464 E79.63854
G0 F7500 X8.664 Y-35.300
G0 X14.440 Y-35.300
G0 X14.440 Y-35.464
G1 F1800 X14.440 Y35.664 E83.47989
;LAYER:1
M106 S63
G1 F2400 E82.47989
G0 F7500 X0.284 Y0.284 Z0.500
;TYPE:WALL-OUTER
G1 F2400 E83.47989
G1 F1980 X0.216 Y0.284 E83.48234
G1 X0.216 Y0.216 E83.48479
G1 X0.284 Y0.216 E83.48723
G1 X0.284 Y0.284 E83.48968
G0 F7500 X1.200 Y1.200
;TYPE:SUPPORT
G1 F1920 X1.200 Y-0.700 E83.55809
G1 X-0.700 Y-0.700 E83.62650
G1 X-0.700 Y1.200 E83.69491
G1 X1.200 Y1.200 E83.76331
G0 F7500 X1.190 Y1.300
G0 X20.500 Y35.590
G0 X20.600 Y35.600
G1 F1920 X-20.500 Y35.600 E85.24308
G1 X-20.500 Y-35.400 E87.79937
G1 X20.600 Y-35.400 E89.27914
G1 X20.600 Y35.600 E91.83543
G0 F7500 X20.216 Y35.664
G1 F1920 X20.216 Y-35.464 E94.39633
G0 F7500 X20.216 Y-35.300
G0 X20.500 Y-31.767
G0 X20.664 Y-31.767
G1 F1920 X-20.563 Y-31.768 E95.88067
G0 F7500 X-20.400 Y-31.768
G0 X-20.216 Y-35.300
G0 X-20.216 Y-35.464
G1 F1920 X-20.216 Y35.664 E98.44157
G0 F7500 X-20.216 Y35.500
G0 X-20.400 Y31.767
G0 X-20.564 Y31.767
G1 F1920 X20.663 Y31.768 E99.92591
G0 F7500 X20.500 Y31.768
G0 X20.500 Y25.992
G0 X20.663 Y25.992
G1 F1920 X-20.564 Y25.991 E101.41025
G0 F7500 X-20.400 Y25.991
G0 X-20.400 Y20.215
G0 X-20.564 Y20.215
G1 F1920 X20.663 Y20.216 E102.89459
G0 F7500 X20.500 Y20.216
G0 X20.500 Y14.440
G0 X20.663 Y14.440
G1 F1920 X-20.564 Y14.439 E104.37894
G0 F7500 X-20.400 Y14.439
G0 X-20.400 Y8.663
G0 X-20.564 Y8.663
G1 F1920 X20.663 Y8.664 E105.86328
G0 F7500 X20.500 Y8.664
G0 X20.500 Y2.888
G0 X20.663 Y2.888
G1 F1920 X-20.564 Y2.887 E107.34762
G0 F7500 X-20.400 Y2.887
G0 X-20.400 Y-2.888
G0 X-20.563 Y-2.888
G1 F1920 X20.664 Y-2.887 E108.83196
G0 F7500 X20.500 Y-2.887
G0 X20.500 Y-8.663
G0 X20.664 Y-8.663
G1 F1920 X-20.563 Y-8.664 E110.31630
G0 F7500 X-20.400 Y-8.664
G0 X-20.400 Y-14.440
G0 X-20.563 Y-14.440
G1 F1920 X20.664 Y-14.439 E111.80064
G0 F7500 X20.500 Y-14.439
G0 X20.500 Y-20.215
G0 X20.664 Y-20.215
G1 F1920 X-20.563 Y-20.216 E113.28498
G0 F7500 X-20.400 Y-20.216
G0 X-20.400 Y-25.992
G0 X-20.563 Y-25.992
G1 F1920 X20.664 Y-25.991 E114.76932
G0 F7500 X20.500 Y-25.991
G0 X14.440 Y-35.300
G0 X14.440 Y-35.464
G1 F1920 X14.440 Y35.664 E117.33022
G0 F7500 X14.440 Y35.500
G0 X8.664 Y35.500
G0 X8.664 Y35.664
G1 F1920 X8.664 Y-35.464 E119.89112
G0 F7500 X8.664 Y-35.300
G0 X2.888 Y-35.300
G0 X2.888 Y-35.464
G1 F1920 X2.888 Y35.664 E122.45202
G0 F7500 X2.888 Y35.500
G0 X-2.888 Y35.500
G0 X-2.888 Y35.664
G1 F1920 X-2.888 Y-35.464 E125.01292
G0 F7500 X-2.888 Y-35.300
G0 X-8.664 Y-35.300
G0 X-8.664 Y-35.464
G1 F1920 X-8.664 Y35.664 E127.57382
G0 F7500 X-8.664 Y35.500
G0 X-14.440 Y35.500
G0 X-14.440 Y35.664
G1 F1920 X-14.440 Y-35.464 E130.13472
;LAYER:2
M106 S127
G1 F2400 E129.13472
G0 F7500 X0.216 Y0.216 Z0.700
;TYPE:WALL-OUTER
G1 F2400 E130.13472
G1 F2220 X0.284 Y0.216 E130.13717
G1 X0.284 Y0.284 E130.13961
G1 X0.216 Y0.284 E130.14206
G1 X0.216 Y0.216 E130.14451
G0 F7500 X-0.700 Y-0.700
;TYPE:SUPPORT
G1 F2100 X-0.700 Y1.200 E130.21292
G1 X1.200 Y1.200 E130.28133
G1 X1.200 Y-0.700 E130.34973
G1 X-0.700 Y-0.700 E130.41814
G0 F7500 X-0.690 Y-0.800
G0 X-20.500 Y-35.400
G1 F2100 X20.600 Y-35.400 E131.89791
G1 X20.600 Y35.600 E134.45420
G1 X-20.500 Y35.600 E135.93397
G1 X-20.500 Y-35.400 E138.49026
G0 F7500 X-20.216 Y-35.464
G1 F2100 X-20.216 Y35.664 E141.05116
G0 F7500 X-20.216 Y35.500
G0 X-20.400 Y31.767
G0 X-20.564 Y31.767
G1 F2100 X20.663 Y31.768 E142.53550
G0 F7500 X20.500 Y31.768
G0 X20.216 Y35.500
G0 X20.216 Y35.664
G1 F2100 X20.216 Y-35.464 E145.09640
G0 F7500 X20.216 Y-35.300
G0 X20.500 Y-31.767
G0 X20.664 Y-31.767
G1 F2100 X-20.563 Y-31.768 E146.58074
G0 F7500 X-20.400 Y-31.768
G0 X-20.400 Y-25.992
G0 X-20.563 Y-25.992
G1 F2100 X20.664 Y-25.991 E148.06508
G0 F7500 X20.500 Y-25.991
G0 X20.500 Y-20.215
G0 X20.664 Y-20.215
G1 F2100 X-20.563 Y-20.216 E149.54942
G0 F7500 X-20.400 Y-20.216
G0 X-20.400 Y-14.440
G0 X-20.563 Y-14.440
G1 F2100 X20.664 Y-14.439 E151.03376
G0 F7500 X20.500 Y-14.439
G0 X20.500 Y-8.663
G0 X20.664 Y-8.663
G1 F2100 X-20.563 Y-8.664 E152.51810
G0 F7500 X-20.400 Y-8.664
G0 X-20.400 Y-2.888
G0 X-20.563 Y-2.888
G1 F2100 X20.664 Y-2.887 E154.00244
G0 F7500 X20.500 Y-2.887
G0 X20.500 Y2.888
G0 X20.663 Y2.888
G1 F2100 X-20.564 Y2.887 E155.48679
G0 F7500 X-20.400 Y2.887
G0 X-20.400 Y8.663
G0 X-20.564 Y8.663
G1 F2100 X20.663 Y8.664 E156.97113
G0 F7500 X20.500 Y8.664
G0 X20.500 Y14.440
G0 X20.663 Y14.440
G1 F2100 X-20.564 Y14.439 E158.45547
G0 F7500 X-20.400 Y14.439
G0 X-20.400 Y20.215
G0 X-20.564 Y20.215
G1 F2100 X20.663 Y20.216 E159.93981
G0 F7500 X20.500 Y20.216
G0 X20.500 Y25.992
G0 X20.663 Y25.992
G1 F2100 X-20.564 Y25.991 E161.42415
G0 F7500 X-20.400 Y25.991
G0 X-14.440 Y35.500
G0 X-14.440 Y35.664
G1 F2100 X-14.440 Y-35.464 E163.98505
G0 F7500 X-14.440 Y-35.300
G0 X-8.664 Y-35.300
G0 X-8.664 Y-35.464
G1 F2100 X-8.664 Y35.664 E166.54595
G0 F7500 X-8.664 Y35.500
G0 X-2.888 Y35.500
G0 X-2.888 Y35.664
G1 F2100 X-2.888 Y-35.464 E169.10685
G0 F7500 X-2.888 Y-35.300
G0 X2.888 Y-35.300
G0 X2.888 Y-35.464
G1 F2100 X2.888 Y35.664 E171.66775
G0 F7500 X2.888 Y35.500
G0 X8.664 Y35.500
G0 X8.664 Y35.664
G1 F2100 X8.664 Y-35.464 E174.22865
G0 F7500 X8.664 Y-35.300
G0 X14.440 Y-35.300
G0 X14.440 Y-35.464
G1 F2100 X14.440 Y35.664 E176.78955
;LAYER:3
G1 F2400 E175.78955
G0 F7500 X0.284 Y0.284 Z0.900
;TYPE:WALL-OUTER
G1 F2400 E176.78955
G1 X0.216 Y0.284 E176.79199
G1 X0.216 Y0.216 E176.79444
G1 X0.284 Y0.216 E176.79689
G1 X0.284 Y0.284 E176.79934
G0 F7500 X1.200 Y1.200
;TYPE:SUPPORT
G1 F2220 X1.200 Y-0.700 E176.86775
G1 X-0.700 Y-0.700 E176.93615
G1 X-0.700 Y1.200 E177.00456
G1 X1.200 Y1.200 E177.07297
G0 F7500 X1.190 Y1.300
G0 X20.500 Y35.590
G0 X20.600 Y35.600
G1 F2220 X-20.500 Y35.600 E178.55274
G1 X-20.500 Y-35.400 E181.10903
G1 X20.600 Y-35.400 E182.58880
G1 X20.600 Y35.600 E185.14509
G0 F7500 X20.216 Y35.664
G1 F2220 X20.216 Y-35.464 E187.70599
G0 F7500 X20.216 Y-35.300
G0 X20.500 Y-31.767
G0 X20.664 Y-31.767
G1 F2220 X-20.563 Y-31.768 E189.19033
G0 F7500 X-20.400 Y-31.768
G0 X-20.216 Y-35.300
G0 X-20.216 Y-35.464
G1 F2220 X-20.216 Y35.664 E191.75123
G0 F7500 X-20.216 Y35.500
G0 X-20.400 Y31.767
G0 X-20.564 Y31.767
G1 F2220 X20.663 Y31.768 E193.23557
G0 F7500 X20.500 Y31.768
G0 X20.500 Y25.992
G0 X20.663 Y25.992
G1 F2220 X-20.564 Y25.991 E194.71991
G0 F7500 X-20.400 Y25.991
G0 X-20.400 Y20.215
G0 X-20.564 Y20.215
G1 F2220 X20.663 Y20.216 E196.20425
G0 F7500 X20.500 Y20.216
G0 X20.500 Y14.440
G0 X20.663 Y14.440
G1 F2220 X-20.564 Y14.439 E197.68859
G0 F7500 X-20.400 Y14.439
G0 X-20.400 Y8.663
G0 X-20.564 Y8.663
G1 F2220 X20.663 Y8.664 E199.17293
G0 F7500 X20.500 Y8.664
G0 X20.500 Y2.888
G0 X20.663 Y2.888
G1 F2220 X-20.564 Y2.887 E200.65727
G0 F7500 X-20.400 Y2.887
G0 X-20.400 Y-2.888
G0 X-20.563 Y-2.888
G1 F2220 X20.664 Y-2.887 E202.14161
G0 F7500 X20.500 Y-2.887
G0 X20.500 Y-8.663
G0 X20.664 Y-8.663
G1 F2220 X-20.563 Y-8.664 E203.62595
G0 F7500 X-20.400 Y-8.664
G0 X-20.400 Y-14.440
G0 X-20.563 Y-14.440
G1 F2220 X20.664 Y-14.439 E205.11030
G0 F7500 X20.500 Y-14.439
G0 X20.500 Y-20.215
G0 X20.664 Y-20.215
G1 F2220 X-20.563 Y-20.216 E206.59464
G0 F7500 X-20.400 Y-20.216
G0 X-20.400 Y-25.992
G0 X-20.563 Y-25.992
G1 F2220 X20.664 Y-25.991 E208.07898
G0 F7500 X20.500 Y-25.991
G0 X14.440 Y-35.300
G0 X14.440 Y-35.464
G1 F2220 X14.440 Y35.664 E210.63988
G0 F7500 X14.440 Y35.500
G0 X8.664 Y35.500
G0 X8.664 Y35.664
G1 F2220 X8.664 Y-35.464 E213.20078
G0 F7500 X8.664 Y-35.300
G0 X2.888 Y-35.300
G0 X2.888 Y-35.464
G1 F2220 X2.888 Y35.664 E215.76168
G0 F7500 X2.888 Y35.500
G0 X-2.888 Y35.500
G0 X-2.888 Y35.664
G1 F2220 X-2.888 Y-35.464 E218.32257
G0 F7500 X-2.888 Y-35.300
G0 X-8.664 Y-35.300
G0 X-8.664 Y-35.464
G1 F2220 X-8.664 Y35.664 E220.88347
G0 F7500 X-8.664 Y35.500
G0 X-14.440 Y35.500
G0 X-14.440 Y35.664
G1 F2220 X-14.440 Y-35.464 E223.44437
;LAYER:4
G1 F2400 E222.44437
G0 F7500 X0.216 Y0.216 Z1.100
;TYPE:WALL-OUTER
G1 F2400 E223.44437
G1 F2700 X0.284 Y0.216 E223.44682
G1 X0.284 Y0.284 E223.44927
G1 X0.216 Y0.284 E223.45172
G1 X0.216 Y0.216 E223.45417
G0 F7500 X-0.700 Y-0.700
;TYPE:SUPPORT
G1 F2400 X-0.700 Y1.200 E223.52257
G1 X1.200 Y1.200 E223.59098
G1 X1.200 Y-0.700 E223.65939
G1 X-0.700 Y-0.700 E223.72780
G0 F7500 X-0.690 Y-0.800
G0 X-20.500 Y-35.400
G1 F2400 X20.600 Y-35.400 E225.20757
G1 X20.600 Y35.600 E227.76386
G1 X-20.500 Y35.600 E229.24363
G1 X-20.500 Y-35.400 E231.79992
G0 F7500 X-20.216 Y-35.464
G1 F2400 X-20.216 Y35.664 E234.36082
G0 F7500 X-20.216 Y35.500
G0 X-20.400 Y31.767
G0 X-20.564 Y31.767
G1 F2400 X20.663 Y31.768 E235.84516
G0 F7500 X20.500 Y31.768
G0 X20.216 Y35.500
G0 X20.216 Y35.664
G1 F2400 X20.216 Y-35.464 E238.40606
G0 F7500 X20.216 Y-35.300
G0 X20.500 Y-31.767
G0 X20.664 Y-31.767
G1 F2400 X-20.563 Y-31.768 E239.89040
G0 F7500 X-20.400 Y-31.768
G0 X-20.400 Y-25.992
G0 X-20.563 Y-25.992
G1 F2400 X20.664 Y-25.991 E241.37474
G0 F7500 X20.500 Y-25.991
G0 X20.500 Y-20.215
G0 X20.664 Y-20.215
G1 F2400 X-20.563 Y-20.216 E242.85908
G0 F7500 X-20.400 Y-20.216
G0 X-20.400 Y-14.440
G0 X-20.563 Y-14.440
G1 F2400 X20.664 Y-14.439 E244.34342
G0 F7500 X20.500 Y-14.439
G0 X20.500 Y-8.663
G0 X20.664 Y-8.663
G1 F2400 X-20.563 Y-8.664 E245.82776
G0 F7500 X-20.400 Y-8.664
G0 X-20.400 Y-2.888
G0 X-20.563 Y-2.888
G1 F2400 X20.664 Y-2.887 E247.31210
G0 F7500 X20.500 Y-2.887
G0 X20.500 Y2.888
G0 X20.663 Y2.888
G1 F2400 X-20.564 Y2.887 E248.79644
G0 F7500 X-20.400 Y2.887
G0 X-20.400 Y8.663
G0 X-20.564 Y8.663
G1 F2400 X20.663 Y8.664 E250.28078
G0 F7500 X20.500 Y8.664
G0 X20.500 Y14.440
G0 X20.663 Y14.440
G1 F2400 X-20.564 Y14.439 E251.76512
G0 F7500 X-20.400 Y14.439
G0 X-20.400 Y20.215
G0 X-20.564 Y20.215
G1 F2400 X20.663 Y20.216 E253.24946
G0 F7500 X20.500 Y20.216
G0 X20.500 Y25.992
G0 X20.663 Y25.992
G1 F2400 X-20.564 Y25.991 E254.73381
G0 F7500 X-20.400 Y25.991
G0 X-14.440 Y35.500
G0 X-14.440 Y35.664
G1 F2400 X-14.440 Y-35.464 E257.29470
G0 F7500 X-14.440 Y-35.300
G0 X-8.664 Y-35.300
G0 X-8.664 Y-35.464
G1 F2400 X-8.664 Y35.664 E259.85560
G0 F7500 X-8.664 Y35.500
G0 X-2.888 Y35.500
G0 X-2.888 Y35.664
G1 F2400 X-2.888 Y-35.464 E262.41650
G0 F7500 X-2.888 Y-35.300
G0 X2.888 Y-35.300
G0 X2.888 Y-35.464
G1 F2400 X2.888 Y35.664 E264.97740
G0 F7500 X2.888 Y35.500
G0 X8.664 Y35.500
G0 X8.664 Y35.664
G1 F2400 X8.664 Y-35.464 E267.53830
G0 F7500 X8.664 Y-35.300
G0 X14.440 Y-35.300
G0 X14.440 Y-35.464
G1 F2400 X14.440 Y35.664 E270.09920
;LAYER:5
G1 F2400 E269.09920
G0 F7500 X0.284 Y0.284 Z1.300
;TYPE:WALL-OUTER
G1 F2400 E270.09920
G1 F2700 X0.216 Y0.284 E270.10165
G1 X0.216 Y0.216 E270.10410
G1 X0.284 Y0.216 E270.10655
G1 X0.284 Y0.284 E270.10899
G0 F7500 X1.200 Y1.200
;TYPE:SUPPORT
G1 F2400 X1.200 Y-0.700 E270.17740
G1 X-0.700 Y-0.700 E270.24581
G1 X-0.700 Y1.200 E270.31422
G1 X1.200 Y1.200 E270.38263
G0 F7500 X1.190 Y1.300
G0 X20.500 Y35.590
G0 X20.600 Y35.600
G1 F2400 X-20.500 Y35.600 E271.86239
G1 X-20.500 Y-35.400 E274.41868
G1 X20.600 Y-35.400 E275.89845
G1 X20.600 Y35.600 E278.45474
G0 F7500 X20.216 Y35.664
G1 F2400 X20.216 Y-35.464 E281.01564
G0 F7500 X20.216 Y-35.300
G0 X20.500 Y-31.767
G0 X20.664 Y-31.767
G1 F2400 X-20.563 Y-31.768 E282.49998
G0 F7500 X-20.400 Y-31.768
G0 X-20.216 Y-35.300
G0 X-20.216 Y-35.464
G1 F2400 X-20.216 Y35.664 E285.06088
G0 F7500 X-20.216 Y35.500
G0 X-20.400 Y31.767
G0 X-20.564 Y31.767
G1 F2400 X20.663 Y31.768 E286.54522
G0 F7500 X20.500 Y31.768
G0 X20.500 Y25.992
G0 X20.663 Y25.992
G1 F2400 X-20.564 Y25.991 E288.02957
G0 F7500 X-20.400 Y25.991
G0 X-20.400 Y20.215
G0 X-20.564 Y20.215
G1 F2400 X20.663 Y20.216 E289.51391
G0 F7500 X20.500 Y20.216
G0 X20.500 Y14.440
G0 X20.663 Y14.440
G1 F2400 X-20.564 Y14.439 E290.99825
G0 F7500 X-20.400 Y14.439
G0 X-20.400 Y8.663
G0 X-20.564 Y8.663
G1 F2400 X20.663 Y8.664 E292.48259
G0 F7500 X20.500 Y8.664
G0 X20.500 Y2.888
G0 X20.663 Y2.888
G1 F2400 X-20.564 Y2.887 E293.96693
G0 F7500 X-20.400 Y2.887
G0 X-20.400 Y-2.888
G0 X-20.563 Y-2.888
G1 F2400 X20.664 Y-2.887 E295.45127
G0 F7500 X20.500 Y-2.887
G0 X20.500 Y-8.663
G0 X20.664 Y-8.663
G1 F2400 X-20.563 Y-8.664 E296.93561
G0 F7500 X-20.400 Y-8.664
G0 X-20.400 Y-14.440
G0 X-20.563 Y-14.440
G1 F2400 X20.664 Y-14.439 E298.41995
G0 F7500 X20.500 Y-14.439
G0 X20.500 Y-20.215
G0 X20.664 Y-20.215
G1 F2400 X-20.563 Y-20.216 E299.90429
G0 F7500 X-20.400 Y-20.216
G0 X-20.400 Y-25.992
G0 X-20.563 Y-25.992
G1 F2400 X20.664 Y-25.991 E301.38863
G0 F7500 X20.500 Y-25.991
G0 X14.440 Y-35.300
G0 X14.440 Y-35.464
G1 F2400 X14.440 Y35.664 E303.94953
G0 F7500 X14.440 Y35.500
G0 X8.664 Y35.500
G0 X8.664 Y35.664
G1 F2400 X8.664 Y-35.464 E306.51043
G0 F7500 X8.664 Y-35.300
G0 X2.888 Y-35.300
G0 X2.888 Y-35.464
G1 F2400 X2.888 Y35.664 E309.07133
G0 F7500 X2.888 Y35.500
G0 X-2.888 Y35.500
G0 X-2.888 Y35.664
G1 F2400 X-2.888 Y-35.464 E311.63223
G0 F7500 X-2.888 Y-35.300
G0 X-8.664 Y-35.300
G0 X-8.664 Y-35.464
G1 F2400 X-8.664 Y35.664 E314.19313
G0 F7500 X-8.664 Y35.500
G0 X-14.440 Y35.500
G0 X-14.440 Y35.664
G1 F2400 X-14.440 Y-35.464 E316.75403
;LAYER:6
G1 F2400 E315.75403
G0 F7500 X0.216 Y0.216 Z1.500
;TYPE:WALL-OUTER
G1 F2400 E316.75403
G1 F2700 X0.284 Y0.216 E316.75648
G1 X0.284 Y0.284 E316.75893
G1 X0.216 Y0.284 E316.76137
G1 X0.216 Y0.216 E316.76382
G0 F7500 X-0.700 Y-0.700
;TYPE:SUPPORT
G1 F2400 X-0.700 Y1.200 E316.83223
G1 X1.200 Y1.200 E316.90064
G1 X1.200 Y-0.700 E316.96905
G1 X-0.700 Y-0.700 E317.03745
G0 F7500 X-0.690 Y-0.800
G0 X-20.500 Y-35.400
G1 F2400 X20.600 Y-35.400 E318.51722
G1 X20.600 Y35.600 E321.07351
G1 X-20.500 Y35.600 E322.55328
