;Generated with Cura_SteamEngine 15.04.6

;Layer count: 16
;LAYER:0
M107
G0 F7500 X-23.716 Y-43.616 Z0.300
;TYPE:SKIRT
G1 F1800 X23.816 Y-43.616 E2.56702
G1 X23.816 Y43.816 E7.28889
G1 X-23.716 Y43.816 E9.85591
G1 X-23.716 Y-43.616 E14.57777
G1 F2400 E13.57777
G0 F7500 X0.216 Y0.216
;TYPE:WALL-OUTER
G1 F2400 E14.57777
G1 F1800 X0.284 Y0.216 E14.58144
G1 X0.284 Y0.284 E14.58512
G1 X0.216 Y0.284 E14.58879
G1 X0.216 Y0.216 E14.59246
G0 F7500 X-0.700 Y-0.700
;TYPE:SUPPORT
G1 F1800 X-0.700 Y1.200 E14.69507
G1 X1.200 Y1.200 E14.79768
G1 X1.200 Y-0.700 E14.90030
G1 X-0.700 Y-0.700 E15.00291
G0 F7500 X-0.690 Y-0.800
G0 X-20.500 Y-40.400
G1 F1800 X20.600 Y-40.400 E17.22256
G1 X20.600 Y40.600 E21.59706
G1 X-20.500 Y40.600 E23.81671
G1 X-20.500 Y-40.400 E28.19121
G0 F7500 X-20.216 Y-40.464
G1 F1800 X-20.216 Y40.664 E32.57262
G0 F7500 X-20.216 Y40.500
G0 X-20.400 Y37.543
G0 X-20.564 Y37.543
G1 F1800 X20.663 Y37.544 E34.79913
G0 F7500 X20.500 Y37.544
G0 X20.500 Y31.768
G0 X20.663 Y31.768
G1 F1800 X-20.564 Y31.767 E37.02564
G0 F7500 X-20.400 Y31.767
G0 X-20.400 Y25.991
G0 X-20.564 Y25.991
G1 F1800 X20.663 Y25.992 E39.25215
G0 F7500 X20.500 Y25.992
G0 X20.500 Y20.216
G0 X20.663 Y20.216
G1 F1800 X-20.564 Y20.215 E41.47866
G0 F7500 X-20.400 Y20.215
G0 X-20.400 Y14.439
G0 X-20.564 Y14.439
G1 F1800 X20.663 Y14.440 E43.70517
G0 F7500 X20.500 Y14.440
G0 X20.500 Y8.664
G0 X20.663 Y8.664
G1 F1800 X-20.564 Y8.663 E45.93169
G0 F7500 X-20.400 Y8.663
G0 X-20.400 Y2.887
G0 X-20.564 Y2.887
G1 F1800 X20.663 Y2.888 E48.15820
G0 F7500 X20.500 Y2.888
G0 X20.500 Y-2.887
G0 X20.664 Y-2.887
G1 F1800 X-20.563 Y-2.888 E50.38471
G0 F7500 X-20.400 Y-2.888
G0 X-20.400 Y-8.664
G0 X-20.563 Y-8.664
G1 F1800 X20.664 Y-8.663 E52.61122
G0 F7500 X20.500 Y-8.663
G0 X20.500 Y-14.439
G0 X20.664 Y-14.439
G1 F1800 X-20.563 Y-14.440 E54.83773
G0 F7500 X-20.400 Y-14.440
G0 X-20.400 Y-20.216
G0 X-20.563 Y-20.216
G1 F1800 X20.664 Y-20.215 E57.06424
G0 F7500 X20.500 Y-20.215
G0 X20.500 Y-25.991
G0 X20.664 Y-25.991
G1 F1800 X-20.563 Y-25.992 E59.29075
G0 F7500 X-20.400 Y-25.992
G0 X-20.400 Y-31.768
G0 X-20.563 Y-31.768
G1 F1800 X20.664 Y-31.767 E61.51726
G0 F7500 X20.500 Y-31.767
G0 X20.500 Y-37.543
G0 X20.664 Y-37.543
G1 F1800 X-20.563 Y-37.544 E63.74378
G0 F7500 X-20.400 Y-37.544
G0 X-14.440 Y-40.300
G0 X-14.440 Y-40.464
G1 F1800 X-14.440 Y40.664 E68.12519
G0 F7500 X-14.440 Y40.500
G0 X-8.664 Y40.500
G0 X-8.664 Y40.664
G1 F1800 X-8.664 Y-40.464 E72.50660
G0 F7500 X-8.664 Y-40.300
G0 X-2.888 Y-40.300
G0 X-2.888 Y-40.464
G1 F1800 X-2.888 Y40.664 E76.88801
G0 F7500 X-2.888 Y40.500
G0 X2.888 Y40.500
G0 X2.888 Y40.664
G1 F1800 X2.888 Y-40.464 E81.26942
G0 F7500 X2.888 Y-40.300
G0 X8.664 Y-40.300
G0 X8.664 Y-40.464
G1 F1800 X8.664 Y40.664 E85.65083
G0 F7500 X8.664 Y40.500
G0 X14.440 Y40.500
G0 X14.440 Y40.664
G1 F1800 X14.440 Y-40.464 E90.03224
G0 F7500 X14.440 Y-40.300
G0 X20.216 Y-40.300
G0 X20.216 Y-40.464
G1 F1800 X20.216 Y40.664 E94.41365
;LAYER:1
M106 S63
G1 F2400 E93.41365
G0 F7500 X0.284 Y0.284 Z0.500
;TYPE:WALL-OUTER
G1 F2400 E94.41365
G1 F1980 X0.216 Y0.284 E94.41610
G1 X0.216 Y0.216 E94.41855
G1 X0.284 Y0.216 E94.42099
G1 X0.284 Y0.284 E94.42344
G0 F7500 X1.200 Y1.200
;TYPE:SUPPORT
G1 F1920 X1.200 Y-0.700 E94.49185
G1 X-0.700 Y-0.700 E94.56026
G1 X-0.700 Y1.200 E94.62867
G1 X1.200 Y1.200 E94.69707
G0 F7500 X1.190 Y1.300
G0 X20.500 Y40.590
G0 X20.600 Y40.600
G1 F1920 X-20.500 Y40.600 E96.17684
G1 X-20.500 Y-40.400 E99.09317
G1 X20.600 Y-40.400 E100.57294
G1 X20.600 Y40.600 E103.48927
G0 F7500 X20.216 Y40.664
G1 F1920 X20.216 Y-40.464 E106.41021
G0 F7500 X20.216 Y-40.300
G0 X20.500 Y-37.543
G0 X20.664 Y-37.543
G1 F1920 X-20.563 Y-37.544 E107.89456
G0 F7500 X-20.400 Y-37.544
G0 X-20.400 Y-31.768
G0 X-20.563 Y-31.768
G1 F1920 X20.664 Y-31.767 E109.37890
G0 F7500 X20.500 Y-31.767
G0 X20.500 Y-25.991
G0 X20.664 Y-25.991
G1 F1920 X-20.563 Y-25.992 E110.86324
G0 F7500 X-20.400 Y-25.992
G0 X-20.400 Y-20.216
G0 X-20.563 Y-20.216
G1 F1920 X20.664 Y-20.215 E112.34758
G0 F7500 X20.500 Y-20.215
G0 X20.500 Y-14.439
G0 X20.664 Y-14.439
G1 F1920 X-20.563 Y-14.440 E113.83192
G0 F7500 X-20.400 Y-14.440
G0 X-20.400 Y-8.664
G0 X-20.563 Y-8.664
G1 F1920 X20.664 Y-8.663 E115.31626
G0 F7500 X20.500 Y-8.663
G0 X20.500 Y-2.887
G0 X20.664 Y-2.887
G1 F1920 X-20.563 Y-2.888 E116.80060
G0 F7500 X-20.400 Y-2.888
G0 X-20.400 Y2.887
G0 X-20.564 Y2.887
G1 F1920 X20.663 Y2.888 E118.28494
G0 F7500 X20.500 Y2.888
G0 X20.500 Y8.664
G0 X20.663 Y8.664
G1 F1920 X-20.564 Y8.663 E119.76928
G0 F7500 X-20.400 Y8.663
G0 X-20.400 Y14.439
G0 X-20.564 Y14.439
G1 F1920 X20.663 Y14.440 E121.25362
G0 F7500 X20.500 Y14.440
G0 X20.500 Y20.216
G0 X20.663 Y20.216
G1 F1920 X-20.564 Y20.215 E122.73796
G0 F7500 X-20.400 Y20.215
G0 X-20.400 Y25.991
G0 X-20.564 Y25.991
G1 F1920 X20.663 Y25.992 E124.22230
G0 F7500 X20.500 Y25.992
G0 X20.500 Y31.768
G0 X20.663 Y31.768
G1 F1920 X-20.564 Y31.767 E125.70665
G0 F7500 X-20.400 Y31.767
G0 X-20.400 Y37.543
G0 X-20.564 Y37.543
G1 F1920 X20.663 Y37.544 E127.19099
G0 F7500 X20.500 Y37.544
G0 X14.440 Y40.500
G0 X14.440 Y40.664
G1 F1920 X14.440 Y-40.464 E130.11193
G0 F7500 X14.440 Y-40.300
G0 X8.664 Y-40.300
G0 X8.664 Y-40.464
G1 F1920 X8.664 Y40.664 E133.03287
G0 F7500 X8.664 Y40.500
G0 X2.888 Y40.500
G0 X2.888 Y40.664
G1 F1920 X2.888 Y-40.464 E135.95381
G0 F7500 X2.888 Y-40.300
G0 X-2.888 Y-40.300
G0 X-2.888 Y-40.464
G1 F1920 X-2.888 Y40.664 E138.87475
G0 F7500 X-2.888 Y40.500
G0 X-8.664 Y40.500
G0 X-8.664 Y40.664
G1 F1920 X-8.664 Y-40.464 E141.79569
G0 F7500 X-8.664 Y-40.300
G0 X-14.440 Y-40.300
G0 X-14.440 Y-40.464
G1 F1920 X-14.440 Y40.664 E144.71663
G0 F7500 X-14.440 Y40.500
G0 X-20.216 Y40.500
G0 X-20.216 Y40.664
G1 F1920 X-20.216 Y-40.464 E147.63757
;LAYER:2
M106 S127
G1 F2400 E146.63757
G0 F7500 X0.216 Y0.216 Z0.700
;TYPE:WALL-OUTER
G1 F2400 E147.63757
G1 F2220 X0.284 Y0.216 E147.64002
G1 X0.284 Y0.284 E147.64247
G1 X0.216 Y0.284 E147.64491
G1 X0.216 Y0.216 E147.64736
G0 F7500 X-0.700 Y-0.700
;TYPE:SUPPORT
G1 F2100 X-0.700 Y1.200 E147.71577
G1 X1.200 Y1.200 E147.78418
G1 X1.200 Y-0.700 E147.85259
G1 X-0.700 Y-0.700 E147.92099
G0 F7500 X-0.690 Y-0.800
G0 X-20.500 Y-40.400
G1 F2100 X20.600 Y-40.400 E149.40076
G1 X20.600 Y40.600 E152.31709
G1 X-20.500 Y40.600 E153.79686
G1 X-20.500 Y-40.400 E156.71319
G0 F7500 X-20.216 Y-40.464
G1 F2100 X-20.216 Y40.664 E159.63413
G0 F7500 X-20.216 Y40.500
G0 X-20.400 Y37.543
G0 X-20.564 Y37.543
G1 F2100 X20.663 Y37.544 E161.11847
G0 F7500 X20.500 Y37.544
G0 X20.500 Y31.768
G0 X20.663 Y31.768
G1 F2100 X-20.564 Y31.767 E162.60282
G0 F7500 X-20.400 Y31.767
G0 X-20.400 Y25.991
G0 X-20.564 Y25.991
G1 F2100 X20.663 Y25.992 E164.08716
G0 F7500 X20.500 Y25.992
G0 X20.500 Y20.216
G0 X20.663 Y20.216
G1 F2100 X-20.564 Y20.215 E165.57150
G0 F7500 X-20.400 Y20.215
G0 X-20.400 Y14.439
G0 X-20.564 Y14.439
G1 F2100 X20.663 Y14.440 E167.05584
G0 F7500 X20.500 Y14.440
G0 X20.500 Y8.664
G0 X20.663 Y8.664
G1 F2100 X-20.564 Y8.663 E168.54018
G0 F7500 X-20.400 Y8.663
G0 X-20.400 Y2.887
G0 X-20.564 Y2.887
G1 F2100 X20.663 Y2.888 E170.02452
G0 F7500 X20.500 Y2.888
G0 X20.500 Y-2.887
G0 X20.664 Y-2.887
G1 F2100 X-20.563 Y-2.888 E171.50886
G0 F7500 X-20.400 Y-2.888
G0 X-20.400 Y-8.664
G0 X-20.563 Y-8.664
G1 F2100 X20.664 Y-8.663 E172.99320
G0 F7500 X20.500 Y-8.663
G0 X20.500 Y-14.439
G0 X20.664 Y-14.439
G1 F2100 X-20.563 Y-14.440 E174.47754
G0 F7500 X-20.400 Y-14.440
G0 X-20.400 Y-20.216
G0 X-20.563 Y-20.216
G1 F2100 X20.664 Y-20.215 E175.96188
G0 F7500 X20.500 Y-20.215
G0 X20.500 Y-25.991
G0 X20.664 Y-25.991
G1 F2100 X-20.563 Y-25.992 E177.44622
G0 F7500 X-20.400 Y-25.992
G0 X-20.400 Y-31.768
G0 X-20.563 Y-31.768
G1 F2100 X20.664 Y-31.767 E178.93056
G0 F7500 X20.500 Y-31.767
G0 X20.500 Y-37.543
G0 X20.664 Y-37.543
G1 F2100 X-20.563 Y-37.544 E180.41491
G0 F7500 X-20.400 Y-37.544
G0 X-14.440 Y-40.300
G0 X-14.440 Y-40.464
G1 F2100 X-14.440 Y40.664 E183.33585
G0 F7500 X-14.440 Y40.500
G0 X-8.664 Y40.500
G0 X-8.664 Y40.664
G1 F2100 X-8.664 Y-40.464 E186.25679
G0 F7500 X-8.664 Y-40.300
G0 X-2.888 Y-40.300
G0 X-2.888 Y-40.464
G1 F2100 X-2.888 Y40.664 E189.17773
G0 F7500 X-2.888 Y40.500
G0 X2.888 Y40.500
G0 X2.888 Y40.664
G1 F2100 X2.888 Y-40.464 E192.09867
G0 F7500 X2.888 Y-40.300
G0 X8.664 Y-40.300
G0 X8.664 Y-40.464
G1 F2100 X8.664 Y40.664 E195.01961
G0 F7500 X8.664 Y40.500
G0 X14.440 Y40.500
G0 X14.440 Y40.664
G1 F2100 X14.440 Y-40.464 E197.94055
G0 F7500 X14.440 Y-40.300
G0 X20.216 Y-40.300
G0 X20.216 Y-40.464
G1 F2100 X20.216 Y40.664 E200.86149
;LAYER:3
G1 F2400 E199.86149
G0 F7500 X0.284 Y0.284 Z0.900
;TYPE:WALL-OUTER
G1 F2400 E200.86149
G1 X0.216 Y0.284 E200.86394
G1 X0.216 Y0.216 E200.86638
G1 X0.284 Y0.216 E200.86883
G1 X0.284 Y0.284 E200.87128
G0 F7500 X1.200 Y1.200
;TYPE:SUPPORT
G1 F2220 X1.200 Y-0.700 E200.93969
G1 X-0.700 Y-0.700 E201.00810
G1 X-0.700 Y1.200 E201.07650
G1 X1.200 Y1.200 E201.14491
G0 F7500 X1.190 Y1.300
G0 X20.500 Y40.590
G0 X20.600 Y40.600
G1 F2220 X-20.500 Y40.600 E202.62468
G1 X-20.500 Y-40.400 E205.54101
G1 X20.600 Y-40.400 E207.02078
G1 X20.600 Y40.600 E209.93711
G0 F7500 X20.216 Y40.664
G1 F2220 X20.216 Y-40.464 E212.85805
G0 F7500 X20.216 Y-40.300
G0 X20.500 Y-37.543
G0 X20.664 Y-37.543
G1 F2220 X-20.563 Y-37.544 E214.34239
G0 F7500 X-20.400 Y-37.544
G0 X-20.400 Y-31.768
G0 X-20.563 Y-31.768
G1 F2220 X20.664 Y-31.767 E215.82673
G0 F7500 X20.500 Y-31.767
G0 X20.500 Y-25.991
G0 X20.664 Y-25.991
G1 F2220 X-20.563 Y-25.992 E217.31108
G0 F7500 X-20.400 Y-25.992
G0 X-20.400 Y-20.216
G0 X-20.563 Y-20.216
G1 F2220 X20.664 Y-20.215 E218.79542
G0 F7500 X20.500 Y-20.215
G0 X20.500 Y-14.439
G0 X20.664 Y-14.439
G1 F2220 X-20.563 Y-14.440 E220.27976
G0 F7500 X-20.400 Y-14.440
G0 X-20.400 Y-8.664
G0 X-20.563 Y-8.664
G1 F2220 X20.664 Y-8.663 E221.76410
G0 F7500 X20.500 Y-8.663
G0 X20.500 Y-2.887
G0 X20.664 Y-2.887
G1 F2220 X-20.563 Y-2.888 E223.24844
G0 F7500 X-20.400 Y-2.888
G0 X-20.400 Y2.887
G0 X-20.564 Y2.887
G1 F2220 X20.663 Y2.888 E224.73278
G0 F7500 X20.500 Y2.888
G0 X20.500 Y8.664
G0 X20.663 Y8.664
G1 F2220 X-20.564 Y8.663 E226.21712
G0 F7500 X-20.400 Y8.663
G0 X-20.400 Y14.439
G0 X-20.564 Y14.439
G1 F2220 X20.663 Y14.440 E227.70146
G0 F7500 X20.500 Y14.440
G0 X20.500 Y20.216
G0 X20.663 Y20.216
G1 F2220 X-20.564 Y20.215 E229.18580
G0 F7500 X-20.400 Y20.215
G0 X-20.400 Y25.991
G0 X-20.564 Y25.991
G1 F2220 X20.663 Y25.992 E230.67014
G0 F7500 X20.500 Y25.992
G0 X20.500 Y31.768
G0 X20.663 Y31.768
G1 F2220 X-20.564 Y31.767 E232.15448
G0 F7500 X-20.400 Y31.767
G0 X-20.400 Y37.543
G0 X-20.564 Y37.543
G1 F2220 X20.663 Y37.544 E233.63883
G0 F7500 X20.500 Y37.544
G0 X14.440 Y40.500
G0 X14.440 Y40.664
G1 F2220 X14.440 Y-40.464 E236.55977
G0 F7500 X14.440 Y-40.300
G0 X8.664 Y-40.300
G0 X8.664 Y-40.464
G1 F2220 X8.664 Y40.664 E239.48071
G0 F7500 X8.664 Y40.500
G0 X2.888 Y40.500
G0 X2.888 Y40.664
G1 F2220 X2.888 Y-40.464 E242.40165
G0 F7500 X2.888 Y-40.300
G0 X-2.888 Y-40.300
G0 X-2.888 Y-40.464
G1 F2220 X-2.888 Y40.664 E245.32259
G0 F7500 X-2.888 Y40.500
G0 X-8.664 Y40.500
G0 X-8.664 Y40.664
G1 F2220 X-8.664 Y-40.464 E248.24353
G0 F7500 X-8.664 Y-40.300
G0 X-14.440 Y-40.300
G0 X-14.440 Y-40.464
G1 F2220 X-14.440 Y40.664 E251.16447
G0 F7500 X-14.440 Y40.500
G0 X-20.216 Y40.500
G0 X-20.216 Y40.664
G1 F2220 X-20.216 Y-40.464 E254.08541
;LAYER:4
G1 F2400 E253.08541
G0 F7500 X0.216 Y0.216 Z1.100
;TYPE:WALL-OUTER
G1 F2400 E254.08541
G1 F2700 X0.284 Y0.216 E254.08786
G1 X0.284 Y0.284 E254.09030
G1 X0.216 Y0.284 E254.09275
G1 X0.216 Y0.216 E254.09520
G0 F7500 X-0.700 Y-0.700
;TYPE:SUPPORT
G1 F2400 X-0.700 Y1.200 E254.16361
G1 X1.200 Y1.200 E254.23202
G1 X1.200 Y-0.700 E254.30042
G1 X-0.700 Y-0.700 E254.36883
G0 F7500 X-0.690 Y-0.800
G0 X-20.500 Y-40.400
G1 F2400 X20.600 Y-40.400 E255.84860
G1 X20.600 Y40.600 E258.76493
G1 X-20.500 Y40.600 E260.24470
G1 X-20.500 Y-40.400 E263.16103
G0 F7500 X-20.216 Y-40.464
G1 F2400 X-20.216 Y40.664 E266.08197
G0 F7500 X-20.216 Y40.500
G0 X-20.400 Y37.543
G0 X-20.564 Y37.543
G1 F2400 X20.663 Y37.544 E267.56631
G0 F7500 X20.500 Y37.544
G0 X20.500 Y31.768
G0 X20.663 Y31.768
G1 F2400 X-20.564 Y31.767 E269.05065
G0 F7500 X-20.400 Y31.767
G0 X-20.400 Y25.991
G0 X-20.564 Y25.991
G1 F2400 X20.663 Y25.992 E270.53499
G0 F7500 X20.500 Y25.992
G0 X20.500 Y20.216
G0 X20.663 Y20.216
G1 F2400 X-20.564 Y20.215 E272.01934
G0 F7500 X-20.400 Y20.215
G0 X-20.400 Y14.439
G0 X-20.564 Y14.439
G1 F2400 X20.663 Y14.440 E273.50368
G0 F7500 X20.500 Y14.440
G0 X20.500 Y8.664
G0 X20.663 Y8.664
G1 F2400 X-20.564 Y8.663 E274.98802
G0 F7500 X-20.400 Y8.663
G0 X-20.400 Y2.887
G0 X-20.564 Y2.887
G1 F2400 X20.663 Y2.888 E276.47236
G0 F7500 X20.500 Y2.888
G0 X20.500 Y-2.887
G0 X20.664 Y-2.887
G1 F2400 X-20.563 Y-2.888 E277.95670
G0 F7500 X-20.400 Y-2.888
G0 X-20.400 Y-8.664
G0 X-20.563 Y-8.664
G1 F2400 X20.664 Y-8.663 E279.44104
G0 F7500 X20.500 Y-8.663
G0 X20.500 Y-14.439
G0 X20.664 Y-14.439
G1 F2400 X-20.563 Y-14.440 E280.92538
G0 F7500 X-20.400 Y-14.440
G0 X-20.400 Y-20.216
G0 X-20.563 Y-20.216
G1 F2400 X20.664 Y-20.215 E282.40972
G0 F7500 X20.500 Y-20.215
G0 X20.500 Y-25.991
G0 X20.664 Y-25.991
G1 F2400 X-20.563 Y-25.992 E283.89406
G0 F7500 X-20.400 Y-25.992
G0 X-20.400 Y-31.768
G0 X-20.563 Y-31.768
G1 F2400 X20.664 Y-31.767 E285.37840
G0 F7500 X20.500 Y-31.767
G0 X20.500 Y-37.543
G0 X20.664 Y-37.543
G1 F2400 X-20.563 Y-37.544 E286.86274
G0 F7500 X-20.400 Y-37.544
G0 X-14.440 Y-40.300
G0 X-14.440 Y-40.464
G1 F2400 X-14.440 Y40.664 E289.78368
G0 F7500 X-14.440 Y40.500
G0 X-8.664 Y40.500
G0 X-8.664 Y40.664
G1 F2400 X-8.664 Y-40.464 E292.70463
G0 F7500 X-8.664 Y-40.300
G0 X-2.888 Y-40.300
G0 X-2.888 Y-40.464
G1 F2400 X-2.888 Y40.664 E295.62557
G0 F7500 X-2.888 Y40.500
G0 X2.888 Y40.500
G0 X2.888 Y40.664
G1 F2400 X2.888 Y-40.464 E298.54651
G0 F7500 X2.888 Y-40.300
G0 X8.664 Y-40.300
G0 X8.664 Y-40.464
G1 F2400 X8.664 Y40.664 E301.46745
G0 F7500 X8.664 Y40.500
G0 X14.440 Y40.500
G0 X14.440 Y40.664
G1 F2400 X14.440 Y-40.464 E304.38839
G0 F7500 X14.440 Y-40.300
G0 X20.216 Y-40.300
G0 X20.216 Y-40.464
G1 F2400 X20.216 Y40.664 E307.30933
;LAYER:5
G1 F2400 E306.30933
G0 F7500 X0.284 Y0.284 Z1.300
;TYPE:WALL-OUTER
G1 F2400 E307.30933
G1 F2700 X0.216 Y0.284 E307.31177
G1 X0.216 Y0.216 E307.31422
G1 X0.284 Y0.216 E307.31667
G1 X0.284 Y0.284 E307.31912
G0 F7500 X1.200 Y1.200
;TYPE:SUPPORT
G1 F2400 X1.200 Y-0.700 E307.38753
G1 X-0.700 Y-0.700 E307.45594
G1 X-0.700 Y1.200 E307.52434
G1 X1.200 Y1.200 E307.59275
G0 F7500 X1.190 Y1.300
G0 X20.500 Y40.590
G0 X20.600 Y40.600
G1 F2400 X-20.500 Y40.600 E309.07252
G1 X-20.500 Y-40.400 E311.98885
G1 X20.600 Y-40.400 E313.46862
G1 X20.600 Y40.600 E316.38495
G0 F7500 X20.216 Y40.664
G1 F2400 X20.216 Y-40.464 E319.30589
G0 F7500 X20.216 Y-40.300
G0 X20.500 Y-37.543
G0 X20.664 Y-37.543
G1 F2400 X-20.563 Y-37.544 E320.79023
G0 F7500 X-20.400 Y-37.544
G0 X-20.400 Y-31.768
G0 X-20.563 Y-31.768
G1 F2400 X20.664 Y-31.767 E322.27457
G0 F7500 X20.500 Y-31.767
G0 X20.500 Y-25.991
G0 X20.664 Y-25.991
G1 F2400 X-20.563 Y-25.992 E323.75891
G0 F7500 X-20.400 Y-25.992
G0 X-20.400 Y-20.216
G0 X-20.563 Y-20.216
G1 F2400 X20.664 Y-20.215 E325.24325
G0 F7500 X20.500 Y-20.215
G0 X20.500 Y-14.439
G0 X20.664 Y-14.439
G1 F2400 X-20.563 Y-14.440 E326.72760
G0 F7500 X-20.400 Y-14.440
G0 X-20.400 Y-8.664
G0 X-20.563 Y-8.664
G1 F2400 X20.664 Y-8.663 E328.21194
G0 F7500 X20.500 Y-8.663
G0 X20.500 Y-2.887
G0 X20.664 Y-2.887
G1 F2400 X-20.563 Y-2.888 E329.69628
G0 F7500 X-20.400 Y-2.888
G0 X-20.400 Y2.887
G0 X-20.564 Y2.887
G1 F2400 X20.663 Y2.888 E331.18062
G0 F7500 X20.500 Y2.888
G0 X20.500 Y8.664
G0 X20.663 Y8.664
G1 F2400 X-20.564 Y8.663 E332.66496
G0 F7500 X-20.400 Y8.663
G0 X-20.400 Y14.439
G0 X-20.564 Y14.439
G1 F2400 X20.663 Y14.440 E334.14930
G0 F7500 X20.500 Y14.440
G0 X20.500 Y20.216
G0 X20.663 Y20.216
G1 F2400 X-20.564 Y20.215 E335.63364
G0 F7500 X-20.400 Y20.215
G0 X-20.400 Y25.991
G0 X-20.564 Y25.991
G1 F2400 X20.663 Y25.992 E337.11798
G0 F7500 X20.500 Y25.992
G0 X20.500 Y31.768
G0 X20.663 Y31.768
G1 F2400 X-20.564 Y31.767 E338.60232
G0 F7500 X-20.400 Y31.767
G0 X-20.400 Y37.543
G0 X-20.564 Y37.543
G1 F2400 X20.663 Y37.544 E340.08666
