;Generated with Cura_SteamEngine 15.04.6

;Layer count: 16
;LAYER:0
M107
G0 F7500 X-23.716 Y-48.616 Z0.300
;TYPE:SKIRT
G1 F1800 X23.816 Y-48.616 E2.56702
G1 X23.816 Y48.816 E7.82895
G1 X-23.716 Y48.816 E10.39597
G1 X-23.716 Y-48.616 E15.65789
G1 F2400 E14.65789
G0 F7500 X0.216 Y0.216
;TYPE:WALL-OUTER
G1 F2400 E15.65789
G1 F1800 X0.284 Y0.216 E15.66157
G1 X0.284 Y0.284 E15.66524
G1 X0.216 Y0.284 E15.66891
G1 X0.216 Y0.216 E15.67258
G0 F7500 X-0.700 Y-0.700
;TYPE:SUPPORT
G1 F1800 X-0.700 Y1.200 E15.77519
G1 X1.200 Y1.200 E15.87781
G1 X1.200 Y-0.700 E15.98042
G1 X-0.700 Y-0.700 E16.08303
G0 F7500 X-0.690 Y-0.800
G0 X-20.500 Y-45.400
G1 F1800 X20.600 Y-45.400 E18.30268
G1 X20.600 Y45.600 E23.21724
G1 X-20.500 Y45.600 E25.43689
G1 X-20.500 Y-45.400 E30.35145
G0 F7500 X-20.216 Y-45.464
G1 F1800 X-20.216 Y45.664 E35.27293
G0 F7500 X-20.216 Y45.500
G0 X-20.400 Y43.319
G0 X-20.564 Y43.319
G1 F1800 X20.663 Y43.320 E37.49944
G0 F7500 X20.500 Y43.320
G0 X20.216 Y45.500
G0 X20.216 Y45.664
G1 F1800 X20.216 Y-45.464 E42.42091
G0 F7500 X20.216 Y-45.300
G0 X20.500 Y-43.319
G0 X20.664 Y-43.319
G1 F1800 X-20.563 Y-43.320 E44.64742
G0 F7500 X-20.400 Y-43.320
G0 X-20.400 Y-37.544
G0 X-20.563 Y-37.544
G1 F1800 X20.664 Y-37.543 E46.87393
G0 F7500 X20.500 Y-37.543
G0 X20.500 Y-31.767
G0 X20.664 Y-31.767
G1 F1800 X-20.563 Y-31.768 E49.10044
G0 F7500 X-20.400 Y-31.768
G0 X-20.400 Y-25.992
G0 X-20.563 Y-25.992
G1 F1800 X20.664 Y-25.991 E51.32695
G0 F7500 X20.500 Y-25.991
G0 X20.500 Y-20.215
G0 X20.664 Y-20.215
G1 F1800 X-20.563 Y-20.216 E53.55346
G0 F7500 X-20.400 Y-20.216
G0 X-20.400 Y-14.440
G0 X-20.563 Y-14.440
G1 F1800 X20.664 Y-14.439 E55.77998
G0 F7500 X20.500 Y-14.439
G0 X20.500 Y-8.663
G0 X20.664 Y-8.663
G1 F1800 X-20.563 Y-8.664 E58.00649
G0 F7500 X-20.400 Y-8.664
G0 X-20.400 Y-2.888
G0 X-20.563 Y-2.888
G1 F1800 X20.664 Y-2.887 E60.23300
G0 F7500 X20.500 Y-2.887
G0 X20.500 Y2.888
G0 X20.663 Y2.888
G1 F1800 X-20.564 Y2.887 E62.45951
G0 F7500 X-20.400 Y2.887
G0 X-20.400 Y8.663
G0 X-20.564 Y8.663
G1 F1800 X20.663 Y8.664 E64.68602
G0 F7500 X20.500 Y8.664
G0 X20.500 Y14.440
G0 X20.663 Y14.440
G1 F1800 X-20.564 Y14.439 E66.91253
G0 F7500 X-20.400 Y14.439
G0 X-20.400 Y20.215
G0 X-20.564 Y20.215
G1 F1800 X20.663 Y20.216 E69.13904
G0 F7500 X20.500 Y20.216
G0 X20.500 Y25.992
G0 X20.663 Y25.992
G1 F1800 X-20.564 Y25.991 E71.36556
G0 F7500 X-20.400 Y25.991
G0 X-20.400 Y31.767
G0 X-20.564 Y31.767
G1 F1800 X20.663 Y31.768 E73.59207
G0 F7500 X20.500 Y31.768
G0 X20.500 Y37.544
G0 X20.663 Y37.544
G1 F1800 X-20.564 Y37.543 E75.81858
G0 F7500 X-20.400 Y37.543
G0 X-14.440 Y45.500
G0 X-14.440 Y45.664
G1 F1800 X-14.440 Y-45.464 E80.74005
G0 F7500 X-14.440 Y-45.300
G0 X-8.664 Y-45.300
G0 X-8.664 Y-45.464
G1 F1800 X-8.664 Y45.664 E85.66152
G0 F7500 X-8.664 Y45.500
G0 X-2.888 Y45.500
G0 X-2.888 Y45.664
G1 F1800 X-2.888 Y-45.464 E90.58299
G0 F7500 X-2.888 Y-45.300
G0 X2.888 Y-45.300
G0 X2.888 Y-45.464
G1 F1800 X2.888 Y45.664 E95.50447
G0 F7500 X2.888 Y45.500
G0 X8.664 Y45.500
G0 X8.664 Y45.664
G1 F1800 X8.664 Y-45.464 E100.42594
G0 F7500 X8.664 Y-45.300
G0 X14.440 Y-45.300
G0 X14.440 Y-45.464
G1 F1800 X14.440 Y45.664 E105.34741
;LAYER:1
M106 S63
G1 F2400 E104.34741
G0 F7500 X0.284 Y0.284 Z0.500
;TYPE:WALL-OUTER
G1 F2400 E105.34741
G1 F1980 X0.216 Y0.284 E105.34986
G1 X0.216 Y0.216 E105.35231
G1 X0.284 Y0.216 E105.35475
G1 X0.284 Y0.284 E105.35720
G0 F7500 X1.200 Y1.200
;TYPE:SUPPORT
G1 F1920 X1.200 Y-0.700 E105.42561
G1 X-0.700 Y-0.700 E105.49402
G1 X-0.700 Y1.200 E105.56243
G1 X1.200 Y1.200 E105.63083
G0 F7500 X1.190 Y1.300
G0 X20.500 Y45.590
G0 X20.600 Y45.600
G1 F1920 X-20.500 Y45.600 E107.11060
G1 X-20.500 Y-45.400 E110.38697
G1 X20.600 Y-45.400 E111.86674
G1 X20.600 Y45.600 E115.14312
G0 F7500 X20.216 Y45.664
G1 F1920 X20.216 Y-45.464 E118.42410
G0 F7500 X20.216 Y-45.300
G0 X20.500 Y-43.319
G0 X20.664 Y-43.319
G1 F1920 X-20.563 Y-43.320 E119.90844
G0 F7500 X-20.400 Y-43.320
G0 X-20.216 Y-45.300
G0 X-20.216 Y-45.464
G1 F1920 X-20.216 Y45.664 E123.18942
G0 F7500 X-20.216 Y45.500
G0 X-20.400 Y43.319
G0 X-20.564 Y43.319
G1 F1920 X20.663 Y43.320 E124.67376
G0 F7500 X20.500 Y43.320
G0 X20.500 Y37.544
G0 X20.663 Y37.544
G1 F1920 X-20.564 Y37.543 E126.15810
G0 F7500 X-20.400 Y37.543
G0 X-20.400 Y31.767
G0 X-20.564 Y31.767
G1 F1920 X20.663 Y31.768 E127.64244
G0 F7500 X20.500 Y31.768
G0 X20.500 Y25.992
G0 X20.663 Y25.992
G1 F1920 X-20.564 Y25.991 E129.12678
G0 F7500 X-20.400 Y25.991
G0 X-20.400 Y20.215
G0 X-20.564 Y20.215
G1 F1920 X20.663 Y20.216 E130.61112
G0 F7500 X20.500 Y20.216
G0 X20.500 Y14.440
G0 X20.663 Y14.440
G1 F1920 X-20.564 Y14.439 E132.09546
G0 F7500 X-20.400 Y14.439
G0 X-20.400 Y8.663
G0 X-20.564 Y8.663
G1 F1920 X20.663 Y8.664 E133.57981
G0 F7500 X20.500 Y8.664
G0 X20.500 Y2.888
G0 X20.663 Y2.888
G1 F1920 X-20.564 Y2.887 E135.06415
G0 F7500 X-20.400 Y2.887
G0 X-20.400 Y-2.888
G0 X-20.563 Y-2.888
G1 F1920 X20.664 Y-2.887 E136.54849
G0 F7500 X20.500 Y-2.887
G0 X20.500 Y-8.663
G0 X20.664 Y-8.663
G1 F1920 X-20.563 Y-8.664 E138.03283
G0 F7500 X-20.400 Y-8.664
G0 X-20.400 Y-14.440
G0 X-20.563 Y-14.440
G1 F1920 X20.664 Y-14.439 E139.51717
G0 F7500 X20.500 Y-14.439
G0 X20.500 Y-20.215
G0 X20.664 Y-20.215
G1 F1920 X-20.563 Y-20.216 E141.00151
G0 F7500 X-20.400 Y-20.216
G0 X-20.400 Y-25.992
G0 X-20.563 Y-25.992
G1 F1920 X20.664 Y-25.991 E142.48585
G0 F7500 X20.500 Y-25.991
G0 X20.500 Y-31.767
G0 X20.664 Y-31.767
G1 F1920 X-20.563 Y-31.768 E143.97019
G0 F7500 X-20.400 Y-31.768
G0 X-20.400 Y-37.544
G0 X-20.563 Y-37.544
G1 F1920 X20.664 Y-37.543 E145.45453
G0 F7500 X20.500 Y-37.543
G0 X14.440 Y-45.300
G0 X14.440 Y-45.464
G1 F1920 X14.440 Y45.664 E148.73551
G0 F7500 X14.440 Y45.500
G0 X8.664 Y45.500
G0 X8.664 Y45.664
G1 F1920 X8.664 Y-45.464 E152.01649
G0 F7500 X8.664 Y-45.300
G0 X2.888 Y-45.300
G0 X2.888 Y-45.464
G1 F1920 X2.888 Y45.664 E155.29748
G0 F7500 X2.888 Y45.500
G0 X-2.888 Y45.500
G0 X-2.888 Y45.664
G1 F1920 X-2.888 Y-45.464 E158.57846
G0 F7500 X-2.888 Y-45.300
G0 X-8.664 Y-45.300
G0 X-8.664 Y-45.464
G1 F1920 X-8.664 Y45.664 E161.85944
G0 F7500 X-8.664 Y45.500
G0 X-14.440 Y45.500
G0 X-14.440 Y45.664
G1 F1920 X-14.440 Y-45.464 E165.14042
;LAYER:2
M106 S127
G1 F2400 E164.14042
G0 F7500 X0.216 Y0.216 Z0.700
;TYPE:WALL-OUTER
G1 F2400 E165.14042
G1 F2220 X0.284 Y0.216 E165.14287
G1 X0.284 Y0.284 E165.14532
G1 X0.216 Y0.284 E165.14776
G1 X0.216 Y0.216 E165.15021
G0 F7500 X-0.700 Y-0.700
;TYPE:SUPPORT
G1 F2100 X-0.700 Y1.200 E165.21862
G1 X1.200 Y1.200 E165.28703
G1 X1.200 Y-0.700 E165.35544
G1 X-0.700 Y-0.700 E165.42384
G0 F7500 X-0.690 Y-0.800
G0 X-20.500 Y-45.400
G1 F2100 X20.600 Y-45.400 E166.90361
G1 X20.600 Y45.600 E170.17999
G1 X-20.500 Y45.600 E171.65975
G1 X-20.500 Y-45.400 E174.93613
G0 F7500 X-20.216 Y-45.464
G1 F2100 X-20.216 Y45.664 E178.21711
G0 F7500 X-20.216 Y45.500
G0 X-20.400 Y43.319
G0 X-20.564 Y43.319
G1 F2100 X20.663 Y43.320 E179.70145
G0 F7500 X20.500 Y43.320
G0 X20.216 Y45.500
G0 X20.216 Y45.664
G1 F2100 X20.216 Y-45.464 E182.98243
G0 F7500 X20.216 Y-45.300
G0 X20.500 Y-43.319
G0 X20.664 Y-43.319
G1 F2100 X-20.563 Y-43.320 E184.46677
G0 F7500 X-20.400 Y-43.320
G0 X-20.400 Y-37.544
G0 X-20.563 Y-37.544
G1 F2100 X20.664 Y-37.543 E185.95111
G0 F7500 X20.500 Y-37.543
G0 X20.500 Y-31.767
G0 X20.664 Y-31.767
G1 F2100 X-20.563 Y-31.768 E187.43545
G0 F7500 X-20.400 Y-31.768
G0 X-20.400 Y-25.992
G0 X-20.563 Y-25.992
G1 F2100 X20.664 Y-25.991 E188.91979
G0 F7500 X20.500 Y-25.991
G0 X20.500 Y-20.215
G0 X20.664 Y-20.215
G1 F2100 X-20.563 Y-20.216 E190.40413
G0 F7500 X-20.400 Y-20.216
G0 X-20.400 Y-14.440
G0 X-20.563 Y-14.440
G1 F2100 X20.664 Y-14.439 E191.88848
G0 F7500 X20.500 Y-14.439
G0 X20.500 Y-8.663
G0 X20.664 Y-8.663
G1 F2100 X-20.563 Y-8.664 E193.37282
G0 F7500 X-20.400 Y-8.664
G0 X-20.400 Y-2.888
G0 X-20.563 Y-2.888
G1 F2100 X20.664 Y-2.887 E194.85716
G0 F7500 X20.500 Y-2.887
G0 X20.500 Y2.888
G0 X20.663 Y2.888
G1 F2100 X-20.564 Y2.887 E196.34150
G0 F7500 X-20.400 Y2.887
G0 X-20.400 Y8.663
G0 X-20.564 Y8.663
G1 F2100 X20.663 Y8.664 E197.82584
G0 F7500 X20.500 Y8.664
G0 X20.500 Y14.440
G0 X20.663 Y14.440
G1 F2100 X-20.564 Y14.439 E199.31018
G0 F7500 X-20.400 Y14.439
G0 X-20.400 Y20.215
G0 X-20.564 Y20.215
G1 F2100 X20.663 Y20.216 E200.79452
G0 F7500 X20.500 Y20.216
G0 X20.500 Y25.992
G0 X20.663 Y25.992
G1 F2100 X-20.564 Y25.991 E202.27886
G0 F7500 X-20.400 Y25.991
G0 X-20.400 Y31.767
G0 X-20.564 Y31.767
G1 F2100 X20.663 Y31.768 E203.76320
G0 F7500 X20.500 Y31.768
G0 X20.500 Y37.544
G0 X20.663 Y37.544
G1 F2100 X-20.564 Y37.543 E205.24754
G0 F7500 X-20.400 Y37.543
G0 X-14.440 Y45.500
G0 X-14.440 Y45.664
G1 F2100 X-14.440 Y-45.464 E208.52852
G0 F7500 X-14.440 Y-45.300
G0 X-8.664 Y-45.300
G0 X-8.664 Y-45.464
G1 F2100 X-8.664 Y45.664 E211.80951
G0 F7500 X-8.664 Y45.500
G0 X-2.888 Y45.500
G0 X-2.888 Y45.664
G1 F2100 X-2.888 Y-45.464 E215.09049
G0 F7500 X-2.888 Y-45.300
G0 X2.888 Y-45.300
G0 X2.888 Y-45.464
G1 F2100 X2.888 Y45.664 E218.37147
G0 F7500 X2.888 Y45.500
G0 X8.664 Y45.500
G0 X8.664 Y45.664
G1 F2100 X8.664 Y-45.464 E221.65245
G0 F7500 X8.664 Y-45.300
G0 X14.440 Y-45.300
G0 X14.440 Y-45.464
G1 F2100 X14.440 Y45.664 E224.93343
;LAYER:3
G1 F2400 E223.93343
G0 F7500 X0.284 Y0.284 Z0.900
;TYPE:WALL-OUTER
G1 F2400 E224.93343
G1 X0.216 Y0.284 E224.93588
G1 X0.216 Y0.216 E224.93833
G1 X0.284 Y0.216 E224.94078
G1 X0.284 Y0.284 E224.94322
G0 F7500 X1.200 Y1.200
;TYPE:SUPPORT
G1 F2220 X1.200 Y-0.700 E225.01163
G1 X-0.700 Y-0.700 E225.08004
G1 X-0.700 Y1.200 E225.14845
G1 X1.200 Y1.200 E225.21685
G0 F7500 X1.190 Y1.300
G0 X20.500 Y45.590
G0 X20.600 Y45.600
G1 F2220 X-20.500 Y45.600 E226.69662
G1 X-20.500 Y-45.400 E229.97300
G1 X20.600 Y-45.400 E231.45276
G1 X20.600 Y45.600 E234.72914
G0 F7500 X20.216 Y45.664
G1 F2220 X20.216 Y-45.464 E238.01012
G0 F7500 X20.216 Y-45.300
G0 X20.500 Y-43.319
G0 X20.664 Y-43.319
G1 F2220 X-20.563 Y-43.320 E239.49446
G0 F7500 X-20.400 Y-43.320
G0 X-20.216 Y-45.300
G0 X-20.216 Y-45.464
G1 F2220 X-20.216 Y45.664 E242.77544
G0 F7500 X-20.216 Y45.500
G0 X-20.400 Y43.319
G0 X-20.564 Y43.319
G1 F2220 X20.663 Y43.320 E244.25978
G0 F7500 X20.500 Y43.320
G0 X20.500 Y37.544
G0 X20.663 Y37.544
G1 F2220 X-20.564 Y37.543 E245.74412
G0 F7500 X-20.400 Y37.543
G0 X-20.400 Y31.767
G0 X-20.564 Y31.767
G1 F2220 X20.663 Y31.768 E247.22846
G0 F7500 X20.500 Y31.768
G0 X20.500 Y25.992
G0 X20.663 Y25.992
G1 F2220 X-20.564 Y25.991 E248.71280
G0 F7500 X-20.400 Y25.991
G0 X-20.400 Y20.215
G0 X-20.564 Y20.215
G1 F2220 X20.663 Y20.216 E250.19714
G0 F7500 X20.500 Y20.216
G0 X20.500 Y14.440
G0 X20.663 Y14.440
G1 F2220 X-20.564 Y14.439 E251.68149
G0 F7500 X-20.400 Y14.439
G0 X-20.400 Y8.663
G0 X-20.564 Y8.663
G1 F2220 X20.663 Y8.664 E253.16583
G0 F7500 X20.500 Y8.664
G0 X20.500 Y2.888
G0 X20.663 Y2.888
G1 F2220 X-20.564 Y2.887 E254.65017
G0 F7500 X-20.400 Y2.887
G0 X-20.400 Y-2.888
G0 X-20.563 Y-2.888
G1 F2220 X20.664 Y-2.887 E256.13451
G0 F7500 X20.500 Y-2.887
G0 X20.500 Y-8.663
G0 X20.664 Y-8.663
G1 F2220 X-20.563 Y-8.664 E257.61885
G0 F7500 X-20.400 Y-8.664
G0 X-20.400 Y-14.440
G0 X-20.563 Y-14.440
G1 F2220 X20.664 Y-14.439 E259.10319
G0 F7500 X20.500 Y-14.439
G0 X20.500 Y-20.215
G0 X20.664 Y-20.215
G1 F2220 X-20.563 Y-20.216 E260.58753
G0 F7500 X-20.400 Y-20.216
G0 X-20.400 Y-25.992
G0 X-20.563 Y-25.992
G1 F2220 X20.664 Y-25.991 E262.07187
G0 F7500 X20.500 Y-25.991
G0 X20.500 Y-31.767
G0 X20.664 Y-31.767
G1 F2220 X-20.563 Y-31.768 E263.55621
G0 F7500 X-20.400 Y-31.768
G0 X-20.400 Y-37.544
G0 X-20.563 Y-37.544
G1 F2220 X20.664 Y-37.543 E265.04055
G0 F7500 X20.500 Y-37.543
G0 X14.440 Y-45.300
G0 X14.440 Y-45.464
G1 F2220 X14.440 Y45.664 E268.32153
G0 F7500 X14.440 Y45.500
G0 X8.664 Y45.500
G0 X8.664 Y45.664
G1 F2220 X8.664 Y-45.464 E271.60252
G0 F7500 X8.664 Y-45.300
G0 X2.888 Y-45.300
G0 X2.888 Y-45.464
G1 F2220 X2.888 Y45.664 E274.88350
G0 F7500 X2.888 Y45.500
G0 X-2.888 Y45.500
G0 X-2.888 Y45.664
G1 F2220 X-2.888 Y-45.464 E278.16448
G0 F7500 X-2.888 Y-45.300
G0 X-8.664 Y-45.300
G0 X-8.664 Y-45.464
G1 F2220 X-8.664 Y45.664 E281.44546
G0 F7500 X-8.664 Y45.500
G0 X-14.440 Y45.500
G0 X-14.440 Y45.664
G1 F2220 X-14.440 Y-45.464 E284.72644
;LAYER:4
G1 F2400 E283.72644
G0 F7500 X0.216 Y0.216 Z1.100
;TYPE:WALL-OUTER
G1 F2400 E284.72644
G1 F2700 X0.284 Y0.216 E284.72889
G1 X0.284 Y0.284 E284.73134
G1 X0.216 Y0.284 E284.73379
G1 X0.216 Y0.216 E284.73623
G0 F7500 X-0.700 Y-0.700
;TYPE:SUPPORT
G1 F2400 X-0.700 Y1.200 E284.80464
G1 X1.200 Y1.200 E284.87305
G1 X1.200 Y-0.700 E284.94146
G1 X-0.700 Y-0.700 E285.00987
G0 F7500 X-0.690 Y-0.800
G0 X-20.500 Y-45.400
G1 F2400 X20.600 Y-45.400 E286.48963
G1 X20.600 Y45.600 E289.76601
G1 X-20.500 Y45.600 E291.24578
G1 X-20.500 Y-45.400 E294.52215
G0 F7500 X-20.216 Y-45.464
G1 F2400 X-20.216 Y45.664 E297.80313
G0 F7500 X-20.216 Y45.500
G0 X-20.400 Y43.319
G0 X-20.564 Y43.319
G1 F2400 X20.663 Y43.320 E299.28747
G0 F7500 X20.500 Y43.320
G0 X20.216 Y45.500
G0 X20.216 Y45.664
G1 F2400 X20.216 Y-45.464 E302.56845
G0 F7500 X20.216 Y-45.300
G0 X20.500 Y-43.319
G0 X20.664 Y-43.319
G1 F2400 X-20.563 Y-43.320 E304.05279
G0 F7500 X-20.400 Y-43.320
G0 X-20.400 Y-37.544
G0 X-20.563 Y-37.544
G1 F2400 X20.664 Y-37.543 E305.53713
G0 F7500 X20.500 Y-37.543
G0 X20.500 Y-31.767
G0 X20.664 Y-31.767
G1 F2400 X-20.563 Y-31.768 E307.02147
G0 F7500 X-20.400 Y-31.768
G0 X-20.400 Y-25.992
G0 X-20.563 Y-25.992
G1 F2400 X20.664 Y-25.991 E308.50581
G0 F7500 X20.500 Y-25.991
G0 X20.500 Y-20.215
G0 X20.664 Y-20.215
G1 F2400 X-20.563 Y-20.216 E309.99016
G0 F7500 X-20.400 Y-20.216
G0 X-20.400 Y-14.440
G0 X-20.563 Y-14.440
G1 F2400 X20.664 Y-14.439 E311.47450
G0 F7500 X20.500 Y-14.439
G0 X20.500 Y-8.663
G0 X20.664 Y-8.663
G1 F2400 X-20.563 Y-8.664 E312.95884
G0 F7500 X-20.400 Y-8.664
G0 X-20.400 Y-2.888
G0 X-20.563 Y-2.888
G1 F2400 X20.664 Y-2.887 E314.44318
G0 F7500 X20.500 Y-2.887
G0 X20.500 Y2.888
G0 X20.663 Y2.888
G1 F2400 X-20.564 Y2.887 E315.92752
G0 F7500 X-20.400 Y2.887
G0 X-20.400 Y8.663
G0 X-20.564 Y8.663
G1 F2400 X20.663 Y8.664 E317.41186
G0 F7500 X20.500 Y8.664
G0 X20.500 Y14.440
G0 X20.663 Y14.440
G1 F2400 X-20.564 Y14.439 E318.89620
G0 F7500 X-20.400 Y14.439
G0 X-20.400 Y20.215
G0 X-20.564 Y20.215
G1 F2400 X20.663 Y20.216 E320.38054
G0 F7500 X20.500 Y20.216
G0 X20.500 Y25.992
G0 X20.663 Y25.992
G1 F2400 X-20.564 Y25.991 E321.86488
G0 F7500 X-20.400 Y25.991
G0 X-20.400 Y31.767
G0 X-20.564 Y31.767
G1 F2400 X20.663 Y31.768 E323.34922
G0 F7500 X20.500 Y31.768
G0 X20.500 Y37.544
G0 X20.663 Y37.544
G1 F2400 X-20.564 Y37.543 E324.83356
G0 F7500 X-20.400 Y37.543
G0 X-14.440 Y45.500
G0 X-14.440 Y45.664
G1 F2400 X-14.440 Y-45.464 E328.11455
G0 F7500 X-14.440 Y-45.300
G0 X-8.664 Y-45.300
G0 X-8.664 Y-45.464
G1 F2400 X-8.664 Y45.664 E331.39553
G0 F7500 X-8.664 Y45.500
G0 X-2.888 Y45.500
G0 X-2.888 Y45.664
G1 F2400 X-2.888 Y-45.464 E334.67651
G0 F7500 X-2.888 Y-45.300
G0 X2.888 Y-45.300
G0 X2.888 Y-45.464
G1 F2400 X2.888 Y45.664 E337.95749
G0 F7500 X2.888 Y45.500
G0 X8.664 Y45.500
G0 X8.664 Y45.664
G1 F2400 X8.664 Y-45.464 E341.23847
G0 F7500 X8.664 Y-45.300
G0 X14.440 Y-45.300
G0 X14.440 Y-45.464
G1 F2400 X14.440 Y45.664 E344.51945
;LAYER:5
G1 F2400 E343.51945
G0 F7500 X0.284 Y0.284 Z1.300
;TYPE:WALL-OUTER
G1 F2400 E344.51945
G1 F2700 X0.216 Y0.284 E344.52190
G1 X0.216 Y0.216 E344.52435
G1 X0.284 Y0.216 E344.52680
G1 X0.284 Y0.284 E344.52925
G0 F7500 X1.200 Y1.200
;TYPE:SUPPORT
G1 F2400 X1.200 Y-0.700 E344.59765
G1 X-0.700 Y-0.700 E344.66606
G1 X-0.700 Y1.200 E344.73447
G1 X1.200 Y1.200 E344.80288
G0 F7500 X1.190 Y1.300
G0 X20.500 Y45.590
G0 X20.600 Y45.600
G1 F2400 X-20.500 Y45.600 E346.28264
G1 X-20.500 Y-45.400 E349.55902
G1 X20.600 Y-45.400 E351.03879
G1 X20.600 Y45.600 E354.31516
G0 F7500 X20.216 Y45.664
G1 F2400 X20.216 Y-45.464 E357.59614
G0 F7500 X20.216 Y-45.300
G0 X20.500 Y-43.319
G0 X20.664 Y-43.319
G1 F2400 X-20.563 Y-43.320 E359.08048
G0 F7500 X-20.400 Y-43.320
G0 X-20.216 Y-45.300
G0 X-20.216 Y-45.464
G1 F2400 X-20.216 Y45.664 E362.36146
G0 F7500 X-20.216 Y45.500
G0 X-20.400 Y43.319
G0 X-20.564 Y43.319
G1 F2400 X20.663 Y43.320 E363.84580
G0 F7500 X20.500 Y43.320
G0 X20.500 Y37.544
G0 X20.663 Y37.544
