;Generated with Cura_SteamEngine 15.04.6

;Layer count: 16
;LAYER:0
M107
G0 F7500 X-29.149 Y-9.049 Z0.300
;TYPE:SKIRT
G1 F1800 X29.249 Y-9.049 E3.15385
G1 X29.249 Y9.249 E4.14206
G1 X-29.149 Y9.249 E7.29591
G1 X-29.149 Y-9.049 E8.28411
G0 F7500 X-28.716 Y-8.616
G1 F1800 X28.816 Y-8.616 E11.39119
G1 X28.816 Y8.816 E12.33263
G1 X-28.716 Y8.816 E15.43971
G1 X-28.716 Y-8.616 E16.38114
G1 F2400 E15.38114
G0 F7500 X0.216 Y0.216
;TYPE:WALL-OUTER
G1 F2400 E16.38114
G1 F1800 X0.284 Y0.216 E16.38482
G1 X0.284 Y0.284 E16.38849
G1 X0.216 Y0.284 E16.39216
G1 X0.216 Y0.216 E16.39583
G0 F7500 X-0.700 Y-0.700
;TYPE:SUPPORT
G1 F1800 X-0.700 Y1.200 E16.49845
G1 X1.200 Y1.200 E16.60106
G1 X1.200 Y-0.700 E16.70367
G1 X-0.700 Y-0.700 E16.80628
G0 F7500 X-0.690 Y-0.800
G0 X-25.500 Y-5.400
G1 F1800 X25.600 Y-5.400 E19.56599
G1 X25.600 Y5.600 E20.16006
G1 X-25.500 Y5.600 E22.91978
G1 X-25.500 Y-5.400 E23.51384
G0 F7500 X-25.400 Y-2.888
G0 X-25.563 Y-2.888
G1 F1800 X25.664 Y-2.887 E26.28042
G0 F7500 X25.500 Y-2.887
G0 X25.500 Y2.888
G0 X25.663 Y2.888
G1 F1800 X-25.564 Y2.887 E29.04699
G0 F7500 X-25.400 Y2.887
G0 X-20.216 Y5.500
G0 X-20.216 Y5.664
G1 F1800 X-20.216 Y-5.464 E29.64797
G0 F7500 X-20.216 Y-5.300
G0 X-14.440 Y-5.300
G0 X-14.440 Y-5.464
G1 F1800 X-14.440 Y5.664 E30.24895
G0 F7500 X-14.440 Y5.500
G0 X-8.664 Y5.500
G0 X-8.664 Y5.664
G1 F1800 X-8.664 Y-5.464 E30.84993
G0 F7500 X-8.664 Y-5.300
G0 X-2.888 Y-5.300
G0 X-2.888 Y-5.464
G1 F1800 X-2.888 Y5.664 E31.45091
G0 F7500 X-2.888 Y5.500
G0 X2.888 Y5.500
G0 X2.888 Y5.664
G1 F1800 X2.888 Y-5.464 E32.05189
G0 F7500 X2.888 Y-5.300
G0 X8.664 Y-5.300
G0 X8.664 Y-5.464
G1 F1800 X8.664 Y5.664 E32.65287
G0 F7500 X8.664 Y5.500
G0 X14.440 Y5.500
G0 X14.440 Y5.664
G1 F1800 X14.440 Y-5.464 E33.25385
G0 F7500 X14.440 Y-5.300
G0 X20.216 Y-5.300
G0 X20.216 Y-5.464
G1 F1800 X20.216 Y5.664 E33.85483
;LAYER:1
M106 S63
G1 F2400 E32.85483
G0 F7500 X0.284 Y0.284 Z0.500
;TYPE:WALL-OUTER
G1 F2400 E33.85483
G1 F1980 X0.216 Y0.284 E33.85728
G1 X0.216 Y0.216 E33.85973
G1 X0.284 Y0.216 E33.86218
G1 X0.284 Y0.284 E33.86462
G0 F7500 X1.200 Y1.200
;TYPE:SUPPORT
G1 F1920 X1.200 Y-0.700 E33.93303
G1 X-0.700 Y-0.700 E34.00144
G1 X-0.700 Y1.200 E34.06985
G1 X1.200 Y1.200 E34.13826
G0 F7500 X1.190 Y1.300
G0 X25.500 Y5.590
G0 X25.600 Y5.600
G1 F1920 X-25.500 Y5.600 E35.97807
G1 X-25.500 Y-5.400 E36.37411
G1 X25.600 Y-5.400 E38.21392
G1 X25.600 Y5.600 E38.60996
G0 F7500 X25.500 Y5.590
G0 X25.500 Y2.888
G0 X25.663 Y2.888
G1 F1920 X-25.564 Y2.887 E40.45435
G0 F7500 X-25.400 Y2.887
G0 X-25.400 Y-2.888
G0 X-25.563 Y-2.888
G1 F1920 X25.664 Y-2.887 E42.29873
G0 F7500 X25.500 Y-2.887
G0 X20.216 Y-5.300
G0 X20.216 Y-5.464
G1 F1920 X20.216 Y5.664 E42.69938
G0 F7500 X20.216 Y5.500
G0 X14.440 Y5.500
G0 X14.440 Y5.664
G1 F1920 X14.440 Y-5.464 E43.10004
G0 F7500 X14.440 Y-5.300
G0 X8.664 Y-5.300
G0 X8.664 Y-5.464
G1 F1920 X8.664 Y5.664 E43.50069
G0 F7500 X8.664 Y5.500
G0 X2.888 Y5.500
G0 X2.888 Y5.664
G1 F1920 X2.888 Y-5.464 E43.90134
G0 F7500 X2.888 Y-5.300
G0 X-2.888 Y-5.300
G0 X-2.888 Y-5.464
G1 F1920 X-2.888 Y5.664 E44.30200
G0 F7500 X-2.888 Y5.500
G0 X-8.664 Y5.500
G0 X-8.664 Y5.664
G1 F1920 X-8.664 Y-5.464 E44.70265
G0 F7500 X-8.664 Y-5.300
G0 X-14.440 Y-5.300
G0 X-14.440 Y-5.464
G1 F1920 X-14.440 Y5.664 E45.10330
G0 F7500 X-14.440 Y5.500
G0 X-20.216 Y5.500
G0 X-20.216 Y5.664
G1 F1920 X-20.216 Y-5.464 E45.50396
;LAYER:2
M106 S127
G1 F2400 E44.50396
G0 F7500 X0.216 Y0.216 Z0.700
;TYPE:WALL-OUTER
G1 F2400 E45.50396
G1 F2220 X0.284 Y0.216 E45.50641
G1 X0.284 Y0.284 E45.50885
G1 X0.216 Y0.284 E45.51130
G1 X0.216 Y0.216 E45.51375
G0 F7500 X-0.700 Y-0.700
;TYPE:SUPPORT
G1 F2100 X-0.700 Y1.200 E45.58216
G1 X1.200 Y1.200 E45.65057
G1 X1.200 Y-0.700 E45.71897
G1 X-0.700 Y-0.700 E45.78738
G0 F7500 X-0.690 Y-0.800
G0 X-25.500 Y-5.400
G1 F2100 X25.600 Y-5.400 E47.62719
G1 X25.600 Y5.600 E48.02324
G1 X-25.500 Y5.600 E49.86304
G1 X-25.500 Y-5.400 E50.25909
G0 F7500 X-25.400 Y-2.888
G0 X-25.563 Y-2.888
G1 F2100 X25.664 Y-2.887 E52.10347
G0 F7500 X25.500 Y-2.887
G0 X25.500 Y2.888
G0 X25.663 Y2.888
G1 F2100 X-25.564 Y2.887 E53.94785
G0 F7500 X-25.400 Y2.887
G0 X-20.216 Y5.500
G0 X-20.216 Y5.664
G1 F2100 X-20.216 Y-5.464 E54.34851
G0 F7500 X-20.216 Y-5.300
G0 X-14.440 Y-5.300
G0 X-14.440 Y-5.464
G1 F2100 X-14.440 Y5.664 E54.74916
G0 F7500 X-14.440 Y5.500
G0 X-8.664 Y5.500
G0 X-8.664 Y5.664
G1 F2100 X-8.664 Y-5.464 E55.14981
G0 F7500 X-8.664 Y-5.300
G0 X-2.888 Y-5.300
G0 X-2.888 Y-5.464
G1 F2100 X-2.888 Y5.664 E55.55047
G0 F7500 X-2.888 Y5.500
G0 X2.888 Y5.500
G0 X2.888 Y5.664
G1 F2100 X2.888 Y-5.464 E55.95112
G0 F7500 X2.888 Y-5.300
G0 X8.664 Y-5.300
G0 X8.664 Y-5.464
G1 F2100 X8.664 Y5.664 E56.35178
G0 F7500 X8.664 Y5.500
G0 X14.440 Y5.500
G0 X14.440 Y5.664
G1 F2100 X14.440 Y-5.464 E56.75243
G0 F7500 X14.440 Y-5.300
G0 X20.216 Y-5.300
G0 X20.216 Y-5.464
G1 F2100 X20.216 Y5.664 E57.15308
;LAYER:3
G1 F2400 E56.15308
G0 F7500 X0.284 Y0.284 Z0.900
;TYPE:WALL-OUTER
G1 F2400 E57.15308
G1 X0.216 Y0.284 E57.15553
G1 X0.216 Y0.216 E57.15798
G1 X0.284 Y0.216 E57.16043
G1 X0.284 Y0.284 E57.16288
G0 F7500 X1.200 Y1.200
;TYPE:SUPPORT
G1 F2220 X1.200 Y-0.700 E57.23128
G1 X-0.700 Y-0.700 E57.29969
G1 X-0.700 Y1.200 E57.36810
G1 X1.200 Y1.200 E57.43651
G0 F7500 X1.190 Y1.300
G0 X25.500 Y5.590
G0 X25.600 Y5.600
G1 F2220 X-25.500 Y5.600 E59.27632
G1 X-25.500 Y-5.400 E59.67236
G1 X25.600 Y-5.400 E61.51217
G1 X25.600 Y5.600 E61.90822
G0 F7500 X25.500 Y5.590
G0 X25.500 Y2.888
G0 X25.663 Y2.888
G1 F2220 X-25.564 Y2.887 E63.75260
G0 F7500 X-25.400 Y2.887
G0 X-25.400 Y-2.888
G0 X-25.563 Y-2.888
G1 F2220 X25.664 Y-2.887 E65.59698
G0 F7500 X25.500 Y-2.887
G0 X20.216 Y-5.300
G0 X20.216 Y-5.464
G1 F2220 X20.216 Y5.664 E65.99763
G0 F7500 X20.216 Y5.500
G0 X14.440 Y5.500
G0 X14.440 Y5.664
G1 F2220 X14.440 Y-5.464 E66.39829
G0 F7500 X14.440 Y-5.300
G0 X8.664 Y-5.300
G0 X8.664 Y-5.464
G1 F2220 X8.664 Y5.664 E66.79894
G0 F7500 X8.664 Y5.500
G0 X2.888 Y5.500
G0 X2.888 Y5.664
G1 F2220 X2.888 Y-5.464 E67.19959
G0 F7500 X2.888 Y-5.300
G0 X-2.888 Y-5.300
G0 X-2.888 Y-5.464
G1 F2220 X-2.888 Y5.664 E67.60025
G0 F7500 X-2.888 Y5.500
G0 X-8.664 Y5.500
G0 X-8.664 Y5.664
G1 F2220 X-8.664 Y-5.464 E68.00090
G0 F7500 X-8.664 Y-5.300
G0 X-14.440 Y-5.300
G0 X-14.440 Y-5.464
G1 F2220 X-14.440 Y5.664 E68.40155
G0 F7500 X-14.440 Y5.500
G0 X-20.216 Y5.500
G0 X-20.216 Y5.664
G1 F2220 X-20.216 Y-5.464 E68.80221
;LAYER:4
G1 F2400 E67.80221
G0 F7500 X0.216 Y0.216 Z1.100
;TYPE:WALL-OUTER
G1 F2400 E68.80221
G1 F2700 X0.284 Y0.216 E68.80466
G1 X0.284 Y0.284 E68.80710
G1 X0.216 Y0.284 E68.80955
G1 X0.216 Y0.216 E68.81200
G0 F7500 X-0.700 Y-0.700
;TYPE:SUPPORT
G1 F2400 X-0.700 Y1.200 E68.88041
G1 X1.200 Y1.200 E68.94882
G1 X1.200 Y-0.700 E69.01722
G1 X-0.700 Y-0.700 E69.08563
G0 F7500 X-0.690 Y-0.800
G0 X-25.500 Y-5.400
G1 F2400 X25.600 Y-5.400 E70.92544
G1 X25.600 Y5.600 E71.32149
G1 X-25.500 Y5.600 E73.16130
G1 X-25.500 Y-5.400 E73.55734
G0 F7500 X-25.400 Y-2.888
G0 X-25.563 Y-2.888
G1 F2400 X25.664 Y-2.887 E75.40172
G0 F7500 X25.500 Y-2.887
G0 X25.500 Y2.888
G0 X25.663 Y2.888
G1 F2400 X-25.564 Y2.887 E77.24610
G0 F7500 X-25.400 Y2.887
G0 X-20.216 Y5.500
G0 X-20.216 Y5.664
G1 F2400 X-20.216 Y-5.464 E77.64676
G0 F7500 X-20.216 Y-5.300
G0 X-14.440 Y-5.300
G0 X-14.440 Y-5.464
G1 F2400 X-14.440 Y5.664 E78.04741
G0 F7500 X-14.440 Y5.500
G0 X-8.664 Y5.500
G0 X-8.664 Y5.664
G1 F2400 X-8.664 Y-5.464 E78.44807
G0 F7500 X-8.664 Y-5.300
G0 X-2.888 Y-5.300
G0 X-2.888 Y-5.464
G1 F2400 X-2.888 Y5.664 E78.84872
G0 F7500 X-2.888 Y5.500
G0 X2.888 Y5.500
G0 X2.888 Y5.664
G1 F2400 X2.888 Y-5.464 E79.24937
G0 F7500 X2.888 Y-5.300
G0 X8.664 Y-5.300
G0 X8.664 Y-5.464
G1 F2400 X8.664 Y5.664 E79.65003
G0 F7500 X8.664 Y5.500
G0 X14.440 Y5.500
G0 X14.440 Y5.664
G1 F2400 X14.440 Y-5.464 E80.05068
G0 F7500 X14.440 Y-5.300
G0 X20.216 Y-5.300
G0 X20.216 Y-5.464
G1 F2400 X20.216 Y5.664 E80.45133
;LAYER:5
G1 F2400 E79.45133
G0 F7500 X0.284 Y0.284 Z1.300
;TYPE:WALL-OUTER
G1 F2400 E80.45133
G1 F2700 X0.216 Y0.284 E80.45378
G1 X0.216 Y0.216 E80.45623
G1 X0.284 Y0.216 E80.45868
G1 X0.284 Y0.284 E80.46113
G0 F7500 X1.200 Y1.200
;TYPE:SUPPORT
G1 F2400 X1.200 Y-0.700 E80.52953
G1 X-0.700 Y-0.700 E80.59794
G1 X-0.700 Y1.200 E80.66635
G1 X1.200 Y1.200 E80.73476
G0 F7500 X1.190 Y1.300
G0 X25.500 Y5.590
G0 X25.600 Y5.600
G1 F2400 X-25.500 Y5.600 E82.57457
G1 X-25.500 Y-5.400 E82.97061
G1 X25.600 Y-5.400 E84.81042
G1 X25.600 Y5.600 E85.20647
G0 F7500 X25.500 Y5.590
G0 X25.500 Y2.888
G0 X25.663 Y2.888
G1 F2400 X-25.564 Y2.887 E87.05085
G0 F7500 X-25.400 Y2.887
G0 X-25.400 Y-2.888
G0 X-25.563 Y-2.888
G1 F2400 X25.664 Y-2.887 E88.89523
G0 F7500 X25.500 Y-2.887
G0 X20.216 Y-5.300
G0 X20.216 Y-5.464
G1 F2400 X20.216 Y5.664 E89.29588
G0 F7500 X20.216 Y5.500
G0 X14.440 Y5.500
G0 X14.440 Y5.664
G1 F2400 X14.440 Y-5.464 E89.69654
G0 F7500 X14.440 Y-5.300
G0 X8.664 Y-5.300
G0 X8.664 Y-5.464
G1 F2400 X8.664 Y5.664 E90.09719
G0 F7500 X8.664 Y5.500
G0 X2.888 Y5.500
G0 X2.888 Y5.664
G1 F2400 X2.888 Y-5.464 E90.49784
G0 F7500 X2.888 Y-5.300
G0 X-2.888 Y-5.300
G0 X-2.888 Y-5.464
G1 F2400 X-2.888 Y5.664 E90.89850
G0 F7500 X-2.888 Y5.500
G0 X-8.664 Y5.500
G0 X-8.664 Y5.664
G1 F2400 X-8.664 Y-5.464 E91.29915
G0 F7500 X-8.664 Y-5.300
G0 X-14.440 Y-5.300
G0 X-14.440 Y-5.464
G1 F2400 X-14.440 Y5.664 E91.69980
G0 F7500 X-14.440 Y5.500
G0 X-20.216 Y5.500
G0 X-20.216 Y5.664
G1 F2400 X-20.216 Y-5.464 E92.10046
;LAYER:6
G1 F2400 E91.10046
G0 F7500 X0.216 Y0.216 Z1.500
;TYPE:WALL-OUTER
G1 F2400 E92.10046
G1 F2700 X0.284 Y0.216 E92.10291
G1 X0.284 Y0.284 E92.10535
G1 X0.216 Y0.284 E92.10780
G1 X0.216 Y0.216 E92.11025
G0 F7500 X-0.700 Y-0.700
;TYPE:SUPPORT
G1 F2400 X-0.700 Y1.200 E92.17866
G1 X1.200 Y1.200 E92.24707
G1 X1.200 Y-0.700 E92.31547
G1 X-0.700 Y-0.700 E92.38388
G0 F7500 X-0.690 Y-0.800
G0 X-25.500 Y-5.400
G1 F2400 X25.600 Y-5.400 E94.22369
G1 X25.600 Y5.600 E94.61974
G1 X-25.500 Y5.600 E96.45955
G1 X-25.500 Y-5.400 E96.85559
G0 F7500 X-25.400 Y-2.888
G0 X-25.563 Y-2.888
G1 F2400 X25.664 Y-2.887 E98.69997
G0 F7500 X25.500 Y-2.887
G0 X25.500 Y2.888
G0 X25.663 Y2.888
G1 F2400 X-25.564 Y2.887 E100.54435
G0 F7500 X-25.400 Y2.887
G0 X-20.216 Y5.500
G0 X-20.216 Y5.664
G1 F2400 X-20.216 Y-5.464 E100.94501
G0 F7500 X-20.216 Y-5.300
G0 X-14.440 Y-5.300
G0 X-14.440 Y-5.464
G1 F2400 X-14.440 Y5.664 E101.34566
G0 F7500 X-14.440 Y5.500
G0 X-8.664 Y5.500
G0 X-8.664 Y5.664
G1 F2400 X-8.664 Y-5.464 E101.74632
G0 F7500 X-8.664 Y-5.300
G0 X-2.888 Y-5.300
G0 X-2.888 Y-5.464
G1 F2400 X-2.888 Y5.664 E102.14697
G0 F7500 X-2.888 Y5.500
G0 X2.888 Y5.500
G0 X2.888 Y5.664
G1 F2400 X2.888 Y-5.464 E102.54762
G0 F7500 X2.888 Y-5.300
G0 X8.664 Y-5.300
G0 X8.664 Y-5.464
G1 F2400 X8.664 Y5.664 E102.94828
G0 F7500 X8.664 Y5.500
G0 X14.440 Y5.500
G0 X14.440 Y5.664
G1 F2400 X14.440 Y-5.464 E103.34893
G0 F7500 X14.440 Y-5.300
G0 X20.216 Y-5.300
G0 X20.216 Y-5.464
G1 F2400 X20.216 Y5.664 E103.74958
;LAYER:7
G1 F2400 E102.74958
G0 F7500 X0.284 Y0.284 Z1.700
;TYPE:WALL-OUTER
G1 F2400 E103.74958
G1 F2700 X0.216 Y0.284 E103.75203
G1 X0.216 Y0.216 E103.75448
G1 X0.284 Y0.216 E103.75693
G1 X0.284 Y0.284 E103.75938
G0 F7500 X1.200 Y1.200
;TYPE:SUPPORT
G1 F2400 X1.200 Y-0.700 E103.82778
G1 X-0.700 Y-0.700 E103.89619
G1 X-0.700 Y1.200 E103.96460
G1 X1.200 Y1.200 E104.03301
G0 F7500 X1.190 Y1.300
G0 X25.500 Y5.590
G0 X25.600 Y5.600
G1 F2400 X-25.500 Y5.600 E105.87282
G1 X-25.500 Y-5.400 E106.26886
G1 X25.600 Y-5.400 E108.10867
G1 X25.600 Y5.600 E108.50472
G0 F7500 X25.500 Y5.590
G0 X25.500 Y2.888
G0 X25.663 Y2.888
G1 F2400 X-25.564 Y2.887 E110.34910
G0 F7500 X-25.400 Y2.887
G0 X-25.400 Y-2.888
G0 X-25.563 Y-2.888
G1 F2400 X25.664 Y-2.887 E112.19348
G0 F7500 X25.500 Y-2.887
G0 X20.216 Y-5.300
G0 X20.216 Y-5.464
G1 F2400 X20.216 Y5.664 E112.59413
G0 F7500 X20.216 Y5.500
G0 X14.440 Y5.500
G0 X14.440 Y5.664
G1 F2400 X14.440 Y-5.464 E112.99479
G0 F7500 X14.440 Y-5.300
G0 X8.664 Y-5.300
G0 X8.664 Y-5.464
G1 F2400 X8.664 Y5.664 E113.39544
G0 F7500 X8.664 Y5.500
G0 X2.888 Y5.500
G0 X2.888 Y5.664
G1 F2400 X2.888 Y-5.464 E113.79609
G0 F7500 X2.888 Y-5.300
G0 X-2.888 Y-5.300
G0 X-2.888 Y-5.464
G1 F2400 X-2.888 Y5.664 E114.19675
G0 F7500 X-2.888 Y5.500
G0 X-8.664 Y5.500
G0 X-8.664 Y5.664
G1 F2400 X-8.664 Y-5.464 E114.59740
G0 F7500 X-8.664 Y-5.300
G0 X-14.440 Y-5.300
G0 X-14.440 Y-5.464
G1 F2400 X-14.440 Y5.664 E114.99806
G0 F7500 X-14.440 Y5.500
G0 X-20.216 Y5.500
G0 X-20.216 Y5.664
G1 F2400 X-20.216 Y-5.464 E115.39871
;LAYER:8
G1 F2400 E114.39871
G0 F7500 X0.216 Y0.216 Z1.900
;TYPE:WALL-OUTER
G1 F2400 E115.39871
G1 F2700 X0.284 Y0.216 E115.40116
G1 X0.284 Y0.284 E115.40361
G1 X0.216 Y0.284 E115.40605
G1 X0.216 Y0.216 E115.40850
G0 F7500 X-0.700 Y-0.700
;TYPE:SUPPORT
G1 F2400 X-0.700 Y1.200 E115.47691
G1 X1.200 Y1.200 E115.54532
G1 X1.200 Y-0.700 E115.61373
G1 X-0.700 Y-0.700 E115.68213
G0 F7500 X-0.690 Y-0.800
G0 X-25.500 Y-5.400
G1 F2400 X25.600 Y-5.400 E117.52194
G1 X25.600 Y5.600 E117.91799
G1 X-25.500 Y5.600 E119.75780
G1 X-25.500 Y-5.400 E120.15384
G0 F7500 X-25.400 Y-2.888
G0 X-25.563 Y-2.888
G1 F2400 X25.664 Y-2.887 E121.99822
G0 F7500 X25.500 Y-2.887
G0 X25.500 Y2.888
G0 X25.663 Y2.888
G1 F2400 X-25.564 Y2.887 E123.84261
G0 F7500 X-25.400 Y2.887
G0 X-20.216 Y5.500
G0 X-20.216 Y5.664
G1 F2400 X-20.216 Y-5.464 E124.24326
G0 F7500 X-20.216 Y-5.300
G0 X-14.440 Y-5.300
G0 X-14.440 Y-5.464
G1 F2400 X-14.440 Y5.664 E124.64391
G0 F7500 X-14.440 Y5.500
G0 X-8.664 Y5.500
G0 X-8.664 Y5.664
G1 F2400 X-8.664 Y-5.464 E125.04457
G0 F7500 X-8.664 Y-5.300
G0 X-2.888 Y-5.300
G0 X-2.888 Y-5.464
G1 F2400 X-2.888 Y5.664 E125.44522
G0 F7500 X-2.888 Y5.500
G0 X2.888 Y5.500
G0 X2.888 Y5.664
G1 F2400 X2.888 Y-5.464 E125.84587
G0 F7500 X2.888 Y-5.300
G0 X8.664 Y-5.300
G0 X8.664 Y-5.464
G1 F2400 X8.664 Y5.664 E126.24653
G0 F7500 X8.664 Y5.500
G0 X14.440 Y5.500
G0 X14.440 Y5.664
G1 F2400 X14.440 Y-5.464 E126.64718
G0 F7500 X14.440 Y-5.300
G0 X20.216 Y-5.300
G0 X20.216 Y-5.464
G1 F2400 X20.216 Y5.664 E127.04783
;LAYER:9
G1 F2400 E126.04783
G0 F7500 X0.284 Y0.284 Z2.100
;TYPE:WALL-OUTER
G1 F2400 E127.04783
G1 F2700 X0.216 Y0.284 E127.05028
G1 X0.216 Y0.216 E127.05273
G1 X0.284 Y0.216 E127.05518
G1 X0.284 Y0.284 E127.05763
G0 F7500 X1.200 Y1.200
;TYPE:SUPPORT
G1 F2400 X1.200 Y-0.700 E127.12604
G1 X-0.700 Y-0.700 E127.19444
G1 X-0.700 Y1.200 E127.26285
G1 X1.200 Y1.200 E127.33126
G0 F7500 X1.190 Y1.300
G0 X25.500 Y5.590
G0 X25.600 Y5.600
G1 F2400 X-25.500 Y5.600 E129.17107
G1 X-25.500 Y-5.400 E129.56711
G1 X25.600 Y-5.400 E131.40692
G1 X25.600 Y5.600 E131.80297
G0 F7500 X25.500 Y5.590
G0 X25.500 Y2.888
G0 X25.663 Y2.888
G1 F2400 X-25.564 Y2.887 E133.64735
G0 F7500 X-25.400 Y2.887
G0 X-25.400 Y-2.888
G0 X-25.563 Y-2.888
G1 F2400 X25.664 Y-2.887 E135.49173
G0 F7500 X25.500 Y-2.887
G0 X20.216 Y-5.300
G0 X20.216 Y-5.464
G1 F2400 X20.216 Y5.664 E135.89238
G0 F7500 X20.216 Y5.500
G0 X14.440 Y5.500
G0 X14.440 Y5.664
G1 F2400 X14.440 Y-5.464 E136.29304
G0 F7500 X14.440 Y-5.300
G0 X8.664 Y-5.300
G0 X8.664 Y-5.464
G1 F2400 X8.664 Y5.664 E136.69369
G0 F7500 X8.664 Y5.500
G0 X2.888 Y5.500
G0 X2.888 Y5.664
G1 F2400 X2.888 Y-5.464 E137.09435
G0 F7500 X2.888 Y-5.300
G0 X-2.888 Y-5.300
G0 X-2.888 Y-5.464
G1 F2400 X-2.888 Y5.664 E137.49500
G0 F7500 X-2.888 Y5.500
G0 X-8.664 Y5.500
G0 X-8.664 Y5.664
G1 F2400 X-8.664 Y-5.464 E137.89565
G0 F7500 X-8.664 Y-5.300
G0 X-14.440 Y-5.300
G0 X-14.440 Y-5.464
G1 F2400 X-14.440 Y5.664 E138.29631
G0 F7500 X-14.440 Y5.500
G0 X-20.216 Y5.500
G0 X-20.216 Y5.664
G1 F2400 X-20.216 Y-5.464 E138.69696
;LAYER:10
G1 F2400 E137.69696
G0 F7500 X0.216 Y0.216 Z2.300
;TYPE:WALL-OUTER
G1 F2400 E138.69696
G1 F2700 X0.284 Y0.216 E138.69941
G1 X0.284 Y0.284 E138.70186
G1 X0.216 Y0.284 E138.70430
G1 X0.216 Y0.216 E138.70675
G0 F7500 X-0.700 Y-0.700
;TYPE:SUPPORT
G1 F2400 X-0.700 Y1.200 E138.77516
G1 X1.200 Y1.200 E138.84357
G1 X1.200 Y-0.700 E138.91198
G1 X-0.700 Y-0.700 E138.98038
G0 F7500 X-0.690 Y-0.800
G0 X-25.500 Y-5.400
G1 F2400 X25.600 Y-5.400 E140.82019
G1 X25.600 Y5.600 E141.21624
G1 X-25.500 Y5.600 E143.05605
G1 X-25.500 Y-5.400 E143.45209
G0 F7500 X-25.400 Y-2.888
G0 X-25.563 Y-2.888
