;Generated with Cura_SteamEngine 15.04.6

;Layer count: 16
;LAYER:0
M107
G0 F7500 X-28.716 Y-53.616 Z0.300
;TYPE:SKIRT
G1 F1800 X28.816 Y-53.616 E3.10708
G1 X28.816 Y53.816 E8.90907
G1 X-28.716 Y53.816 E12.01615
G1 X-28.716 Y-53.616 E17.81814
G1 F2400 E16.81814
G0 F7500 X0.216 Y0.216
;TYPE:WALL-OUTER
G1 F2400 E17.81814
G1 F1800 X0.284 Y0.216 E17.82181
G1 X0.284 Y0.284 E17.82548
G1 X0.216 Y0.284 E17.82916
G1 X0.216 Y0.216 E17.83283
G0 F7500 X-0.700 Y-0.700
;TYPE:SUPPORT
G1 F1800 X-0.700 Y1.200 E17.93544
G1 X1.200 Y1.200 E18.03805
G1 X1.200 Y-0.700 E18.14066
G1 X-0.700 Y-0.700 E18.24328
G0 F7500 X-0.690 Y-0.800
G0 X-25.500 Y-50.400
G1 F1800 X25.600 Y-50.400 E21.00299
G1 X25.600 Y50.600 E26.45761
G1 X-25.500 Y50.600 E29.21732
G1 X-25.500 Y-50.400 E34.67194
G0 F7500 X-25.563 Y-49.096
G1 F1800 X25.664 Y-49.095 E37.43852
G0 F7500 X25.500 Y-49.095
G0 X20.216 Y-50.300
G0 X20.216 Y-50.464
G1 F1800 X20.216 Y50.664 E42.90005
G0 F7500 X20.216 Y50.500
G0 X25.500 Y49.096
G0 X25.663 Y49.096
G1 F1800 X-25.564 Y49.095 E45.66662
G0 F7500 X-25.400 Y49.095
G0 X-20.216 Y50.500
G0 X-20.216 Y50.664
G1 F1800 X-20.216 Y-50.464 E51.12816
G0 F7500 X-20.216 Y-50.300
G0 X-25.400 Y-43.320
G0 X-25.563 Y-43.320
G1 F1800 X25.664 Y-43.319 E53.89473
G0 F7500 X25.500 Y-43.319
G0 X25.500 Y-37.543
G0 X25.664 Y-37.543
G1 F1800 X-25.563 Y-37.544 E56.66130
G0 F7500 X-25.400 Y-37.544
G0 X-25.400 Y-31.768
G0 X-25.563 Y-31.768
G1 F1800 X25.664 Y-31.767 E59.42788
G0 F7500 X25.500 Y-31.767
G0 X25.500 Y-25.991
G0 X25.664 Y-25.991
G1 F1800 X-25.563 Y-25.992 E62.19445
G0 F7500 X-25.400 Y-25.992
G0 X-25.400 Y-20.216
G0 X-25.563 Y-20.216
G1 F1800 X25.664 Y-20.215 E64.96102
G0 F7500 X25.500 Y-20.215
G0 X25.500 Y-14.439
G0 X25.664 Y-14.439
G1 F1800 X-25.563 Y-14.440 E67.72759
G0 F7500 X-25.400 Y-14.440
G0 X-25.400 Y-8.664
G0 X-25.563 Y-8.664
G1 F1800 X25.664 Y-8.663 E70.49417
G0 F7500 X25.500 Y-8.663
G0 X25.500 Y-2.887
G0 X25.664 Y-2.887
G1 F1800 X-25.563 Y-2.888 E73.26074
G0 F7500 X-25.400 Y-2.888
G0 X-25.400 Y2.887
G0 X-25.564 Y2.887
G1 F1800 X25.663 Y2.888 E76.02731
G0 F7500 X25.500 Y2.888
G0 X25.500 Y8.664
G0 X25.663 Y8.664
G1 F1800 X-25.564 Y8.663 E78.79388
G0 F7500 X-25.400 Y8.663
G0 X-25.400 Y14.439
G0 X-25.564 Y14.439
G1 F1800 X25.663 Y14.440 E81.56046
G0 F7500 X25.500 Y14.440
G0 X25.500 Y20.216
G0 X25.663 Y20.216
G1 F1800 X-25.564 Y20.215 E84.32703
G0 F7500 X-25.400 Y20.215
G0 X-25.400 Y25.991
G0 X-25.564 Y25.991
G1 F1800 X25.663 Y25.992 E87.09360
G0 F7500 X25.500 Y25.992
G0 X25.500 Y31.768
G0 X25.663 Y31.768
G1 F1800 X-25.564 Y31.767 E89.86018
G0 F7500 X-25.400 Y31.767
G0 X-25.400 Y37.543
G0 X-25.564 Y37.543
G1 F1800 X25.663 Y37.544 E92.62675
G0 F7500 X25.500 Y37.544
G0 X25.500 Y43.320
G0 X25.663 Y43.320
G1 F1800 X-25.564 Y43.319 E95.39332
G0 F7500 X-25.400 Y43.319
G0 X-14.440 Y50.500
G0 X-14.440 Y50.664
G1 F1800 X-14.440 Y-50.464 E100.85485
G0 F7500 X-14.440 Y-50.300
G0 X-8.664 Y-50.300
G0 X-8.664 Y-50.464
G1 F1800 X-8.664 Y50.664 E106.31639
G0 F7500 X-8.664 Y50.500
G0 X-2.888 Y50.500
G0 X-2.888 Y50.664
G1 F1800 X-2.888 Y-50.464 E111.77792
G0 F7500 X-2.888 Y-50.300
G0 X2.888 Y-50.300
G0 X2.888 Y-50.464
G1 F1800 X2.888 Y50.664 E117.23945
G0 F7500 X2.888 Y50.500
G0 X8.664 Y50.500
G0 X8.664 Y50.664
G1 F1800 X8.664 Y-50.464 E122.70099
G0 F7500 X8.664 Y-50.300
G0 X14.440 Y-50.300
G0 X14.440 Y-50.464
G1 F1800 X14.440 Y50.664 E128.16252
;LAYER:1
M106 S63
G1 F2400 E127.16252
G0 F7500 X0.284 Y0.284 Z0.500
;TYPE:WALL-OUTER
G1 F2400 E128.16252
G1 F1980 X0.216 Y0.284 E128.16497
G1 X0.216 Y0.216 E128.16742
G1 X0.284 Y0.216 E128.16987
G1 X0.284 Y0.284 E128.17231
G0 F7500 X1.200 Y1.200
;TYPE:SUPPORT
G1 F1920 X1.200 Y-0.700 E128.24072
G1 X-0.700 Y-0.700 E128.30913
G1 X-0.700 Y1.200 E128.37754
G1 X1.200 Y1.200 E128.44595
G0 F7500 X1.190 Y1.300
G0 X25.500 Y50.590
G0 X25.600 Y50.600
G1 F1920 X-25.500 Y50.600 E130.28575
G1 X-25.500 Y-50.400 E133.92217
G1 X25.600 Y-50.400 E135.76198
G1 X25.600 Y50.600 E139.39839
G0 F7500 X25.500 Y50.590
G0 X25.500 Y49.096
G0 X25.663 Y49.096
G1 F1920 X-25.564 Y49.095 E141.24277
G0 F7500 X-25.400 Y49.095
G0 X-20.216 Y50.500
G0 X-20.216 Y50.664
G1 F1920 X-20.216 Y-50.464 E144.88380
G0 F7500 X-20.216 Y-50.300
G0 X-25.400 Y-49.096
G0 X-25.563 Y-49.096
G1 F1920 X25.664 Y-49.095 E146.72818
G0 F7500 X25.500 Y-49.095
G0 X20.216 Y-50.300
G0 X20.216 Y-50.464
G1 F1920 X20.216 Y50.664 E150.36920
G0 F7500 X20.216 Y50.500
G0 X25.500 Y43.320
G0 X25.663 Y43.320
G1 F1920 X-25.564 Y43.319 E152.21358
G0 F7500 X-25.400 Y43.319
G0 X-25.400 Y37.543
G0 X-25.564 Y37.543
G1 F1920 X25.663 Y37.544 E154.05796
G0 F7500 X25.500 Y37.544
G0 X25.500 Y31.768
G0 X25.663 Y31.768
G1 F1920 X-25.564 Y31.767 E155.90235
G0 F7500 X-25.400 Y31.767
G0 X-25.400 Y25.991
G0 X-25.564 Y25.991
G1 F1920 X25.663 Y25.992 E157.74673
G0 F7500 X25.500 Y25.992
G0 X25.500 Y20.216
G0 X25.663 Y20.216
G1 F1920 X-25.564 Y20.215 E159.59111
G0 F7500 X-25.400 Y20.215
G0 X-25.400 Y14.439
G0 X-25.564 Y14.439
G1 F1920 X25.663 Y14.440 E161.43549
G0 F7500 X25.500 Y14.440
G0 X25.500 Y8.664
G0 X25.663 Y8.664
G1 F1920 X-25.564 Y8.663 E163.27987
G0 F7500 X-25.400 Y8.663
G0 X-25.400 Y2.887
G0 X-25.564 Y2.887
G1 F1920 X25.663 Y2.888 E165.12425
G0 F7500 X25.500 Y2.888
G0 X25.500 Y-2.887
G0 X25.664 Y-2.887
G1 F1920 X-25.563 Y-2.888 E166.96864
G0 F7500 X-25.400 Y-2.888
G0 X-25.400 Y-8.664
G0 X-25.563 Y-8.664
G1 F1920 X25.664 Y-8.663 E168.81302
G0 F7500 X25.500 Y-8.663
G0 X25.500 Y-14.439
G0 X25.664 Y-14.439
G1 F1920 X-25.563 Y-14.440 E170.65740
G0 F7500 X-25.400 Y-14.440
G0 X-25.400 Y-20.216
G0 X-25.563 Y-20.216
G1 F1920 X25.664 Y-20.215 E172.50178
G0 F7500 X25.500 Y-20.215
G0 X25.500 Y-25.991
G0 X25.664 Y-25.991
G1 F1920 X-25.563 Y-25.992 E174.34616
G0 F7500 X-25.400 Y-25.992
G0 X-25.400 Y-31.768
G0 X-25.563 Y-31.768
G1 F1920 X25.664 Y-31.767 E176.19055
G0 F7500 X25.500 Y-31.767
G0 X25.500 Y-37.543
G0 X25.664 Y-37.543
G1 F1920 X-25.563 Y-37.544 E178.03493
G0 F7500 X-25.400 Y-37.544
G0 X-25.400 Y-43.320
G0 X-25.563 Y-43.320
G1 F1920 X25.664 Y-43.319 E179.87931
G0 F7500 X25.500 Y-43.319
G0 X14.440 Y-50.300
G0 X14.440 Y-50.464
G1 F1920 X14.440 Y50.664 E183.52033
G0 F7500 X14.440 Y50.500
G0 X8.664 Y50.500
G0 X8.664 Y50.664
G1 F1920 X8.664 Y-50.464 E187.16135
G0 F7500 X8.664 Y-50.300
G0 X2.888 Y-50.300
G0 X2.888 Y-50.464
G1 F1920 X2.888 Y50.664 E190.80238
G0 F7500 X2.888 Y50.500
G0 X-2.888 Y50.500
G0 X-2.888 Y50.664
G1 F1920 X-2.888 Y-50.464 E194.44340
G0 F7500 X-2.888 Y-50.300
G0 X-8.664 Y-50.300
G0 X-8.664 Y-50.464
G1 F1920 X-8.664 Y50.664 E198.08442
G0 F7500 X-8.664 Y50.500
G0 X-14.440 Y50.500
G0 X-14.440 Y50.664
G1 F1920 X-14.440 Y-50.464 E201.72544
;LAYER:2
M106 S127
G1 F2400 E200.72544
G0 F7500 X0.216 Y0.216 Z0.700
;TYPE:WALL-OUTER
G1 F2400 E201.72544
G1 F2220 X0.284 Y0.216 E201.72789
G1 X0.284 Y0.284 E201.73034
G1 X0.216 Y0.284 E201.73279
G1 X0.216 Y0.216 E201.73524
G0 F7500 X-0.700 Y-0.700
;TYPE:SUPPORT
G1 F2100 X-0.700 Y1.200 E201.80364
G1 X1.200 Y1.200 E201.87205
G1 X1.200 Y-0.700 E201.94046
G1 X-0.700 Y-0.700 E202.00887
G0 F7500 X-0.690 Y-0.800
G0 X-25.500 Y-50.400
G1 F2100 X25.600 Y-50.400 E203.84868
G1 X25.600 Y50.600 E207.48509
G1 X-25.500 Y50.600 E209.32490
G1 X-25.500 Y-50.400 E212.96131
G0 F7500 X-25.563 Y-49.096
G1 F2100 X25.664 Y-49.095 E214.80569
G0 F7500 X25.500 Y-49.095
G0 X20.216 Y-50.300
G0 X20.216 Y-50.464
G1 F2100 X20.216 Y50.664 E218.44672
G0 F7500 X20.216 Y50.500
G0 X25.500 Y49.096
G0 X25.663 Y49.096
G1 F2100 X-25.564 Y49.095 E220.29110
G0 F7500 X-25.400 Y49.095
G0 X-20.216 Y50.500
G0 X-20.216 Y50.664
G1 F2100 X-20.216 Y-50.464 E223.93212
G0 F7500 X-20.216 Y-50.300
G0 X-25.400 Y-43.320
G0 X-25.563 Y-43.320
G1 F2100 X25.664 Y-43.319 E225.77650
G0 F7500 X25.500 Y-43.319
G0 X25.500 Y-37.543
G0 X25.664 Y-37.543
G1 F2100 X-25.563 Y-37.544 E227.62088
G0 F7500 X-25.400 Y-37.544
G0 X-25.400 Y-31.768
G0 X-25.563 Y-31.768
G1 F2100 X25.664 Y-31.767 E229.46527
G0 F7500 X25.500 Y-31.767
G0 X25.500 Y-25.991
G0 X25.664 Y-25.991
G1 F2100 X-25.563 Y-25.992 E231.30965
G0 F7500 X-25.400 Y-25.992
G0 X-25.400 Y-20.216
G0 X-25.563 Y-20.216
G1 F2100 X25.664 Y-20.215 E233.15403
G0 F7500 X25.500 Y-20.215
G0 X25.500 Y-14.439
G0 X25.664 Y-14.439
G1 F2100 X-25.563 Y-14.440 E234.99841
G0 F7500 X-25.400 Y-14.440
G0 X-25.400 Y-8.664
G0 X-25.563 Y-8.664
G1 F2100 X25.664 Y-8.663 E236.84279
G0 F7500 X25.500 Y-8.663
G0 X25.500 Y-2.887
G0 X25.664 Y-2.887
G1 F2100 X-25.563 Y-2.888 E238.68718
G0 F7500 X-25.400 Y-2.888
G0 X-25.400 Y2.887
G0 X-25.564 Y2.887
G1 F2100 X25.663 Y2.888 E240.53156
G0 F7500 X25.500 Y2.888
G0 X25.500 Y8.664
G0 X25.663 Y8.664
G1 F2100 X-25.564 Y8.663 E242.37594
G0 F7500 X-25.400 Y8.663
G0 X-25.400 Y14.439
G0 X-25.564 Y14.439
G1 F2100 X25.663 Y14.440 E244.22032
G0 F7500 X25.500 Y14.440
G0 X25.500 Y20.216
G0 X25.663 Y20.216
G1 F2100 X-25.564 Y20.215 E246.06470
G0 F7500 X-25.400 Y20.215
G0 X-25.400 Y25.991
G0 X-25.564 Y25.991
G1 F2100 X25.663 Y25.992 E247.90908
G0 F7500 X25.500 Y25.992
G0 X25.500 Y31.768
G0 X25.663 Y31.768
G1 F2100 X-25.564 Y31.767 E249.75347
G0 F7500 X-25.400 Y31.767
G0 X-25.400 Y37.543
G0 X-25.564 Y37.543
G1 F2100 X25.663 Y37.544 E251.59785
G0 F7500 X25.500 Y37.544
G0 X25.500 Y43.320
G0 X25.663 Y43.320
G1 F2100 X-25.564 Y43.319 E253.44223
G0 F7500 X-25.400 Y43.319
G0 X-14.440 Y50.500
G0 X-14.440 Y50.664
G1 F2100 X-14.440 Y-50.464 E257.08325
G0 F7500 X-14.440 Y-50.300
G0 X-8.664 Y-50.300
G0 X-8.664 Y-50.464
G1 F2100 X-8.664 Y50.664 E260.72427
G0 F7500 X-8.664 Y50.500
G0 X-2.888 Y50.500
G0 X-2.888 Y50.664
G1 F2100 X-2.888 Y-50.464 E264.36530
G0 F7500 X-2.888 Y-50.300
G0 X2.888 Y-50.300
G0 X2.888 Y-50.464
G1 F2100 X2.888 Y50.664 E268.00632
G0 F7500 X2.888 Y50.500
G0 X8.664 Y50.500
G0 X8.664 Y50.664
G1 F2100 X8.664 Y-50.464 E271.64734
G0 F7500 X8.664 Y-50.300
G0 X14.440 Y-50.300
G0 X14.440 Y-50.464
G1 F2100 X14.440 Y50.664 E275.28836
;LAYER:3
G1 F2400 E274.28836
G0 F7500 X0.284 Y0.284 Z0.900
;TYPE:WALL-OUTER
G1 F2400 E275.28836
G1 X0.216 Y0.284 E275.29081
G1 X0.216 Y0.216 E275.29326
G1 X0.284 Y0.216 E275.29571
G1 X0.284 Y0.284 E275.29816
G0 F7500 X1.200 Y1.200
;TYPE:SUPPORT
G1 F2220 X1.200 Y-0.700 E275.36656
G1 X-0.700 Y-0.700 E275.43497
G1 X-0.700 Y1.200 E275.50338
G1 X1.200 Y1.200 E275.57179
G0 F7500 X1.190 Y1.300
G0 X25.500 Y50.590
G0 X25.600 Y50.600
G1 F2220 X-25.500 Y50.600 E277.41160
G1 X-25.500 Y-50.400 E281.04801
G1 X25.600 Y-50.400 E282.88782
G1 X25.600 Y50.600 E286.52423
G0 F7500 X25.500 Y50.590
G0 X25.500 Y49.096
G0 X25.663 Y49.096
G1 F2220 X-25.564 Y49.095 E288.36862
G0 F7500 X-25.400 Y49.095
G0 X-20.216 Y50.500
G0 X-20.216 Y50.664
G1 F2220 X-20.216 Y-50.464 E292.00964
G0 F7500 X-20.216 Y-50.300
G0 X-25.400 Y-49.096
G0 X-25.563 Y-49.096
G1 F2220 X25.664 Y-49.095 E293.85402
G0 F7500 X25.500 Y-49.095
G0 X20.216 Y-50.300
G0 X20.216 Y-50.464
G1 F2220 X20.216 Y50.664 E297.49504
G0 F7500 X20.216 Y50.500
G0 X25.500 Y43.320
G0 X25.663 Y43.320
G1 F2220 X-25.564 Y43.319 E299.33942
G0 F7500 X-25.400 Y43.319
G0 X-25.400 Y37.543
G0 X-25.564 Y37.543
G1 F2220 X25.663 Y37.544 E301.18381
G0 F7500 X25.500 Y37.544
G0 X25.500 Y31.768
G0 X25.663 Y31.768
G1 F2220 X-25.564 Y31.767 E303.02819
G0 F7500 X-25.400 Y31.767
G0 X-25.400 Y25.991
G0 X-25.564 Y25.991
G1 F2220 X25.663 Y25.992 E304.87257
G0 F7500 X25.500 Y25.992
G0 X25.500 Y20.216
G0 X25.663 Y20.216
G1 F2220 X-25.564 Y20.215 E306.71695
G0 F7500 X-25.400 Y20.215
G0 X-25.400 Y14.439
G0 X-25.564 Y14.439
G1 F2220 X25.663 Y14.440 E308.56133
G0 F7500 X25.500 Y14.440
G0 X25.500 Y8.664
G0 X25.663 Y8.664
G1 F2220 X-25.564 Y8.663 E310.40571
G0 F7500 X-25.400 Y8.663
G0 X-25.400 Y2.887
G0 X-25.564 Y2.887
G1 F2220 X25.663 Y2.888 E312.25010
G0 F7500 X25.500 Y2.888
G0 X25.500 Y-2.887
G0 X25.664 Y-2.887
G1 F2220 X-25.563 Y-2.888 E314.09448
G0 F7500 X-25.400 Y-2.888
G0 X-25.400 Y-8.664
G0 X-25.563 Y-8.664
G1 F2220 X25.664 Y-8.663 E315.93886
G0 F7500 X25.500 Y-8.663
G0 X25.500 Y-14.439
G0 X25.664 Y-14.439
G1 F2220 X-25.563 Y-14.440 E317.78324
G0 F7500 X-25.400 Y-14.440
G0 X-25.400 Y-20.216
G0 X-25.563 Y-20.216
G1 F2220 X25.664 Y-20.215 E319.62762
G0 F7500 X25.500 Y-20.215
G0 X25.500 Y-25.991
G0 X25.664 Y-25.991
G1 F2220 X-25.563 Y-25.992 E321.47201
G0 F7500 X-25.400 Y-25.992
G0 X-25.400 Y-31.768
G0 X-25.563 Y-31.768
G1 F2220 X25.664 Y-31.767 E323.31639
G0 F7500 X25.500 Y-31.767
G0 X25.500 Y-37.543
G0 X25.664 Y-37.543
G1 F2220 X-25.563 Y-37.544 E325.16077
G0 F7500 X-25.400 Y-37.544
G0 X-25.400 Y-43.320
G0 X-25.563 Y-43.320
G1 F2220 X25.664 Y-43.319 E327.00515
G0 F7500 X25.500 Y-43.319
G0 X14.440 Y-50.300
G0 X14.440 Y-50.464
G1 F2220 X14.440 Y50.664 E330.64617
G0 F7500 X14.440 Y50.500
G0 X8.664 Y50.500
G0 X8.664 Y50.664
G1 F2220 X8.664 Y-50.464 E334.28720
G0 F7500 X8.664 Y-50.300
G0 X2.888 Y-50.300
G0 X2.888 Y-50.464
G1 F2220 X2.888 Y50.664 E337.92822
G0 F7500 X2.888 Y50.500
G0 X-2.888 Y50.500
G0 X-2.888 Y50.664
G1 F2220 X-2.888 Y-50.464 E341.56924
G0 F7500 X-2.888 Y-50.300
G0 X-8.664 Y-50.300
G0 X-8.664 Y-50.464
G1 F2220 X-8.664 Y50.664 E345.21026
G0 F7500 X-8.664 Y50.500
G0 X-14.440 Y50.500
G0 X-14.440 Y50.664
G1 F2220 X-14.440 Y-50.464 E348.85128
;LAYER:4
G1 F2400 E347.85128
G0 F7500 X0.216 Y0.216 Z1.100
;TYPE:WALL-OUTER
G1 F2400 E348.85128
G1 F2700 X0.284 Y0.216 E348.85373
G1 X0.284 Y0.284 E348.85618
G1 X0.216 Y0.284 E348.85863
G1 X0.216 Y0.216 E348.86108
G0 F7500 X-0.700 Y-0.700
;TYPE:SUPPORT
G1 F2400 X-0.700 Y1.200 E348.92949
G1 X1.200 Y1.200 E348.99789
G1 X1.200 Y-0.700 E349.06630
G1 X-0.700 Y-0.700 E349.13471
G0 F7500 X-0.690 Y-0.800
G0 X-25.500 Y-50.400
G1 F2400 X25.600 Y-50.400 E350.97452
G1 X25.600 Y50.600 E354.61093
G1 X-25.500 Y50.600 E356.45074
G1 X-25.500 Y-50.400 E360.08716
G0 F7500 X-25.563 Y-49.096
G1 F2400 X25.664 Y-49.095 E361.93154
G0 F7500 X25.500 Y-49.095
G0 X20.216 Y-50.300
G0 X20.216 Y-50.464
G1 F2400 X20.216 Y50.664 E365.57256
G0 F7500 X20.216 Y50.500
G0 X25.500 Y49.096
G0 X25.663 Y49.096
G1 F2400 X-25.564 Y49.095 E367.41694
G0 F7500 X-25.400 Y49.095
G0 X-20.216 Y50.500
G0 X-20.216 Y50.664
G1 F2400 X-20.216 Y-50.464 E371.05796
G0 F7500 X-20.216 Y-50.300
G0 X-25.400 Y-43.320
G0 X-25.563 Y-43.320
G1 F2400 X25.664 Y-43.319 E372.90235
G0 F7500 X25.500 Y-43.319
G0 X25.500 Y-37.543
G0 X25.664 Y-37.543
G1 F2400 X-25.563 Y-37.544 E374.74673
G0 F7500 X-25.400 Y-37.544
G0 X-25.400 Y-31.768
G0 X-25.563 Y-31.768
G1 F2400 X25.664 Y-31.767 E376.59111
G0 F7500 X25.500 Y-31.767
G0 X25.500 Y-25.991
G0 X25.664 Y-25.991
G1 F2400 X-25.563 Y-25.992 E378.43549
G0 F7500 X-25.400 Y-25.992
G0 X-25.400 Y-20.216
G0 X-25.563 Y-20.216
G1 F2400 X25.664 Y-20.215 E380.27987
G0 F7500 X25.500 Y-20.215
G0 X25.500 Y-14.439
G0 X25.664 Y-14.439
G1 F2400 X-25.563 Y-14.440 E382.12425
G0 F7500 X-25.400 Y-14.440
G0 X-25.400 Y-8.664
G0 X-25.563 Y-8.664
G1 F2400 X25.664 Y-8.663 E383.96864
G0 F7500 X25.500 Y-8.663
G0 X25.500 Y-2.887
G0 X25.664 Y-2.887
G1 F2400 X-25.563 Y-2.888 E385.81302
G0 F7500 X-25.400 Y-2.888
G0 X-25.400 Y2.887
G0 X-25.564 Y2.887
G1 F2400 X25.663 Y2.888 E387.65740
G0 F7500 X25.500 Y2.888
G0 X25.500 Y8.664
G0 X25.663 Y8.664
G1 F2400 X-25.564 Y8.663 E389.50178
G0 F7500 X-25.400 Y8.663
G0 X-25.400 Y14.439
G0 X-25.564 Y14.439
G1 F2400 X25.663 Y14.440 E391.34616
G0 F7500 X25.500 Y14.440
G0 X25.500 Y20.216
G0 X25.663 Y20.216
G1 F2400 X-25.564 Y20.215 E393.19055
G0 F7500 X-25.400 Y20.215
G0 X-25.400 Y25.991
G0 X-25.564 Y25.991
G1 F2400 X25.663 Y25.992 E395.03493
G0 F7500 X25.500 Y25.992
G0 X25.500 Y31.768
G0 X25.663 Y31.768
G1 F2400 X-25.564 Y31.767 E396.87931
G0 F7500 X-25.400 Y31.767
G0 X-25.400 Y37.543
G0 X-25.564 Y37.543
G1 F2400 X25.663 Y37.544 E398.72369
G0 F7500 X25.500 Y37.544
G0 X25.500 Y43.320
G0 X25.663 Y43.320
G1 F2400 X-25.564 Y43.319 E400.56807
G0 F7500 X-25.400 Y43.319
G0 X-14.440 Y50.500
G0 X-14.440 Y50.664
G1 F2400 X-14.440 Y-50.464 E404.20909
G0 F7500 X-14.440 Y-50.300
G0 X-8.664 Y-50.300
G0 X-8.664 Y-50.464
G1 F2400 X-8.664 Y50.664 E407.85012
G0 F7500 X-8.664 Y50.500
G0 X-2.888 Y50.500
G0 X-2.888 Y50.664
G1 F2400 X-2.888 Y-50.464 E411.49114
G0 F7500 X-2.888 Y-50.300
G0 X2.888 Y-50.300
G0 X2.888 Y-50.464
G1 F2400 X2.888 Y50.664 E415.13216
G0 F7500 X2.888 Y50.500
G0 X8.664 Y50.500
G0 X8.664 Y50.664
G1 F2400 X8.664 Y-50.464 E418.77318
