;Generated with Cura_SteamEngine 15.04.6

;Layer count: 16
;LAYER:0
M107
G0 F7500 X-28.716 Y-13.616 Z0.300
;TYPE:SKIRT
G1 F1800 X28.816 Y-13.616 E3.10708
G1 X28.816 Y13.816 E4.58858
G1 X-28.716 Y13.816 E7.69566
G1 X-28.716 Y-13.616 E9.17716
G1 F2400 E8.17716
G0 F7500 X0.216 Y0.216
;TYPE:WALL-OUTER
G1 F2400 E9.17716
G1 F1800 X0.284 Y0.216 E9.18083
G1 X0.284 Y0.284 E9.18450
G1 X0.216 Y0.284 E9.18817
G1 X0.216 Y0.216 E9.19185
G0 F7500 X-0.700 Y-0.700
;TYPE:SUPPORT
G1 F1800 X-0.700 Y1.200 E9.29446
G1 X1.200 Y1.200 E9.39707
G1 X1.200 Y-0.700 E9.49968
G1 X-0.700 Y-0.700 E9.60229
G0 F7500 X-0.690 Y-0.800
G0 X-25.500 Y-10.400
G1 F1800 X25.600 Y-10.400 E12.36201
G1 X25.600 Y10.600 E13.49614
G1 X-25.500 Y10.600 E16.25585
G1 X-25.500 Y-10.400 E17.38998
G0 F7500 X-25.400 Y-8.664
G0 X-25.563 Y-8.664
G1 F1800 X25.664 Y-8.663 E20.15655
G0 F7500 X25.500 Y-8.663
G0 X20.216 Y-10.300
G0 X20.216 Y-10.464
G1 F1800 X20.216 Y10.664 E21.29759
G0 F7500 X20.216 Y10.500
G0 X25.500 Y8.664
G0 X25.663 Y8.664
G1 F1800 X-25.564 Y8.663 E24.06417
G0 F7500 X-25.400 Y8.663
G0 X-20.216 Y10.500
G0 X-20.216 Y10.664
G1 F1800 X-20.216 Y-10.464 E25.20521
G0 F7500 X-20.216 Y-10.300
G0 X-25.400 Y-2.888
G0 X-25.563 Y-2.888
G1 F1800 X25.664 Y-2.887 E27.97178
G0 F7500 X25.500 Y-2.887
G0 X25.500 Y2.888
G0 X25.663 Y2.888
G1 F1800 X-25.564 Y2.887 E30.73835
G0 F7500 X-25.400 Y2.887
G0 X-14.440 Y10.500
G0 X-14.440 Y10.664
G1 F1800 X-14.440 Y-10.464 E31.87939
G0 F7500 X-14.440 Y-10.300
G0 X-8.664 Y-10.300
G0 X-8.664 Y-10.464
G1 F1800 X-8.664 Y10.664 E33.02044
G0 F7500 X-8.664 Y10.500
G0 X-2.888 Y10.500
G0 X-2.888 Y10.664
G1 F1800 X-2.888 Y-10.464 E34.16148
G0 F7500 X-2.888 Y-10.300
G0 X2.888 Y-10.300
G0 X2.888 Y-10.464
G1 F1800 X2.888 Y10.664 E35.30252
G0 F7500 X2.888 Y10.500
G0 X8.664 Y10.500
G0 X8.664 Y10.664
G1 F1800 X8.664 Y-10.464 E36.44356
G0 F7500 X8.664 Y-10.300
G0 X14.440 Y-10.300
G0 X14.440 Y-10.464
G1 F1800 X14.440 Y10.664 E37.58460
;LAYER:1
M106 S63
G1 F2400 E36.58460
G0 F7500 X0.284 Y0.284 Z0.500
;TYPE:WALL-OUTER
G1 F2400 E37.58460
G1 F1980 X0.216 Y0.284 E37.58705
G1 X0.216 Y0.216 E37.58950
G1 X0.284 Y0.216 E37.59195
G1 X0.284 Y0.284 E37.59440
G0 F7500 X1.200 Y1.200
;TYPE:SUPPORT
G1 F1920 X1.200 Y-0.700 E37.66280
G1 X-0.700 Y-0.700 E37.73121
G1 X-0.700 Y1.200 E37.79962
G1 X1.200 Y1.200 E37.86803
G0 F7500 X1.190 Y1.300
G0 X25.500 Y10.590
G0 X25.600 Y10.600
G1 F1920 X-25.500 Y10.600 E39.70784
G1 X-25.500 Y-10.400 E40.46392
G1 X25.600 Y-10.400 E42.30373
G1 X25.600 Y10.600 E43.05982
G0 F7500 X25.500 Y10.590
G0 X25.500 Y8.664
G0 X25.663 Y8.664
G1 F1920 X-25.564 Y8.663 E44.90420
G0 F7500 X-25.400 Y8.663
G0 X-20.216 Y10.500
G0 X-20.216 Y10.664
G1 F1920 X-20.216 Y-10.464 E45.66490
G0 F7500 X-20.216 Y-10.300
G0 X-25.400 Y-8.664
G0 X-25.563 Y-8.664
G1 F1920 X25.664 Y-8.663 E47.50928
G0 F7500 X25.500 Y-8.663
G0 X20.216 Y-10.300
G0 X20.216 Y-10.464
G1 F1920 X20.216 Y10.664 E48.26997
G0 F7500 X20.216 Y10.500
G0 X25.500 Y2.888
G0 X25.663 Y2.888
G1 F1920 X-25.564 Y2.887 E50.11435
G0 F7500 X-25.400 Y2.887
G0 X-25.400 Y-2.888
G0 X-25.563 Y-2.888
G1 F1920 X25.664 Y-2.887 E51.95874
G0 F7500 X25.500 Y-2.887
G0 X14.440 Y-10.300
G0 X14.440 Y-10.464
G1 F1920 X14.440 Y10.664 E52.71943
G0 F7500 X14.440 Y10.500
G0 X8.664 Y10.500
G0 X8.664 Y10.664
G1 F1920 X8.664 Y-10.464 E53.48012
G0 F7500 X8.664 Y-10.300
G0 X2.888 Y-10.300
G0 X2.888 Y-10.464
G1 F1920 X2.888 Y10.664 E54.24082
G0 F7500 X2.888 Y10.500
G0 X-2.888 Y10.500
G0 X-2.888 Y10.664
G1 F1920 X-2.888 Y-10.464 E55.00151
G0 F7500 X-2.888 Y-10.300
G0 X-8.664 Y-10.300
G0 X-8.664 Y-10.464
G1 F1920 X-8.664 Y10.664 E55.76221
G0 F7500 X-8.664 Y10.500
G0 X-14.440 Y10.500
G0 X-14.440 Y10.664
G1 F1920 X-14.440 Y-10.464 E56.52290
;LAYER:2
M106 S127
G1 F2400 E55.52290
G0 F7500 X0.216 Y0.216 Z0.700
;TYPE:WALL-OUTER
G1 F2400 E56.52290
G1 F2220 X0.284 Y0.216 E56.52535
G1 X0.284 Y0.284 E56.52780
G1 X0.216 Y0.284 E56.53025
G1 X0.216 Y0.216 E56.53270
G0 F7500 X-0.700 Y-0.700
;TYPE:SUPPORT
G1 F2100 X-0.700 Y1.200 E56.60110
G1 X1.200 Y1.200 E56.66951
G1 X1.200 Y-0.700 E56.73792
G1 X-0.700 Y-0.700 E56.80633
G0 F7500 X-0.690 Y-0.800
G0 X-25.500 Y-10.400
G1 F2100 X25.600 Y-10.400 E58.64614
G1 X25.600 Y10.600 E59.40222
G1 X-25.500 Y10.600 E61.24203
G1 X-25.500 Y-10.400 E61.99812
G0 F7500 X-25.400 Y-8.664
G0 X-25.563 Y-8.664
G1 F2100 X25.664 Y-8.663 E63.84250
G0 F7500 X25.500 Y-8.663
G0 X20.216 Y-10.300
G0 X20.216 Y-10.464
G1 F2100 X20.216 Y10.664 E64.60319
G0 F7500 X20.216 Y10.500
G0 X25.500 Y8.664
G0 X25.663 Y8.664
G1 F2100 X-25.564 Y8.663 E66.44758
G0 F7500 X-25.400 Y8.663
G0 X-20.216 Y10.500
G0 X-20.216 Y10.664
G1 F2100 X-20.216 Y-10.464 E67.20827
G0 F7500 X-20.216 Y-10.300
G0 X-25.400 Y-2.888
G0 X-25.563 Y-2.888
G1 F2100 X25.664 Y-2.887 E69.05265
G0 F7500 X25.500 Y-2.887
G0 X25.500 Y2.888
G0 X25.663 Y2.888
G1 F2100 X-25.564 Y2.887 E70.89703
G0 F7500 X-25.400 Y2.887
G0 X-14.440 Y10.500
G0 X-14.440 Y10.664
G1 F2100 X-14.440 Y-10.464 E71.65773
G0 F7500 X-14.440 Y-10.300
G0 X-8.664 Y-10.300
G0 X-8.664 Y-10.464
G1 F2100 X-8.664 Y10.664 E72.41842
G0 F7500 X-8.664 Y10.500
G0 X-2.888 Y10.500
G0 X-2.888 Y10.664
G1 F2100 X-2.888 Y-10.464 E73.17912
G0 F7500 X-2.888 Y-10.300
G0 X2.888 Y-10.300
G0 X2.888 Y-10.464
G1 F2100 X2.888 Y10.664 E73.93981
G0 F7500 X2.888 Y10.500
G0 X8.664 Y10.500
G0 X8.664 Y10.664
G1 F2100 X8.664 Y-10.464 E74.70051
G0 F7500 X8.664 Y-10.300
G0 X14.440 Y-10.300
G0 X14.440 Y-10.464
G1 F2100 X14.440 Y10.664 E75.46120
;LAYER:3
G1 F2400 E74.46120
G0 F7500 X0.284 Y0.284 Z0.900
;TYPE:WALL-OUTER
G1 F2400 E75.46120
G1 X0.216 Y0.284 E75.46365
G1 X0.216 Y0.216 E75.46610
G1 X0.284 Y0.216 E75.46855
G1 X0.284 Y0.284 E75.47099
G0 F7500 X1.200 Y1.200
;TYPE:SUPPORT
G1 F2220 X1.200 Y-0.700 E75.53940
G1 X-0.700 Y-0.700 E75.60781
G1 X-0.700 Y1.200 E75.67622
G1 X1.200 Y1.200 E75.74463
G0 F7500 X1.190 Y1.300
G0 X25.500 Y10.590
G0 X25.600 Y10.600
G1 F2220 X-25.500 Y10.600 E77.58443
G1 X-25.500 Y-10.400 E78.34052
G1 X25.600 Y-10.400 E80.18033
G1 X25.600 Y10.600 E80.93642
G0 F7500 X25.500 Y10.590
G0 X25.500 Y8.664
G0 X25.663 Y8.664
G1 F2220 X-25.564 Y8.663 E82.78080
G0 F7500 X-25.400 Y8.663
G0 X-20.216 Y10.500
G0 X-20.216 Y10.664
G1 F2220 X-20.216 Y-10.464 E83.54149
G0 F7500 X-20.216 Y-10.300
G0 X-25.400 Y-8.664
G0 X-25.563 Y-8.664
G1 F2220 X25.664 Y-8.663 E85.38587
G0 F7500 X25.500 Y-8.663
G0 X20.216 Y-10.300
G0 X20.216 Y-10.464
G1 F2220 X20.216 Y10.664 E86.14657
G0 F7500 X20.216 Y10.500
G0 X25.500 Y2.888
G0 X25.663 Y2.888
G1 F2220 X-25.564 Y2.887 E87.99095
G0 F7500 X-25.400 Y2.887
G0 X-25.400 Y-2.888
G0 X-25.563 Y-2.888
G1 F2220 X25.664 Y-2.887 E89.83533
G0 F7500 X25.500 Y-2.887
G0 X14.440 Y-10.300
G0 X14.440 Y-10.464
G1 F2220 X14.440 Y10.664 E90.59603
G0 F7500 X14.440 Y10.500
G0 X8.664 Y10.500
G0 X8.664 Y10.664
G1 F2220 X8.664 Y-10.464 E91.35672
G0 F7500 X8.664 Y-10.300
G0 X2.888 Y-10.300
G0 X2.888 Y-10.464
G1 F2220 X2.888 Y10.664 E92.11742
G0 F7500 X2.888 Y10.500
G0 X-2.888 Y10.500
G0 X-2.888 Y10.664
G1 F2220 X-2.888 Y-10.464 E92.87811
G0 F7500 X-2.888 Y-10.300
G0 X-8.664 Y-10.300
G0 X-8.664 Y-10.464
G1 F2220 X-8.664 Y10.664 E93.63881
G0 F7500 X-8.664 Y10.500
G0 X-14.440 Y10.500
G0 X-14.440 Y10.664
G1 F2220 X-14.440 Y-10.464 E94.39950
;LAYER:4
G1 F2400 E93.39950
G0 F7500 X0.216 Y0.216 Z1.100
;TYPE:WALL-OUTER
G1 F2400 E94.39950
G1 F2700 X0.284 Y0.216 E94.40195
G1 X0.284 Y0.284 E94.40440
G1 X0.216 Y0.284 E94.40684
G1 X0.216 Y0.216 E94.40929
G0 F7500 X-0.700 Y-0.700
;TYPE:SUPPORT
G1 F2400 X-0.700 Y1.200 E94.47770
G1 X1.200 Y1.200 E94.54611
G1 X1.200 Y-0.700 E94.61452
G1 X-0.700 Y-0.700 E94.68292
G0 F7500 X-0.690 Y-0.800
G0 X-25.500 Y-10.400
G1 F2400 X25.600 Y-10.400 E96.52273
G1 X25.600 Y10.600 E97.27882
G1 X-25.500 Y10.600 E99.11863
G1 X-25.500 Y-10.400 E99.87471
G0 F7500 X-25.400 Y-8.664
G0 X-25.563 Y-8.664
G1 F2400 X25.664 Y-8.663 E101.71910
G0 F7500 X25.500 Y-8.663
G0 X20.216 Y-10.300
G0 X20.216 Y-10.464
G1 F2400 X20.216 Y10.664 E102.47979
G0 F7500 X20.216 Y10.500
G0 X25.500 Y8.664
G0 X25.663 Y8.664
G1 F2400 X-25.564 Y8.663 E104.32417
G0 F7500 X-25.400 Y8.663
G0 X-20.216 Y10.500
G0 X-20.216 Y10.664
G1 F2400 X-20.216 Y-10.464 E105.08487
G0 F7500 X-20.216 Y-10.300
G0 X-25.400 Y-2.888
G0 X-25.563 Y-2.888
G1 F2400 X25.664 Y-2.887 E106.92925
G0 F7500 X25.500 Y-2.887
G0 X25.500 Y2.888
G0 X25.663 Y2.888
G1 F2400 X-25.564 Y2.887 E108.77363
G0 F7500 X-25.400 Y2.887
G0 X-14.440 Y10.500
G0 X-14.440 Y10.664
G1 F2400 X-14.440 Y-10.464 E109.53433
G0 F7500 X-14.440 Y-10.300
G0 X-8.664 Y-10.300
G0 X-8.664 Y-10.464
G1 F2400 X-8.664 Y10.664 E110.29502
G0 F7500 X-8.664 Y10.500
G0 X-2.888 Y10.500
G0 X-2.888 Y10.664
G1 F2400 X-2.888 Y-10.464 E111.05571
G0 F7500 X-2.888 Y-10.300
G0 X2.888 Y-10.300
G0 X2.888 Y-10.464
G1 F2400 X2.888 Y10.664 E111.81641
G0 F7500 X2.888 Y10.500
G0 X8.664 Y10.500
G0 X8.664 Y10.664
G1 F2400 X8.664 Y-10.464 E112.57710
G0 F7500 X8.664 Y-10.300
G0 X14.440 Y-10.300
G0 X14.440 Y-10.464
G1 F2400 X14.440 Y10.664 E113.33780
;LAYER:5
G1 F2400 E112.33780
G0 F7500 X0.284 Y0.284 Z1.300
;TYPE:WALL-OUTER
G1 F2400 E113.33780
G1 F2700 X0.216 Y0.284 E113.34025
G1 X0.216 Y0.216 E113.34270
G1 X0.284 Y0.216 E113.34514
G1 X0.284 Y0.284 E113.34759
G0 F7500 X1.200 Y1.200
;TYPE:SUPPORT
G1 F2400 X1.200 Y-0.700 E113.41600
G1 X-0.700 Y-0.700 E113.48441
G1 X-0.700 Y1.200 E113.55281
G1 X1.200 Y1.200 E113.62122
G0 F7500 X1.190 Y1.300
G0 X25.500 Y10.590
G0 X25.600 Y10.600
G1 F2400 X-25.500 Y10.600 E115.46103
G1 X-25.500 Y-10.400 E116.21712
G1 X25.600 Y-10.400 E118.05693
G1 X25.600 Y10.600 E118.81301
G0 F7500 X25.500 Y10.590
G0 X25.500 Y8.664
G0 X25.663 Y8.664
G1 F2400 X-25.564 Y8.663 E120.65740
G0 F7500 X-25.400 Y8.663
G0 X-20.216 Y10.500
G0 X-20.216 Y10.664
G1 F2400 X-20.216 Y-10.464 E121.41809
G0 F7500 X-20.216 Y-10.300
G0 X-25.400 Y-8.664
G0 X-25.563 Y-8.664
G1 F2400 X25.664 Y-8.663 E123.26247
G0 F7500 X25.500 Y-8.663
G0 X20.216 Y-10.300
G0 X20.216 Y-10.464
G1 F2400 X20.216 Y10.664 E124.02317
G0 F7500 X20.216 Y10.500
G0 X25.500 Y2.888
G0 X25.663 Y2.888
G1 F2400 X-25.564 Y2.887 E125.86755
G0 F7500 X-25.400 Y2.887
G0 X-25.400 Y-2.888
G0 X-25.563 Y-2.888
G1 F2400 X25.664 Y-2.887 E127.71193
G0 F7500 X25.500 Y-2.887
G0 X14.440 Y-10.300
G0 X14.440 Y-10.464
G1 F2400 X14.440 Y10.664 E128.47262
G0 F7500 X14.440 Y10.500
G0 X8.664 Y10.500
G0 X8.664 Y10.664
G1 F2400 X8.664 Y-10.464 E129.23332
G0 F7500 X8.664 Y-10.300
G0 X2.888 Y-10.300
G0 X2.888 Y-10.464
G1 F2400 X2.888 Y10.664 E129.99401
G0 F7500 X2.888 Y10.500
G0 X-2.888 Y10.500
G0 X-2.888 Y10.664
G1 F2400 X-2.888 Y-10.464 E130.75471
G0 F7500 X-2.888 Y-10.300
G0 X-8.664 Y-10.300
G0 X-8.664 Y-10.464
G1 F2400 X-8.664 Y10.664 E131.51540
G0 F7500 X-8.664 Y10.500
G0 X-14.440 Y10.500
G0 X-14.440 Y10.664
G1 F2400 X-14.440 Y-10.464 E132.27610
;LAYER:6
G1 F2400 E131.27610
G0 F7500 X0.216 Y0.216 Z1.500
;TYPE:WALL-OUTER
G1 F2400 E132.27610
G1 F2700 X0.284 Y0.216 E132.27855
G1 X0.284 Y0.284 E132.28099
G1 X0.216 Y0.284 E132.28344
G1 X0.216 Y0.216 E132.28589
G0 F7500 X-0.700 Y-0.700
;TYPE:SUPPORT
G1 F2400 X-0.700 Y1.200 E132.35430
G1 X1.200 Y1.200 E132.42271
G1 X1.200 Y-0.700 E132.49111
G1 X-0.700 Y-0.700 E132.55952
G0 F7500 X-0.690 Y-0.800
G0 X-25.500 Y-10.400
G1 F2400 X25.600 Y-10.400 E134.39933
G1 X25.600 Y10.600 E135.15542
G1 X-25.500 Y10.600 E136.99523
G1 X-25.500 Y-10.400 E137.75131
G0 F7500 X-25.400 Y-8.664
G0 X-25.563 Y-8.664
G1 F2400 X25.664 Y-8.663 E139.59569
G0 F7500 X25.500 Y-8.663
G0 X20.216 Y-10.300
G0 X20.216 Y-10.464
G1 F2400 X20.216 Y10.664 E140.35639
G0 F7500 X20.216 Y10.500
G0 X25.500 Y8.664
G0 X25.663 Y8.664
G1 F2400 X-25.564 Y8.663 E142.20077
G0 F7500 X-25.400 Y8.663
G0 X-20.216 Y10.500
G0 X-20.216 Y10.664
G1 F2400 X-20.216 Y-10.464 E142.96146
G0 F7500 X-20.216 Y-10.300
G0 X-25.400 Y-2.888
G0 X-25.563 Y-2.888
G1 F2400 X25.664 Y-2.887 E144.80585
G0 F7500 X25.500 Y-2.887
G0 X25.500 Y2.888
G0 X25.663 Y2.888
G1 F2400 X-25.564 Y2.887 E146.65023
G0 F7500 X-25.400 Y2.887
G0 X-14.440 Y10.500
G0 X-14.440 Y10.664
G1 F2400 X-14.440 Y-10.464 E147.41092
G0 F7500 X-14.440 Y-10.300
G0 X-8.664 Y-10.300
G0 X-8.664 Y-10.464
G1 F2400 X-8.664 Y10.664 E148.17162
G0 F7500 X-8.664 Y10.500
G0 X-2.888 Y10.500
G0 X-2.888 Y10.664
G1 F2400 X-2.888 Y-10.464 E148.93231
G0 F7500 X-2.888 Y-10.300
G0 X2.888 Y-10.300
G0 X2.888 Y-10.464
G1 F2400 X2.888 Y10.664 E149.69301
G0 F7500 X2.888 Y10.500
G0 X8.664 Y10.500
G0 X8.664 Y10.664
G1 F2400 X8.664 Y-10.464 E150.45370
G0 F7500 X8.664 Y-10.300
G0 X14.440 Y-10.300
G0 X14.440 Y-10.464
G1 F2400 X14.440 Y10.664 E151.21440
;LAYER:7
G1 F2400 E150.21440
G0 F7500 X0.284 Y0.284 Z1.700
;TYPE:WALL-OUTER
G1 F2400 E151.21440
G1 F2700 X0.216 Y0.284 E151.21684
G1 X0.216 Y0.216 E151.21929
G1 X0.284 Y0.216 E151.22174
G1 X0.284 Y0.284 E151.22419
G0 F7500 X1.200 Y1.200
;TYPE:SUPPORT
G1 F2400 X1.200 Y-0.700 E151.29260
G1 X-0.700 Y-0.700 E151.36100
G1 X-0.700 Y1.200 E151.42941
G1 X1.200 Y1.200 E151.49782
G0 F7500 X1.190 Y1.300
G0 X25.500 Y10.590
G0 X25.600 Y10.600
G1 F2400 X-25.500 Y10.600 E153.33763
G1 X-25.500 Y-10.400 E154.09372
G1 X25.600 Y-10.400 E155.93352
G1 X25.600 Y10.600 E156.68961
G0 F7500 X25.500 Y10.590
G0 X25.500 Y8.664
G0 X25.663 Y8.664
G1 F2400 X-25.564 Y8.663 E158.53399
G0 F7500 X-25.400 Y8.663
G0 X-20.216 Y10.500
G0 X-20.216 Y10.664
G1 F2400 X-20.216 Y-10.464 E159.29469
G0 F7500 X-20.216 Y-10.300
G0 X-25.400 Y-8.664
G0 X-25.563 Y-8.664
G1 F2400 X25.664 Y-8.663 E161.13907
G0 F7500 X25.500 Y-8.663
G0 X20.216 Y-10.300
G0 X20.216 Y-10.464
G1 F2400 X20.216 Y10.664 E161.89976
G0 F7500 X20.216 Y10.500
G0 X25.500 Y2.888
G0 X25.663 Y2.888
G1 F2400 X-25.564 Y2.887 E163.74415
G0 F7500 X-25.400 Y2.887
G0 X-25.400 Y-2.888
G0 X-25.563 Y-2.888
G1 F2400 X25.664 Y-2.887 E165.58853
G0 F7500 X25.500 Y-2.887
G0 X14.440 Y-10.300
G0 X14.440 Y-10.464
G1 F2400 X14.440 Y10.664 E166.34922
G0 F7500 X14.440 Y10.500
G0 X8.664 Y10.500
G0 X8.664 Y10.664
G1 F2400 X8.664 Y-10.464 E167.10992
G0 F7500 X8.664 Y-10.300
G0 X2.888 Y-10.300
G0 X2.888 Y-10.464
G1 F2400 X2.888 Y10.664 E167.87061
G0 F7500 X2.888 Y10.500
G0 X-2.888 Y10.500
G0 X-2.888 Y10.664
G1 F2400 X-2.888 Y-10.464 E168.63131
G0 F7500 X-2.888 Y-10.300
G0 X-8.664 Y-10.300
G0 X-8.664 Y-10.464
G1 F2400 X-8.664 Y10.664 E169.39200
G0 F7500 X-8.664 Y10.500
G0 X-14.440 Y10.500
G0 X-14.440 Y10.664
G1 F2400 X-14.440 Y-10.464 E170.15269
;LAYER:8
G1 F2400 E169.15269
G0 F7500 X0.216 Y0.216 Z1.900
;TYPE:WALL-OUTER
G1 F2400 E170.15269
G1 F2700 X0.284 Y0.216 E170.15514
G1 X0.284 Y0.284 E170.15759
G1 X0.216 Y0.284 E170.16004
G1 X0.216 Y0.216 E170.16249
G0 F7500 X-0.700 Y-0.700
;TYPE:SUPPORT
G1 F2400 X-0.700 Y1.200 E170.23090
G1 X1.200 Y1.200 E170.29930
G1 X1.200 Y-0.700 E170.36771
G1 X-0.700 Y-0.700 E170.43612
G0 F7500 X-0.690 Y-0.800
G0 X-25.500 Y-10.400
G1 F2400 X25.600 Y-10.400 E172.27593
G1 X25.600 Y10.600 E173.03201
G1 X-25.500 Y10.600 E174.87182
G1 X-25.500 Y-10.400 E175.62791
G0 F7500 X-25.400 Y-8.664
G0 X-25.563 Y-8.664
G1 F2400 X25.664 Y-8.663 E177.47229
G0 F7500 X25.500 Y-8.663
G0 X20.216 Y-10.300
G0 X20.216 Y-10.464
G1 F2400 X20.216 Y10.664 E178.23299
G0 F7500 X20.216 Y10.500
G0 X25.500 Y8.664
G0 X25.663 Y8.664
G1 F2400 X-25.564 Y8.663 E180.07737
G0 F7500 X-25.400 Y8.663
G0 X-20.216 Y10.500
G0 X-20.216 Y10.664
G1 F2400 X-20.216 Y-10.464 E180.83806
G0 F7500 X-20.216 Y-10.300
G0 X-25.400 Y-2.888
G0 X-25.563 Y-2.888
G1 F2400 X25.664 Y-2.887 E182.68244
G0 F7500 X25.500 Y-2.887
G0 X25.500 Y2.888
G0 X25.663 Y2.888
G1 F2400 X-25.564 Y2.887 E184.52683
G0 F7500 X-25.400 Y2.887
G0 X-14.440 Y10.500
G0 X-14.440 Y10.664
G1 F2400 X-14.440 Y-10.464 E185.28752
G0 F7500 X-14.440 Y-10.300
G0 X-8.664 Y-10.300
G0 X-8.664 Y-10.464
G1 F2400 X-8.664 Y10.664 E186.04821
G0 F7500 X-8.664 Y10.500
G0 X-2.888 Y10.500
G0 X-2.888 Y10.664
G1 F2400 X-2.888 Y-10.464 E186.80891
G0 F7500 X-2.888 Y-10.300
G0 X2.888 Y-10.300
G0 X2.888 Y-10.464
G1 F2400 X2.888 Y10.664 E187.56960
G0 F7500 X2.888 Y10.500
G0 X8.664 Y10.500
G0 X8.664 Y10.664
G1 F2400 X8.664 Y-10.464 E188.33030
G0 F7500 X8.664 Y-10.300
G0 X14.440 Y-10.300
G0 X14.440 Y-10.464
G1 F2400 X14.440 Y10.664 E189.09099
;LAYER:9
G1 F2400 E188.09099
G0 F7500 X0.284 Y0.284 Z2.100
;TYPE:WALL-OUTER
G1 F2400 E189.09099
G1 F2700 X0.216 Y0.284 E189.09344
