;Generated with Cura_SteamEngine 15.04.6

;Layer count: 16
;LAYER:0
M107
G0 F7500 X-28.716 Y-18.616 Z0.300
;TYPE:SKIRT
G1 F1800 X28.816 Y-18.616 E3.10708
G1 X28.816 Y18.816 E5.12864
G1 X-28.716 Y18.816 E8.23572
G1 X-28.716 Y-18.616 E10.25728
G1 F2400 E9.25728
G0 F7500 X0.216 Y0.216
;TYPE:WALL-OUTER
G1 F2400 E10.25728
G1 F1800 X0.284 Y0.216 E10.26095
G1 X0.284 Y0.284 E10.26462
G1 X0.216 Y0.284 E10.26830
G1 X0.216 Y0.216 E10.27197
G0 F7500 X-0.700 Y-0.700
;TYPE:SUPPORT
G1 F1800 X-0.700 Y1.200 E10.37458
G1 X1.200 Y1.200 E10.47719
G1 X1.200 Y-0.700 E10.57980
G1 X-0.700 Y-0.700 E10.68242
G0 F7500 X-0.690 Y-0.800
G0 X-25.500 Y-15.400
G1 F1800 X25.600 Y-15.400 E13.44213
G1 X25.600 Y15.600 E15.11632
G1 X-25.500 Y15.600 E17.87603
G1 X-25.500 Y-15.400 E19.55022
G0 F7500 X-25.563 Y-14.440
G1 F1800 X25.664 Y-14.439 E22.31680
G0 F7500 X25.500 Y-14.439
G0 X20.216 Y-15.300
G0 X20.216 Y-15.464
G1 F1800 X20.216 Y15.664 E23.99790
G0 F7500 X20.216 Y15.500
G0 X25.500 Y14.440
G0 X25.663 Y14.440
G1 F1800 X-25.564 Y14.439 E26.76447
G0 F7500 X-25.400 Y14.439
G0 X-20.216 Y15.500
G0 X-20.216 Y15.664
G1 F1800 X-20.216 Y-15.464 E28.44558
G0 F7500 X-20.216 Y-15.300
G0 X-25.400 Y-8.664
G0 X-25.563 Y-8.664
G1 F1800 X25.664 Y-8.663 E31.21215
G0 F7500 X25.500 Y-8.663
G0 X25.500 Y-2.887
G0 X25.664 Y-2.887
G1 F1800 X-25.563 Y-2.888 E33.97872
G0 F7500 X-25.400 Y-2.888
G0 X-25.400 Y2.887
G0 X-25.564 Y2.887
G1 F1800 X25.663 Y2.888 E36.74529
G0 F7500 X25.500 Y2.888
G0 X25.500 Y8.664
G0 X25.663 Y8.664
G1 F1800 X-25.564 Y8.663 E39.51187
G0 F7500 X-25.400 Y8.663
G0 X-14.440 Y15.500
G0 X-14.440 Y15.664
G1 F1800 X-14.440 Y-15.464 E41.19297
G0 F7500 X-14.440 Y-15.300
G0 X-8.664 Y-15.300
G0 X-8.664 Y-15.464
G1 F1800 X-8.664 Y15.664 E42.87407
G0 F7500 X-8.664 Y15.500
G0 X-2.888 Y15.500
G0 X-2.888 Y15.664
G1 F1800 X-2.888 Y-15.464 E44.55518
G0 F7500 X-2.888 Y-15.300
G0 X2.888 Y-15.300
G0 X2.888 Y-15.464
G1 F1800 X2.888 Y15.664 E46.23628
G0 F7500 X2.888 Y15.500
G0 X8.664 Y15.500
G0 X8.664 Y15.664
G1 F1800 X8.664 Y-15.464 E47.91738
G0 F7500 X8.664 Y-15.300
G0 X14.440 Y-15.300
G0 X14.440 Y-15.464
G1 F1800 X14.440 Y15.664 E49.59849
;LAYER:1
M106 S63
G1 F2400 E48.59849
G0 F7500 X0.284 Y0.284 Z0.500
;TYPE:WALL-OUTER
G1 F2400 E49.59849
G1 F1980 X0.216 Y0.284 E49.60094
G1 X0.216 Y0.216 E49.60338
G1 X0.284 Y0.216 E49.60583
G1 X0.284 Y0.284 E49.60828
G0 F7500 X1.200 Y1.200
;TYPE:SUPPORT
G1 F1920 X1.200 Y-0.700 E49.67669
G1 X-0.700 Y-0.700 E49.74510
G1 X-0.700 Y1.200 E49.81350
G1 X1.200 Y1.200 E49.88191
G0 F7500 X1.190 Y1.300
G0 X25.500 Y15.590
G0 X25.600 Y15.600
G1 F1920 X-25.500 Y15.600 E51.72172
G1 X-25.500 Y-15.400 E52.83785
G1 X25.600 Y-15.400 E54.67766
G1 X25.600 Y15.600 E55.79378
G0 F7500 X25.663 Y14.440
G1 F1920 X-25.564 Y14.439 E57.63817
G0 F7500 X-25.400 Y14.439
G0 X-20.216 Y15.500
G0 X-20.216 Y15.664
G1 F1920 X-20.216 Y-15.464 E58.75890
G0 F7500 X-20.216 Y-15.300
G0 X-25.400 Y-14.440
G0 X-25.563 Y-14.440
G1 F1920 X25.664 Y-14.439 E60.60328
G0 F7500 X25.500 Y-14.439
G0 X20.216 Y-15.300
G0 X20.216 Y-15.464
G1 F1920 X20.216 Y15.664 E61.72402
G0 F7500 X20.216 Y15.500
G0 X25.500 Y8.664
G0 X25.663 Y8.664
G1 F1920 X-25.564 Y8.663 E63.56840
G0 F7500 X-25.400 Y8.663
G0 X-25.400 Y2.887
G0 X-25.564 Y2.887
G1 F1920 X25.663 Y2.888 E65.41278
G0 F7500 X25.500 Y2.888
G0 X25.500 Y-2.887
G0 X25.664 Y-2.887
G1 F1920 X-25.563 Y-2.888 E67.25716
G0 F7500 X-25.400 Y-2.888
G0 X-25.400 Y-8.664
G0 X-25.563 Y-8.664
G1 F1920 X25.664 Y-8.663 E69.10155
G0 F7500 X25.500 Y-8.663
G0 X14.440 Y-15.300
G0 X14.440 Y-15.464
G1 F1920 X14.440 Y15.664 E70.22228
G0 F7500 X14.440 Y15.500
G0 X8.664 Y15.500
G0 X8.664 Y15.664
G1 F1920 X8.664 Y-15.464 E71.34302
G0 F7500 X8.664 Y-15.300
G0 X2.888 Y-15.300
G0 X2.888 Y-15.464
G1 F1920 X2.888 Y15.664 E72.46375
G0 F7500 X2.888 Y15.500
G0 X-2.888 Y15.500
G0 X-2.888 Y15.664
G1 F1920 X-2.888 Y-15.464 E73.58449
G0 F7500 X-2.888 Y-15.300
G0 X-8.664 Y-15.300
G0 X-8.664 Y-15.464
G1 F1920 X-8.664 Y15.664 E74.70522
G0 F7500 X-8.664 Y15.500
G0 X-14.440 Y15.500
G0 X-14.440 Y15.664
G1 F1920 X-14.440 Y-15.464 E75.82596
;LAYER:2
M106 S127
G1 F2400 E74.82596
G0 F7500 X0.216 Y0.216 Z0.700
;TYPE:WALL-OUTER
G1 F2400 E75.82596
G1 F2220 X0.284 Y0.216 E75.82841
G1 X0.284 Y0.284 E75.83086
G1 X0.216 Y0.284 E75.83330
G1 X0.216 Y0.216 E75.83575
G0 F7500 X-0.700 Y-0.700
;TYPE:SUPPORT
G1 F2100 X-0.700 Y1.200 E75.90416
G1 X1.200 Y1.200 E75.97257
G1 X1.200 Y-0.700 E76.04098
G1 X-0.700 Y-0.700 E76.10938
G0 F7500 X-0.690 Y-0.800
G0 X-25.500 Y-15.400
G1 F2100 X25.600 Y-15.400 E77.94919
G1 X25.600 Y15.600 E79.06532
G1 X-25.500 Y15.600 E80.90513
G1 X-25.500 Y-15.400 E82.02126
G0 F7500 X-25.563 Y-14.440
G1 F2100 X25.664 Y-14.439 E83.86564
G0 F7500 X25.500 Y-14.439
G0 X20.216 Y-15.300
G0 X20.216 Y-15.464
G1 F2100 X20.216 Y15.664 E84.98637
G0 F7500 X20.216 Y15.500
G0 X25.500 Y14.440
G0 X25.663 Y14.440
G1 F2100 X-25.564 Y14.439 E86.83075
G0 F7500 X-25.400 Y14.439
G0 X-20.216 Y15.500
G0 X-20.216 Y15.664
G1 F2100 X-20.216 Y-15.464 E87.95149
G0 F7500 X-20.216 Y-15.300
G0 X-25.400 Y-8.664
G0 X-25.563 Y-8.664
G1 F2100 X25.664 Y-8.663 E89.79587
G0 F7500 X25.500 Y-8.663
G0 X25.500 Y-2.887
G0 X25.664 Y-2.887
G1 F2100 X-25.563 Y-2.888 E91.64025
G0 F7500 X-25.400 Y-2.888
G0 X-25.400 Y2.887
G0 X-25.564 Y2.887
G1 F2100 X25.663 Y2.888 E93.48464
G0 F7500 X25.500 Y2.888
G0 X25.500 Y8.664
G0 X25.663 Y8.664
G1 F2100 X-25.564 Y8.663 E95.32902
G0 F7500 X-25.400 Y8.663
G0 X-14.440 Y15.500
G0 X-14.440 Y15.664
G1 F2100 X-14.440 Y-15.464 E96.44975
G0 F7500 X-14.440 Y-15.300
G0 X-8.664 Y-15.300
G0 X-8.664 Y-15.464
G1 F2100 X-8.664 Y15.664 E97.57049
G0 F7500 X-8.664 Y15.500
G0 X-2.888 Y15.500
G0 X-2.888 Y15.664
G1 F2100 X-2.888 Y-15.464 E98.69122
G0 F7500 X-2.888 Y-15.300
G0 X2.888 Y-15.300
G0 X2.888 Y-15.464
G1 F2100 X2.888 Y15.664 E99.81196
G0 F7500 X2.888 Y15.500
G0 X8.664 Y15.500
G0 X8.664 Y15.664
G1 F2100 X8.664 Y-15.464 E100.93270
G0 F7500 X8.664 Y-15.300
G0 X14.440 Y-15.300
G0 X14.440 Y-15.464
G1 F2100 X14.440 Y15.664 E102.05343
;LAYER:3
G1 F2400 E101.05343
G0 F7500 X0.284 Y0.284 Z0.900
;TYPE:WALL-OUTER
G1 F2400 E102.05343
G1 X0.216 Y0.284 E102.05588
G1 X0.216 Y0.216 E102.05833
G1 X0.284 Y0.216 E102.06078
G1 X0.284 Y0.284 E102.06322
G0 F7500 X1.200 Y1.200
;TYPE:SUPPORT
G1 F2220 X1.200 Y-0.700 E102.13163
G1 X-0.700 Y-0.700 E102.20004
G1 X-0.700 Y1.200 E102.26845
G1 X1.200 Y1.200 E102.33685
G0 F7500 X1.190 Y1.300
G0 X25.500 Y15.590
G0 X25.600 Y15.600
G1 F2220 X-25.500 Y15.600 E104.17666
G1 X-25.500 Y-15.400 E105.29279
G1 X25.600 Y-15.400 E107.13260
G1 X25.600 Y15.600 E108.24873
G0 F7500 X25.663 Y14.440
G1 F2220 X-25.564 Y14.439 E110.09311
G0 F7500 X-25.400 Y14.439
G0 X-20.216 Y15.500
G0 X-20.216 Y15.664
G1 F2220 X-20.216 Y-15.464 E111.21384
G0 F7500 X-20.216 Y-15.300
G0 X-25.400 Y-14.440
G0 X-25.563 Y-14.440
G1 F2220 X25.664 Y-14.439 E113.05823
G0 F7500 X25.500 Y-14.439
G0 X20.216 Y-15.300
G0 X20.216 Y-15.464
G1 F2220 X20.216 Y15.664 E114.17896
G0 F7500 X20.216 Y15.500
G0 X25.500 Y8.664
G0 X25.663 Y8.664
G1 F2220 X-25.564 Y8.663 E116.02334
G0 F7500 X-25.400 Y8.663
G0 X-25.400 Y2.887
G0 X-25.564 Y2.887
G1 F2220 X25.663 Y2.888 E117.86773
G0 F7500 X25.500 Y2.888
G0 X25.500 Y-2.887
G0 X25.664 Y-2.887
G1 F2220 X-25.563 Y-2.888 E119.71211
G0 F7500 X-25.400 Y-2.888
G0 X-25.400 Y-8.664
G0 X-25.563 Y-8.664
G1 F2220 X25.664 Y-8.663 E121.55649
G0 F7500 X25.500 Y-8.663
G0 X14.440 Y-15.300
G0 X14.440 Y-15.464
G1 F2220 X14.440 Y15.664 E122.67723
G0 F7500 X14.440 Y15.500
G0 X8.664 Y15.500
G0 X8.664 Y15.664
G1 F2220 X8.664 Y-15.464 E123.79796
G0 F7500 X8.664 Y-15.300
G0 X2.888 Y-15.300
G0 X2.888 Y-15.464
G1 F2220 X2.888 Y15.664 E124.91870
G0 F7500 X2.888 Y15.500
G0 X-2.888 Y15.500
G0 X-2.888 Y15.664
G1 F2220 X-2.888 Y-15.464 E126.03943
G0 F7500 X-2.888 Y-15.300
G0 X-8.664 Y-15.300
G0 X-8.664 Y-15.464
G1 F2220 X-8.664 Y15.664 E127.16017
G0 F7500 X-8.664 Y15.500
G0 X-14.440 Y15.500
G0 X-14.440 Y15.664
G1 F2220 X-14.440 Y-15.464 E128.28090
;LAYER:4
G1 F2400 E127.28090
G0 F7500 X0.216 Y0.216 Z1.100
;TYPE:WALL-OUTER
G1 F2400 E128.28090
G1 F2700 X0.284 Y0.216 E128.28335
G1 X0.284 Y0.284 E128.28580
G1 X0.216 Y0.284 E128.28825
G1 X0.216 Y0.216 E128.29070
G0 F7500 X-0.700 Y-0.700
;TYPE:SUPPORT
G1 F2400 X-0.700 Y1.200 E128.35910
G1 X1.200 Y1.200 E128.42751
G1 X1.200 Y-0.700 E128.49592
G1 X-0.700 Y-0.700 E128.56433
G0 F7500 X-0.690 Y-0.800
G0 X-25.500 Y-15.400
G1 F2400 X25.600 Y-15.400 E130.40414
G1 X25.600 Y15.600 E131.52026
G1 X-25.500 Y15.600 E133.36007
G1 X-25.500 Y-15.400 E134.47620
G0 F7500 X-25.563 Y-14.440
G1 F2400 X25.664 Y-14.439 E136.32058
G0 F7500 X25.500 Y-14.439
G0 X20.216 Y-15.300
G0 X20.216 Y-15.464
G1 F2400 X20.216 Y15.664 E137.44132
G0 F7500 X20.216 Y15.500
G0 X25.500 Y14.440
G0 X25.663 Y14.440
G1 F2400 X-25.564 Y14.439 E139.28570
G0 F7500 X-25.400 Y14.439
G0 X-20.216 Y15.500
G0 X-20.216 Y15.664
G1 F2400 X-20.216 Y-15.464 E140.40643
G0 F7500 X-20.216 Y-15.300
G0 X-25.400 Y-8.664
G0 X-25.563 Y-8.664
G1 F2400 X25.664 Y-8.663 E142.25082
G0 F7500 X25.500 Y-8.663
G0 X25.500 Y-2.887
G0 X25.664 Y-2.887
G1 F2400 X-25.563 Y-2.888 E144.09520
G0 F7500 X-25.400 Y-2.888
G0 X-25.400 Y2.887
G0 X-25.564 Y2.887
G1 F2400 X25.663 Y2.888 E145.93958
G0 F7500 X25.500 Y2.888
G0 X25.500 Y8.664
G0 X25.663 Y8.664
G1 F2400 X-25.564 Y8.663 E147.78396
G0 F7500 X-25.400 Y8.663
G0 X-14.440 Y15.500
G0 X-14.440 Y15.664
G1 F2400 X-14.440 Y-15.464 E148.90470
G0 F7500 X-14.440 Y-15.300
G0 X-8.664 Y-15.300
G0 X-8.664 Y-15.464
G1 F2400 X-8.664 Y15.664 E150.02543
G0 F7500 X-8.664 Y15.500
G0 X-2.888 Y15.500
G0 X-2.888 Y15.664
G1 F2400 X-2.888 Y-15.464 E151.14617
G0 F7500 X-2.888 Y-15.300
G0 X2.888 Y-15.300
G0 X2.888 Y-15.464
G1 F2400 X2.888 Y15.664 E152.26690
G0 F7500 X2.888 Y15.500
G0 X8.664 Y15.500
G0 X8.664 Y15.664
G1 F2400 X8.664 Y-15.464 E153.38764
G0 F7500 X8.664 Y-15.300
G0 X14.440 Y-15.300
G0 X14.440 Y-15.464
G1 F2400 X14.440 Y15.664 E154.50837
;LAYER:5
G1 F2400 E153.50837
G0 F7500 X0.284 Y0.284 Z1.300
;TYPE:WALL-OUTER
G1 F2400 E154.50837
G1 F2700 X0.216 Y0.284 E154.51082
G1 X0.216 Y0.216 E154.51327
G1 X0.284 Y0.216 E154.51572
G1 X0.284 Y0.284 E154.51817
G0 F7500 X1.200 Y1.200
;TYPE:SUPPORT
G1 F2400 X1.200 Y-0.700 E154.58658
G1 X-0.700 Y-0.700 E154.65498
G1 X-0.700 Y1.200 E154.72339
G1 X1.200 Y1.200 E154.79180
G0 F7500 X1.190 Y1.300
G0 X25.500 Y15.590
G0 X25.600 Y15.600
G1 F2400 X-25.500 Y15.600 E156.63161
G1 X-25.500 Y-15.400 E157.74773
G1 X25.600 Y-15.400 E159.58754
G1 X25.600 Y15.600 E160.70367
G0 F7500 X25.663 Y14.440
G1 F2400 X-25.564 Y14.439 E162.54805
G0 F7500 X-25.400 Y14.439
G0 X-20.216 Y15.500
G0 X-20.216 Y15.664
G1 F2400 X-20.216 Y-15.464 E163.66879
G0 F7500 X-20.216 Y-15.300
G0 X-25.400 Y-14.440
G0 X-25.563 Y-14.440
G1 F2400 X25.664 Y-14.439 E165.51317
G0 F7500 X25.500 Y-14.439
G0 X20.216 Y-15.300
G0 X20.216 Y-15.464
G1 F2400 X20.216 Y15.664 E166.63391
G0 F7500 X20.216 Y15.500
G0 X25.500 Y8.664
G0 X25.663 Y8.664
G1 F2400 X-25.564 Y8.663 E168.47829
G0 F7500 X-25.400 Y8.663
G0 X-25.400 Y2.887
G0 X-25.564 Y2.887
G1 F2400 X25.663 Y2.888 E170.32267
G0 F7500 X25.500 Y2.888
G0 X25.500 Y-2.887
G0 X25.664 Y-2.887
G1 F2400 X-25.563 Y-2.888 E172.16705
G0 F7500 X-25.400 Y-2.888
G0 X-25.400 Y-8.664
G0 X-25.563 Y-8.664
G1 F2400 X25.664 Y-8.663 E174.01143
G0 F7500 X25.500 Y-8.663
G0 X14.440 Y-15.300
G0 X14.440 Y-15.464
G1 F2400 X14.440 Y15.664 E175.13217
G0 F7500 X14.440 Y15.500
G0 X8.664 Y15.500
G0 X8.664 Y15.664
G1 F2400 X8.664 Y-15.464 E176.25290
G0 F7500 X8.664 Y-15.300
G0 X2.888 Y-15.300
G0 X2.888 Y-15.464
G1 F2400 X2.888 Y15.664 E177.37364
G0 F7500 X2.888 Y15.500
G0 X-2.888 Y15.500
G0 X-2.888 Y15.664
G1 F2400 X-2.888 Y-15.464 E178.49438
G0 F7500 X-2.888 Y-15.300
G0 X-8.664 Y-15.300
G0 X-8.664 Y-15.464
G1 F2400 X-8.664 Y15.664 E179.61511
G0 F7500 X-8.664 Y15.500
G0 X-14.440 Y15.500
G0 X-14.440 Y15.664
G1 F2400 X-14.440 Y-15.464 E180.73585
;LAYER:6
G1 F2400 E179.73585
G0 F7500 X0.216 Y0.216 Z1.500
;TYPE:WALL-OUTER
G1 F2400 E180.73585
G1 F2700 X0.284 Y0.216 E180.73829
G1 X0.284 Y0.284 E180.74074
G1 X0.216 Y0.284 E180.74319
G1 X0.216 Y0.216 E180.74564
G0 F7500 X-0.700 Y-0.700
;TYPE:SUPPORT
G1 F2400 X-0.700 Y1.200 E180.81405
G1 X1.200 Y1.200 E180.88246
G1 X1.200 Y-0.700 E180.95086
G1 X-0.700 Y-0.700 E181.01927
G0 F7500 X-0.690 Y-0.800
G0 X-25.500 Y-15.400
G1 F2400 X25.600 Y-15.400 E182.85908
G1 X25.600 Y15.600 E183.97521
G1 X-25.500 Y15.600 E185.81502
G1 X-25.500 Y-15.400 E186.93114
G0 F7500 X-25.563 Y-14.440
G1 F2400 X25.664 Y-14.439 E188.77553
G0 F7500 X25.500 Y-14.439
G0 X20.216 Y-15.300
G0 X20.216 Y-15.464
G1 F2400 X20.216 Y15.664 E189.89626
G0 F7500 X20.216 Y15.500
G0 X25.500 Y14.440
G0 X25.663 Y14.440
G1 F2400 X-25.564 Y14.439 E191.74064
G0 F7500 X-25.400 Y14.439
G0 X-20.216 Y15.500
G0 X-20.216 Y15.664
G1 F2400 X-20.216 Y-15.464 E192.86138
G0 F7500 X-20.216 Y-15.300
G0 X-25.400 Y-8.664
G0 X-25.563 Y-8.664
G1 F2400 X25.664 Y-8.663 E194.70576
G0 F7500 X25.500 Y-8.663
G0 X25.500 Y-2.887
G0 X25.664 Y-2.887
G1 F2400 X-25.563 Y-2.888 E196.55014
G0 F7500 X-25.400 Y-2.888
G0 X-25.400 Y2.887
G0 X-25.564 Y2.887
G1 F2400 X25.663 Y2.888 E198.39452
G0 F7500 X25.500 Y2.888
G0 X25.500 Y8.664
G0 X25.663 Y8.664
G1 F2400 X-25.564 Y8.663 E200.23891
G0 F7500 X-25.400 Y8.663
G0 X-14.440 Y15.500
G0 X-14.440 Y15.664
G1 F2400 X-14.440 Y-15.464 E201.35964
G0 F7500 X-14.440 Y-15.300
G0 X-8.664 Y-15.300
G0 X-8.664 Y-15.464
G1 F2400 X-8.664 Y15.664 E202.48038
G0 F7500 X-8.664 Y15.500
G0 X-2.888 Y15.500
G0 X-2.888 Y15.664
G1 F2400 X-2.888 Y-15.464 E203.60111
G0 F7500 X-2.888 Y-15.300
G0 X2.888 Y-15.300
G0 X2.888 Y-15.464
G1 F2400 X2.888 Y15.664 E204.72185
G0 F7500 X2.888 Y15.500
G0 X8.664 Y15.500
G0 X8.664 Y15.664
G1 F2400 X8.664 Y-15.464 E205.84258
G0 F7500 X8.664 Y-15.300
G0 X14.440 Y-15.300
G0 X14.440 Y-15.464
G1 F2400 X14.440 Y15.664 E206.96332
;LAYER:7
G1 F2400 E205.96332
G0 F7500 X0.284 Y0.284 Z1.700
;TYPE:WALL-OUTER
G1 F2400 E206.96332
G1 F2700 X0.216 Y0.284 E206.96577
G1 X0.216 Y0.216 E206.96821
G1 X0.284 Y0.216 E206.97066
G1 X0.284 Y0.284 E206.97311
G0 F7500 X1.200 Y1.200
;TYPE:SUPPORT
G1 F2400 X1.200 Y-0.700 E207.04152
G1 X-0.700 Y-0.700 E207.10993
G1 X-0.700 Y1.200 E207.17833
G1 X1.200 Y1.200 E207.24674
G0 F7500 X1.190 Y1.300
G0 X25.500 Y15.590
G0 X25.600 Y15.600
G1 F2400 X-25.500 Y15.600 E209.08655
G1 X-25.500 Y-15.400 E210.20268
G1 X25.600 Y-15.400 E212.04249
G1 X25.600 Y15.600 E213.15862
G0 F7500 X25.663 Y14.440
G1 F2400 X-25.564 Y14.439 E215.00300
G0 F7500 X-25.400 Y14.439
G0 X-20.216 Y15.500
G0 X-20.216 Y15.664
G1 F2400 X-20.216 Y-15.464 E216.12373
G0 F7500 X-20.216 Y-15.300
G0 X-25.400 Y-14.440
G0 X-25.563 Y-14.440
G1 F2400 X25.664 Y-14.439 E217.96811
G0 F7500 X25.500 Y-14.439
G0 X20.216 Y-15.300
G0 X20.216 Y-15.464
G1 F2400 X20.216 Y15.664 E219.08885
G0 F7500 X20.216 Y15.500
G0 X25.500 Y8.664
G0 X25.663 Y8.664
G1 F2400 X-25.564 Y8.663 E220.93323
G0 F7500 X-25.400 Y8.663
G0 X-25.400 Y2.887
G0 X-25.564 Y2.887
G1 F2400 X25.663 Y2.888 E222.77761
G0 F7500 X25.500 Y2.888
G0 X25.500 Y-2.887
G0 X25.664 Y-2.887
G1 F2400 X-25.563 Y-2.888 E224.62200
G0 F7500 X-25.400 Y-2.888
G0 X-25.400 Y-8.664
G0 X-25.563 Y-8.664
G1 F2400 X25.664 Y-8.663 E226.46638
G0 F7500 X25.500 Y-8.663
G0 X14.440 Y-15.300
G0 X14.440 Y-15.464
G1 F2400 X14.440 Y15.664 E227.58711
G0 F7500 X14.440 Y15.500
G0 X8.664 Y15.500
G0 X8.664 Y15.664
G1 F2400 X8.664 Y-15.464 E228.70785
G0 F7500 X8.664 Y-15.300
G0 X2.888 Y-15.300
G0 X2.888 Y-15.464
G1 F2400 X2.888 Y15.664 E229.82858
G0 F7500 X2.888 Y15.500
G0 X-2.888 Y15.500
G0 X-2.888 Y15.664
G1 F2400 X-2.888 Y-15.464 E230.94932
G0 F7500 X-2.888 Y-15.300
G0 X-8.664 Y-15.300
G0 X-8.664 Y-15.464
G1 F2400 X-8.664 Y15.664 E232.07005
G0 F7500 X-8.664 Y15.500
G0 X-14.440 Y15.500
G0 X-14.440 Y15.664
G1 F2400 X-14.440 Y-15.464 E233.19079
;LAYER:8
G1 F2400 E232.19079
G0 F7500 X0.216 Y0.216 Z1.900
;TYPE:WALL-OUTER
G1 F2400 E233.19079
G1 F2700 X0.284 Y0.216 E233.19324
G1 X0.284 Y0.284 E233.19569
G1 X0.216 Y0.284 E233.19813
G1 X0.216 Y0.216 E233.20058
G0 F7500 X-0.700 Y-0.700
;TYPE:SUPPORT
G1 F2400 X-0.700 Y1.200 E233.26899
G1 X1.200 Y1.200 E233.33740
G1 X1.200 Y-0.700 E233.40581
G1 X-0.700 Y-0.700 E233.47421
G0 F7500 X-0.690 Y-0.800
G0 X-25.500 Y-15.400
