;Generated with Cura_SteamEngine 15.04.6

;Layer count: 16
;LAYER:0
M107
G0 F7500 X-28.716 Y-23.616 Z0.300
;TYPE:SKIRT
G1 F1800 X28.816 Y-23.616 E3.10708
G1 X28.816 Y23.816 E5.66870
G1 X-28.716 Y23.816 E8.77578
G1 X-28.716 Y-23.616 E11.33740
G1 F2400 E10.33740
G0 F7500 X0.216 Y0.216
;TYPE:WALL-OUTER
G1 F2400 E11.33740
G1 F1800 X0.284 Y0.216 E11.34107
G1 X0.284 Y0.284 E11.34475
G1 X0.216 Y0.284 E11.34842
G1 X0.216 Y0.216 E11.35209
G0 F7500 X-0.700 Y-0.700
;TYPE:SUPPORT
G1 F1800 X-0.700 Y1.200 E11.45470
G1 X1.200 Y1.200 E11.55731
G1 X1.200 Y-0.700 E11.65993
G1 X-0.700 Y-0.700 E11.76254
G0 F7500 X-0.690 Y-0.800
G0 X-25.500 Y-20.400
G1 F1800 X25.600 Y-20.400 E14.52225
G1 X25.600 Y20.600 E16.73650
G1 X-25.500 Y20.600 E19.49622
G1 X-25.500 Y-20.400 E21.71047
G0 F7500 X-25.563 Y-20.216
G1 F1800 X25.664 Y-20.215 E24.47704
G0 F7500 X25.500 Y-20.215
G0 X20.216 Y-20.300
G0 X20.216 Y-20.464
G1 F1800 X20.216 Y20.664 E26.69821
G0 F7500 X20.216 Y20.500
G0 X25.500 Y20.216
G0 X25.663 Y20.216
G1 F1800 X-25.564 Y20.215 E29.46478
G0 F7500 X-25.400 Y20.215
G0 X-20.216 Y20.500
G0 X-20.216 Y20.664
G1 F1800 X-20.216 Y-20.464 E31.68594
G0 F7500 X-20.216 Y-20.300
G0 X-14.440 Y-20.300
G0 X-14.440 Y-20.464
G1 F1800 X-14.440 Y20.664 E33.90711
G0 F7500 X-14.440 Y20.500
G0 X-8.664 Y20.500
G0 X-8.664 Y20.664
G1 F1800 X-8.664 Y-20.464 E36.12827
G0 F7500 X-8.664 Y-20.300
G0 X-2.888 Y-20.300
G0 X-2.888 Y-20.464
G1 F1800 X-2.888 Y20.664 E38.34944
G0 F7500 X-2.888 Y20.500
G0 X2.888 Y20.500
G0 X2.888 Y20.664
G1 F1800 X2.888 Y-20.464 E40.57060
G0 F7500 X2.888 Y-20.300
G0 X8.664 Y-20.300
G0 X8.664 Y-20.464
G1 F1800 X8.664 Y20.664 E42.79177
G0 F7500 X8.664 Y20.500
G0 X14.440 Y20.500
G0 X14.440 Y20.664
G1 F1800 X14.440 Y-20.464 E45.01293
G0 F7500 X14.440 Y-20.300
G0 X25.500 Y-14.439
G0 X25.664 Y-14.439
G1 F1800 X-25.563 Y-14.440 E47.77951
G0 F7500 X-25.400 Y-14.440
G0 X-25.400 Y-8.664
G0 X-25.563 Y-8.664
G1 F1800 X25.664 Y-8.663 E50.54608
G0 F7500 X25.500 Y-8.663
G0 X25.500 Y-2.887
G0 X25.664 Y-2.887
G1 F1800 X-25.563 Y-2.888 E53.31265
G0 F7500 X-25.400 Y-2.888
G0 X-25.400 Y2.887
G0 X-25.564 Y2.887
G1 F1800 X25.663 Y2.888 E56.07922
G0 F7500 X25.500 Y2.888
G0 X25.500 Y8.664
G0 X25.663 Y8.664
G1 F1800 X-25.564 Y8.663 E58.84580
G0 F7500 X-25.400 Y8.663
G0 X-25.400 Y14.439
G0 X-25.564 Y14.439
G1 F1800 X25.663 Y14.440 E61.61237
;LAYER:1
M106 S63
G1 F2400 E60.61237
G0 F7500 X0.284 Y0.284 Z0.500
;TYPE:WALL-OUTER
G1 F2400 E61.61237
G1 F1980 X0.216 Y0.284 E61.61482
G1 X0.216 Y0.216 E61.61727
G1 X0.284 Y0.216 E61.61971
G1 X0.284 Y0.284 E61.62216
G0 F7500 X1.200 Y1.200
;TYPE:SUPPORT
G1 F1920 X1.200 Y-0.700 E61.69057
G1 X-0.700 Y-0.700 E61.75898
G1 X-0.700 Y1.200 E61.82739
G1 X1.200 Y1.200 E61.89579
G0 F7500 X1.190 Y1.300
G0 X25.500 Y20.590
G0 X25.600 Y20.600
G1 F1920 X-25.500 Y20.600 E63.73560
G1 X-25.500 Y-20.400 E65.21177
G1 X25.600 Y-20.400 E67.05158
G1 X25.600 Y20.600 E68.52775
G0 F7500 X25.663 Y20.216
G1 F1920 X-25.564 Y20.215 E70.37213
G0 F7500 X-25.400 Y20.215
G0 X-20.216 Y20.500
G0 X-20.216 Y20.664
G1 F1920 X-20.216 Y-20.464 E71.85291
G0 F7500 X-20.216 Y-20.300
G0 X-25.400 Y-20.216
G0 X-25.563 Y-20.216
G1 F1920 X25.664 Y-20.215 E73.69729
G0 F7500 X25.500 Y-20.215
G0 X20.216 Y-20.300
G0 X20.216 Y-20.464
G1 F1920 X20.216 Y20.664 E75.17807
G0 F7500 X20.216 Y20.500
G0 X14.440 Y20.500
G0 X14.440 Y20.664
G1 F1920 X14.440 Y-20.464 E76.65884
G0 F7500 X14.440 Y-20.300
G0 X8.664 Y-20.300
G0 X8.664 Y-20.464
G1 F1920 X8.664 Y20.664 E78.13962
G0 F7500 X8.664 Y20.500
G0 X2.888 Y20.500
G0 X2.888 Y20.664
G1 F1920 X2.888 Y-20.464 E79.62039
G0 F7500 X2.888 Y-20.300
G0 X-2.888 Y-20.300
G0 X-2.888 Y-20.464
G1 F1920 X-2.888 Y20.664 E81.10117
G0 F7500 X-2.888 Y20.500
G0 X-8.664 Y20.500
G0 X-8.664 Y20.664
G1 F1920 X-8.664 Y-20.464 E82.58195
G0 F7500 X-8.664 Y-20.300
G0 X-14.440 Y-20.300
G0 X-14.440 Y-20.464
G1 F1920 X-14.440 Y20.664 E84.06272
G0 F7500 X-14.440 Y20.500
G0 X-25.400 Y14.439
G0 X-25.564 Y14.439
G1 F1920 X25.663 Y14.440 E85.90711
G0 F7500 X25.500 Y14.440
G0 X25.500 Y8.664
G0 X25.663 Y8.664
G1 F1920 X-25.564 Y8.663 E87.75149
G0 F7500 X-25.400 Y8.663
G0 X-25.400 Y2.887
G0 X-25.564 Y2.887
G1 F1920 X25.663 Y2.888 E89.59587
G0 F7500 X25.500 Y2.888
G0 X25.500 Y-2.887
G0 X25.664 Y-2.887
G1 F1920 X-25.563 Y-2.888 E91.44025
G0 F7500 X-25.400 Y-2.888
G0 X-25.400 Y-8.664
G0 X-25.563 Y-8.664
G1 F1920 X25.664 Y-8.663 E93.28463
G0 F7500 X25.500 Y-8.663
G0 X25.500 Y-14.439
G0 X25.664 Y-14.439
G1 F1920 X-25.563 Y-14.440 E95.12901
;LAYER:2
M106 S127
G1 F2400 E94.12901
G0 F7500 X0.216 Y0.216 Z0.700
;TYPE:WALL-OUTER
G1 F2400 E95.12901
G1 F2220 X0.284 Y0.216 E95.13146
G1 X0.284 Y0.284 E95.13391
G1 X0.216 Y0.284 E95.13636
G1 X0.216 Y0.216 E95.13881
G0 F7500 X-0.700 Y-0.700
;TYPE:SUPPORT
G1 F2100 X-0.700 Y1.200 E95.20722
G1 X1.200 Y1.200 E95.27562
G1 X1.200 Y-0.700 E95.34403
G1 X-0.700 Y-0.700 E95.41244
G0 F7500 X-0.690 Y-0.800
G0 X-25.500 Y-20.400
G1 F2100 X25.600 Y-20.400 E97.25225
G1 X25.600 Y20.600 E98.72842
G1 X-25.500 Y20.600 E100.56823
G1 X-25.500 Y-20.400 E102.04439
G0 F7500 X-25.563 Y-20.216
G1 F2100 X25.664 Y-20.215 E103.88878
G0 F7500 X25.500 Y-20.215
G0 X20.216 Y-20.300
G0 X20.216 Y-20.464
G1 F2100 X20.216 Y20.664 E105.36955
G0 F7500 X20.216 Y20.500
G0 X25.500 Y20.216
G0 X25.663 Y20.216
G1 F2100 X-25.564 Y20.215 E107.21393
G0 F7500 X-25.400 Y20.215
G0 X-20.216 Y20.500
G0 X-20.216 Y20.664
G1 F2100 X-20.216 Y-20.464 E108.69471
G0 F7500 X-20.216 Y-20.300
G0 X-14.440 Y-20.300
G0 X-14.440 Y-20.464
G1 F2100 X-14.440 Y20.664 E110.17549
G0 F7500 X-14.440 Y20.500
G0 X-8.664 Y20.500
G0 X-8.664 Y20.664
G1 F2100 X-8.664 Y-20.464 E111.65626
G0 F7500 X-8.664 Y-20.300
G0 X-2.888 Y-20.300
G0 X-2.888 Y-20.464
G1 F2100 X-2.888 Y20.664 E113.13704
G0 F7500 X-2.888 Y20.500
G0 X2.888 Y20.500
G0 X2.888 Y20.664
G1 F2100 X2.888 Y-20.464 E114.61782
G0 F7500 X2.888 Y-20.300
G0 X8.664 Y-20.300
G0 X8.664 Y-20.464
G1 F2100 X8.664 Y20.664 E116.09859
G0 F7500 X8.664 Y20.500
G0 X14.440 Y20.500
G0 X14.440 Y20.664
G1 F2100 X14.440 Y-20.464 E117.57937
G0 F7500 X14.440 Y-20.300
G0 X25.500 Y-14.439
G0 X25.664 Y-14.439
G1 F2100 X-25.563 Y-14.440 E119.42375
G0 F7500 X-25.400 Y-14.440
G0 X-25.400 Y-8.664
G0 X-25.563 Y-8.664
G1 F2100 X25.664 Y-8.663 E121.26813
G0 F7500 X25.500 Y-8.663
G0 X25.500 Y-2.887
G0 X25.664 Y-2.887
G1 F2100 X-25.563 Y-2.888 E123.11251
G0 F7500 X-25.400 Y-2.888
G0 X-25.400 Y2.887
G0 X-25.564 Y2.887
G1 F2100 X25.663 Y2.888 E124.95690
G0 F7500 X25.500 Y2.888
G0 X25.500 Y8.664
G0 X25.663 Y8.664
G1 F2100 X-25.564 Y8.663 E126.80128
G0 F7500 X-25.400 Y8.663
G0 X-25.400 Y14.439
G0 X-25.564 Y14.439
G1 F2100 X25.663 Y14.440 E128.64566
;LAYER:3
G1 F2400 E127.64566
G0 F7500 X0.284 Y0.284 Z0.900
;TYPE:WALL-OUTER
G1 F2400 E128.64566
G1 X0.216 Y0.284 E128.64811
G1 X0.216 Y0.216 E128.65056
G1 X0.284 Y0.216 E128.65300
G1 X0.284 Y0.284 E128.65545
G0 F7500 X1.200 Y1.200
;TYPE:SUPPORT
G1 F2220 X1.200 Y-0.700 E128.72386
G1 X-0.700 Y-0.700 E128.79227
G1 X-0.700 Y1.200 E128.86068
G1 X1.200 Y1.200 E128.92908
G0 F7500 X1.190 Y1.300
G0 X25.500 Y20.590
G0 X25.600 Y20.600
G1 F2220 X-25.500 Y20.600 E130.76889
G1 X-25.500 Y-20.400 E132.24506
G1 X25.600 Y-20.400 E134.08487
G1 X25.600 Y20.600 E135.56104
G0 F7500 X25.663 Y20.216
G1 F2220 X-25.564 Y20.215 E137.40542
G0 F7500 X-25.400 Y20.215
G0 X-20.216 Y20.500
G0 X-20.216 Y20.664
G1 F2220 X-20.216 Y-20.464 E138.88620
G0 F7500 X-20.216 Y-20.300
G0 X-25.400 Y-20.216
G0 X-25.563 Y-20.216
G1 F2220 X25.664 Y-20.215 E140.73058
G0 F7500 X25.500 Y-20.215
G0 X20.216 Y-20.300
G0 X20.216 Y-20.464
G1 F2220 X20.216 Y20.664 E142.21136
G0 F7500 X20.216 Y20.500
G0 X14.440 Y20.500
G0 X14.440 Y20.664
G1 F2220 X14.440 Y-20.464 E143.69213
G0 F7500 X14.440 Y-20.300
G0 X8.664 Y-20.300
G0 X8.664 Y-20.464
G1 F2220 X8.664 Y20.664 E145.17291
G0 F7500 X8.664 Y20.500
G0 X2.888 Y20.500
G0 X2.888 Y20.664
G1 F2220 X2.888 Y-20.464 E146.65368
G0 F7500 X2.888 Y-20.300
G0 X-2.888 Y-20.300
G0 X-2.888 Y-20.464
G1 F2220 X-2.888 Y20.664 E148.13446
G0 F7500 X-2.888 Y20.500
G0 X-8.664 Y20.500
G0 X-8.664 Y20.664
G1 F2220 X-8.664 Y-20.464 E149.61524
G0 F7500 X-8.664 Y-20.300
G0 X-14.440 Y-20.300
G0 X-14.440 Y-20.464
G1 F2220 X-14.440 Y20.664 E151.09601
G0 F7500 X-14.440 Y20.500
G0 X-25.400 Y14.439
G0 X-25.564 Y14.439
G1 F2220 X25.663 Y14.440 E152.94040
G0 F7500 X25.500 Y14.440
G0 X25.500 Y8.664
G0 X25.663 Y8.664
G1 F2220 X-25.564 Y8.663 E154.78478
G0 F7500 X-25.400 Y8.663
G0 X-25.400 Y2.887
G0 X-25.564 Y2.887
G1 F2220 X25.663 Y2.888 E156.62916
G0 F7500 X25.500 Y2.888
G0 X25.500 Y-2.887
G0 X25.664 Y-2.887
G1 F2220 X-25.563 Y-2.888 E158.47354
G0 F7500 X-25.400 Y-2.888
G0 X-25.400 Y-8.664
G0 X-25.563 Y-8.664
G1 F2220 X25.664 Y-8.663 E160.31792
G0 F7500 X25.500 Y-8.663
G0 X25.500 Y-14.439
G0 X25.664 Y-14.439
G1 F2220 X-25.563 Y-14.440 E162.16231
;LAYER:4
G1 F2400 E161.16231
G0 F7500 X0.216 Y0.216 Z1.100
;TYPE:WALL-OUTER
G1 F2400 E162.16231
G1 F2700 X0.284 Y0.216 E162.16475
G1 X0.284 Y0.284 E162.16720
G1 X0.216 Y0.284 E162.16965
G1 X0.216 Y0.216 E162.17210
G0 F7500 X-0.700 Y-0.700
;TYPE:SUPPORT
G1 F2400 X-0.700 Y1.200 E162.24051
G1 X1.200 Y1.200 E162.30891
G1 X1.200 Y-0.700 E162.37732
G1 X-0.700 Y-0.700 E162.44573
G0 F7500 X-0.690 Y-0.800
G0 X-25.500 Y-20.400
G1 F2400 X25.600 Y-20.400 E164.28554
G1 X25.600 Y20.600 E165.76171
G1 X-25.500 Y20.600 E167.60152
G1 X-25.500 Y-20.400 E169.07768
G0 F7500 X-25.563 Y-20.216
G1 F2400 X25.664 Y-20.215 E170.92207
G0 F7500 X25.500 Y-20.215
G0 X20.216 Y-20.300
G0 X20.216 Y-20.464
G1 F2400 X20.216 Y20.664 E172.40284
G0 F7500 X20.216 Y20.500
G0 X25.500 Y20.216
G0 X25.663 Y20.216
G1 F2400 X-25.564 Y20.215 E174.24722
G0 F7500 X-25.400 Y20.215
G0 X-20.216 Y20.500
G0 X-20.216 Y20.664
G1 F2400 X-20.216 Y-20.464 E175.72800
G0 F7500 X-20.216 Y-20.300
G0 X-14.440 Y-20.300
G0 X-14.440 Y-20.464
G1 F2400 X-14.440 Y20.664 E177.20878
G0 F7500 X-14.440 Y20.500
G0 X-8.664 Y20.500
G0 X-8.664 Y20.664
G1 F2400 X-8.664 Y-20.464 E178.68955
G0 F7500 X-8.664 Y-20.300
G0 X-2.888 Y-20.300
G0 X-2.888 Y-20.464
G1 F2400 X-2.888 Y20.664 E180.17033
G0 F7500 X-2.888 Y20.500
G0 X2.888 Y20.500
G0 X2.888 Y20.664
G1 F2400 X2.888 Y-20.464 E181.65111
G0 F7500 X2.888 Y-20.300
G0 X8.664 Y-20.300
G0 X8.664 Y-20.464
G1 F2400 X8.664 Y20.664 E183.13188
G0 F7500 X8.664 Y20.500
G0 X14.440 Y20.500
G0 X14.440 Y20.664
G1 F2400 X14.440 Y-20.464 E184.61266
G0 F7500 X14.440 Y-20.300
G0 X25.500 Y-14.439
G0 X25.664 Y-14.439
G1 F2400 X-25.563 Y-14.440 E186.45704
G0 F7500 X-25.400 Y-14.440
G0 X-25.400 Y-8.664
G0 X-25.563 Y-8.664
G1 F2400 X25.664 Y-8.663 E188.30142
G0 F7500 X25.500 Y-8.663
G0 X25.500 Y-2.887
G0 X25.664 Y-2.887
G1 F2400 X-25.563 Y-2.888 E190.14580
G0 F7500 X-25.400 Y-2.888
G0 X-25.400 Y2.887
G0 X-25.564 Y2.887
G1 F2400 X25.663 Y2.888 E191.99019
G0 F7500 X25.500 Y2.888
G0 X25.500 Y8.664
G0 X25.663 Y8.664
G1 F2400 X-25.564 Y8.663 E193.83457
G0 F7500 X-25.400 Y8.663
G0 X-25.400 Y14.439
G0 X-25.564 Y14.439
G1 F2400 X25.663 Y14.440 E195.67895
;LAYER:5
G1 F2400 E194.67895
G0 F7500 X0.284 Y0.284 Z1.300
;TYPE:WALL-OUTER
G1 F2400 E195.67895
G1 F2700 X0.216 Y0.284 E195.68140
G1 X0.216 Y0.216 E195.68385
G1 X0.284 Y0.216 E195.68630
G1 X0.284 Y0.284 E195.68874
G0 F7500 X1.200 Y1.200
;TYPE:SUPPORT
G1 F2400 X1.200 Y-0.700 E195.75715
G1 X-0.700 Y-0.700 E195.82556
G1 X-0.700 Y1.200 E195.89397
G1 X1.200 Y1.200 E195.96237
G0 F7500 X1.190 Y1.300
G0 X25.500 Y20.590
G0 X25.600 Y20.600
G1 F2400 X-25.500 Y20.600 E197.80218
G1 X-25.500 Y-20.400 E199.27835
G1 X25.600 Y-20.400 E201.11816
G1 X25.600 Y20.600 E202.59433
G0 F7500 X25.663 Y20.216
G1 F2400 X-25.564 Y20.215 E204.43871
G0 F7500 X-25.400 Y20.215
G0 X-20.216 Y20.500
G0 X-20.216 Y20.664
G1 F2400 X-20.216 Y-20.464 E205.91949
G0 F7500 X-20.216 Y-20.300
G0 X-25.400 Y-20.216
G0 X-25.563 Y-20.216
G1 F2400 X25.664 Y-20.215 E207.76387
G0 F7500 X25.500 Y-20.215
G0 X20.216 Y-20.300
G0 X20.216 Y-20.464
G1 F2400 X20.216 Y20.664 E209.24465
G0 F7500 X20.216 Y20.500
G0 X14.440 Y20.500
G0 X14.440 Y20.664
G1 F2400 X14.440 Y-20.464 E210.72542
G0 F7500 X14.440 Y-20.300
G0 X8.664 Y-20.300
G0 X8.664 Y-20.464
G1 F2400 X8.664 Y20.664 E212.20620
G0 F7500 X8.664 Y20.500
G0 X2.888 Y20.500
G0 X2.888 Y20.664
G1 F2400 X2.888 Y-20.464 E213.68698
G0 F7500 X2.888 Y-20.300
G0 X-2.888 Y-20.300
G0 X-2.888 Y-20.464
G1 F2400 X-2.888 Y20.664 E215.16775
G0 F7500 X-2.888 Y20.500
G0 X-8.664 Y20.500
G0 X-8.664 Y20.664
G1 F2400 X-8.664 Y-20.464 E216.64853
G0 F7500 X-8.664 Y-20.300
G0 X-14.440 Y-20.300
G0 X-14.440 Y-20.464
G1 F2400 X-14.440 Y20.664 E218.12930
G0 F7500 X-14.440 Y20.500
G0 X-25.400 Y14.439
G0 X-25.564 Y14.439
G1 F2400 X25.663 Y14.440 E219.97369
G0 F7500 X25.500 Y14.440
G0 X25.500 Y8.664
G0 X25.663 Y8.664
G1 F2400 X-25.564 Y8.663 E221.81807
G0 F7500 X-25.400 Y8.663
G0 X-25.400 Y2.887
G0 X-25.564 Y2.887
G1 F2400 X25.663 Y2.888 E223.66245
G0 F7500 X25.500 Y2.888
G0 X25.500 Y-2.887
G0 X25.664 Y-2.887
G1 F2400 X-25.563 Y-2.888 E225.50683
G0 F7500 X-25.400 Y-2.888
G0 X-25.400 Y-8.664
G0 X-25.563 Y-8.664
G1 F2400 X25.664 Y-8.663 E227.35121
G0 F7500 X25.500 Y-8.663
G0 X25.500 Y-14.439
G0 X25.664 Y-14.439
G1 F2400 X-25.563 Y-14.440 E229.19560
;LAYER:6
G1 F2400 E228.19560
G0 F7500 X0.216 Y0.216 Z1.500
;TYPE:WALL-OUTER
G1 F2400 E229.19560
G1 F2700 X0.284 Y0.216 E229.19804
G1 X0.284 Y0.284 E229.20049
G1 X0.216 Y0.284 E229.20294
G1 X0.216 Y0.216 E229.20539
G0 F7500 X-0.700 Y-0.700
;TYPE:SUPPORT
G1 F2400 X-0.700 Y1.200 E229.27380
G1 X1.200 Y1.200 E229.34220
G1 X1.200 Y-0.700 E229.41061
G1 X-0.700 Y-0.700 E229.47902
G0 F7500 X-0.690 Y-0.800
G0 X-25.500 Y-20.400
G1 F2400 X25.600 Y-20.400 E231.31883
G1 X25.600 Y20.600 E232.79500
G1 X-25.500 Y20.600 E234.63481
G1 X-25.500 Y-20.400 E236.11097
G0 F7500 X-25.563 Y-20.216
G1 F2400 X25.664 Y-20.215 E237.95536
G0 F7500 X25.500 Y-20.215
G0 X20.216 Y-20.300
G0 X20.216 Y-20.464
G1 F2400 X20.216 Y20.664 E239.43613
G0 F7500 X20.216 Y20.500
G0 X25.500 Y20.216
G0 X25.663 Y20.216
G1 F2400 X-25.564 Y20.215 E241.28051
G0 F7500 X-25.400 Y20.215
G0 X-20.216 Y20.500
G0 X-20.216 Y20.664
G1 F2400 X-20.216 Y-20.464 E242.76129
G0 F7500 X-20.216 Y-20.300
G0 X-14.440 Y-20.300
G0 X-14.440 Y-20.464
G1 F2400 X-14.440 Y20.664 E244.24207
G0 F7500 X-14.440 Y20.500
G0 X-8.664 Y20.500
G0 X-8.664 Y20.664
G1 F2400 X-8.664 Y-20.464 E245.72284
G0 F7500 X-8.664 Y-20.300
G0 X-2.888 Y-20.300
G0 X-2.888 Y-20.464
G1 F2400 X-2.888 Y20.664 E247.20362
G0 F7500 X-2.888 Y20.500
G0 X2.888 Y20.500
G0 X2.888 Y20.664
G1 F2400 X2.888 Y-20.464 E248.68440
G0 F7500 X2.888 Y-20.300
G0 X8.664 Y-20.300
G0 X8.664 Y-20.464
G1 F2400 X8.664 Y20.664 E250.16517
G0 F7500 X8.664 Y20.500
G0 X14.440 Y20.500
G0 X14.440 Y20.664
G1 F2400 X14.440 Y-20.464 E251.64595
G0 F7500 X14.440 Y-20.300
G0 X25.500 Y-14.439
G0 X25.664 Y-14.439
G1 F2400 X-25.563 Y-14.440 E253.49033
G0 F7500 X-25.400 Y-14.440
G0 X-25.400 Y-8.664
G0 X-25.563 Y-8.664
G1 F2400 X25.664 Y-8.663 E255.33471
G0 F7500 X25.500 Y-8.663
G0 X25.500 Y-2.887
G0 X25.664 Y-2.887
G1 F2400 X-25.563 Y-2.888 E257.17910
G0 F7500 X-25.400 Y-2.888
G0 X-25.400 Y2.887
G0 X-25.564 Y2.887
G1 F2400 X25.663 Y2.888 E259.02348
G0 F7500 X25.500 Y2.888
G0 X25.500 Y8.664
G0 X25.663 Y8.664
G1 F2400 X-25.564 Y8.663 E260.86786
G0 F7500 X-25.400 Y8.663
G0 X-25.400 Y14.439
G0 X-25.564 Y14.439
G1 F2400 X25.663 Y14.440 E262.71224
;LAYER:7
G1 F2400 E261.71224
G0 F7500 X0.284 Y0.284 Z1.700
;TYPE:WALL-OUTER
G1 F2400 E262.71224
G1 F2700 X0.216 Y0.284 E262.71469
G1 X0.216 Y0.216 E262.71714
G1 X0.284 Y0.216 E262.71959
G1 X0.284 Y0.284 E262.72203
G0 F7500 X1.200 Y1.200
;TYPE:SUPPORT
G1 F2400 X1.200 Y-0.700 E262.79044
G1 X-0.700 Y-0.700 E262.85885
G1 X-0.700 Y1.200 E262.92726
G1 X1.200 Y1.200 E262.99567
G0 F7500 X1.190 Y1.300
G0 X25.500 Y20.590
G0 X25.600 Y20.600
G1 F2400 X-25.500 Y20.600 E264.83547
G1 X-25.500 Y-20.400 E266.31164
G1 X25.600 Y-20.400 E268.15145
G1 X25.600 Y20.600 E269.62762
G0 F7500 X25.663 Y20.216
G1 F2400 X-25.564 Y20.215 E271.47200
G0 F7500 X-25.400 Y20.215
G0 X-20.216 Y20.500
G0 X-20.216 Y20.664
G1 F2400 X-20.216 Y-20.464 E272.95278
G0 F7500 X-20.216 Y-20.300
G0 X-25.400 Y-20.216
G0 X-25.563 Y-20.216
G1 F2400 X25.664 Y-20.215 E274.79716
G0 F7500 X25.500 Y-20.215
G0 X20.216 Y-20.300
G0 X20.216 Y-20.464
