;Generated with Cura_SteamEngine 15.04.6

;Layer count: 16
;LAYER:0
M107
G0 F7500 X-28.716 Y-28.616 Z0.300
;TYPE:SKIRT
G1 F1800 X28.816 Y-28.616 E3.10708
G1 X28.816 Y28.816 E6.20876
G1 X-28.716 Y28.816 E9.31584
G1 X-28.716 Y-28.616 E12.41752
G1 F2400 E11.41752
G0 F7500 X0.216 Y0.216
;TYPE:WALL-OUTER
G1 F2400 E12.41752
G1 F1800 X0.284 Y0.216 E12.42120
G1 X0.284 Y0.284 E12.42487
G1 X0.216 Y0.284 E12.42854
G1 X0.216 Y0.216 E12.43221
G0 F7500 X-0.700 Y-0.700
;TYPE:SUPPORT
G1 F1800 X-0.700 Y1.200 E12.53483
G1 X1.200 Y1.200 E12.63744
G1 X1.200 Y-0.700 E12.74005
G1 X-0.700 Y-0.700 E12.84266
G0 F7500 X-0.690 Y-0.800
G0 X-25.500 Y-25.400
G1 F1800 X25.600 Y-25.400 E15.60238
G1 X25.600 Y25.600 E18.35669
G1 X-25.500 Y25.600 E21.11640
G1 X-25.500 Y-25.400 E23.87072
G0 F7500 X-25.400 Y-20.216
G0 X-25.563 Y-20.216
G1 F1800 X25.664 Y-20.215 E26.63729
G0 F7500 X25.500 Y-20.215
G0 X20.216 Y-25.300
G0 X20.216 Y-25.464
G1 F1800 X20.216 Y25.664 E29.39851
G0 F7500 X20.216 Y25.500
G0 X25.500 Y20.216
G0 X25.663 Y20.216
G1 F1800 X-25.564 Y20.215 E32.16509
G0 F7500 X-25.400 Y20.215
G0 X-20.216 Y25.500
G0 X-20.216 Y25.664
G1 F1800 X-20.216 Y-25.464 E34.92631
G0 F7500 X-20.216 Y-25.300
G0 X-14.440 Y-25.300
G0 X-14.440 Y-25.464
G1 F1800 X-14.440 Y25.664 E37.68754
G0 F7500 X-14.440 Y25.500
G0 X-8.664 Y25.500
G0 X-8.664 Y25.664
G1 F1800 X-8.664 Y-25.464 E40.44877
G0 F7500 X-8.664 Y-25.300
G0 X-2.888 Y-25.300
G0 X-2.888 Y-25.464
G1 F1800 X-2.888 Y25.664 E43.20999
G0 F7500 X-2.888 Y25.500
G0 X2.888 Y25.500
G0 X2.888 Y25.664
G1 F1800 X2.888 Y-25.464 E45.97122
G0 F7500 X2.888 Y-25.300
G0 X8.664 Y-25.300
G0 X8.664 Y-25.464
G1 F1800 X8.664 Y25.664 E48.73244
G0 F7500 X8.664 Y25.500
G0 X14.440 Y25.500
G0 X14.440 Y25.664
G1 F1800 X14.440 Y-25.464 E51.49367
G0 F7500 X14.440 Y-25.300
G0 X25.500 Y-14.439
G0 X25.664 Y-14.439
G1 F1800 X-25.563 Y-14.440 E54.26024
G0 F7500 X-25.400 Y-14.440
G0 X-25.400 Y-8.664
G0 X-25.563 Y-8.664
G1 F1800 X25.664 Y-8.663 E57.02682
G0 F7500 X25.500 Y-8.663
G0 X25.500 Y-2.887
G0 X25.664 Y-2.887
G1 F1800 X-25.563 Y-2.888 E59.79339
G0 F7500 X-25.400 Y-2.888
G0 X-25.400 Y2.887
G0 X-25.564 Y2.887
G1 F1800 X25.663 Y2.888 E62.55996
G0 F7500 X25.500 Y2.888
G0 X25.500 Y8.664
G0 X25.663 Y8.664
G1 F1800 X-25.564 Y8.663 E65.32653
G0 F7500 X-25.400 Y8.663
G0 X-25.400 Y14.439
G0 X-25.564 Y14.439
G1 F1800 X25.663 Y14.440 E68.09311
;LAYER:1
M106 S63
G1 F2400 E67.09311
G0 F7500 X0.284 Y0.284 Z0.500
;TYPE:WALL-OUTER
G1 F2400 E68.09311
G1 F1980 X0.216 Y0.284 E68.09556
G1 X0.216 Y0.216 E68.09800
G1 X0.284 Y0.216 E68.10045
G1 X0.284 Y0.284 E68.10290
G0 F7500 X1.200 Y1.200
;TYPE:SUPPORT
G1 F1920 X1.200 Y-0.700 E68.17131
G1 X-0.700 Y-0.700 E68.23972
G1 X-0.700 Y1.200 E68.30812
G1 X1.200 Y1.200 E68.37653
G0 F7500 X1.190 Y1.300
G0 X25.500 Y25.590
G0 X25.600 Y25.600
G1 F1920 X-25.500 Y25.600 E70.21634
G1 X-25.500 Y-25.400 E72.05255
G1 X25.600 Y-25.400 E73.89236
G1 X25.600 Y25.600 E75.72857
G0 F7500 X25.500 Y25.590
G0 X25.500 Y20.216
G0 X25.663 Y20.216
G1 F1920 X-25.564 Y20.215 E77.57295
G0 F7500 X-25.400 Y20.215
G0 X-20.216 Y25.500
G0 X-20.216 Y25.664
G1 F1920 X-20.216 Y-25.464 E79.41377
G0 F7500 X-20.216 Y-25.300
G0 X-25.400 Y-20.216
G0 X-25.563 Y-20.216
G1 F1920 X25.664 Y-20.215 E81.25815
G0 F7500 X25.500 Y-20.215
G0 X20.216 Y-25.300
G0 X20.216 Y-25.464
G1 F1920 X20.216 Y25.664 E83.09897
G0 F7500 X20.216 Y25.500
G0 X14.440 Y25.500
G0 X14.440 Y25.664
G1 F1920 X14.440 Y-25.464 E84.93978
G0 F7500 X14.440 Y-25.300
G0 X8.664 Y-25.300
G0 X8.664 Y-25.464
G1 F1920 X8.664 Y25.664 E86.78060
G0 F7500 X8.664 Y25.500
G0 X2.888 Y25.500
G0 X2.888 Y25.664
G1 F1920 X2.888 Y-25.464 E88.62142
G0 F7500 X2.888 Y-25.300
G0 X-2.888 Y-25.300
G0 X-2.888 Y-25.464
G1 F1920 X-2.888 Y25.664 E90.46224
G0 F7500 X-2.888 Y25.500
G0 X-8.664 Y25.500
G0 X-8.664 Y25.664
G1 F1920 X-8.664 Y-25.464 E92.30305
G0 F7500 X-8.664 Y-25.300
G0 X-14.440 Y-25.300
G0 X-14.440 Y-25.464
G1 F1920 X-14.440 Y25.664 E94.14387
G0 F7500 X-14.440 Y25.500
G0 X-25.400 Y14.439
G0 X-25.564 Y14.439
G1 F1920 X25.663 Y14.440 E95.98825
G0 F7500 X25.500 Y14.440
G0 X25.500 Y8.664
G0 X25.663 Y8.664
G1 F1920 X-25.564 Y8.663 E97.83263
G0 F7500 X-25.400 Y8.663
G0 X-25.400 Y2.887
G0 X-25.564 Y2.887
G1 F1920 X25.663 Y2.888 E99.67702
G0 F7500 X25.500 Y2.888
G0 X25.500 Y-2.887
G0 X25.664 Y-2.887
G1 F1920 X-25.563 Y-2.888 E101.52140
G0 F7500 X-25.400 Y-2.888
G0 X-25.400 Y-8.664
G0 X-25.563 Y-8.664
G1 F1920 X25.664 Y-8.663 E103.36578
G0 F7500 X25.500 Y-8.663
G0 X25.500 Y-14.439
G0 X25.664 Y-14.439
G1 F1920 X-25.563 Y-14.440 E105.21016
;LAYER:2
M106 S127
G1 F2400 E104.21016
G0 F7500 X0.216 Y0.216 Z0.700
;TYPE:WALL-OUTER
G1 F2400 E105.21016
G1 F2220 X0.284 Y0.216 E105.21261
G1 X0.284 Y0.284 E105.21506
G1 X0.216 Y0.284 E105.21751
G1 X0.216 Y0.216 E105.21995
G0 F7500 X-0.700 Y-0.700
;TYPE:SUPPORT
G1 F2100 X-0.700 Y1.200 E105.28836
G1 X1.200 Y1.200 E105.35677
G1 X1.200 Y-0.700 E105.42518
G1 X-0.700 Y-0.700 E105.49359
G0 F7500 X-0.690 Y-0.800
G0 X-25.500 Y-25.400
G1 F2100 X25.600 Y-25.400 E107.33340
G1 X25.600 Y25.600 E109.16960
G1 X-25.500 Y25.600 E111.00941
G1 X-25.500 Y-25.400 E112.84562
G0 F7500 X-25.400 Y-20.216
G0 X-25.563 Y-20.216
G1 F2100 X25.664 Y-20.215 E114.69000
G0 F7500 X25.500 Y-20.215
G0 X20.216 Y-25.300
G0 X20.216 Y-25.464
G1 F2100 X20.216 Y25.664 E116.53082
G0 F7500 X20.216 Y25.500
G0 X25.500 Y20.216
G0 X25.663 Y20.216
G1 F2100 X-25.564 Y20.215 E118.37520
G0 F7500 X-25.400 Y20.215
G0 X-20.216 Y25.500
G0 X-20.216 Y25.664
G1 F2100 X-20.216 Y-25.464 E120.21602
G0 F7500 X-20.216 Y-25.300
G0 X-14.440 Y-25.300
G0 X-14.440 Y-25.464
G1 F2100 X-14.440 Y25.664 E122.05684
G0 F7500 X-14.440 Y25.500
G0 X-8.664 Y25.500
G0 X-8.664 Y25.664
G1 F2100 X-8.664 Y-25.464 E123.89766
G0 F7500 X-8.664 Y-25.300
G0 X-2.888 Y-25.300
G0 X-2.888 Y-25.464
G1 F2100 X-2.888 Y25.664 E125.73847
G0 F7500 X-2.888 Y25.500
G0 X2.888 Y25.500
G0 X2.888 Y25.664
G1 F2100 X2.888 Y-25.464 E127.57929
G0 F7500 X2.888 Y-25.300
G0 X8.664 Y-25.300
G0 X8.664 Y-25.464
G1 F2100 X8.664 Y25.664 E129.42011
G0 F7500 X8.664 Y25.500
G0 X14.440 Y25.500
G0 X14.440 Y25.664
G1 F2100 X14.440 Y-25.464 E131.26093
G0 F7500 X14.440 Y-25.300
G0 X25.500 Y-14.439
G0 X25.664 Y-14.439
G1 F2100 X-25.563 Y-14.440 E133.10531
G0 F7500 X-25.400 Y-14.440
G0 X-25.400 Y-8.664
G0 X-25.563 Y-8.664
G1 F2100 X25.664 Y-8.663 E134.94969
G0 F7500 X25.500 Y-8.663
G0 X25.500 Y-2.887
G0 X25.664 Y-2.887
G1 F2100 X-25.563 Y-2.888 E136.79407
G0 F7500 X-25.400 Y-2.888
G0 X-25.400 Y2.887
G0 X-25.564 Y2.887
G1 F2100 X25.663 Y2.888 E138.63845
G0 F7500 X25.500 Y2.888
G0 X25.500 Y8.664
G0 X25.663 Y8.664
G1 F2100 X-25.564 Y8.663 E140.48283
G0 F7500 X-25.400 Y8.663
G0 X-25.400 Y14.439
G0 X-25.564 Y14.439
G1 F2100 X25.663 Y14.440 E142.32722
;LAYER:3
G1 F2400 E141.32722
G0 F7500 X0.284 Y0.284 Z0.900
;TYPE:WALL-OUTER
G1 F2400 E142.32722
G1 X0.216 Y0.284 E142.32966
G1 X0.216 Y0.216 E142.33211
G1 X0.284 Y0.216 E142.33456
G1 X0.284 Y0.284 E142.33701
G0 F7500 X1.200 Y1.200
;TYPE:SUPPORT
G1 F2220 X1.200 Y-0.700 E142.40542
G1 X-0.700 Y-0.700 E142.47383
G1 X-0.700 Y1.200 E142.54223
G1 X1.200 Y1.200 E142.61064
G0 F7500 X1.190 Y1.300
G0 X25.500 Y25.590
G0 X25.600 Y25.600
G1 F2220 X-25.500 Y25.600 E144.45045
G1 X-25.500 Y-25.400 E146.28666
G1 X25.600 Y-25.400 E148.12647
G1 X25.600 Y25.600 E149.96268
G0 F7500 X25.500 Y25.590
G0 X25.500 Y20.216
G0 X25.663 Y20.216
G1 F2220 X-25.564 Y20.215 E151.80706
G0 F7500 X-25.400 Y20.215
G0 X-20.216 Y25.500
G0 X-20.216 Y25.664
G1 F2220 X-20.216 Y-25.464 E153.64788
G0 F7500 X-20.216 Y-25.300
G0 X-25.400 Y-20.216
G0 X-25.563 Y-20.216
G1 F2220 X25.664 Y-20.215 E155.49226
G0 F7500 X25.500 Y-20.215
G0 X20.216 Y-25.300
G0 X20.216 Y-25.464
G1 F2220 X20.216 Y25.664 E157.33308
G0 F7500 X20.216 Y25.500
G0 X14.440 Y25.500
G0 X14.440 Y25.664
G1 F2220 X14.440 Y-25.464 E159.17389
G0 F7500 X14.440 Y-25.300
G0 X8.664 Y-25.300
G0 X8.664 Y-25.464
G1 F2220 X8.664 Y25.664 E161.01471
G0 F7500 X8.664 Y25.500
G0 X2.888 Y25.500
G0 X2.888 Y25.664
G1 F2220 X2.888 Y-25.464 E162.85553
G0 F7500 X2.888 Y-25.300
G0 X-2.888 Y-25.300
G0 X-2.888 Y-25.464
G1 F2220 X-2.888 Y25.664 E164.69635
G0 F7500 X-2.888 Y25.500
G0 X-8.664 Y25.500
G0 X-8.664 Y25.664
G1 F2220 X-8.664 Y-25.464 E166.53716
G0 F7500 X-8.664 Y-25.300
G0 X-14.440 Y-25.300
G0 X-14.440 Y-25.464
G1 F2220 X-14.440 Y25.664 E168.37798
G0 F7500 X-14.440 Y25.500
G0 X-25.400 Y14.439
G0 X-25.564 Y14.439
G1 F2220 X25.663 Y14.440 E170.22236
G0 F7500 X25.500 Y14.440
G0 X25.500 Y8.664
G0 X25.663 Y8.664
G1 F2220 X-25.564 Y8.663 E172.06674
G0 F7500 X-25.400 Y8.663
G0 X-25.400 Y2.887
G0 X-25.564 Y2.887
G1 F2220 X25.663 Y2.888 E173.91113
G0 F7500 X25.500 Y2.888
G0 X25.500 Y-2.887
G0 X25.664 Y-2.887
G1 F2220 X-25.563 Y-2.888 E175.75551
G0 F7500 X-25.400 Y-2.888
G0 X-25.400 Y-8.664
G0 X-25.563 Y-8.664
G1 F2220 X25.664 Y-8.663 E177.59989
G0 F7500 X25.500 Y-8.663
G0 X25.500 Y-14.439
G0 X25.664 Y-14.439
G1 F2220 X-25.563 Y-14.440 E179.44427
;LAYER:4
G1 F2400 E178.44427
G0 F7500 X0.216 Y0.216 Z1.100
;TYPE:WALL-OUTER
G1 F2400 E179.44427
G1 F2700 X0.284 Y0.216 E179.44672
G1 X0.284 Y0.284 E179.44917
G1 X0.216 Y0.284 E179.45162
G1 X0.216 Y0.216 E179.45406
G0 F7500 X-0.700 Y-0.700
;TYPE:SUPPORT
G1 F2400 X-0.700 Y1.200 E179.52247
G1 X1.200 Y1.200 E179.59088
G1 X1.200 Y-0.700 E179.65929
G1 X-0.700 Y-0.700 E179.72770
G0 F7500 X-0.690 Y-0.800
G0 X-25.500 Y-25.400
G1 F2400 X25.600 Y-25.400 E181.56750
G1 X25.600 Y25.600 E183.40371
G1 X-25.500 Y25.600 E185.24352
G1 X-25.500 Y-25.400 E187.07973
G0 F7500 X-25.400 Y-20.216
G0 X-25.563 Y-20.216
G1 F2400 X25.664 Y-20.215 E188.92411
G0 F7500 X25.500 Y-20.215
G0 X20.216 Y-25.300
G0 X20.216 Y-25.464
G1 F2400 X20.216 Y25.664 E190.76493
G0 F7500 X20.216 Y25.500
G0 X25.500 Y20.216
G0 X25.663 Y20.216
G1 F2400 X-25.564 Y20.215 E192.60931
G0 F7500 X-25.400 Y20.215
G0 X-20.216 Y25.500
G0 X-20.216 Y25.664
G1 F2400 X-20.216 Y-25.464 E194.45013
G0 F7500 X-20.216 Y-25.300
G0 X-14.440 Y-25.300
G0 X-14.440 Y-25.464
G1 F2400 X-14.440 Y25.664 E196.29095
G0 F7500 X-14.440 Y25.500
G0 X-8.664 Y25.500
G0 X-8.664 Y25.664
G1 F2400 X-8.664 Y-25.464 E198.13177
G0 F7500 X-8.664 Y-25.300
G0 X-2.888 Y-25.300
G0 X-2.888 Y-25.464
G1 F2400 X-2.888 Y25.664 E199.97258
G0 F7500 X-2.888 Y25.500
G0 X2.888 Y25.500
G0 X2.888 Y25.664
G1 F2400 X2.888 Y-25.464 E201.81340
G0 F7500 X2.888 Y-25.300
G0 X8.664 Y-25.300
G0 X8.664 Y-25.464
G1 F2400 X8.664 Y25.664 E203.65422
G0 F7500 X8.664 Y25.500
G0 X14.440 Y25.500
G0 X14.440 Y25.664
G1 F2400 X14.440 Y-25.464 E205.49504
G0 F7500 X14.440 Y-25.300
G0 X25.500 Y-14.439
G0 X25.664 Y-14.439
G1 F2400 X-25.563 Y-14.440 E207.33942
G0 F7500 X-25.400 Y-14.440
G0 X-25.400 Y-8.664
G0 X-25.563 Y-8.664
G1 F2400 X25.664 Y-8.663 E209.18380
G0 F7500 X25.500 Y-8.663
G0 X25.500 Y-2.887
G0 X25.664 Y-2.887
G1 F2400 X-25.563 Y-2.888 E211.02818
G0 F7500 X-25.400 Y-2.888
G0 X-25.400 Y2.887
G0 X-25.564 Y2.887
G1 F2400 X25.663 Y2.888 E212.87256
G0 F7500 X25.500 Y2.888
G0 X25.500 Y8.664
G0 X25.663 Y8.664
G1 F2400 X-25.564 Y8.663 E214.71694
G0 F7500 X-25.400 Y8.663
G0 X-25.400 Y14.439
G0 X-25.564 Y14.439
G1 F2400 X25.663 Y14.440 E216.56133
;LAYER:5
G1 F2400 E215.56133
G0 F7500 X0.284 Y0.284 Z1.300
;TYPE:WALL-OUTER
G1 F2400 E216.56133
G1 F2700 X0.216 Y0.284 E216.56377
G1 X0.216 Y0.216 E216.56622
G1 X0.284 Y0.216 E216.56867
G1 X0.284 Y0.284 E216.57112
G0 F7500 X1.200 Y1.200
;TYPE:SUPPORT
G1 F2400 X1.200 Y-0.700 E216.63953
G1 X-0.700 Y-0.700 E216.70793
G1 X-0.700 Y1.200 E216.77634
G1 X1.200 Y1.200 E216.84475
G0 F7500 X1.190 Y1.300
G0 X25.500 Y25.590
G0 X25.600 Y25.600
G1 F2400 X-25.500 Y25.600 E218.68456
G1 X-25.500 Y-25.400 E220.52077
G1 X25.600 Y-25.400 E222.36058
G1 X25.600 Y25.600 E224.19679
G0 F7500 X25.500 Y25.590
G0 X25.500 Y20.216
G0 X25.663 Y20.216
G1 F2400 X-25.564 Y20.215 E226.04117
G0 F7500 X-25.400 Y20.215
G0 X-20.216 Y25.500
G0 X-20.216 Y25.664
G1 F2400 X-20.216 Y-25.464 E227.88199
G0 F7500 X-20.216 Y-25.300
G0 X-25.400 Y-20.216
G0 X-25.563 Y-20.216
G1 F2400 X25.664 Y-20.215 E229.72637
G0 F7500 X25.500 Y-20.215
G0 X20.216 Y-25.300
G0 X20.216 Y-25.464
G1 F2400 X20.216 Y25.664 E231.56719
G0 F7500 X20.216 Y25.500
G0 X14.440 Y25.500
G0 X14.440 Y25.664
G1 F2400 X14.440 Y-25.464 E233.40800
G0 F7500 X14.440 Y-25.300
G0 X8.664 Y-25.300
G0 X8.664 Y-25.464
G1 F2400 X8.664 Y25.664 E235.24882
G0 F7500 X8.664 Y25.500
G0 X2.888 Y25.500
G0 X2.888 Y25.664
G1 F2400 X2.888 Y-25.464 E237.08964
G0 F7500 X2.888 Y-25.300
G0 X-2.888 Y-25.300
G0 X-2.888 Y-25.464
G1 F2400 X-2.888 Y25.664 E238.93046
G0 F7500 X-2.888 Y25.500
G0 X-8.664 Y25.500
G0 X-8.664 Y25.664
G1 F2400 X-8.664 Y-25.464 E240.77127
G0 F7500 X-8.664 Y-25.300
G0 X-14.440 Y-25.300
G0 X-14.440 Y-25.464
G1 F2400 X-14.440 Y25.664 E242.61209
G0 F7500 X-14.440 Y25.500
G0 X-25.400 Y14.439
G0 X-25.564 Y14.439
G1 F2400 X25.663 Y14.440 E244.45647
G0 F7500 X25.500 Y14.440
G0 X25.500 Y8.664
G0 X25.663 Y8.664
G1 F2400 X-25.564 Y8.663 E246.30085
G0 F7500 X-25.400 Y8.663
G0 X-25.400 Y2.887
G0 X-25.564 Y2.887
G1 F2400 X25.663 Y2.888 E248.14524
G0 F7500 X25.500 Y2.888
G0 X25.500 Y-2.887
G0 X25.664 Y-2.887
G1 F2400 X-25.563 Y-2.888 E249.98962
G0 F7500 X-25.400 Y-2.888
G0 X-25.400 Y-8.664
G0 X-25.563 Y-8.664
G1 F2400 X25.664 Y-8.663 E251.83400
G0 F7500 X25.500 Y-8.663
G0 X25.500 Y-14.439
G0 X25.664 Y-14.439
G1 F2400 X-25.563 Y-14.440 E253.67838
;LAYER:6
G1 F2400 E252.67838
G0 F7500 X0.216 Y0.216 Z1.500
;TYPE:WALL-OUTER
G1 F2400 E253.67838
G1 F2700 X0.284 Y0.216 E253.68083
G1 X0.284 Y0.284 E253.68328
G1 X0.216 Y0.284 E253.68573
G1 X0.216 Y0.216 E253.68817
G0 F7500 X-0.700 Y-0.700
;TYPE:SUPPORT
G1 F2400 X-0.700 Y1.200 E253.75658
G1 X1.200 Y1.200 E253.82499
G1 X1.200 Y-0.700 E253.89340
G1 X-0.700 Y-0.700 E253.96181
G0 F7500 X-0.690 Y-0.800
G0 X-25.500 Y-25.400
G1 F2400 X25.600 Y-25.400 E255.80161
G1 X25.600 Y25.600 E257.63782
G1 X-25.500 Y25.600 E259.47763
G1 X-25.500 Y-25.400 E261.31384
G0 F7500 X-25.400 Y-20.216
G0 X-25.563 Y-20.216
G1 F2400 X25.664 Y-20.215 E263.15822
G0 F7500 X25.500 Y-20.215
G0 X20.216 Y-25.300
G0 X20.216 Y-25.464
G1 F2400 X20.216 Y25.664 E264.99904
G0 F7500 X20.216 Y25.500
G0 X25.500 Y20.216
G0 X25.663 Y20.216
G1 F2400 X-25.564 Y20.215 E266.84342
G0 F7500 X-25.400 Y20.215
G0 X-20.216 Y25.500
G0 X-20.216 Y25.664
G1 F2400 X-20.216 Y-25.464 E268.68424
G0 F7500 X-20.216 Y-25.300
G0 X-14.440 Y-25.300
G0 X-14.440 Y-25.464
G1 F2400 X-14.440 Y25.664 E270.52506
G0 F7500 X-14.440 Y25.500
G0 X-8.664 Y25.500
G0 X-8.664 Y25.664
G1 F2400 X-8.664 Y-25.464 E272.36588
G0 F7500 X-8.664 Y-25.300
G0 X-2.888 Y-25.300
G0 X-2.888 Y-25.464
G1 F2400 X-2.888 Y25.664 E274.20669
G0 F7500 X-2.888 Y25.500
G0 X2.888 Y25.500
G0 X2.888 Y25.664
G1 F2400 X2.888 Y-25.464 E276.04751
G0 F7500 X2.888 Y-25.300
G0 X8.664 Y-25.300
G0 X8.664 Y-25.464
G1 F2400 X8.664 Y25.664 E277.88833
G0 F7500 X8.664 Y25.500
G0 X14.440 Y25.500
G0 X14.440 Y25.664
G1 F2400 X14.440 Y-25.464 E279.72914
G0 F7500 X14.440 Y-25.300
G0 X25.500 Y-14.439
G0 X25.664 Y-14.439
G1 F2400 X-25.563 Y-14.440 E281.57353
G0 F7500 X-25.400 Y-14.440
G0 X-25.400 Y-8.664
G0 X-25.563 Y-8.664
G1 F2400 X25.664 Y-8.663 E283.41791
G0 F7500 X25.500 Y-8.663
G0 X25.500 Y-2.887
G0 X25.664 Y-2.887
G1 F2400 X-25.563 Y-2.888 E285.26229
G0 F7500 X-25.400 Y-2.888
G0 X-25.400 Y2.887
G0 X-25.564 Y2.887
G1 F2400 X25.663 Y2.888 E287.10667
G0 F7500 X25.500 Y2.888
G0 X25.500 Y8.664
G0 X25.663 Y8.664
G1 F2400 X-25.564 Y8.663 E288.95105
G0 F7500 X-25.400 Y8.663
G0 X-25.400 Y14.439
G0 X-25.564 Y14.439
G1 F2400 X25.663 Y14.440 E290.79544
;LAYER:7
G1 F2400 E289.79544
G0 F7500 X0.284 Y0.284 Z1.700
;TYPE:WALL-OUTER
G1 F2400 E290.79544
G1 F2700 X0.216 Y0.284 E290.79788
G1 X0.216 Y0.216 E290.80033
G1 X0.284 Y0.216 E290.80278
G1 X0.284 Y0.284 E290.80523
G0 F7500 X1.200 Y1.200
;TYPE:SUPPORT
G1 F2400 X1.200 Y-0.700 E290.87364
G1 X-0.700 Y-0.700 E290.94204
G1 X-0.700 Y1.200 E291.01045
G1 X1.200 Y1.200 E291.07886
G0 F7500 X1.190 Y1.300
G0 X25.500 Y25.590
G0 X25.600 Y25.600
G1 F2400 X-25.500 Y25.600 E292.91867
G1 X-25.500 Y-25.400 E294.75488
G1 X25.600 Y-25.400 E296.59469
G1 X25.600 Y25.600 E298.43090
G0 F7500 X25.500 Y25.590
G0 X25.500 Y20.216
G0 X25.663 Y20.216
G1 F2400 X-25.564 Y20.215 E300.27528
G0 F7500 X-25.400 Y20.215
