;Generated with Cura_SteamEngine 15.04.6

;Layer count: 16
;LAYER:0
M107
G0 F7500 X-28.716 Y-33.616 Z0.300
;TYPE:SKIRT
G1 F1800 X28.816 Y-33.616 E3.10708
G1 X28.816 Y33.816 E6.74882
G1 X-28.716 Y33.816 E9.85591
G1 X-28.716 Y-33.616 E13.49765
G1 F2400 E12.49765
G0 F7500 X0.216 Y0.216
;TYPE:WALL-OUTER
G1 F2400 E13.49765
G1 F1800 X0.284 Y0.216 E13.50132
G1 X0.284 Y0.284 E13.50499
G1 X0.216 Y0.284 E13.50866
G1 X0.216 Y0.216 E13.51234
G0 F7500 X-0.700 Y-0.700
;TYPE:SUPPORT
G1 F1800 X-0.700 Y1.200 E13.61495
G1 X1.200 Y1.200 E13.71756
G1 X1.200 Y-0.700 E13.82017
G1 X-0.700 Y-0.700 E13.92278
G0 F7500 X-0.690 Y-0.800
G0 X-25.500 Y-30.400
G1 F1800 X25.600 Y-30.400 E16.68250
G1 X25.600 Y30.600 E19.97687
G1 X-25.500 Y30.600 E22.73659
G1 X-25.500 Y-30.400 E26.03096
G0 F7500 X-25.400 Y-25.992
G0 X-25.563 Y-25.992
G1 F1800 X25.664 Y-25.991 E28.79753
G0 F7500 X25.500 Y-25.991
G0 X25.500 Y-20.215
G0 X25.664 Y-20.215
G1 F1800 X-25.563 Y-20.216 E31.56411
G0 F7500 X-25.400 Y-20.216
G0 X-20.216 Y-30.300
G0 X-20.216 Y-30.464
G1 F1800 X-20.216 Y30.664 E34.86539
G0 F7500 X-20.216 Y30.500
G0 X-25.400 Y25.991
G0 X-25.564 Y25.991
G1 F1800 X25.663 Y25.992 E37.63197
G0 F7500 X25.500 Y25.992
G0 X25.500 Y20.216
G0 X25.663 Y20.216
G1 F1800 X-25.564 Y20.215 E40.39854
G0 F7500 X-25.400 Y20.215
G0 X-25.400 Y14.439
G0 X-25.564 Y14.439
G1 F1800 X25.663 Y14.440 E43.16511
G0 F7500 X25.500 Y14.440
G0 X25.500 Y8.664
G0 X25.663 Y8.664
G1 F1800 X-25.564 Y8.663 E45.93169
G0 F7500 X-25.400 Y8.663
G0 X-25.400 Y2.887
G0 X-25.564 Y2.887
G1 F1800 X25.663 Y2.888 E48.69826
G0 F7500 X25.500 Y2.888
G0 X25.500 Y-2.887
G0 X25.664 Y-2.887
G1 F1800 X-25.563 Y-2.888 E51.46483
G0 F7500 X-25.400 Y-2.888
G0 X-25.400 Y-8.664
G0 X-25.563 Y-8.664
G1 F1800 X25.664 Y-8.663 E54.23140
G0 F7500 X25.500 Y-8.663
G0 X25.500 Y-14.439
G0 X25.664 Y-14.439
G1 F1800 X-25.563 Y-14.440 E56.99798
G0 F7500 X-25.400 Y-14.440
G0 X-14.440 Y-30.300
G0 X-14.440 Y-30.464
G1 F1800 X-14.440 Y30.664 E60.29926
G0 F7500 X-14.440 Y30.500
G0 X-8.664 Y30.500
G0 X-8.664 Y30.664
G1 F1800 X-8.664 Y-30.464 E63.60055
G0 F7500 X-8.664 Y-30.300
G0 X-2.888 Y-30.300
G0 X-2.888 Y-30.464
G1 F1800 X-2.888 Y30.664 E66.90184
G0 F7500 X-2.888 Y30.500
G0 X2.888 Y30.500
G0 X2.888 Y30.664
G1 F1800 X2.888 Y-30.464 E70.20313
G0 F7500 X2.888 Y-30.300
G0 X8.664 Y-30.300
G0 X8.664 Y-30.464
G1 F1800 X8.664 Y30.664 E73.50441
G0 F7500 X8.664 Y30.500
G0 X14.440 Y30.500
G0 X14.440 Y30.664
G1 F1800 X14.440 Y-30.464 E76.80570
G0 F7500 X14.440 Y-30.300
G0 X20.216 Y-30.300
G0 X20.216 Y-30.464
G1 F1800 X20.216 Y30.664 E80.10699
;LAYER:1
M106 S63
G1 F2400 E79.10699
G0 F7500 X0.284 Y0.284 Z0.500
;TYPE:WALL-OUTER
G1 F2400 E80.10699
G1 F1980 X0.216 Y0.284 E80.10944
G1 X0.216 Y0.216 E80.11189
G1 X0.284 Y0.216 E80.11433
G1 X0.284 Y0.284 E80.11678
G0 F7500 X1.200 Y1.200
;TYPE:SUPPORT
G1 F1920 X1.200 Y-0.700 E80.18519
G1 X-0.700 Y-0.700 E80.25360
G1 X-0.700 Y1.200 E80.32201
G1 X1.200 Y1.200 E80.39041
G0 F7500 X1.190 Y1.300
G0 X25.500 Y30.590
G0 X25.600 Y30.600
G1 F1920 X-25.500 Y30.600 E82.23022
G1 X-25.500 Y-30.400 E84.42647
G1 X25.600 Y-30.400 E86.26628
G1 X25.600 Y30.600 E88.46253
G0 F7500 X25.500 Y30.590
G0 X25.500 Y25.992
G0 X25.663 Y25.992
G1 F1920 X-25.564 Y25.991 E90.30691
G0 F7500 X-25.400 Y25.991
G0 X-25.400 Y20.215
G0 X-25.564 Y20.215
G1 F1920 X25.663 Y20.216 E92.15130
G0 F7500 X25.500 Y20.216
G0 X20.216 Y30.500
G0 X20.216 Y30.664
G1 F1920 X20.216 Y-30.464 E94.35215
G0 F7500 X20.216 Y-30.300
G0 X25.500 Y-25.991
G0 X25.664 Y-25.991
G1 F1920 X-25.563 Y-25.992 E96.19654
G0 F7500 X-25.400 Y-25.992
G0 X-25.400 Y-20.216
G0 X-25.563 Y-20.216
G1 F1920 X25.664 Y-20.215 E98.04092
G0 F7500 X25.500 Y-20.215
G0 X25.500 Y-14.439
G0 X25.664 Y-14.439
G1 F1920 X-25.563 Y-14.440 E99.88530
G0 F7500 X-25.400 Y-14.440
G0 X-25.400 Y-8.664
G0 X-25.563 Y-8.664
G1 F1920 X25.664 Y-8.663 E101.72968
G0 F7500 X25.500 Y-8.663
G0 X25.500 Y-2.887
G0 X25.664 Y-2.887
G1 F1920 X-25.563 Y-2.888 E103.57406
G0 F7500 X-25.400 Y-2.888
G0 X-25.400 Y2.887
G0 X-25.564 Y2.887
G1 F1920 X25.663 Y2.888 E105.41845
G0 F7500 X25.500 Y2.888
G0 X25.500 Y8.664
G0 X25.663 Y8.664
G1 F1920 X-25.564 Y8.663 E107.26283
G0 F7500 X-25.400 Y8.663
G0 X-25.400 Y14.439
G0 X-25.564 Y14.439
G1 F1920 X25.663 Y14.440 E109.10721
G0 F7500 X25.500 Y14.440
G0 X14.440 Y30.500
G0 X14.440 Y30.664
G1 F1920 X14.440 Y-30.464 E111.30807
G0 F7500 X14.440 Y-30.300
G0 X8.664 Y-30.300
G0 X8.664 Y-30.464
G1 F1920 X8.664 Y30.664 E113.50893
G0 F7500 X8.664 Y30.500
G0 X2.888 Y30.500
G0 X2.888 Y30.664
G1 F1920 X2.888 Y-30.464 E115.70978
G0 F7500 X2.888 Y-30.300
G0 X-2.888 Y-30.300
G0 X-2.888 Y-30.464
G1 F1920 X-2.888 Y30.664 E117.91064
G0 F7500 X-2.888 Y30.500
G0 X-8.664 Y30.500
G0 X-8.664 Y30.664
G1 F1920 X-8.664 Y-30.464 E120.11150
G0 F7500 X-8.664 Y-30.300
G0 X-14.440 Y-30.300
G0 X-14.440 Y-30.464
G1 F1920 X-14.440 Y30.664 E122.31236
G0 F7500 X-14.440 Y30.500
G0 X-20.216 Y30.500
G0 X-20.216 Y30.664
G1 F1920 X-20.216 Y-30.464 E124.51322
;LAYER:2
M106 S127
G1 F2400 E123.51322
G0 F7500 X0.216 Y0.216 Z0.700
;TYPE:WALL-OUTER
G1 F2400 E124.51322
G1 F2220 X0.284 Y0.216 E124.51567
G1 X0.284 Y0.284 E124.51811
G1 X0.216 Y0.284 E124.52056
G1 X0.216 Y0.216 E124.52301
G0 F7500 X-0.700 Y-0.700
;TYPE:SUPPORT
G1 F2100 X-0.700 Y1.200 E124.59142
G1 X1.200 Y1.200 E124.65983
G1 X1.200 Y-0.700 E124.72823
G1 X-0.700 Y-0.700 E124.79664
G0 F7500 X-0.690 Y-0.800
G0 X-25.500 Y-30.400
G1 F2100 X25.600 Y-30.400 E126.63645
G1 X25.600 Y30.600 E128.83270
G1 X-25.500 Y30.600 E130.67251
G1 X-25.500 Y-30.400 E132.86876
G0 F7500 X-25.400 Y-25.992
G0 X-25.563 Y-25.992
G1 F2100 X25.664 Y-25.991 E134.71314
G0 F7500 X25.500 Y-25.991
G0 X25.500 Y-20.215
G0 X25.664 Y-20.215
G1 F2100 X-25.563 Y-20.216 E136.55752
G0 F7500 X-25.400 Y-20.216
G0 X-20.216 Y-30.300
G0 X-20.216 Y-30.464
G1 F2100 X-20.216 Y30.664 E138.75838
G0 F7500 X-20.216 Y30.500
G0 X-25.400 Y25.991
G0 X-25.564 Y25.991
G1 F2100 X25.663 Y25.992 E140.60276
G0 F7500 X25.500 Y25.992
G0 X25.500 Y20.216
G0 X25.663 Y20.216
G1 F2100 X-25.564 Y20.215 E142.44715
G0 F7500 X-25.400 Y20.215
G0 X-25.400 Y14.439
G0 X-25.564 Y14.439
G1 F2100 X25.663 Y14.440 E144.29153
G0 F7500 X25.500 Y14.440
G0 X25.500 Y8.664
G0 X25.663 Y8.664
G1 F2100 X-25.564 Y8.663 E146.13591
G0 F7500 X-25.400 Y8.663
G0 X-25.400 Y2.887
G0 X-25.564 Y2.887
G1 F2100 X25.663 Y2.888 E147.98029
G0 F7500 X25.500 Y2.888
G0 X25.500 Y-2.887
G0 X25.664 Y-2.887
G1 F2100 X-25.563 Y-2.888 E149.82467
G0 F7500 X-25.400 Y-2.888
G0 X-25.400 Y-8.664
G0 X-25.563 Y-8.664
G1 F2100 X25.664 Y-8.663 E151.66906
G0 F7500 X25.500 Y-8.663
G0 X25.500 Y-14.439
G0 X25.664 Y-14.439
G1 F2100 X-25.563 Y-14.440 E153.51344
G0 F7500 X-25.400 Y-14.440
G0 X-14.440 Y-30.300
G0 X-14.440 Y-30.464
G1 F2100 X-14.440 Y30.664 E155.71430
G0 F7500 X-14.440 Y30.500
G0 X-8.664 Y30.500
G0 X-8.664 Y30.664
G1 F2100 X-8.664 Y-30.464 E157.91515
G0 F7500 X-8.664 Y-30.300
G0 X-2.888 Y-30.300
G0 X-2.888 Y-30.464
G1 F2100 X-2.888 Y30.664 E160.11601
G0 F7500 X-2.888 Y30.500
G0 X2.888 Y30.500
G0 X2.888 Y30.664
G1 F2100 X2.888 Y-30.464 E162.31687
G0 F7500 X2.888 Y-30.300
G0 X8.664 Y-30.300
G0 X8.664 Y-30.464
G1 F2100 X8.664 Y30.664 E164.51773
G0 F7500 X8.664 Y30.500
G0 X14.440 Y30.500
G0 X14.440 Y30.664
G1 F2100 X14.440 Y-30.464 E166.71859
G0 F7500 X14.440 Y-30.300
G0 X20.216 Y-30.300
G0 X20.216 Y-30.464
G1 F2100 X20.216 Y30.664 E168.91945
;LAYER:3
G1 F2400 E167.91945
G0 F7500 X0.284 Y0.284 Z0.900
;TYPE:WALL-OUTER
G1 F2400 E168.91945
G1 X0.216 Y0.284 E168.92189
G1 X0.216 Y0.216 E168.92434
G1 X0.284 Y0.216 E168.92679
G1 X0.284 Y0.284 E168.92924
G0 F7500 X1.200 Y1.200
;TYPE:SUPPORT
G1 F2220 X1.200 Y-0.700 E168.99765
G1 X-0.700 Y-0.700 E169.06605
G1 X-0.700 Y1.200 E169.13446
G1 X1.200 Y1.200 E169.20287
G0 F7500 X1.190 Y1.300
G0 X25.500 Y30.590
G0 X25.600 Y30.600
G1 F2220 X-25.500 Y30.600 E171.04268
G1 X-25.500 Y-30.400 E173.23893
G1 X25.600 Y-30.400 E175.07874
G1 X25.600 Y30.600 E177.27499
G0 F7500 X25.500 Y30.590
G0 X25.500 Y25.992
G0 X25.663 Y25.992
G1 F2220 X-25.564 Y25.991 E179.11937
G0 F7500 X-25.400 Y25.991
G0 X-25.400 Y20.215
G0 X-25.564 Y20.215
G1 F2220 X25.663 Y20.216 E180.96375
G0 F7500 X25.500 Y20.216
G0 X20.216 Y30.500
G0 X20.216 Y30.664
G1 F2220 X20.216 Y-30.464 E183.16461
G0 F7500 X20.216 Y-30.300
G0 X25.500 Y-25.991
G0 X25.664 Y-25.991
G1 F2220 X-25.563 Y-25.992 E185.00899
G0 F7500 X-25.400 Y-25.992
G0 X-25.400 Y-20.216
G0 X-25.563 Y-20.216
G1 F2220 X25.664 Y-20.215 E186.85337
G0 F7500 X25.500 Y-20.215
G0 X25.500 Y-14.439
G0 X25.664 Y-14.439
G1 F2220 X-25.563 Y-14.440 E188.69776
G0 F7500 X-25.400 Y-14.440
G0 X-25.400 Y-8.664
G0 X-25.563 Y-8.664
G1 F2220 X25.664 Y-8.663 E190.54214
G0 F7500 X25.500 Y-8.663
G0 X25.500 Y-2.887
G0 X25.664 Y-2.887
G1 F2220 X-25.563 Y-2.888 E192.38652
G0 F7500 X-25.400 Y-2.888
G0 X-25.400 Y2.887
G0 X-25.564 Y2.887
G1 F2220 X25.663 Y2.888 E194.23090
G0 F7500 X25.500 Y2.888
G0 X25.500 Y8.664
G0 X25.663 Y8.664
G1 F2220 X-25.564 Y8.663 E196.07528
G0 F7500 X-25.400 Y8.663
G0 X-25.400 Y14.439
G0 X-25.564 Y14.439
G1 F2220 X25.663 Y14.440 E197.91967
G0 F7500 X25.500 Y14.440
G0 X14.440 Y30.500
G0 X14.440 Y30.664
G1 F2220 X14.440 Y-30.464 E200.12052
G0 F7500 X14.440 Y-30.300
G0 X8.664 Y-30.300
G0 X8.664 Y-30.464
G1 F2220 X8.664 Y30.664 E202.32138
G0 F7500 X8.664 Y30.500
G0 X2.888 Y30.500
G0 X2.888 Y30.664
G1 F2220 X2.888 Y-30.464 E204.52224
G0 F7500 X2.888 Y-30.300
G0 X-2.888 Y-30.300
G0 X-2.888 Y-30.464
G1 F2220 X-2.888 Y30.664 E206.72310
G0 F7500 X-2.888 Y30.500
G0 X-8.664 Y30.500
G0 X-8.664 Y30.664
G1 F2220 X-8.664 Y-30.464 E208.92396
G0 F7500 X-8.664 Y-30.300
G0 X-14.440 Y-30.300
G0 X-14.440 Y-30.464
G1 F2220 X-14.440 Y30.664 E211.12482
G0 F7500 X-14.440 Y30.500
G0 X-20.216 Y30.500
G0 X-20.216 Y30.664
G1 F2220 X-20.216 Y-30.464 E213.32567
;LAYER:4
G1 F2400 E212.32567
G0 F7500 X0.216 Y0.216 Z1.100
;TYPE:WALL-OUTER
G1 F2400 E213.32567
G1 F2700 X0.284 Y0.216 E213.32812
G1 X0.284 Y0.284 E213.33057
G1 X0.216 Y0.284 E213.33302
G1 X0.216 Y0.216 E213.33547
G0 F7500 X-0.700 Y-0.700
;TYPE:SUPPORT
G1 F2400 X-0.700 Y1.200 E213.40387
G1 X1.200 Y1.200 E213.47228
G1 X1.200 Y-0.700 E213.54069
G1 X-0.700 Y-0.700 E213.60910
G0 F7500 X-0.690 Y-0.800
G0 X-25.500 Y-30.400
G1 F2400 X25.600 Y-30.400 E215.44891
G1 X25.600 Y30.600 E217.64516
G1 X-25.500 Y30.600 E219.48497
G1 X-25.500 Y-30.400 E221.68122
G0 F7500 X-25.400 Y-25.992
G0 X-25.563 Y-25.992
G1 F2400 X25.664 Y-25.991 E223.52560
G0 F7500 X25.500 Y-25.991
G0 X25.500 Y-20.215
G0 X25.664 Y-20.215
G1 F2400 X-25.563 Y-20.216 E225.36998
G0 F7500 X-25.400 Y-20.216
G0 X-20.216 Y-30.300
G0 X-20.216 Y-30.464
G1 F2400 X-20.216 Y30.664 E227.57084
G0 F7500 X-20.216 Y30.500
G0 X-25.400 Y25.991
G0 X-25.564 Y25.991
G1 F2400 X25.663 Y25.992 E229.41522
G0 F7500 X25.500 Y25.992
G0 X25.500 Y20.216
G0 X25.663 Y20.216
G1 F2400 X-25.564 Y20.215 E231.25960
G0 F7500 X-25.400 Y20.215
G0 X-25.400 Y14.439
G0 X-25.564 Y14.439
G1 F2400 X25.663 Y14.440 E233.10398
G0 F7500 X25.500 Y14.440
G0 X25.500 Y8.664
G0 X25.663 Y8.664
G1 F2400 X-25.564 Y8.663 E234.94837
G0 F7500 X-25.400 Y8.663
G0 X-25.400 Y2.887
G0 X-25.564 Y2.887
G1 F2400 X25.663 Y2.888 E236.79275
G0 F7500 X25.500 Y2.888
G0 X25.500 Y-2.887
G0 X25.664 Y-2.887
G1 F2400 X-25.563 Y-2.888 E238.63713
G0 F7500 X-25.400 Y-2.888
G0 X-25.400 Y-8.664
G0 X-25.563 Y-8.664
G1 F2400 X25.664 Y-8.663 E240.48151
G0 F7500 X25.500 Y-8.663
G0 X25.500 Y-14.439
G0 X25.664 Y-14.439
G1 F2400 X-25.563 Y-14.440 E242.32589
G0 F7500 X-25.400 Y-14.440
G0 X-14.440 Y-30.300
G0 X-14.440 Y-30.464
G1 F2400 X-14.440 Y30.664 E244.52675
G0 F7500 X-14.440 Y30.500
G0 X-8.664 Y30.500
G0 X-8.664 Y30.664
G1 F2400 X-8.664 Y-30.464 E246.72761
G0 F7500 X-8.664 Y-30.300
G0 X-2.888 Y-30.300
G0 X-2.888 Y-30.464
G1 F2400 X-2.888 Y30.664 E248.92847
G0 F7500 X-2.888 Y30.500
G0 X2.888 Y30.500
G0 X2.888 Y30.664
G1 F2400 X2.888 Y-30.464 E251.12933
G0 F7500 X2.888 Y-30.300
G0 X8.664 Y-30.300
G0 X8.664 Y-30.464
G1 F2400 X8.664 Y30.664 E253.33019
G0 F7500 X8.664 Y30.500
G0 X14.440 Y30.500
G0 X14.440 Y30.664
G1 F2400 X14.440 Y-30.464 E255.53104
G0 F7500 X14.440 Y-30.300
G0 X20.216 Y-30.300
G0 X20.216 Y-30.464
G1 F2400 X20.216 Y30.664 E257.73190
;LAYER:5
G1 F2400 E256.73190
G0 F7500 X0.284 Y0.284 Z1.300
;TYPE:WALL-OUTER
G1 F2400 E257.73190
G1 F2700 X0.216 Y0.284 E257.73435
G1 X0.216 Y0.216 E257.73680
G1 X0.284 Y0.216 E257.73925
G1 X0.284 Y0.284 E257.74170
G0 F7500 X1.200 Y1.200
;TYPE:SUPPORT
G1 F2400 X1.200 Y-0.700 E257.81010
G1 X-0.700 Y-0.700 E257.87851
G1 X-0.700 Y1.200 E257.94692
G1 X1.200 Y1.200 E258.01533
G0 F7500 X1.190 Y1.300
G0 X25.500 Y30.590
G0 X25.600 Y30.600
G1 F2400 X-25.500 Y30.600 E259.85514
G1 X-25.500 Y-30.400 E262.05139
G1 X25.600 Y-30.400 E263.89119
G1 X25.600 Y30.600 E266.08744
G0 F7500 X25.500 Y30.590
G0 X25.500 Y25.992
G0 X25.663 Y25.992
G1 F2400 X-25.564 Y25.991 E267.93183
G0 F7500 X-25.400 Y25.991
G0 X-25.400 Y20.215
G0 X-25.564 Y20.215
G1 F2400 X25.663 Y20.216 E269.77621
G0 F7500 X25.500 Y20.216
G0 X20.216 Y30.500
G0 X20.216 Y30.664
G1 F2400 X20.216 Y-30.464 E271.97707
G0 F7500 X20.216 Y-30.300
G0 X25.500 Y-25.991
G0 X25.664 Y-25.991
G1 F2400 X-25.563 Y-25.992 E273.82145
G0 F7500 X-25.400 Y-25.992
G0 X-25.400 Y-20.216
G0 X-25.563 Y-20.216
G1 F2400 X25.664 Y-20.215 E275.66583
G0 F7500 X25.500 Y-20.215
G0 X25.500 Y-14.439
G0 X25.664 Y-14.439
G1 F2400 X-25.563 Y-14.440 E277.51021
G0 F7500 X-25.400 Y-14.440
G0 X-25.400 Y-8.664
G0 X-25.563 Y-8.664
G1 F2400 X25.664 Y-8.663 E279.35459
G0 F7500 X25.500 Y-8.663
G0 X25.500 Y-2.887
G0 X25.664 Y-2.887
G1 F2400 X-25.563 Y-2.888 E281.19898
G0 F7500 X-25.400 Y-2.888
G0 X-25.400 Y2.887
G0 X-25.564 Y2.887
G1 F2400 X25.663 Y2.888 E283.04336
G0 F7500 X25.500 Y2.888
G0 X25.500 Y8.664
G0 X25.663 Y8.664
G1 F2400 X-25.564 Y8.663 E284.88774
G0 F7500 X-25.400 Y8.663
G0 X-25.400 Y14.439
G0 X-25.564 Y14.439
G1 F2400 X25.663 Y14.440 E286.73212
G0 F7500 X25.500 Y14.440
G0 X14.440 Y30.500
G0 X14.440 Y30.664
G1 F2400 X14.440 Y-30.464 E288.93298
G0 F7500 X14.440 Y-30.300
G0 X8.664 Y-30.300
G0 X8.664 Y-30.464
G1 F2400 X8.664 Y30.664 E291.13384
G0 F7500 X8.664 Y30.500
G0 X2.888 Y30.500
G0 X2.888 Y30.664
G1 F2400 X2.888 Y-30.464 E293.33470
G0 F7500 X2.888 Y-30.300
G0 X-2.888 Y-30.300
G0 X-2.888 Y-30.464
G1 F2400 X-2.888 Y30.664 E295.53556
G0 F7500 X-2.888 Y30.500
G0 X-8.664 Y30.500
G0 X-8.664 Y30.664
G1 F2400 X-8.664 Y-30.464 E297.73641
G0 F7500 X-8.664 Y-30.300
G0 X-14.440 Y-30.300
G0 X-14.440 Y-30.464
G1 F2400 X-14.440 Y30.664 E299.93727
G0 F7500 X-14.440 Y30.500
G0 X-20.216 Y30.500
G0 X-20.216 Y30.664
G1 F2400 X-20.216 Y-30.464 E302.13813
;LAYER:6
G1 F2400 E301.13813
G0 F7500 X0.216 Y0.216 Z1.500
;TYPE:WALL-OUTER
G1 F2400 E302.13813
G1 F2700 X0.284 Y0.216 E302.14058
G1 X0.284 Y0.284 E302.14303
G1 X0.216 Y0.284 E302.14548
G1 X0.216 Y0.216 E302.14792
G0 F7500 X-0.700 Y-0.700
;TYPE:SUPPORT
G1 F2400 X-0.700 Y1.200 E302.21633
G1 X1.200 Y1.200 E302.28474
G1 X1.200 Y-0.700 E302.35315
G1 X-0.700 Y-0.700 E302.42155
G0 F7500 X-0.690 Y-0.800
G0 X-25.500 Y-30.400
G1 F2400 X25.600 Y-30.400 E304.26136
G1 X25.600 Y30.600 E306.45761
G1 X-25.500 Y30.600 E308.29742
G1 X-25.500 Y-30.400 E310.49367
G0 F7500 X-25.400 Y-25.992
G0 X-25.563 Y-25.992
G1 F2400 X25.664 Y-25.991 E312.33805
G0 F7500 X25.500 Y-25.991
G0 X25.500 Y-20.215
G0 X25.664 Y-20.215
G1 F2400 X-25.563 Y-20.216 E314.18244
G0 F7500 X-25.400 Y-20.216
G0 X-20.216 Y-30.300
G0 X-20.216 Y-30.464
G1 F2400 X-20.216 Y30.664 E316.38329
G0 F7500 X-20.216 Y30.500
G0 X-25.400 Y25.991
G0 X-25.564 Y25.991
G1 F2400 X25.663 Y25.992 E318.22768
G0 F7500 X25.500 Y25.992
G0 X25.500 Y20.216
G0 X25.663 Y20.216
G1 F2400 X-25.564 Y20.215 E320.07206
G0 F7500 X-25.400 Y20.215
G0 X-25.400 Y14.439
G0 X-25.564 Y14.439
G1 F2400 X25.663 Y14.440 E321.91644
G0 F7500 X25.500 Y14.440
G0 X25.500 Y8.664
G0 X25.663 Y8.664
G1 F2400 X-25.564 Y8.663 E323.76082
G0 F7500 X-25.400 Y8.663
G0 X-25.400 Y2.887
G0 X-25.564 Y2.887
G1 F2400 X25.663 Y2.888 E325.60520
G0 F7500 X25.500 Y2.888
G0 X25.500 Y-2.887
G0 X25.664 Y-2.887
G1 F2400 X-25.563 Y-2.888 E327.44959
G0 F7500 X-25.400 Y-2.888
G0 X-25.400 Y-8.664
G0 X-25.563 Y-8.664
G1 F2400 X25.664 Y-8.663 E329.29397
G0 F7500 X25.500 Y-8.663
G0 X25.500 Y-14.439
