;Generated with Cura_SteamEngine 15.04.6

;Layer count: 16
;LAYER:0
M107
G0 F7500 X-28.716 Y-38.616 Z0.300
;TYPE:SKIRT
G1 F1800 X28.816 Y-38.616 E3.10708
G1 X28.816 Y38.816 E7.28889
G1 X-28.716 Y38.816 E10.39597
G1 X-28.716 Y-38.616 E14.57777
G1 F2400 E13.57777
G0 F7500 X0.216 Y0.216
;TYPE:WALL-OUTER
G1 F2400 E14.57777
G1 F1800 X0.284 Y0.216 E14.58144
G1 X0.284 Y0.284 E14.58512
G1 X0.216 Y0.284 E14.58879
G1 X0.216 Y0.216 E14.59246
G0 F7500 X-0.700 Y-0.700
;TYPE:SUPPORT
G1 F1800 X-0.700 Y1.200 E14.69507
G1 X1.200 Y1.200 E14.79768
G1 X1.200 Y-0.700 E14.90030
G1 X-0.700 Y-0.700 E15.00291
G0 F7500 X-0.690 Y-0.800
G0 X-25.500 Y-35.400
G1 F1800 X25.600 Y-35.400 E17.76262
G1 X25.600 Y35.600 E21.59706
G1 X-25.500 Y35.600 E24.35677
G1 X-25.500 Y-35.400 E28.19121
G0 F7500 X-25.400 Y-31.768
G0 X-25.563 Y-31.768
G1 F1800 X25.664 Y-31.767 E30.95778
G0 F7500 X25.500 Y-31.767
G0 X25.500 Y-25.991
G0 X25.664 Y-25.991
G1 F1800 X-25.563 Y-25.992 E33.72435
G0 F7500 X-25.400 Y-25.992
G0 X-25.400 Y-20.216
G0 X-25.563 Y-20.216
G1 F1800 X25.664 Y-20.215 E36.49093
G0 F7500 X25.500 Y-20.215
G0 X20.216 Y-35.300
G0 X20.216 Y-35.464
G1 F1800 X20.216 Y35.664 E40.33227
G0 F7500 X20.216 Y35.500
G0 X25.500 Y31.768
G0 X25.663 Y31.768
G1 F1800 X-25.564 Y31.767 E43.09885
G0 F7500 X-25.400 Y31.767
G0 X-25.400 Y25.991
G0 X-25.564 Y25.991
G1 F1800 X25.663 Y25.992 E45.86542
G0 F7500 X25.500 Y25.992
G0 X25.500 Y20.216
G0 X25.663 Y20.216
G1 F1800 X-25.564 Y20.215 E48.63199
G0 F7500 X-25.400 Y20.215
G0 X-20.216 Y35.500
G0 X-20.216 Y35.664
G1 F1800 X-20.216 Y-35.464 E52.47334
G0 F7500 X-20.216 Y-35.300
G0 X-14.440 Y-35.300
G0 X-14.440 Y-35.464
G1 F1800 X-14.440 Y35.664 E56.31469
G0 F7500 X-14.440 Y35.500
G0 X-8.664 Y35.500
G0 X-8.664 Y35.664
G1 F1800 X-8.664 Y-35.464 E60.15604
G0 F7500 X-8.664 Y-35.300
G0 X-2.888 Y-35.300
G0 X-2.888 Y-35.464
G1 F1800 X-2.888 Y35.664 E63.99739
G0 F7500 X-2.888 Y35.500
G0 X2.888 Y35.500
G0 X2.888 Y35.664
G1 F1800 X2.888 Y-35.464 E67.83874
G0 F7500 X2.888 Y-35.300
G0 X8.664 Y-35.300
G0 X8.664 Y-35.464
G1 F1800 X8.664 Y35.664 E71.68009
G0 F7500 X8.664 Y35.500
G0 X14.440 Y35.500
G0 X14.440 Y35.664
G1 F1800 X14.440 Y-35.464 E75.52144
G0 F7500 X14.440 Y-35.300
G0 X25.500 Y-14.439
G0 X25.664 Y-14.439
G1 F1800 X-25.563 Y-14.440 E78.28801
G0 F7500 X-25.400 Y-14.440
G0 X-25.400 Y-8.664
G0 X-25.563 Y-8.664
G1 F1800 X25.664 Y-8.663 E81.05458
G0 F7500 X25.500 Y-8.663
G0 X25.500 Y-2.887
G0 X25.664 Y-2.887
G1 F1800 X-25.563 Y-2.888 E83.82115
G0 F7500 X-25.400 Y-2.888
G0 X-25.400 Y2.887
G0 X-25.564 Y2.887
G1 F1800 X25.663 Y2.888 E86.58773
G0 F7500 X25.500 Y2.888
G0 X25.500 Y8.664
G0 X25.663 Y8.664
G1 F1800 X-25.564 Y8.663 E89.35430
G0 F7500 X-25.400 Y8.663
G0 X-25.400 Y14.439
G0 X-25.564 Y14.439
G1 F1800 X25.663 Y14.440 E92.12087
;LAYER:1
M106 S63
G1 F2400 E91.12087
G0 F7500 X0.284 Y0.284 Z0.500
;TYPE:WALL-OUTER
G1 F2400 E92.12087
G1 F1980 X0.216 Y0.284 E92.12332
G1 X0.216 Y0.216 E92.12577
G1 X0.284 Y0.216 E92.12822
G1 X0.284 Y0.284 E92.13067
G0 F7500 X1.200 Y1.200
;TYPE:SUPPORT
G1 F1920 X1.200 Y-0.700 E92.19907
G1 X-0.700 Y-0.700 E92.26748
G1 X-0.700 Y1.200 E92.33589
G1 X1.200 Y1.200 E92.40430
G0 F7500 X1.190 Y1.300
G0 X25.500 Y35.590
G0 X25.600 Y35.600
G1 F1920 X-25.500 Y35.600 E94.24411
G1 X-25.500 Y-35.400 E96.80040
G1 X25.600 Y-35.400 E98.64021
G1 X25.600 Y35.600 E101.19650
G0 F7500 X25.500 Y35.590
G0 X25.500 Y31.768
G0 X25.663 Y31.768
G1 F1920 X-25.564 Y31.767 E103.04088
G0 F7500 X-25.400 Y31.767
G0 X-25.400 Y25.991
G0 X-25.564 Y25.991
G1 F1920 X25.663 Y25.992 E104.88526
G0 F7500 X25.500 Y25.992
G0 X25.500 Y20.216
G0 X25.663 Y20.216
G1 F1920 X-25.564 Y20.215 E106.72964
G0 F7500 X-25.400 Y20.215
G0 X-20.216 Y35.500
G0 X-20.216 Y35.664
G1 F1920 X-20.216 Y-35.464 E109.29054
G0 F7500 X-20.216 Y-35.300
G0 X-25.400 Y-31.768
G0 X-25.563 Y-31.768
G1 F1920 X25.664 Y-31.767 E111.13492
G0 F7500 X25.500 Y-31.767
G0 X25.500 Y-25.991
G0 X25.664 Y-25.991
G1 F1920 X-25.563 Y-25.992 E112.97931
G0 F7500 X-25.400 Y-25.992
G0 X-25.400 Y-20.216
G0 X-25.563 Y-20.216
G1 F1920 X25.664 Y-20.215 E114.82369
G0 F7500 X25.500 Y-20.215
G0 X20.216 Y-35.300
G0 X20.216 Y-35.464
G1 F1920 X20.216 Y35.664 E117.38459
G0 F7500 X20.216 Y35.500
G0 X14.440 Y35.500
G0 X14.440 Y35.664
G1 F1920 X14.440 Y-35.464 E119.94549
G0 F7500 X14.440 Y-35.300
G0 X8.664 Y-35.300
G0 X8.664 Y-35.464
G1 F1920 X8.664 Y35.664 E122.50639
G0 F7500 X8.664 Y35.500
G0 X2.888 Y35.500
G0 X2.888 Y35.664
G1 F1920 X2.888 Y-35.464 E125.06728
G0 F7500 X2.888 Y-35.300
G0 X-2.888 Y-35.300
G0 X-2.888 Y-35.464
G1 F1920 X-2.888 Y35.664 E127.62818
G0 F7500 X-2.888 Y35.500
G0 X-8.664 Y35.500
G0 X-8.664 Y35.664
G1 F1920 X-8.664 Y-35.464 E130.18908
G0 F7500 X-8.664 Y-35.300
G0 X-14.440 Y-35.300
G0 X-14.440 Y-35.464
G1 F1920 X-14.440 Y35.664 E132.74998
G0 F7500 X-14.440 Y35.500
G0 X-25.400 Y14.439
G0 X-25.564 Y14.439
G1 F1920 X25.663 Y14.440 E134.59436
G0 F7500 X25.500 Y14.440
G0 X25.500 Y8.664
G0 X25.663 Y8.664
G1 F1920 X-25.564 Y8.663 E136.43875
G0 F7500 X-25.400 Y8.663
G0 X-25.400 Y2.887
G0 X-25.564 Y2.887
G1 F1920 X25.663 Y2.888 E138.28313
G0 F7500 X25.500 Y2.888
G0 X25.500 Y-2.887
G0 X25.664 Y-2.887
G1 F1920 X-25.563 Y-2.888 E140.12751
G0 F7500 X-25.400 Y-2.888
G0 X-25.400 Y-8.664
G0 X-25.563 Y-8.664
G1 F1920 X25.664 Y-8.663 E141.97189
G0 F7500 X25.500 Y-8.663
G0 X25.500 Y-14.439
G0 X25.664 Y-14.439
G1 F1920 X-25.563 Y-14.440 E143.81627
;LAYER:2
M106 S127
G1 F2400 E142.81627
G0 F7500 X0.216 Y0.216 Z0.700
;TYPE:WALL-OUTER
G1 F2400 E143.81627
G1 F2220 X0.284 Y0.216 E143.81872
G1 X0.284 Y0.284 E143.82117
G1 X0.216 Y0.284 E143.82362
G1 X0.216 Y0.216 E143.82607
G0 F7500 X-0.700 Y-0.700
;TYPE:SUPPORT
G1 F2100 X-0.700 Y1.200 E143.89447
G1 X1.200 Y1.200 E143.96288
G1 X1.200 Y-0.700 E144.03129
G1 X-0.700 Y-0.700 E144.09970
G0 F7500 X-0.690 Y-0.800
G0 X-25.500 Y-35.400
G1 F2100 X25.600 Y-35.400 E145.93951
G1 X25.600 Y35.600 E148.49580
G1 X-25.500 Y35.600 E150.33561
G1 X-25.500 Y-35.400 E152.89190
G0 F7500 X-25.400 Y-31.768
G0 X-25.563 Y-31.768
G1 F2100 X25.664 Y-31.767 E154.73628
G0 F7500 X25.500 Y-31.767
G0 X25.500 Y-25.991
G0 X25.664 Y-25.991
G1 F2100 X-25.563 Y-25.992 E156.58066
G0 F7500 X-25.400 Y-25.992
G0 X-25.400 Y-20.216
G0 X-25.563 Y-20.216
G1 F2100 X25.664 Y-20.215 E158.42504
G0 F7500 X25.500 Y-20.215
G0 X20.216 Y-35.300
G0 X20.216 Y-35.464
G1 F2100 X20.216 Y35.664 E160.98594
G0 F7500 X20.216 Y35.500
G0 X25.500 Y31.768
G0 X25.663 Y31.768
G1 F2100 X-25.564 Y31.767 E162.83033
G0 F7500 X-25.400 Y31.767
G0 X-25.400 Y25.991
G0 X-25.564 Y25.991
G1 F2100 X25.663 Y25.992 E164.67471
G0 F7500 X25.500 Y25.992
G0 X25.500 Y20.216
G0 X25.663 Y20.216
G1 F2100 X-25.564 Y20.215 E166.51909
G0 F7500 X-25.400 Y20.215
G0 X-20.216 Y35.500
G0 X-20.216 Y35.664
G1 F2100 X-20.216 Y-35.464 E169.07999
G0 F7500 X-20.216 Y-35.300
G0 X-14.440 Y-35.300
G0 X-14.440 Y-35.464
G1 F2100 X-14.440 Y35.664 E171.64089
G0 F7500 X-14.440 Y35.500
G0 X-8.664 Y35.500
G0 X-8.664 Y35.664
G1 F2100 X-8.664 Y-35.464 E174.20179
G0 F7500 X-8.664 Y-35.300
G0 X-2.888 Y-35.300
G0 X-2.888 Y-35.464
G1 F2100 X-2.888 Y35.664 E176.76269
G0 F7500 X-2.888 Y35.500
G0 X2.888 Y35.500
G0 X2.888 Y35.664
G1 F2100 X2.888 Y-35.464 E179.32359
G0 F7500 X2.888 Y-35.300
G0 X8.664 Y-35.300
G0 X8.664 Y-35.464
G1 F2100 X8.664 Y35.664 E181.88449
G0 F7500 X8.664 Y35.500
G0 X14.440 Y35.500
G0 X14.440 Y35.664
G1 F2100 X14.440 Y-35.464 E184.44538
G0 F7500 X14.440 Y-35.300
G0 X25.500 Y-14.439
G0 X25.664 Y-14.439
G1 F2100 X-25.563 Y-14.440 E186.28977
G0 F7500 X-25.400 Y-14.440
G0 X-25.400 Y-8.664
G0 X-25.563 Y-8.664
G1 F2100 X25.664 Y-8.663 E188.13415
G0 F7500 X25.500 Y-8.663
G0 X25.500 Y-2.887
G0 X25.664 Y-2.887
G1 F2100 X-25.563 Y-2.888 E189.97853
G0 F7500 X-25.400 Y-2.888
G0 X-25.400 Y2.887
G0 X-25.564 Y2.887
G1 F2100 X25.663 Y2.888 E191.82291
G0 F7500 X25.500 Y2.888
G0 X25.500 Y8.664
G0 X25.663 Y8.664
G1 F2100 X-25.564 Y8.663 E193.66729
G0 F7500 X-25.400 Y8.663
G0 X-25.400 Y14.439
G0 X-25.564 Y14.439
G1 F2100 X25.663 Y14.440 E195.51168
;LAYER:3
G1 F2400 E194.51168
G0 F7500 X0.284 Y0.284 Z0.900
;TYPE:WALL-OUTER
G1 F2400 E195.51168
G1 X0.216 Y0.284 E195.51412
G1 X0.216 Y0.216 E195.51657
G1 X0.284 Y0.216 E195.51902
G1 X0.284 Y0.284 E195.52147
G0 F7500 X1.200 Y1.200
;TYPE:SUPPORT
G1 F2220 X1.200 Y-0.700 E195.58988
G1 X-0.700 Y-0.700 E195.65828
G1 X-0.700 Y1.200 E195.72669
G1 X1.200 Y1.200 E195.79510
G0 F7500 X1.190 Y1.300
G0 X25.500 Y35.590
G0 X25.600 Y35.600
G1 F2220 X-25.500 Y35.600 E197.63491
G1 X-25.500 Y-35.400 E200.19120
G1 X25.600 Y-35.400 E202.03101
G1 X25.600 Y35.600 E204.58730
G0 F7500 X25.500 Y35.590
G0 X25.500 Y31.768
G0 X25.663 Y31.768
G1 F2220 X-25.564 Y31.767 E206.43168
G0 F7500 X-25.400 Y31.767
G0 X-25.400 Y25.991
G0 X-25.564 Y25.991
G1 F2220 X25.663 Y25.992 E208.27606
G0 F7500 X25.500 Y25.992
G0 X25.500 Y20.216
G0 X25.663 Y20.216
G1 F2220 X-25.564 Y20.215 E210.12045
G0 F7500 X-25.400 Y20.215
G0 X-20.216 Y35.500
G0 X-20.216 Y35.664
G1 F2220 X-20.216 Y-35.464 E212.68134
G0 F7500 X-20.216 Y-35.300
G0 X-25.400 Y-31.768
G0 X-25.563 Y-31.768
G1 F2220 X25.664 Y-31.767 E214.52573
G0 F7500 X25.500 Y-31.767
G0 X25.500 Y-25.991
G0 X25.664 Y-25.991
G1 F2220 X-25.563 Y-25.992 E216.37011
G0 F7500 X-25.400 Y-25.992
G0 X-25.400 Y-20.216
G0 X-25.563 Y-20.216
G1 F2220 X25.664 Y-20.215 E218.21449
G0 F7500 X25.500 Y-20.215
G0 X20.216 Y-35.300
G0 X20.216 Y-35.464
G1 F2220 X20.216 Y35.664 E220.77539
G0 F7500 X20.216 Y35.500
G0 X14.440 Y35.500
G0 X14.440 Y35.664
G1 F2220 X14.440 Y-35.464 E223.33629
G0 F7500 X14.440 Y-35.300
G0 X8.664 Y-35.300
G0 X8.664 Y-35.464
G1 F2220 X8.664 Y35.664 E225.89719
G0 F7500 X8.664 Y35.500
G0 X2.888 Y35.500
G0 X2.888 Y35.664
G1 F2220 X2.888 Y-35.464 E228.45809
G0 F7500 X2.888 Y-35.300
G0 X-2.888 Y-35.300
G0 X-2.888 Y-35.464
G1 F2220 X-2.888 Y35.664 E231.01899
G0 F7500 X-2.888 Y35.500
G0 X-8.664 Y35.500
G0 X-8.664 Y35.664
G1 F2220 X-8.664 Y-35.464 E233.57989
G0 F7500 X-8.664 Y-35.300
G0 X-14.440 Y-35.300
G0 X-14.440 Y-35.464
G1 F2220 X-14.440 Y35.664 E236.14079
G0 F7500 X-14.440 Y35.500
G0 X-25.400 Y14.439
G0 X-25.564 Y14.439
G1 F2220 X25.663 Y14.440 E237.98517
G0 F7500 X25.500 Y14.440
G0 X25.500 Y8.664
G0 X25.663 Y8.664
G1 F2220 X-25.564 Y8.663 E239.82955
G0 F7500 X-25.400 Y8.663
G0 X-25.400 Y2.887
G0 X-25.564 Y2.887
G1 F2220 X25.663 Y2.888 E241.67393
G0 F7500 X25.500 Y2.888
G0 X25.500 Y-2.887
G0 X25.664 Y-2.887
G1 F2220 X-25.563 Y-2.888 E243.51831
G0 F7500 X-25.400 Y-2.888
G0 X-25.400 Y-8.664
G0 X-25.563 Y-8.664
G1 F2220 X25.664 Y-8.663 E245.36269
G0 F7500 X25.500 Y-8.663
G0 X25.500 Y-14.439
G0 X25.664 Y-14.439
G1 F2220 X-25.563 Y-14.440 E247.20708
;LAYER:4
G1 F2400 E246.20708
G0 F7500 X0.216 Y0.216 Z1.100
;TYPE:WALL-OUTER
G1 F2400 E247.20708
G1 F2700 X0.284 Y0.216 E247.20953
G1 X0.284 Y0.284 E247.21197
G1 X0.216 Y0.284 E247.21442
G1 X0.216 Y0.216 E247.21687
G0 F7500 X-0.700 Y-0.700
;TYPE:SUPPORT
G1 F2400 X-0.700 Y1.200 E247.28528
G1 X1.200 Y1.200 E247.35369
G1 X1.200 Y-0.700 E247.42209
G1 X-0.700 Y-0.700 E247.49050
G0 F7500 X-0.690 Y-0.800
G0 X-25.500 Y-35.400
G1 F2400 X25.600 Y-35.400 E249.33031
G1 X25.600 Y35.600 E251.88660
G1 X-25.500 Y35.600 E253.72641
G1 X-25.500 Y-35.400 E256.28270
G0 F7500 X-25.400 Y-31.768
G0 X-25.563 Y-31.768
G1 F2400 X25.664 Y-31.767 E258.12708
G0 F7500 X25.500 Y-31.767
G0 X25.500 Y-25.991
G0 X25.664 Y-25.991
G1 F2400 X-25.563 Y-25.992 E259.97146
G0 F7500 X-25.400 Y-25.992
G0 X-25.400 Y-20.216
G0 X-25.563 Y-20.216
G1 F2400 X25.664 Y-20.215 E261.81585
G0 F7500 X25.500 Y-20.215
G0 X20.216 Y-35.300
G0 X20.216 Y-35.464
G1 F2400 X20.216 Y35.664 E264.37675
G0 F7500 X20.216 Y35.500
G0 X25.500 Y31.768
G0 X25.663 Y31.768
G1 F2400 X-25.564 Y31.767 E266.22113
G0 F7500 X-25.400 Y31.767
G0 X-25.400 Y25.991
G0 X-25.564 Y25.991
G1 F2400 X25.663 Y25.992 E268.06551
G0 F7500 X25.500 Y25.992
G0 X25.500 Y20.216
G0 X25.663 Y20.216
G1 F2400 X-25.564 Y20.215 E269.90989
G0 F7500 X-25.400 Y20.215
G0 X-20.216 Y35.500
G0 X-20.216 Y35.664
G1 F2400 X-20.216 Y-35.464 E272.47079
G0 F7500 X-20.216 Y-35.300
G0 X-14.440 Y-35.300
G0 X-14.440 Y-35.464
G1 F2400 X-14.440 Y35.664 E275.03169
G0 F7500 X-14.440 Y35.500
G0 X-8.664 Y35.500
G0 X-8.664 Y35.664
G1 F2400 X-8.664 Y-35.464 E277.59259
G0 F7500 X-8.664 Y-35.300
G0 X-2.888 Y-35.300
G0 X-2.888 Y-35.464
G1 F2400 X-2.888 Y35.664 E280.15349
G0 F7500 X-2.888 Y35.500
G0 X2.888 Y35.500
G0 X2.888 Y35.664
G1 F2400 X2.888 Y-35.464 E282.71439
G0 F7500 X2.888 Y-35.300
G0 X8.664 Y-35.300
G0 X8.664 Y-35.464
G1 F2400 X8.664 Y35.664 E285.27529
G0 F7500 X8.664 Y35.500
G0 X14.440 Y35.500
G0 X14.440 Y35.664
G1 F2400 X14.440 Y-35.464 E287.83619
G0 F7500 X14.440 Y-35.300
G0 X25.500 Y-14.439
G0 X25.664 Y-14.439
G1 F2400 X-25.563 Y-14.440 E289.68057
G0 F7500 X-25.400 Y-14.440
G0 X-25.400 Y-8.664
G0 X-25.563 Y-8.664
G1 F2400 X25.664 Y-8.663 E291.52495
G0 F7500 X25.500 Y-8.663
G0 X25.500 Y-2.887
G0 X25.664 Y-2.887
G1 F2400 X-25.563 Y-2.888 E293.36933
G0 F7500 X-25.400 Y-2.888
G0 X-25.400 Y2.887
G0 X-25.564 Y2.887
G1 F2400 X25.663 Y2.888 E295.21371
G0 F7500 X25.500 Y2.888
G0 X25.500 Y8.664
G0 X25.663 Y8.664
G1 F2400 X-25.564 Y8.663 E297.05810
G0 F7500 X-25.400 Y8.663
G0 X-25.400 Y14.439
G0 X-25.564 Y14.439
G1 F2400 X25.663 Y14.440 E298.90248
;LAYER:5
G1 F2400 E297.90248
G0 F7500 X0.284 Y0.284 Z1.300
;TYPE:WALL-OUTER
G1 F2400 E298.90248
G1 F2700 X0.216 Y0.284 E298.90493
G1 X0.216 Y0.216 E298.90737
G1 X0.284 Y0.216 E298.90982
G1 X0.284 Y0.284 E298.91227
G0 F7500 X1.200 Y1.200
;TYPE:SUPPORT
G1 F2400 X1.200 Y-0.700 E298.98068
G1 X-0.700 Y-0.700 E299.04909
G1 X-0.700 Y1.200 E299.11749
G1 X1.200 Y1.200 E299.18590
G0 F7500 X1.190 Y1.300
G0 X25.500 Y35.590
G0 X25.600 Y35.600
G1 F2400 X-25.500 Y35.600 E301.02571
G1 X-25.500 Y-35.400 E303.58200
G1 X25.600 Y-35.400 E305.42181
G1 X25.600 Y35.600 E307.97810
G0 F7500 X25.500 Y35.590
G0 X25.500 Y31.768
G0 X25.663 Y31.768
G1 F2400 X-25.564 Y31.767 E309.82248
G0 F7500 X-25.400 Y31.767
G0 X-25.400 Y25.991
G0 X-25.564 Y25.991
G1 F2400 X25.663 Y25.992 E311.66687
G0 F7500 X25.500 Y25.992
G0 X25.500 Y20.216
G0 X25.663 Y20.216
G1 F2400 X-25.564 Y20.215 E313.51125
G0 F7500 X-25.400 Y20.215
G0 X-20.216 Y35.500
G0 X-20.216 Y35.664
G1 F2400 X-20.216 Y-35.464 E316.07215
G0 F7500 X-20.216 Y-35.300
G0 X-25.400 Y-31.768
G0 X-25.563 Y-31.768
G1 F2400 X25.664 Y-31.767 E317.91653
G0 F7500 X25.500 Y-31.767
G0 X25.500 Y-25.991
G0 X25.664 Y-25.991
G1 F2400 X-25.563 Y-25.992 E319.76091
G0 F7500 X-25.400 Y-25.992
G0 X-25.400 Y-20.216
G0 X-25.563 Y-20.216
G1 F2400 X25.664 Y-20.215 E321.60529
G0 F7500 X25.500 Y-20.215
G0 X20.216 Y-35.300
G0 X20.216 Y-35.464
G1 F2400 X20.216 Y35.664 E324.16619
G0 F7500 X20.216 Y35.500
G0 X14.440 Y35.500
G0 X14.440 Y35.664
G1 F2400 X14.440 Y-35.464 E326.72709
G0 F7500 X14.440 Y-35.300
G0 X8.664 Y-35.300
G0 X8.664 Y-35.464
G1 F2400 X8.664 Y35.664 E329.28799
G0 F7500 X8.664 Y35.500
G0 X2.888 Y35.500
G0 X2.888 Y35.664
G1 F2400 X2.888 Y-35.464 E331.84889
G0 F7500 X2.888 Y-35.300
G0 X-2.888 Y-35.300
G0 X-2.888 Y-35.464
G1 F2400 X-2.888 Y35.664 E334.40979
G0 F7500 X-2.888 Y35.500
G0 X-8.664 Y35.500
G0 X-8.664 Y35.664
G1 F2400 X-8.664 Y-35.464 E336.97069
G0 F7500 X-8.664 Y-35.300
G0 X-14.440 Y-35.300
G0 X-14.440 Y-35.464
G1 F2400 X-14.440 Y35.664 E339.53159
G0 F7500 X-14.440 Y35.500
G0 X-25.400 Y14.439
G0 X-25.564 Y14.439
G1 F2400 X25.663 Y14.440 E341.37597
G0 F7500 X25.500 Y14.440
G0 X25.500 Y8.664
G0 X25.663 Y8.664
G1 F2400 X-25.564 Y8.663 E343.22035
G0 F7500 X-25.400 Y8.663
G0 X-25.400 Y2.887
G0 X-25.564 Y2.887
G1 F2400 X25.663 Y2.888 E345.06473
G0 F7500 X25.500 Y2.888
G0 X25.500 Y-2.887
G0 X25.664 Y-2.887
G1 F2400 X-25.563 Y-2.888 E346.90912
G0 F7500 X-25.400 Y-2.888
G0 X-25.400 Y-8.664
G0 X-25.563 Y-8.664
G1 F2400 X25.664 Y-8.663 E348.75350
G0 F7500 X25.500 Y-8.663
G0 X25.500 Y-14.439
G0 X25.664 Y-14.439
G1 F2400 X-25.563 Y-14.440 E350.59788
;LAYER:6
G1 F2400 E349.59788
G0 F7500 X0.216 Y0.216 Z1.500
;TYPE:WALL-OUTER
G1 F2400 E350.59788
G1 F2700 X0.284 Y0.216 E350.60033
G1 X0.284 Y0.284 E350.60278
G1 X0.216 Y0.284 E350.60522
G1 X0.216 Y0.216 E350.60767
G0 F7500 X-0.700 Y-0.700
;TYPE:SUPPORT
G1 F2400 X-0.700 Y1.200 E350.67608
G1 X1.200 Y1.200 E350.74449
G1 X1.200 Y-0.700 E350.81290
