;Generated with Cura_SteamEngine 15.04.6

;Layer count: 16
;LAYER:0
M107
G0 F7500 X-28.716 Y-43.616 Z0.300
;TYPE:SKIRT
G1 F1800 X28.816 Y-43.616 E3.10708
G1 X28.816 Y43.816 E7.82895
G1 X-28.716 Y43.816 E10.93603
G1 X-28.716 Y-43.616 E15.65789
G1 F2400 E14.65789
G0 F7500 X0.216 Y0.216
;TYPE:WALL-OUTER
G1 F2400 E15.65789
G1 F1800 X0.284 Y0.216 E15.66157
G1 X0.284 Y0.284 E15.66524
G1 X0.216 Y0.284 E15.66891
G1 X0.216 Y0.216 E15.67258
G0 F7500 X-0.700 Y-0.700
;TYPE:SUPPORT
G1 F1800 X-0.700 Y1.200 E15.77519
G1 X1.200 Y1.200 E15.87781
G1 X1.200 Y-0.700 E15.98042
G1 X-0.700 Y-0.700 E16.08303
G0 F7500 X-0.690 Y-0.800
G0 X-25.500 Y-40.400
G1 F1800 X25.600 Y-40.400 E18.84274
G1 X25.600 Y40.600 E23.21724
G1 X-25.500 Y40.600 E25.97696
G1 X-25.500 Y-40.400 E30.35145
G0 F7500 X-20.216 Y-40.300
G0 X-20.216 Y-40.464
G1 F1800 X-20.216 Y40.664 E34.73286
G0 F7500 X-20.216 Y40.500
G0 X-14.440 Y40.500
G0 X-14.440 Y40.664
G1 F1800 X-14.440 Y-40.464 E39.11427
G0 F7500 X-14.440 Y-40.300
G0 X-8.664 Y-40.300
G0 X-8.664 Y-40.464
G1 F1800 X-8.664 Y40.664 E43.49568
G0 F7500 X-8.664 Y40.500
G0 X-2.888 Y40.500
G0 X-2.888 Y40.664
G1 F1800 X-2.888 Y-40.464 E47.87709
G0 F7500 X-2.888 Y-40.300
G0 X2.888 Y-40.300
G0 X2.888 Y-40.464
G1 F1800 X2.888 Y40.664 E52.25851
G0 F7500 X2.888 Y40.500
G0 X8.664 Y40.500
G0 X8.664 Y40.664
G1 F1800 X8.664 Y-40.464 E56.63992
G0 F7500 X8.664 Y-40.300
G0 X14.440 Y-40.300
G0 X14.440 Y-40.464
G1 F1800 X14.440 Y40.664 E61.02133
G0 F7500 X14.440 Y40.500
G0 X20.216 Y40.500
G0 X20.216 Y40.664
G1 F1800 X20.216 Y-40.464 E65.40274
G0 F7500 X20.216 Y-40.300
G0 X25.500 Y-37.543
G0 X25.664 Y-37.543
G1 F1800 X-25.563 Y-37.544 E68.16931
G0 F7500 X-25.400 Y-37.544
G0 X-25.400 Y-31.768
G0 X-25.563 Y-31.768
G1 F1800 X25.664 Y-31.767 E70.93588
G0 F7500 X25.500 Y-31.767
G0 X25.500 Y-25.991
G0 X25.664 Y-25.991
G1 F1800 X-25.563 Y-25.992 E73.70246
G0 F7500 X-25.400 Y-25.992
G0 X-25.400 Y-20.216
G0 X-25.563 Y-20.216
G1 F1800 X25.664 Y-20.215 E76.46903
G0 F7500 X25.500 Y-20.215
G0 X25.500 Y-14.439
G0 X25.664 Y-14.439
G1 F1800 X-25.563 Y-14.440 E79.23560
G0 F7500 X-25.400 Y-14.440
G0 X-25.400 Y-8.664
G0 X-25.563 Y-8.664
G1 F1800 X25.664 Y-8.663 E82.00217
G0 F7500 X25.500 Y-8.663
G0 X25.500 Y-2.887
G0 X25.664 Y-2.887
G1 F1800 X-25.563 Y-2.888 E84.76875
G0 F7500 X-25.400 Y-2.888
G0 X-25.400 Y2.887
G0 X-25.564 Y2.887
G1 F1800 X25.663 Y2.888 E87.53532
G0 F7500 X25.500 Y2.888
G0 X25.500 Y8.664
G0 X25.663 Y8.664
G1 F1800 X-25.564 Y8.663 E90.30189
G0 F7500 X-25.400 Y8.663
G0 X-25.400 Y14.439
G0 X-25.564 Y14.439
G1 F1800 X25.663 Y14.440 E93.06846
G0 F7500 X25.500 Y14.440
G0 X25.500 Y20.216
G0 X25.663 Y20.216
G1 F1800 X-25.564 Y20.215 E95.83504
G0 F7500 X-25.400 Y20.215
G0 X-25.400 Y25.991
G0 X-25.564 Y25.991
G1 F1800 X25.663 Y25.992 E98.60161
G0 F7500 X25.500 Y25.992
G0 X25.500 Y31.768
G0 X25.663 Y31.768
G1 F1800 X-25.564 Y31.767 E101.36818
G0 F7500 X-25.400 Y31.767
G0 X-25.400 Y37.543
G0 X-25.564 Y37.543
G1 F1800 X25.663 Y37.544 E104.13476
;LAYER:1
M106 S63
G1 F2400 E103.13476
G0 F7500 X0.284 Y0.284 Z0.500
;TYPE:WALL-OUTER
G1 F2400 E104.13476
G1 F1980 X0.216 Y0.284 E104.13720
G1 X0.216 Y0.216 E104.13965
G1 X0.284 Y0.216 E104.14210
G1 X0.284 Y0.284 E104.14455
G0 F7500 X1.200 Y1.200
;TYPE:SUPPORT
G1 F1920 X1.200 Y-0.700 E104.21296
G1 X-0.700 Y-0.700 E104.28136
G1 X-0.700 Y1.200 E104.34977
G1 X1.200 Y1.200 E104.41818
G0 F7500 X1.190 Y1.300
G0 X25.500 Y40.590
G0 X25.600 Y40.600
G1 F1920 X-25.500 Y40.600 E106.25799
G1 X-25.500 Y-40.400 E109.17432
G1 X25.600 Y-40.400 E111.01413
G1 X25.600 Y40.600 E113.93046
G0 F7500 X25.500 Y40.590
G0 X20.216 Y40.500
G0 X20.216 Y40.664
G1 F1920 X20.216 Y-40.464 E116.85140
G0 F7500 X20.216 Y-40.300
G0 X14.440 Y-40.300
G0 X14.440 Y-40.464
G1 F1920 X14.440 Y40.664 E119.77234
G0 F7500 X14.440 Y40.500
G0 X8.664 Y40.500
G0 X8.664 Y40.664
G1 F1920 X8.664 Y-40.464 E122.69328
G0 F7500 X8.664 Y-40.300
G0 X2.888 Y-40.300
G0 X2.888 Y-40.464
G1 F1920 X2.888 Y40.664 E125.61422
G0 F7500 X2.888 Y40.500
G0 X-2.888 Y40.500
G0 X-2.888 Y40.664
G1 F1920 X-2.888 Y-40.464 E128.53516
G0 F7500 X-2.888 Y-40.300
G0 X-8.664 Y-40.300
G0 X-8.664 Y-40.464
G1 F1920 X-8.664 Y40.664 E131.45610
G0 F7500 X-8.664 Y40.500
G0 X-14.440 Y40.500
G0 X-14.440 Y40.664
G1 F1920 X-14.440 Y-40.464 E134.37704
G0 F7500 X-14.440 Y-40.300
G0 X-20.216 Y-40.300
G0 X-20.216 Y-40.464
G1 F1920 X-20.216 Y40.664 E137.29798
G0 F7500 X-20.216 Y40.500
G0 X-25.400 Y37.543
G0 X-25.564 Y37.543
G1 F1920 X25.663 Y37.544 E139.14237
G0 F7500 X25.500 Y37.544
G0 X25.500 Y31.768
G0 X25.663 Y31.768
G1 F1920 X-25.564 Y31.767 E140.98675
G0 F7500 X-25.400 Y31.767
G0 X-25.400 Y25.991
G0 X-25.564 Y25.991
G1 F1920 X25.663 Y25.992 E142.83113
G0 F7500 X25.500 Y25.992
G0 X25.500 Y20.216
G0 X25.663 Y20.216
G1 F1920 X-25.564 Y20.215 E144.67551
G0 F7500 X-25.400 Y20.215
G0 X-25.400 Y14.439
G0 X-25.564 Y14.439
G1 F1920 X25.663 Y14.440 E146.51989
G0 F7500 X25.500 Y14.440
G0 X25.500 Y8.664
G0 X25.663 Y8.664
G1 F1920 X-25.564 Y8.663 E148.36428
G0 F7500 X-25.400 Y8.663
G0 X-25.400 Y2.887
G0 X-25.564 Y2.887
G1 F1920 X25.663 Y2.888 E150.20866
G0 F7500 X25.500 Y2.888
G0 X25.500 Y-2.887
G0 X25.664 Y-2.887
G1 F1920 X-25.563 Y-2.888 E152.05304
G0 F7500 X-25.400 Y-2.888
G0 X-25.400 Y-8.664
G0 X-25.563 Y-8.664
G1 F1920 X25.664 Y-8.663 E153.89742
G0 F7500 X25.500 Y-8.663
G0 X25.500 Y-14.439
G0 X25.664 Y-14.439
G1 F1920 X-25.563 Y-14.440 E155.74180
G0 F7500 X-25.400 Y-14.440
G0 X-25.400 Y-20.216
G0 X-25.563 Y-20.216
G1 F1920 X25.664 Y-20.215 E157.58618
G0 F7500 X25.500 Y-20.215
G0 X25.500 Y-25.991
G0 X25.664 Y-25.991
G1 F1920 X-25.563 Y-25.992 E159.43057
G0 F7500 X-25.400 Y-25.992
G0 X-25.400 Y-31.768
G0 X-25.563 Y-31.768
G1 F1920 X25.664 Y-31.767 E161.27495
G0 F7500 X25.500 Y-31.767
G0 X25.500 Y-37.543
G0 X25.664 Y-37.543
G1 F1920 X-25.563 Y-37.544 E163.11933
;LAYER:2
M106 S127
G1 F2400 E162.11933
G0 F7500 X0.216 Y0.216 Z0.700
;TYPE:WALL-OUTER
G1 F2400 E163.11933
G1 F2220 X0.284 Y0.216 E163.12178
G1 X0.284 Y0.284 E163.12423
G1 X0.216 Y0.284 E163.12667
G1 X0.216 Y0.216 E163.12912
G0 F7500 X-0.700 Y-0.700
;TYPE:SUPPORT
G1 F2100 X-0.700 Y1.200 E163.19753
G1 X1.200 Y1.200 E163.26594
G1 X1.200 Y-0.700 E163.33435
G1 X-0.700 Y-0.700 E163.40275
G0 F7500 X-0.690 Y-0.800
G0 X-25.500 Y-40.400
G1 F2100 X25.600 Y-40.400 E165.24256
G1 X25.600 Y40.600 E168.15890
G1 X-25.500 Y40.600 E169.99870
G1 X-25.500 Y-40.400 E172.91504
G0 F7500 X-20.216 Y-40.300
G0 X-20.216 Y-40.464
G1 F2100 X-20.216 Y40.664 E175.83598
G0 F7500 X-20.216 Y40.500
G0 X-14.440 Y40.500
G0 X-14.440 Y40.664
G1 F2100 X-14.440 Y-40.464 E178.75692
G0 F7500 X-14.440 Y-40.300
G0 X-8.664 Y-40.300
G0 X-8.664 Y-40.464
G1 F2100 X-8.664 Y40.664 E181.67786
G0 F7500 X-8.664 Y40.500
G0 X-2.888 Y40.500
G0 X-2.888 Y40.664
G1 F2100 X-2.888 Y-40.464 E184.59880
G0 F7500 X-2.888 Y-40.300
G0 X2.888 Y-40.300
G0 X2.888 Y-40.464
G1 F2100 X2.888 Y40.664 E187.51974
G0 F7500 X2.888 Y40.500
G0 X8.664 Y40.500
G0 X8.664 Y40.664
G1 F2100 X8.664 Y-40.464 E190.44068
G0 F7500 X8.664 Y-40.300
G0 X14.440 Y-40.300
G0 X14.440 Y-40.464
G1 F2100 X14.440 Y40.664 E193.36162
G0 F7500 X14.440 Y40.500
G0 X20.216 Y40.500
G0 X20.216 Y40.664
G1 F2100 X20.216 Y-40.464 E196.28256
G0 F7500 X20.216 Y-40.300
G0 X25.500 Y-37.543
G0 X25.664 Y-37.543
G1 F2100 X-25.563 Y-37.544 E198.12694
G0 F7500 X-25.400 Y-37.544
G0 X-25.400 Y-31.768
G0 X-25.563 Y-31.768
G1 F2100 X25.664 Y-31.767 E199.97132
G0 F7500 X25.500 Y-31.767
G0 X25.500 Y-25.991
G0 X25.664 Y-25.991
G1 F2100 X-25.563 Y-25.992 E201.81570
G0 F7500 X-25.400 Y-25.992
G0 X-25.400 Y-20.216
G0 X-25.563 Y-20.216
G1 F2100 X25.664 Y-20.215 E203.66009
G0 F7500 X25.500 Y-20.215
G0 X25.500 Y-14.439
G0 X25.664 Y-14.439
G1 F2100 X-25.563 Y-14.440 E205.50447
G0 F7500 X-25.400 Y-14.440
G0 X-25.400 Y-8.664
G0 X-25.563 Y-8.664
G1 F2100 X25.664 Y-8.663 E207.34885
G0 F7500 X25.500 Y-8.663
G0 X25.500 Y-2.887
G0 X25.664 Y-2.887
G1 F2100 X-25.563 Y-2.888 E209.19323
G0 F7500 X-25.400 Y-2.888
G0 X-25.400 Y2.887
G0 X-25.564 Y2.887
G1 F2100 X25.663 Y2.888 E211.03761
G0 F7500 X25.500 Y2.888
G0 X25.500 Y8.664
G0 X25.663 Y8.664
G1 F2100 X-25.564 Y8.663 E212.88200
G0 F7500 X-25.400 Y8.663
G0 X-25.400 Y14.439
G0 X-25.564 Y14.439
G1 F2100 X25.663 Y14.440 E214.72638
G0 F7500 X25.500 Y14.440
G0 X25.500 Y20.216
G0 X25.663 Y20.216
G1 F2100 X-25.564 Y20.215 E216.57076
G0 F7500 X-25.400 Y20.215
G0 X-25.400 Y25.991
G0 X-25.564 Y25.991
G1 F2100 X25.663 Y25.992 E218.41514
G0 F7500 X25.500 Y25.992
G0 X25.500 Y31.768
G0 X25.663 Y31.768
G1 F2100 X-25.564 Y31.767 E220.25952
G0 F7500 X-25.400 Y31.767
G0 X-25.400 Y37.543
G0 X-25.564 Y37.543
G1 F2100 X25.663 Y37.544 E222.10390
;LAYER:3
G1 F2400 E221.10390
G0 F7500 X0.284 Y0.284 Z0.900
;TYPE:WALL-OUTER
G1 F2400 E222.10390
G1 X0.216 Y0.284 E222.10635
G1 X0.216 Y0.216 E222.10880
G1 X0.284 Y0.216 E222.11125
G1 X0.284 Y0.284 E222.11370
G0 F7500 X1.200 Y1.200
;TYPE:SUPPORT
G1 F2220 X1.200 Y-0.700 E222.18211
G1 X-0.700 Y-0.700 E222.25051
G1 X-0.700 Y1.200 E222.31892
G1 X1.200 Y1.200 E222.38733
G0 F7500 X1.190 Y1.300
G0 X25.500 Y40.590
G0 X25.600 Y40.600
G1 F2220 X-25.500 Y40.600 E224.22714
G1 X-25.500 Y-40.400 E227.14347
G1 X25.600 Y-40.400 E228.98328
G1 X25.600 Y40.600 E231.89961
G0 F7500 X25.500 Y40.590
G0 X20.216 Y40.500
G0 X20.216 Y40.664
G1 F2220 X20.216 Y-40.464 E234.82055
G0 F7500 X20.216 Y-40.300
G0 X14.440 Y-40.300
G0 X14.440 Y-40.464
G1 F2220 X14.440 Y40.664 E237.74149
G0 F7500 X14.440 Y40.500
G0 X8.664 Y40.500
G0 X8.664 Y40.664
G1 F2220 X8.664 Y-40.464 E240.66243
G0 F7500 X8.664 Y-40.300
G0 X2.888 Y-40.300
G0 X2.888 Y-40.464
G1 F2220 X2.888 Y40.664 E243.58337
G0 F7500 X2.888 Y40.500
G0 X-2.888 Y40.500
G0 X-2.888 Y40.664
G1 F2220 X-2.888 Y-40.464 E246.50431
G0 F7500 X-2.888 Y-40.300
G0 X-8.664 Y-40.300
G0 X-8.664 Y-40.464
G1 F2220 X-8.664 Y40.664 E249.42525
G0 F7500 X-8.664 Y40.500
G0 X-14.440 Y40.500
G0 X-14.440 Y40.664
G1 F2220 X-14.440 Y-40.464 E252.34619
G0 F7500 X-14.440 Y-40.300
G0 X-20.216 Y-40.300
G0 X-20.216 Y-40.464
G1 F2220 X-20.216 Y40.664 E255.26713
G0 F7500 X-20.216 Y40.500
G0 X-25.400 Y37.543
G0 X-25.564 Y37.543
G1 F2220 X25.663 Y37.544 E257.11152
G0 F7500 X25.500 Y37.544
G0 X25.500 Y31.768
G0 X25.663 Y31.768
G1 F2220 X-25.564 Y31.767 E258.95590
G0 F7500 X-25.400 Y31.767
G0 X-25.400 Y25.991
G0 X-25.564 Y25.991
G1 F2220 X25.663 Y25.992 E260.80028
G0 F7500 X25.500 Y25.992
G0 X25.500 Y20.216
G0 X25.663 Y20.216
G1 F2220 X-25.564 Y20.215 E262.64466
G0 F7500 X-25.400 Y20.215
G0 X-25.400 Y14.439
G0 X-25.564 Y14.439
G1 F2220 X25.663 Y14.440 E264.48904
G0 F7500 X25.500 Y14.440
G0 X25.500 Y8.664
G0 X25.663 Y8.664
G1 F2220 X-25.564 Y8.663 E266.33342
G0 F7500 X-25.400 Y8.663
G0 X-25.400 Y2.887
G0 X-25.564 Y2.887
G1 F2220 X25.663 Y2.888 E268.17781
G0 F7500 X25.500 Y2.888
G0 X25.500 Y-2.887
G0 X25.664 Y-2.887
G1 F2220 X-25.563 Y-2.888 E270.02219
G0 F7500 X-25.400 Y-2.888
G0 X-25.400 Y-8.664
G0 X-25.563 Y-8.664
G1 F2220 X25.664 Y-8.663 E271.86657
G0 F7500 X25.500 Y-8.663
G0 X25.500 Y-14.439
G0 X25.664 Y-14.439
G1 F2220 X-25.563 Y-14.440 E273.71095
G0 F7500 X-25.400 Y-14.440
G0 X-25.400 Y-20.216
G0 X-25.563 Y-20.216
G1 F2220 X25.664 Y-20.215 E275.55533
G0 F7500 X25.500 Y-20.215
G0 X25.500 Y-25.991
G0 X25.664 Y-25.991
G1 F2220 X-25.563 Y-25.992 E277.39972
G0 F7500 X-25.400 Y-25.992
G0 X-25.400 Y-31.768
G0 X-25.563 Y-31.768
G1 F2220 X25.664 Y-31.767 E279.24410
G0 F7500 X25.500 Y-31.767
G0 X25.500 Y-37.543
G0 X25.664 Y-37.543
G1 F2220 X-25.563 Y-37.544 E281.08848
;LAYER:4
G1 F2400 E280.08848
G0 F7500 X0.216 Y0.216 Z1.100
;TYPE:WALL-OUTER
G1 F2400 E281.08848
G1 F2700 X0.284 Y0.216 E281.09093
G1 X0.284 Y0.284 E281.09338
G1 X0.216 Y0.284 E281.09582
G1 X0.216 Y0.216 E281.09827
G0 F7500 X-0.700 Y-0.700
;TYPE:SUPPORT
G1 F2400 X-0.700 Y1.200 E281.16668
G1 X1.200 Y1.200 E281.23509
G1 X1.200 Y-0.700 E281.30350
G1 X-0.700 Y-0.700 E281.37190
G0 F7500 X-0.690 Y-0.800
G0 X-25.500 Y-40.400
G1 F2400 X25.600 Y-40.400 E283.21171
G1 X25.600 Y40.600 E286.12804
G1 X-25.500 Y40.600 E287.96785
G1 X-25.500 Y-40.400 E290.88419
G0 F7500 X-20.216 Y-40.300
G0 X-20.216 Y-40.464
G1 F2400 X-20.216 Y40.664 E293.80513
G0 F7500 X-20.216 Y40.500
G0 X-14.440 Y40.500
G0 X-14.440 Y40.664
G1 F2400 X-14.440 Y-40.464 E296.72607
G0 F7500 X-14.440 Y-40.300
G0 X-8.664 Y-40.300
G0 X-8.664 Y-40.464
G1 F2400 X-8.664 Y40.664 E299.64701
G0 F7500 X-8.664 Y40.500
G0 X-2.888 Y40.500
G0 X-2.888 Y40.664
G1 F2400 X-2.888 Y-40.464 E302.56795
G0 F7500 X-2.888 Y-40.300
G0 X2.888 Y-40.300
G0 X2.888 Y-40.464
G1 F2400 X2.888 Y40.664 E305.48889
G0 F7500 X2.888 Y40.500
G0 X8.664 Y40.500
G0 X8.664 Y40.664
G1 F2400 X8.664 Y-40.464 E308.40983
G0 F7500 X8.664 Y-40.300
G0 X14.440 Y-40.300
G0 X14.440 Y-40.464
G1 F2400 X14.440 Y40.664 E311.33077
G0 F7500 X14.440 Y40.500
G0 X20.216 Y40.500
G0 X20.216 Y40.664
G1 F2400 X20.216 Y-40.464 E314.25171
G0 F7500 X20.216 Y-40.300
G0 X25.500 Y-37.543
G0 X25.664 Y-37.543
G1 F2400 X-25.563 Y-37.544 E316.09609
G0 F7500 X-25.400 Y-37.544
G0 X-25.400 Y-31.768
G0 X-25.563 Y-31.768
G1 F2400 X25.664 Y-31.767 E317.94047
G0 F7500 X25.500 Y-31.767
G0 X25.500 Y-25.991
G0 X25.664 Y-25.991
G1 F2400 X-25.563 Y-25.992 E319.78485
G0 F7500 X-25.400 Y-25.992
G0 X-25.400 Y-20.216
G0 X-25.563 Y-20.216
G1 F2400 X25.664 Y-20.215 E321.62924
G0 F7500 X25.500 Y-20.215
G0 X25.500 Y-14.439
G0 X25.664 Y-14.439
G1 F2400 X-25.563 Y-14.440 E323.47362
G0 F7500 X-25.400 Y-14.440
G0 X-25.400 Y-8.664
G0 X-25.563 Y-8.664
G1 F2400 X25.664 Y-8.663 E325.31800
G0 F7500 X25.500 Y-8.663
G0 X25.500 Y-2.887
G0 X25.664 Y-2.887
G1 F2400 X-25.563 Y-2.888 E327.16238
G0 F7500 X-25.400 Y-2.888
G0 X-25.400 Y2.887
G0 X-25.564 Y2.887
G1 F2400 X25.663 Y2.888 E329.00676
G0 F7500 X25.500 Y2.888
G0 X25.500 Y8.664
G0 X25.663 Y8.664
G1 F2400 X-25.564 Y8.663 E330.85114
G0 F7500 X-25.400 Y8.663
G0 X-25.400 Y14.439
G0 X-25.564 Y14.439
G1 F2400 X25.663 Y14.440 E332.69553
G0 F7500 X25.500 Y14.440
G0 X25.500 Y20.216
G0 X25.663 Y20.216
G1 F2400 X-25.564 Y20.215 E334.53991
G0 F7500 X-25.400 Y20.215
G0 X-25.400 Y25.991
G0 X-25.564 Y25.991
G1 F2400 X25.663 Y25.992 E336.38429
G0 F7500 X25.500 Y25.992
G0 X25.500 Y31.768
G0 X25.663 Y31.768
G1 F2400 X-25.564 Y31.767 E338.22867
G0 F7500 X-25.400 Y31.767
G0 X-25.400 Y37.543
G0 X-25.564 Y37.543
G1 F2400 X25.663 Y37.544 E340.07305
;LAYER:5
G1 F2400 E339.07305
G0 F7500 X0.284 Y0.284 Z1.300
;TYPE:WALL-OUTER
G1 F2400 E340.07305
G1 F2700 X0.216 Y0.284 E340.07550
G1 X0.216 Y0.216 E340.07795
G1 X0.284 Y0.216 E340.08040
G1 X0.284 Y0.284 E340.08285
G0 F7500 X1.200 Y1.200
;TYPE:SUPPORT
G1 F2400 X1.200 Y-0.700 E340.15126
G1 X-0.700 Y-0.700 E340.21966
G1 X-0.700 Y1.200 E340.28807
G1 X1.200 Y1.200 E340.35648
G0 F7500 X1.190 Y1.300
G0 X25.500 Y40.590
G0 X25.600 Y40.600
G1 F2400 X-25.500 Y40.600 E342.19629
G1 X-25.500 Y-40.400 E345.11262
G1 X25.600 Y-40.400 E346.95243
G1 X25.600 Y40.600 E349.86876
G0 F7500 X25.500 Y40.590
G0 X20.216 Y40.500
G0 X20.216 Y40.664
G1 F2400 X20.216 Y-40.464 E352.78970
G0 F7500 X20.216 Y-40.300
G0 X14.440 Y-40.300
G0 X14.440 Y-40.464
G1 F2400 X14.440 Y40.664 E355.71064
G0 F7500 X14.440 Y40.500
G0 X8.664 Y40.500
G0 X8.664 Y40.664
G1 F2400 X8.664 Y-40.464 E358.63158
G0 F7500 X8.664 Y-40.300
G0 X2.888 Y-40.300
G0 X2.888 Y-40.464
G1 F2400 X2.888 Y40.664 E361.55252
G0 F7500 X2.888 Y40.500
G0 X-2.888 Y40.500
G0 X-2.888 Y40.664
G1 F2400 X-2.888 Y-40.464 E364.47346
G0 F7500 X-2.888 Y-40.300
G0 X-8.664 Y-40.300
G0 X-8.664 Y-40.464
G1 F2400 X-8.664 Y40.664 E367.39440
G0 F7500 X-8.664 Y40.500
G0 X-14.440 Y40.500
G0 X-14.440 Y40.664
G1 F2400 X-14.440 Y-40.464 E370.31534
G0 F7500 X-14.440 Y-40.300
G0 X-20.216 Y-40.300
G0 X-20.216 Y-40.464
G1 F2400 X-20.216 Y40.664 E373.23628
G0 F7500 X-20.216 Y40.500
G0 X-25.400 Y37.543
G0 X-25.564 Y37.543
G1 F2400 X25.663 Y37.544 E375.08066
G0 F7500 X25.500 Y37.544
G0 X25.500 Y31.768
G0 X25.663 Y31.768
G1 F2400 X-25.564 Y31.767 E376.92505
G0 F7500 X-25.400 Y31.767
G0 X-25.400 Y25.991
G0 X-25.564 Y25.991
G1 F2400 X25.663 Y25.992 E378.76943
G0 F7500 X25.500 Y25.992
G0 X25.500 Y20.216
G0 X25.663 Y20.216
G1 F2400 X-25.564 Y20.215 E380.61381
G0 F7500 X-25.400 Y20.215
G0 X-25.400 Y14.439
G0 X-25.564 Y14.439
G1 F2400 X25.663 Y14.440 E382.45819
G0 F7500 X25.500 Y14.440
