;Generated with Cura_SteamEngine 15.04.6

;Layer count: 16
;LAYER:0
M107
G0 F7500 X-28.716 Y-48.616 Z0.300
;TYPE:SKIRT
G1 F1800 X28.816 Y-48.616 E3.10708
G1 X28.816 Y48.816 E8.36901
G1 X-28.716 Y48.816 E11.47609
G1 X-28.716 Y-48.616 E16.73802
G1 F2400 E15.73802
G0 F7500 X0.216 Y0.216
;TYPE:WALL-OUTER
G1 F2400 E16.73802
G1 F1800 X0.284 Y0.216 E16.74169
G1 X0.284 Y0.284 E16.74536
G1 X0.216 Y0.284 E16.74903
G1 X0.216 Y0.216 E16.75271
G0 F7500 X-0.700 Y-0.700
;TYPE:SUPPORT
G1 F1800 X-0.700 Y1.200 E16.85532
G1 X1.200 Y1.200 E16.95793
G1 X1.200 Y-0.700 E17.06054
G1 X-0.700 Y-0.700 E17.16315
G0 F7500 X-0.690 Y-0.800
G0 X-25.500 Y-45.400
G1 F1800 X25.600 Y-45.400 E19.92287
G1 X25.600 Y45.600 E24.83743
G1 X-25.500 Y45.600 E27.59714
G1 X-25.500 Y-45.400 E32.51170
G0 F7500 X-25.400 Y-43.320
G0 X-25.563 Y-43.320
G1 F1800 X25.664 Y-43.319 E35.27827
G0 F7500 X25.500 Y-43.319
G0 X20.216 Y-45.300
G0 X20.216 Y-45.464
G1 F1800 X20.216 Y45.664 E40.19974
G0 F7500 X20.216 Y45.500
G0 X25.500 Y43.320
G0 X25.663 Y43.320
G1 F1800 X-25.564 Y43.319 E42.96632
G0 F7500 X-25.400 Y43.319
G0 X-20.216 Y45.500
G0 X-20.216 Y45.664
G1 F1800 X-20.216 Y-45.464 E47.88779
G0 F7500 X-20.216 Y-45.300
G0 X-14.440 Y-45.300
G0 X-14.440 Y-45.464
G1 F1800 X-14.440 Y45.664 E52.80926
G0 F7500 X-14.440 Y45.500
G0 X-8.664 Y45.500
G0 X-8.664 Y45.664
G1 F1800 X-8.664 Y-45.464 E57.73073
G0 F7500 X-8.664 Y-45.300
G0 X-2.888 Y-45.300
G0 X-2.888 Y-45.464
G1 F1800 X-2.888 Y45.664 E62.65220
G0 F7500 X-2.888 Y45.500
G0 X2.888 Y45.500
G0 X2.888 Y45.664
G1 F1800 X2.888 Y-45.464 E67.57368
G0 F7500 X2.888 Y-45.300
G0 X8.664 Y-45.300
G0 X8.664 Y-45.464
G1 F1800 X8.664 Y45.664 E72.49515
G0 F7500 X8.664 Y45.500
G0 X14.440 Y45.500
G0 X14.440 Y45.664
G1 F1800 X14.440 Y-45.464 E77.41662
G0 F7500 X14.440 Y-45.300
G0 X25.500 Y-37.543
G0 X25.664 Y-37.543
G1 F1800 X-25.563 Y-37.544 E80.18319
G0 F7500 X-25.400 Y-37.544
G0 X-25.400 Y-31.768
G0 X-25.563 Y-31.768
G1 F1800 X25.664 Y-31.767 E82.94977
G0 F7500 X25.500 Y-31.767
G0 X25.500 Y-25.991
G0 X25.664 Y-25.991
G1 F1800 X-25.563 Y-25.992 E85.71634
G0 F7500 X-25.400 Y-25.992
G0 X-25.400 Y-20.216
G0 X-25.563 Y-20.216
G1 F1800 X25.664 Y-20.215 E88.48291
G0 F7500 X25.500 Y-20.215
G0 X25.500 Y-14.439
G0 X25.664 Y-14.439
G1 F1800 X-25.563 Y-14.440 E91.24948
G0 F7500 X-25.400 Y-14.440
G0 X-25.400 Y-8.664
G0 X-25.563 Y-8.664
G1 F1800 X25.664 Y-8.663 E94.01606
G0 F7500 X25.500 Y-8.663
G0 X25.500 Y-2.887
G0 X25.664 Y-2.887
G1 F1800 X-25.563 Y-2.888 E96.78263
G0 F7500 X-25.400 Y-2.888
G0 X-25.400 Y2.887
G0 X-25.564 Y2.887
G1 F1800 X25.663 Y2.888 E99.54920
G0 F7500 X25.500 Y2.888
G0 X25.500 Y8.664
G0 X25.663 Y8.664
G1 F1800 X-25.564 Y8.663 E102.31577
G0 F7500 X-25.400 Y8.663
G0 X-25.400 Y14.439
G0 X-25.564 Y14.439
G1 F1800 X25.663 Y14.440 E105.08235
G0 F7500 X25.500 Y14.440
G0 X25.500 Y20.216
G0 X25.663 Y20.216
G1 F1800 X-25.564 Y20.215 E107.84892
G0 F7500 X-25.400 Y20.215
G0 X-25.400 Y25.991
G0 X-25.564 Y25.991
G1 F1800 X25.663 Y25.992 E110.61549
G0 F7500 X25.500 Y25.992
G0 X25.500 Y31.768
G0 X25.663 Y31.768
G1 F1800 X-25.564 Y31.767 E113.38207
G0 F7500 X-25.400 Y31.767
G0 X-25.400 Y37.543
G0 X-25.564 Y37.543
G1 F1800 X25.663 Y37.544 E116.14864
;LAYER:1
M106 S63
G1 F2400 E115.14864
G0 F7500 X0.284 Y0.284 Z0.500
;TYPE:WALL-OUTER
G1 F2400 E116.14864
G1 F1980 X0.216 Y0.284 E116.15109
G1 X0.216 Y0.216 E116.15353
G1 X0.284 Y0.216 E116.15598
G1 X0.284 Y0.284 E116.15843
G0 F7500 X1.200 Y1.200
;TYPE:SUPPORT
G1 F1920 X1.200 Y-0.700 E116.22684
G1 X-0.700 Y-0.700 E116.29525
G1 X-0.700 Y1.200 E116.36365
G1 X1.200 Y1.200 E116.43206
G0 F7500 X1.190 Y1.300
G0 X25.500 Y45.590
G0 X25.600 Y45.600
G1 F1920 X-25.500 Y45.600 E118.27187
G1 X-25.500 Y-45.400 E121.54824
G1 X25.600 Y-45.400 E123.38805
G1 X25.600 Y45.600 E126.66443
G0 F7500 X25.500 Y45.590
G0 X25.500 Y43.320
G0 X25.663 Y43.320
G1 F1920 X-25.564 Y43.319 E128.50881
G0 F7500 X-25.400 Y43.319
G0 X-20.216 Y45.500
G0 X-20.216 Y45.664
G1 F1920 X-20.216 Y-45.464 E131.78979
G0 F7500 X-20.216 Y-45.300
G0 X-25.400 Y-43.320
G0 X-25.563 Y-43.320
G1 F1920 X25.664 Y-43.319 E133.63417
G0 F7500 X25.500 Y-43.319
G0 X20.216 Y-45.300
G0 X20.216 Y-45.464
G1 F1920 X20.216 Y45.664 E136.91515
G0 F7500 X20.216 Y45.500
G0 X14.440 Y45.500
G0 X14.440 Y45.664
G1 F1920 X14.440 Y-45.464 E140.19613
G0 F7500 X14.440 Y-45.300
G0 X8.664 Y-45.300
G0 X8.664 Y-45.464
G1 F1920 X8.664 Y45.664 E143.47712
G0 F7500 X8.664 Y45.500
G0 X2.888 Y45.500
G0 X2.888 Y45.664
G1 F1920 X2.888 Y-45.464 E146.75810
G0 F7500 X2.888 Y-45.300
G0 X-2.888 Y-45.300
G0 X-2.888 Y-45.464
G1 F1920 X-2.888 Y45.664 E150.03908
G0 F7500 X-2.888 Y45.500
G0 X-8.664 Y45.500
G0 X-8.664 Y45.664
G1 F1920 X-8.664 Y-45.464 E153.32006
G0 F7500 X-8.664 Y-45.300
G0 X-14.440 Y-45.300
G0 X-14.440 Y-45.464
G1 F1920 X-14.440 Y45.664 E156.60104
G0 F7500 X-14.440 Y45.500
G0 X-25.400 Y37.543
G0 X-25.564 Y37.543
G1 F1920 X25.663 Y37.544 E158.44542
G0 F7500 X25.500 Y37.544
G0 X25.500 Y31.768
G0 X25.663 Y31.768
G1 F1920 X-25.564 Y31.767 E160.28980
G0 F7500 X-25.400 Y31.767
G0 X-25.400 Y25.991
G0 X-25.564 Y25.991
G1 F1920 X25.663 Y25.992 E162.13419
G0 F7500 X25.500 Y25.992
G0 X25.500 Y20.216
G0 X25.663 Y20.216
G1 F1920 X-25.564 Y20.215 E163.97857
G0 F7500 X-25.400 Y20.215
G0 X-25.400 Y14.439
G0 X-25.564 Y14.439
G1 F1920 X25.663 Y14.440 E165.82295
G0 F7500 X25.500 Y14.440
G0 X25.500 Y8.664
G0 X25.663 Y8.664
G1 F1920 X-25.564 Y8.663 E167.66733
G0 F7500 X-25.400 Y8.663
G0 X-25.400 Y2.887
G0 X-25.564 Y2.887
G1 F1920 X25.663 Y2.888 E169.51171
G0 F7500 X25.500 Y2.888
G0 X25.500 Y-2.887
G0 X25.664 Y-2.887
G1 F1920 X-25.563 Y-2.888 E171.35610
G0 F7500 X-25.400 Y-2.888
G0 X-25.400 Y-8.664
G0 X-25.563 Y-8.664
G1 F1920 X25.664 Y-8.663 E173.20048
G0 F7500 X25.500 Y-8.663
G0 X25.500 Y-14.439
G0 X25.664 Y-14.439
G1 F1920 X-25.563 Y-14.440 E175.04486
G0 F7500 X-25.400 Y-14.440
G0 X-25.400 Y-20.216
G0 X-25.563 Y-20.216
G1 F1920 X25.664 Y-20.215 E176.88924
G0 F7500 X25.500 Y-20.215
G0 X25.500 Y-25.991
G0 X25.664 Y-25.991
G1 F1920 X-25.563 Y-25.992 E178.73362
G0 F7500 X-25.400 Y-25.992
G0 X-25.400 Y-31.768
G0 X-25.563 Y-31.768
G1 F1920 X25.664 Y-31.767 E180.57800
G0 F7500 X25.500 Y-31.767
G0 X25.500 Y-37.543
G0 X25.664 Y-37.543
G1 F1920 X-25.563 Y-37.544 E182.42239
;LAYER:2
M106 S127
G1 F2400 E181.42239
G0 F7500 X0.216 Y0.216 Z0.700
;TYPE:WALL-OUTER
G1 F2400 E182.42239
G1 F2220 X0.284 Y0.216 E182.42483
G1 X0.284 Y0.284 E182.42728
G1 X0.216 Y0.284 E182.42973
G1 X0.216 Y0.216 E182.43218
G0 F7500 X-0.700 Y-0.700
;TYPE:SUPPORT
G1 F2100 X-0.700 Y1.200 E182.50059
G1 X1.200 Y1.200 E182.56899
G1 X1.200 Y-0.700 E182.63740
G1 X-0.700 Y-0.700 E182.70581
G0 F7500 X-0.690 Y-0.800
G0 X-25.500 Y-45.400
G1 F2100 X25.600 Y-45.400 E184.54562
G1 X25.600 Y45.600 E187.82199
G1 X-25.500 Y45.600 E189.66180
G1 X-25.500 Y-45.400 E192.93817
G0 F7500 X-25.400 Y-43.320
G0 X-25.563 Y-43.320
G1 F2100 X25.664 Y-43.319 E194.78256
G0 F7500 X25.500 Y-43.319
G0 X20.216 Y-45.300
G0 X20.216 Y-45.464
G1 F2100 X20.216 Y45.664 E198.06354
G0 F7500 X20.216 Y45.500
G0 X25.500 Y43.320
G0 X25.663 Y43.320
G1 F2100 X-25.564 Y43.319 E199.90792
G0 F7500 X-25.400 Y43.319
G0 X-20.216 Y45.500
G0 X-20.216 Y45.664
G1 F2100 X-20.216 Y-45.464 E203.18890
G0 F7500 X-20.216 Y-45.300
G0 X-14.440 Y-45.300
G0 X-14.440 Y-45.464
G1 F2100 X-14.440 Y45.664 E206.46988
G0 F7500 X-14.440 Y45.500
G0 X-8.664 Y45.500
G0 X-8.664 Y45.664
G1 F2100 X-8.664 Y-45.464 E209.75086
G0 F7500 X-8.664 Y-45.300
G0 X-2.888 Y-45.300
G0 X-2.888 Y-45.464
G1 F2100 X-2.888 Y45.664 E213.03184
G0 F7500 X-2.888 Y45.500
G0 X2.888 Y45.500
G0 X2.888 Y45.664
G1 F2100 X2.888 Y-45.464 E216.31283
G0 F7500 X2.888 Y-45.300
G0 X8.664 Y-45.300
G0 X8.664 Y-45.464
G1 F2100 X8.664 Y45.664 E219.59381
G0 F7500 X8.664 Y45.500
G0 X14.440 Y45.500
G0 X14.440 Y45.664
G1 F2100 X14.440 Y-45.464 E222.87479
G0 F7500 X14.440 Y-45.300
G0 X25.500 Y-37.543
G0 X25.664 Y-37.543
G1 F2100 X-25.563 Y-37.544 E224.71917
G0 F7500 X-25.400 Y-37.544
G0 X-25.400 Y-31.768
G0 X-25.563 Y-31.768
G1 F2100 X25.664 Y-31.767 E226.56355
G0 F7500 X25.500 Y-31.767
G0 X25.500 Y-25.991
G0 X25.664 Y-25.991
G1 F2100 X-25.563 Y-25.992 E228.40793
G0 F7500 X-25.400 Y-25.992
G0 X-25.400 Y-20.216
G0 X-25.563 Y-20.216
G1 F2100 X25.664 Y-20.215 E230.25232
G0 F7500 X25.500 Y-20.215
G0 X25.500 Y-14.439
G0 X25.664 Y-14.439
G1 F2100 X-25.563 Y-14.440 E232.09670
G0 F7500 X-25.400 Y-14.440
G0 X-25.400 Y-8.664
G0 X-25.563 Y-8.664
G1 F2100 X25.664 Y-8.663 E233.94108
G0 F7500 X25.500 Y-8.663
G0 X25.500 Y-2.887
G0 X25.664 Y-2.887
G1 F2100 X-25.563 Y-2.888 E235.78546
G0 F7500 X-25.400 Y-2.888
G0 X-25.400 Y2.887
G0 X-25.564 Y2.887
G1 F2100 X25.663 Y2.888 E237.62984
G0 F7500 X25.500 Y2.888
G0 X25.500 Y8.664
G0 X25.663 Y8.664
G1 F2100 X-25.564 Y8.663 E239.47423
G0 F7500 X-25.400 Y8.663
G0 X-25.400 Y14.439
G0 X-25.564 Y14.439
G1 F2100 X25.663 Y14.440 E241.31861
G0 F7500 X25.500 Y14.440
G0 X25.500 Y20.216
G0 X25.663 Y20.216
G1 F2100 X-25.564 Y20.215 E243.16299
G0 F7500 X-25.400 Y20.215
G0 X-25.400 Y25.991
G0 X-25.564 Y25.991
G1 F2100 X25.663 Y25.992 E245.00737
G0 F7500 X25.500 Y25.992
G0 X25.500 Y31.768
G0 X25.663 Y31.768
G1 F2100 X-25.564 Y31.767 E246.85175
G0 F7500 X-25.400 Y31.767
G0 X-25.400 Y37.543
G0 X-25.564 Y37.543
G1 F2100 X25.663 Y37.544 E248.69613
;LAYER:3
G1 F2400 E247.69613
G0 F7500 X0.284 Y0.284 Z0.900
;TYPE:WALL-OUTER
G1 F2400 E248.69613
G1 X0.216 Y0.284 E248.69858
G1 X0.216 Y0.216 E248.70103
G1 X0.284 Y0.216 E248.70348
G1 X0.284 Y0.284 E248.70593
G0 F7500 X1.200 Y1.200
;TYPE:SUPPORT
G1 F2220 X1.200 Y-0.700 E248.77434
G1 X-0.700 Y-0.700 E248.84274
G1 X-0.700 Y1.200 E248.91115
G1 X1.200 Y1.200 E248.97956
G0 F7500 X1.190 Y1.300
G0 X25.500 Y45.590
G0 X25.600 Y45.600
G1 F2220 X-25.500 Y45.600 E250.81937
G1 X-25.500 Y-45.400 E254.09574
G1 X25.600 Y-45.400 E255.93555
G1 X25.600 Y45.600 E259.21192
G0 F7500 X25.500 Y45.590
G0 X25.500 Y43.320
G0 X25.663 Y43.320
G1 F2220 X-25.564 Y43.319 E261.05630
G0 F7500 X-25.400 Y43.319
G0 X-20.216 Y45.500
G0 X-20.216 Y45.664
G1 F2220 X-20.216 Y-45.464 E264.33729
G0 F7500 X-20.216 Y-45.300
G0 X-25.400 Y-43.320
G0 X-25.563 Y-43.320
G1 F2220 X25.664 Y-43.319 E266.18167
G0 F7500 X25.500 Y-43.319
G0 X20.216 Y-45.300
G0 X20.216 Y-45.464
G1 F2220 X20.216 Y45.664 E269.46265
G0 F7500 X20.216 Y45.500
G0 X14.440 Y45.500
G0 X14.440 Y45.664
G1 F2220 X14.440 Y-45.464 E272.74363
G0 F7500 X14.440 Y-45.300
G0 X8.664 Y-45.300
G0 X8.664 Y-45.464
G1 F2220 X8.664 Y45.664 E276.02461
G0 F7500 X8.664 Y45.500
G0 X2.888 Y45.500
G0 X2.888 Y45.664
G1 F2220 X2.888 Y-45.464 E279.30559
G0 F7500 X2.888 Y-45.300
G0 X-2.888 Y-45.300
G0 X-2.888 Y-45.464
G1 F2220 X-2.888 Y45.664 E282.58657
G0 F7500 X-2.888 Y45.500
G0 X-8.664 Y45.500
G0 X-8.664 Y45.664
G1 F2220 X-8.664 Y-45.464 E285.86756
G0 F7500 X-8.664 Y-45.300
G0 X-14.440 Y-45.300
G0 X-14.440 Y-45.464
G1 F2220 X-14.440 Y45.664 E289.14854
G0 F7500 X-14.440 Y45.500
G0 X-25.400 Y37.543
G0 X-25.564 Y37.543
G1 F2220 X25.663 Y37.544 E290.99292
G0 F7500 X25.500 Y37.544
G0 X25.500 Y31.768
G0 X25.663 Y31.768
G1 F2220 X-25.564 Y31.767 E292.83730
G0 F7500 X-25.400 Y31.767
G0 X-25.400 Y25.991
G0 X-25.564 Y25.991
G1 F2220 X25.663 Y25.992 E294.68168
G0 F7500 X25.500 Y25.992
G0 X25.500 Y20.216
G0 X25.663 Y20.216
G1 F2220 X-25.564 Y20.215 E296.52606
G0 F7500 X-25.400 Y20.215
G0 X-25.400 Y14.439
G0 X-25.564 Y14.439
G1 F2220 X25.663 Y14.440 E298.37045
G0 F7500 X25.500 Y14.440
G0 X25.500 Y8.664
G0 X25.663 Y8.664
G1 F2220 X-25.564 Y8.663 E300.21483
G0 F7500 X-25.400 Y8.663
G0 X-25.400 Y2.887
G0 X-25.564 Y2.887
G1 F2220 X25.663 Y2.888 E302.05921
G0 F7500 X25.500 Y2.888
G0 X25.500 Y-2.887
G0 X25.664 Y-2.887
G1 F2220 X-25.563 Y-2.888 E303.90359
G0 F7500 X-25.400 Y-2.888
G0 X-25.400 Y-8.664
G0 X-25.563 Y-8.664
G1 F2220 X25.664 Y-8.663 E305.74797
G0 F7500 X25.500 Y-8.663
G0 X25.500 Y-14.439
G0 X25.664 Y-14.439
G1 F2220 X-25.563 Y-14.440 E307.59235
G0 F7500 X-25.400 Y-14.440
G0 X-25.400 Y-20.216
G0 X-25.563 Y-20.216
G1 F2220 X25.664 Y-20.215 E309.43674
G0 F7500 X25.500 Y-20.215
G0 X25.500 Y-25.991
G0 X25.664 Y-25.991
G1 F2220 X-25.563 Y-25.992 E311.28112
G0 F7500 X-25.400 Y-25.992
G0 X-25.400 Y-31.768
G0 X-25.563 Y-31.768
G1 F2220 X25.664 Y-31.767 E313.12550
G0 F7500 X25.500 Y-31.767
G0 X25.500 Y-37.543
G0 X25.664 Y-37.543
G1 F2220 X-25.563 Y-37.544 E314.96988
;LAYER:4
G1 F2400 E313.96988
G0 F7500 X0.216 Y0.216 Z1.100
;TYPE:WALL-OUTER
G1 F2400 E314.96988
G1 F2700 X0.284 Y0.216 E314.97233
G1 X0.284 Y0.284 E314.97478
G1 X0.216 Y0.284 E314.97723
G1 X0.216 Y0.216 E314.97968
G0 F7500 X-0.700 Y-0.700
;TYPE:SUPPORT
G1 F2400 X-0.700 Y1.200 E315.04808
G1 X1.200 Y1.200 E315.11649
G1 X1.200 Y-0.700 E315.18490
G1 X-0.700 Y-0.700 E315.25331
G0 F7500 X-0.690 Y-0.800
G0 X-25.500 Y-45.400
G1 F2400 X25.600 Y-45.400 E317.09312
G1 X25.600 Y45.600 E320.36949
G1 X-25.500 Y45.600 E322.20930
G1 X-25.500 Y-45.400 E325.48567
G0 F7500 X-25.400 Y-43.320
G0 X-25.563 Y-43.320
G1 F2400 X25.664 Y-43.319 E327.33005
G0 F7500 X25.500 Y-43.319
G0 X20.216 Y-45.300
G0 X20.216 Y-45.464
G1 F2400 X20.216 Y45.664 E330.61103
G0 F7500 X20.216 Y45.500
G0 X25.500 Y43.320
G0 X25.663 Y43.320
G1 F2400 X-25.564 Y43.319 E332.45542
G0 F7500 X-25.400 Y43.319
G0 X-20.216 Y45.500
G0 X-20.216 Y45.664
G1 F2400 X-20.216 Y-45.464 E335.73640
G0 F7500 X-20.216 Y-45.300
G0 X-14.440 Y-45.300
G0 X-14.440 Y-45.464
G1 F2400 X-14.440 Y45.664 E339.01738
G0 F7500 X-14.440 Y45.500
G0 X-8.664 Y45.500
G0 X-8.664 Y45.664
G1 F2400 X-8.664 Y-45.464 E342.29836
G0 F7500 X-8.664 Y-45.300
G0 X-2.888 Y-45.300
G0 X-2.888 Y-45.464
G1 F2400 X-2.888 Y45.664 E345.57934
G0 F7500 X-2.888 Y45.500
G0 X2.888 Y45.500
G0 X2.888 Y45.664
G1 F2400 X2.888 Y-45.464 E348.86032
G0 F7500 X2.888 Y-45.300
G0 X8.664 Y-45.300
G0 X8.664 Y-45.464
G1 F2400 X8.664 Y45.664 E352.14130
G0 F7500 X8.664 Y45.500
G0 X14.440 Y45.500
G0 X14.440 Y45.664
G1 F2400 X14.440 Y-45.464 E355.42228
G0 F7500 X14.440 Y-45.300
G0 X25.500 Y-37.543
G0 X25.664 Y-37.543
G1 F2400 X-25.563 Y-37.544 E357.26667
G0 F7500 X-25.400 Y-37.544
G0 X-25.400 Y-31.768
G0 X-25.563 Y-31.768
G1 F2400 X25.664 Y-31.767 E359.11105
G0 F7500 X25.500 Y-31.767
G0 X25.500 Y-25.991
G0 X25.664 Y-25.991
G1 F2400 X-25.563 Y-25.992 E360.95543
G0 F7500 X-25.400 Y-25.992
G0 X-25.400 Y-20.216
G0 X-25.563 Y-20.216
G1 F2400 X25.664 Y-20.215 E362.79981
G0 F7500 X25.500 Y-20.215
G0 X25.500 Y-14.439
G0 X25.664 Y-14.439
G1 F2400 X-25.563 Y-14.440 E364.64419
G0 F7500 X-25.400 Y-14.440
G0 X-25.400 Y-8.664
G0 X-25.563 Y-8.664
G1 F2400 X25.664 Y-8.663 E366.48858
G0 F7500 X25.500 Y-8.663
G0 X25.500 Y-2.887
G0 X25.664 Y-2.887
G1 F2400 X-25.563 Y-2.888 E368.33296
G0 F7500 X-25.400 Y-2.888
G0 X-25.400 Y2.887
G0 X-25.564 Y2.887
G1 F2400 X25.663 Y2.888 E370.17734
G0 F7500 X25.500 Y2.888
G0 X25.500 Y8.664
G0 X25.663 Y8.664
G1 F2400 X-25.564 Y8.663 E372.02172
G0 F7500 X-25.400 Y8.663
G0 X-25.400 Y14.439
G0 X-25.564 Y14.439
G1 F2400 X25.663 Y14.440 E373.86610
G0 F7500 X25.500 Y14.440
G0 X25.500 Y20.216
G0 X25.663 Y20.216
G1 F2400 X-25.564 Y20.215 E375.71048
G0 F7500 X-25.400 Y20.215
G0 X-25.400 Y25.991
G0 X-25.564 Y25.991
G1 F2400 X25.663 Y25.992 E377.55487
G0 F7500 X25.500 Y25.992
G0 X25.500 Y31.768
G0 X25.663 Y31.768
G1 F2400 X-25.564 Y31.767 E379.39925
G0 F7500 X-25.400 Y31.767
G0 X-25.400 Y37.543
G0 X-25.564 Y37.543
G1 F2400 X25.663 Y37.544 E381.24363
;LAYER:5
G1 F2400 E380.24363
G0 F7500 X0.284 Y0.284 Z1.300
;TYPE:WALL-OUTER
G1 F2400 E381.24363
G1 F2700 X0.216 Y0.284 E381.24608
G1 X0.216 Y0.216 E381.24853
G1 X0.284 Y0.216 E381.25097
G1 X0.284 Y0.284 E381.25342
G0 F7500 X1.200 Y1.200
;TYPE:SUPPORT
G1 F2400 X1.200 Y-0.700 E381.32183
G1 X-0.700 Y-0.700 E381.39024
G1 X-0.700 Y1.200 E381.45865
G1 X1.200 Y1.200 E381.52705
G0 F7500 X1.190 Y1.300
G0 X25.500 Y45.590
G0 X25.600 Y45.600
G1 F2400 X-25.500 Y45.600 E383.36686
G1 X-25.500 Y-45.400 E386.64324
G1 X25.600 Y-45.400 E388.48305
G1 X25.600 Y45.600 E391.75942
G0 F7500 X25.500 Y45.590
G0 X25.500 Y43.320
G0 X25.663 Y43.320
G1 F2400 X-25.564 Y43.319 E393.60380
G0 F7500 X-25.400 Y43.319
G0 X-20.216 Y45.500
G0 X-20.216 Y45.664
G1 F2400 X-20.216 Y-45.464 E396.88478
G0 F7500 X-20.216 Y-45.300
G0 X-25.400 Y-43.320
G0 X-25.563 Y-43.320
