;Generated with Cura_SteamEngine 15.04.6

;Layer count: 16
;LAYER:0
M107
G0 F7500 X-33.716 Y-53.616 Z0.300
;TYPE:SKIRT
G1 F1800 X33.816 Y-53.616 E3.64714
G1 X33.816 Y53.816 E9.44913
G1 X-33.716 Y53.816 E13.09627
G1 X-33.716 Y-53.616 E18.89826
G1 F2400 E17.89826
G0 F7500 X0.216 Y0.216
;TYPE:WALL-OUTER
G1 F2400 E18.89826
G1 F1800 X0.284 Y0.216 E18.90193
G1 X0.284 Y0.284 E18.90561
G1 X0.216 Y0.284 E18.90928
G1 X0.216 Y0.216 E18.91295
G0 F7500 X-0.700 Y-0.700
;TYPE:SUPPORT
G1 F1800 X-0.700 Y1.200 E19.01556
G1 X1.200 Y1.200 E19.11818
G1 X1.200 Y-0.700 E19.22079
G1 X-0.700 Y-0.700 E19.32340
G0 F7500 X-0.690 Y-0.800
G0 X-30.500 Y-50.400
G1 F1800 X30.600 Y-50.400 E22.62317
G1 X30.600 Y50.600 E28.07779
G1 X-30.500 Y50.600 E31.37757
G1 X-30.500 Y-50.400 E36.83219
G0 F7500 X-30.563 Y-49.096
G1 F1800 X30.664 Y-49.095 E40.13882
G0 F7500 X30.500 Y-49.095
G0 X25.992 Y-50.300
G0 X25.992 Y-50.464
G1 F1800 X25.992 Y50.664 E45.60036
G0 F7500 X25.992 Y50.500
G0 X30.500 Y49.096
G0 X30.663 Y49.096
G1 F1800 X-30.564 Y49.095 E48.90699
G0 F7500 X-30.400 Y49.095
G0 X-25.992 Y50.500
G0 X-25.992 Y50.664
G1 F1800 X-25.992 Y-50.464 E54.36853
G0 F7500 X-25.992 Y-50.300
G0 X-20.216 Y-50.300
G0 X-20.216 Y-50.464
G1 F1800 X-20.216 Y50.664 E59.83006
G0 F7500 X-20.216 Y50.500
G0 X-30.400 Y43.319
G0 X-30.564 Y43.319
G1 F1800 X30.663 Y43.320 E63.13669
G0 F7500 X30.500 Y43.320
G0 X20.216 Y50.500
G0 X20.216 Y50.664
G1 F1800 X20.216 Y-50.464 E68.59823
G0 F7500 X20.216 Y-50.300
G0 X30.500 Y-43.319
G0 X30.664 Y-43.319
G1 F1800 X-30.563 Y-43.320 E71.90486
G0 F7500 X-30.400 Y-43.320
G0 X-30.400 Y-37.544
G0 X-30.563 Y-37.544
G1 F1800 X30.664 Y-37.543 E75.21149
G0 F7500 X30.500 Y-37.543
G0 X30.500 Y-31.767
G0 X30.664 Y-31.767
G1 F1800 X-30.563 Y-31.768 E78.51813
G0 F7500 X-30.400 Y-31.768
G0 X-30.400 Y-25.992
G0 X-30.563 Y-25.992
G1 F1800 X30.664 Y-25.991 E81.82476
G0 F7500 X30.500 Y-25.991
G0 X30.500 Y-20.215
G0 X30.664 Y-20.215
G1 F1800 X-30.563 Y-20.216 E85.13140
G0 F7500 X-30.400 Y-20.216
G0 X-30.400 Y-14.440
G0 X-30.563 Y-14.440
G1 F1800 X30.664 Y-14.439 E88.43803
G0 F7500 X30.500 Y-14.439
G0 X30.500 Y-8.663
G0 X30.664 Y-8.663
G1 F1800 X-30.563 Y-8.664 E91.74467
G0 F7500 X-30.400 Y-8.664
G0 X-30.400 Y-2.888
G0 X-30.563 Y-2.888
G1 F1800 X30.664 Y-2.887 E95.05130
G0 F7500 X30.500 Y-2.887
G0 X30.500 Y2.888
G0 X30.663 Y2.888
G1 F1800 X-30.564 Y2.887 E98.35793
G0 F7500 X-30.400 Y2.887
G0 X-30.400 Y8.663
G0 X-30.564 Y8.663
G1 F1800 X30.663 Y8.664 E101.66457
G0 F7500 X30.500 Y8.664
G0 X30.500 Y14.440
G0 X30.663 Y14.440
G1 F1800 X-30.564 Y14.439 E104.97120
G0 F7500 X-30.400 Y14.439
G0 X-30.400 Y20.215
G0 X-30.564 Y20.215
G1 F1800 X30.663 Y20.216 E108.27784
G0 F7500 X30.500 Y20.216
G0 X30.500 Y25.992
G0 X30.663 Y25.992
G1 F1800 X-30.564 Y25.991 E111.58447
G0 F7500 X-30.400 Y25.991
G0 X-30.400 Y31.767
G0 X-30.564 Y31.767
G1 F1800 X30.663 Y31.768 E114.89111
G0 F7500 X30.500 Y31.768
G0 X30.500 Y37.544
G0 X30.663 Y37.544
G1 F1800 X-30.564 Y37.543 E118.19774
G0 F7500 X-30.400 Y37.543
G0 X-14.440 Y50.500
G0 X-14.440 Y50.664
G1 F1800 X-14.440 Y-50.464 E123.65927
G0 F7500 X-14.440 Y-50.300
G0 X-8.664 Y-50.300
G0 X-8.664 Y-50.464
G1 F1800 X-8.664 Y50.664 E129.12081
G0 F7500 X-8.664 Y50.500
G0 X-2.888 Y50.500
G0 X-2.888 Y50.664
G1 F1800 X-2.888 Y-50.464 E134.58234
G0 F7500 X-2.888 Y-50.300
G0 X2.888 Y-50.300
G0 X2.888 Y-50.464
G1 F1800 X2.888 Y50.664 E140.04387
G0 F7500 X2.888 Y50.500
G0 X8.664 Y50.500
G0 X8.664 Y50.664
G1 F1800 X8.664 Y-50.464 E145.50541
G0 F7500 X8.664 Y-50.300
G0 X14.440 Y-50.300
G0 X14.440 Y-50.464
G1 F1800 X14.440 Y50.664 E150.96694
;LAYER:1
M106 S63
G1 F2400 E149.96694
G0 F7500 X0.284 Y0.284 Z0.500
;TYPE:WALL-OUTER
G1 F2400 E150.96694
G1 F1980 X0.216 Y0.284 E150.96939
G1 X0.216 Y0.216 E150.97184
G1 X0.284 Y0.216 E150.97428
G1 X0.284 Y0.284 E150.97673
G0 F7500 X1.200 Y1.200
;TYPE:SUPPORT
G1 F1920 X1.200 Y-0.700 E151.04514
G1 X-0.700 Y-0.700 E151.11355
G1 X-0.700 Y1.200 E151.18196
G1 X1.200 Y1.200 E151.25036
G0 F7500 X1.190 Y1.300
G0 X30.500 Y50.590
G0 X30.600 Y50.600
G1 F1920 X-30.500 Y50.600 E153.45021
G1 X-30.500 Y-50.400 E157.08663
G1 X30.600 Y-50.400 E159.28648
G1 X30.600 Y50.600 E162.92289
G0 F7500 X30.500 Y50.590
G0 X30.500 Y49.096
G0 X30.663 Y49.096
G1 F1920 X-30.564 Y49.095 E165.12731
G0 F7500 X-30.400 Y49.095
G0 X-25.992 Y50.500
G0 X-25.992 Y50.664
G1 F1920 X-25.992 Y-50.464 E168.76834
G0 F7500 X-25.992 Y-50.300
G0 X-30.400 Y-49.096
G0 X-30.563 Y-49.096
G1 F1920 X30.664 Y-49.095 E170.97276
G0 F7500 X30.500 Y-49.095
G0 X25.992 Y-50.300
G0 X25.992 Y-50.464
G1 F1920 X25.992 Y50.664 E174.61378
G0 F7500 X25.992 Y50.500
G0 X20.216 Y50.500
G0 X20.216 Y50.664
G1 F1920 X20.216 Y-50.464 E178.25480
G0 F7500 X20.216 Y-50.300
G0 X30.500 Y-43.319
G0 X30.664 Y-43.319
G1 F1920 X-30.563 Y-43.320 E180.45923
G0 F7500 X-30.400 Y-43.320
G0 X-20.216 Y-50.300
G0 X-20.216 Y-50.464
G1 F1920 X-20.216 Y50.664 E184.10025
G0 F7500 X-20.216 Y50.500
G0 X-30.400 Y43.319
G0 X-30.564 Y43.319
G1 F1920 X30.663 Y43.320 E186.30467
G0 F7500 X30.500 Y43.320
G0 X30.500 Y37.544
G0 X30.663 Y37.544
G1 F1920 X-30.564 Y37.543 E188.50909
G0 F7500 X-30.400 Y37.543
G0 X-30.400 Y31.767
G0 X-30.564 Y31.767
G1 F1920 X30.663 Y31.768 E190.71352
G0 F7500 X30.500 Y31.768
G0 X30.500 Y25.992
G0 X30.663 Y25.992
G1 F1920 X-30.564 Y25.991 E192.91794
G0 F7500 X-30.400 Y25.991
G0 X-30.400 Y20.215
G0 X-30.564 Y20.215
G1 F1920 X30.663 Y20.216 E195.12236
G0 F7500 X30.500 Y20.216
G0 X30.500 Y14.440
G0 X30.663 Y14.440
G1 F1920 X-30.564 Y14.439 E197.32679
G0 F7500 X-30.400 Y14.439
G0 X-30.400 Y8.663
G0 X-30.564 Y8.663
G1 F1920 X30.663 Y8.664 E199.53121
G0 F7500 X30.500 Y8.664
G0 X30.500 Y2.888
G0 X30.663 Y2.888
G1 F1920 X-30.564 Y2.887 E201.73563
G0 F7500 X-30.400 Y2.887
G0 X-30.400 Y-2.888
G0 X-30.563 Y-2.888
G1 F1920 X30.664 Y-2.887 E203.94005
G0 F7500 X30.500 Y-2.887
G0 X30.500 Y-8.663
G0 X30.664 Y-8.663
G1 F1920 X-30.563 Y-8.664 E206.14448
G0 F7500 X-30.400 Y-8.664
G0 X-30.400 Y-14.440
G0 X-30.563 Y-14.440
G1 F1920 X30.664 Y-14.439 E208.34890
G0 F7500 X30.500 Y-14.439
G0 X30.500 Y-20.215
G0 X30.664 Y-20.215
G1 F1920 X-30.563 Y-20.216 E210.55332
G0 F7500 X-30.400 Y-20.216
G0 X-30.400 Y-25.992
G0 X-30.563 Y-25.992
G1 F1920 X30.664 Y-25.991 E212.75775
G0 F7500 X30.500 Y-25.991
G0 X30.500 Y-31.767
G0 X30.664 Y-31.767
G1 F1920 X-30.563 Y-31.768 E214.96217
G0 F7500 X-30.400 Y-31.768
G0 X-30.400 Y-37.544
G0 X-30.563 Y-37.544
G1 F1920 X30.664 Y-37.543 E217.16659
G0 F7500 X30.500 Y-37.543
G0 X14.440 Y-50.300
G0 X14.440 Y-50.464
G1 F1920 X14.440 Y50.664 E220.80761
G0 F7500 X14.440 Y50.500
G0 X8.664 Y50.500
G0 X8.664 Y50.664
G1 F1920 X8.664 Y-50.464 E224.44864
G0 F7500 X8.664 Y-50.300
G0 X2.888 Y-50.300
G0 X2.888 Y-50.464
G1 F1920 X2.888 Y50.664 E228.08966
G0 F7500 X2.888 Y50.500
G0 X-2.888 Y50.500
G0 X-2.888 Y50.664
G1 F1920 X-2.888 Y-50.464 E231.73068
G0 F7500 X-2.888 Y-50.300
G0 X-8.664 Y-50.300
G0 X-8.664 Y-50.464
G1 F1920 X-8.664 Y50.664 E235.37170
G0 F7500 X-8.664 Y50.500
G0 X-14.440 Y50.500
G0 X-14.440 Y50.664
G1 F1920 X-14.440 Y-50.464 E239.01272
;LAYER:2
M106 S127
G1 F2400 E238.01272
G0 F7500 X0.216 Y0.216 Z0.700
;TYPE:WALL-OUTER
G1 F2400 E239.01272
G1 F2220 X0.284 Y0.216 E239.01517
G1 X0.284 Y0.284 E239.01762
G1 X0.216 Y0.284 E239.02007
G1 X0.216 Y0.216 E239.02252
G0 F7500 X-0.700 Y-0.700
;TYPE:SUPPORT
G1 F2100 X-0.700 Y1.200 E239.09093
G1 X1.200 Y1.200 E239.15933
G1 X1.200 Y-0.700 E239.22774
G1 X-0.700 Y-0.700 E239.29615
G0 F7500 X-0.690 Y-0.800
G0 X-30.500 Y-50.400
G1 F2100 X30.600 Y-50.400 E241.49600
G1 X30.600 Y50.600 E245.13241
G1 X-30.500 Y50.600 E247.33226
G1 X-30.500 Y-50.400 E250.96868
G0 F7500 X-30.563 Y-49.096
G1 F2100 X30.664 Y-49.095 E253.17310
G0 F7500 X30.500 Y-49.095
G0 X25.992 Y-50.300
G0 X25.992 Y-50.464
G1 F2100 X25.992 Y50.664 E256.81412
G0 F7500 X25.992 Y50.500
G0 X30.500 Y49.096
G0 X30.663 Y49.096
G1 F2100 X-30.564 Y49.095 E259.01854
G0 F7500 X-30.400 Y49.095
G0 X-25.992 Y50.500
G0 X-25.992 Y50.664
G1 F2100 X-25.992 Y-50.464 E262.65957
G0 F7500 X-25.992 Y-50.300
G0 X-20.216 Y-50.300
G0 X-20.216 Y-50.464
G1 F2100 X-20.216 Y50.664 E266.30059
G0 F7500 X-20.216 Y50.500
G0 X-30.400 Y43.319
G0 X-30.564 Y43.319
G1 F2100 X30.663 Y43.320 E268.50501
G0 F7500 X30.500 Y43.320
G0 X20.216 Y50.500
G0 X20.216 Y50.664
G1 F2100 X20.216 Y-50.464 E272.14603
G0 F7500 X20.216 Y-50.300
G0 X30.500 Y-43.319
G0 X30.664 Y-43.319
G1 F2100 X-30.563 Y-43.320 E274.35046
G0 F7500 X-30.400 Y-43.320
G0 X-30.400 Y-37.544
G0 X-30.563 Y-37.544
G1 F2100 X30.664 Y-37.543 E276.55488
G0 F7500 X30.500 Y-37.543
G0 X30.500 Y-31.767
G0 X30.664 Y-31.767
G1 F2100 X-30.563 Y-31.768 E278.75930
G0 F7500 X-30.400 Y-31.768
G0 X-30.400 Y-25.992
G0 X-30.563 Y-25.992
G1 F2100 X30.664 Y-25.991 E280.96373
G0 F7500 X30.500 Y-25.991
G0 X30.500 Y-20.215
G0 X30.664 Y-20.215
G1 F2100 X-30.563 Y-20.216 E283.16815
G0 F7500 X-30.400 Y-20.216
G0 X-30.400 Y-14.440
G0 X-30.563 Y-14.440
G1 F2100 X30.664 Y-14.439 E285.37257
G0 F7500 X30.500 Y-14.439
G0 X30.500 Y-8.663
G0 X30.664 Y-8.663
G1 F2100 X-30.563 Y-8.664 E287.57699
G0 F7500 X-30.400 Y-8.664
G0 X-30.400 Y-2.888
G0 X-30.563 Y-2.888
G1 F2100 X30.664 Y-2.887 E289.78142
G0 F7500 X30.500 Y-2.887
G0 X30.500 Y2.888
G0 X30.663 Y2.888
G1 F2100 X-30.564 Y2.887 E291.98584
G0 F7500 X-30.400 Y2.887
G0 X-30.400 Y8.663
G0 X-30.564 Y8.663
G1 F2100 X30.663 Y8.664 E294.19026
G0 F7500 X30.500 Y8.664
G0 X30.500 Y14.440
G0 X30.663 Y14.440
G1 F2100 X-30.564 Y14.439 E296.39468
G0 F7500 X-30.400 Y14.439
G0 X-30.400 Y20.215
G0 X-30.564 Y20.215
G1 F2100 X30.663 Y20.216 E298.59911
G0 F7500 X30.500 Y20.216
G0 X30.500 Y25.992
G0 X30.663 Y25.992
G1 F2100 X-30.564 Y25.991 E300.80353
G0 F7500 X-30.400 Y25.991
G0 X-30.400 Y31.767
G0 X-30.564 Y31.767
G1 F2100 X30.663 Y31.768 E303.00795
G0 F7500 X30.500 Y31.768
G0 X30.500 Y37.544
G0 X30.663 Y37.544
G1 F2100 X-30.564 Y37.543 E305.21238
G0 F7500 X-30.400 Y37.543
G0 X-14.440 Y50.500
G0 X-14.440 Y50.664
G1 F2100 X-14.440 Y-50.464 E308.85340
G0 F7500 X-14.440 Y-50.300
G0 X-8.664 Y-50.300
G0 X-8.664 Y-50.464
G1 F2100 X-8.664 Y50.664 E312.49442
G0 F7500 X-8.664 Y50.500
G0 X-2.888 Y50.500
G0 X-2.888 Y50.664
G1 F2100 X-2.888 Y-50.464 E316.13544
G0 F7500 X-2.888 Y-50.300
G0 X2.888 Y-50.300
G0 X2.888 Y-50.464
G1 F2100 X2.888 Y50.664 E319.77646
G0 F7500 X2.888 Y50.500
G0 X8.664 Y50.500
G0 X8.664 Y50.664
G1 F2100 X8.664 Y-50.464 E323.41749
G0 F7500 X8.664 Y-50.300
G0 X14.440 Y-50.300
G0 X14.440 Y-50.464
G1 F2100 X14.440 Y50.664 E327.05851
;LAYER:3
G1 F2400 E326.05851
G0 F7500 X0.284 Y0.284 Z0.900
;TYPE:WALL-OUTER
G1 F2400 E327.05851
G1 X0.216 Y0.284 E327.06096
G1 X0.216 Y0.216 E327.06341
G1 X0.284 Y0.216 E327.06585
G1 X0.284 Y0.284 E327.06830
G0 F7500 X1.200 Y1.200
;TYPE:SUPPORT
G1 F2220 X1.200 Y-0.700 E327.13671
G1 X-0.700 Y-0.700 E327.20512
G1 X-0.700 Y1.200 E327.27353
G1 X1.200 Y1.200 E327.34193
G0 F7500 X1.190 Y1.300
G0 X30.500 Y50.590
G0 X30.600 Y50.600
G1 F2220 X-30.500 Y50.600 E329.54178
G1 X-30.500 Y-50.400 E333.17820
G1 X30.600 Y-50.400 E335.37805
G1 X30.600 Y50.600 E339.01446
G0 F7500 X30.500 Y50.590
G0 X30.500 Y49.096
G0 X30.663 Y49.096
G1 F2220 X-30.564 Y49.095 E341.21888
G0 F7500 X-30.400 Y49.095
G0 X-25.992 Y50.500
G0 X-25.992 Y50.664
G1 F2220 X-25.992 Y-50.464 E344.85991
G0 F7500 X-25.992 Y-50.300
G0 X-30.400 Y-49.096
G0 X-30.563 Y-49.096
G1 F2220 X30.664 Y-49.095 E347.06433
G0 F7500 X30.500 Y-49.095
G0 X25.992 Y-50.300
G0 X25.992 Y-50.464
G1 F2220 X25.992 Y50.664 E350.70535
G0 F7500 X25.992 Y50.500
G0 X20.216 Y50.500
G0 X20.216 Y50.664
G1 F2220 X20.216 Y-50.464 E354.34637
G0 F7500 X20.216 Y-50.300
G0 X30.500 Y-43.319
G0 X30.664 Y-43.319
G1 F2220 X-30.563 Y-43.320 E356.55080
G0 F7500 X-30.400 Y-43.320
G0 X-20.216 Y-50.300
G0 X-20.216 Y-50.464
G1 F2220 X-20.216 Y50.664 E360.19182
G0 F7500 X-20.216 Y50.500
G0 X-30.400 Y43.319
G0 X-30.564 Y43.319
G1 F2220 X30.663 Y43.320 E362.39624
G0 F7500 X30.500 Y43.320
G0 X30.500 Y37.544
G0 X30.663 Y37.544
G1 F2220 X-30.564 Y37.543 E364.60066
G0 F7500 X-30.400 Y37.543
G0 X-30.400 Y31.767
G0 X-30.564 Y31.767
G1 F2220 X30.663 Y31.768 E366.80509
G0 F7500 X30.500 Y31.768
G0 X30.500 Y25.992
G0 X30.663 Y25.992
G1 F2220 X-30.564 Y25.991 E369.00951
G0 F7500 X-30.400 Y25.991
G0 X-30.400 Y20.215
G0 X-30.564 Y20.215
G1 F2220 X30.663 Y20.216 E371.21393
G0 F7500 X30.500 Y20.216
G0 X30.500 Y14.440
G0 X30.663 Y14.440
G1 F2220 X-30.564 Y14.439 E373.41836
G0 F7500 X-30.400 Y14.439
G0 X-30.400 Y8.663
G0 X-30.564 Y8.663
G1 F2220 X30.663 Y8.664 E375.62278
G0 F7500 X30.500 Y8.664
G0 X30.500 Y2.888
G0 X30.663 Y2.888
G1 F2220 X-30.564 Y2.887 E377.82720
G0 F7500 X-30.400 Y2.887
G0 X-30.400 Y-2.888
G0 X-30.563 Y-2.888
G1 F2220 X30.664 Y-2.887 E380.03162
G0 F7500 X30.500 Y-2.887
G0 X30.500 Y-8.663
G0 X30.664 Y-8.663
G1 F2220 X-30.563 Y-8.664 E382.23605
G0 F7500 X-30.400 Y-8.664
G0 X-30.400 Y-14.440
G0 X-30.563 Y-14.440
G1 F2220 X30.664 Y-14.439 E384.44047
G0 F7500 X30.500 Y-14.439
G0 X30.500 Y-20.215
G0 X30.664 Y-20.215
G1 F2220 X-30.563 Y-20.216 E386.64489
G0 F7500 X-30.400 Y-20.216
G0 X-30.400 Y-25.992
G0 X-30.563 Y-25.992
G1 F2220 X30.664 Y-25.991 E388.84932
G0 F7500 X30.500 Y-25.991
G0 X30.500 Y-31.767
G0 X30.664 Y-31.767
G1 F2220 X-30.563 Y-31.768 E391.05374
G0 F7500 X-30.400 Y-31.768
G0 X-30.400 Y-37.544
G0 X-30.563 Y-37.544
G1 F2220 X30.664 Y-37.543 E393.25816
G0 F7500 X30.500 Y-37.543
G0 X14.440 Y-50.300
G0 X14.440 Y-50.464
G1 F2220 X14.440 Y50.664 E396.89918
G0 F7500 X14.440 Y50.500
G0 X8.664 Y50.500
G0 X8.664 Y50.664
G1 F2220 X8.664 Y-50.464 E400.54021
G0 F7500 X8.664 Y-50.300
G0 X2.888 Y-50.300
G0 X2.888 Y-50.464
G1 F2220 X2.888 Y50.664 E404.18123
G0 F7500 X2.888 Y50.500
G0 X-2.888 Y50.500
G0 X-2.888 Y50.664
G1 F2220 X-2.888 Y-50.464 E407.82225
G0 F7500 X-2.888 Y-50.300
G0 X-8.664 Y-50.300
G0 X-8.664 Y-50.464
G1 F2220 X-8.664 Y50.664 E411.46327
G0 F7500 X-8.664 Y50.500
G0 X-14.440 Y50.500
G0 X-14.440 Y50.664
G1 F2220 X-14.440 Y-50.464 E415.10429
;LAYER:4
G1 F2400 E414.10429
G0 F7500 X0.216 Y0.216 Z1.100
;TYPE:WALL-OUTER
G1 F2400 E415.10429
G1 F2700 X0.284 Y0.216 E415.10674
G1 X0.284 Y0.284 E415.10919
G1 X0.216 Y0.284 E415.11164
G1 X0.216 Y0.216 E415.11409
G0 F7500 X-0.700 Y-0.700
;TYPE:SUPPORT
G1 F2400 X-0.700 Y1.200 E415.18250
G1 X1.200 Y1.200 E415.25090
G1 X1.200 Y-0.700 E415.31931
G1 X-0.700 Y-0.700 E415.38772
G0 F7500 X-0.690 Y-0.800
G0 X-30.500 Y-50.400
G1 F2400 X30.600 Y-50.400 E417.58757
G1 X30.600 Y50.600 E421.22398
G1 X-30.500 Y50.600 E423.42383
G1 X-30.500 Y-50.400 E427.06025
G0 F7500 X-30.563 Y-49.096
G1 F2400 X30.664 Y-49.095 E429.26467
G0 F7500 X30.500 Y-49.095
G0 X25.992 Y-50.300
G0 X25.992 Y-50.464
G1 F2400 X25.992 Y50.664 E432.90569
G0 F7500 X25.992 Y50.500
G0 X30.500 Y49.096
G0 X30.663 Y49.096
G1 F2400 X-30.564 Y49.095 E435.11011
G0 F7500 X-30.400 Y49.095
G0 X-25.992 Y50.500
G0 X-25.992 Y50.664
G1 F2400 X-25.992 Y-50.464 E438.75114
G0 F7500 X-25.992 Y-50.300
G0 X-20.216 Y-50.300
G0 X-20.216 Y-50.464
G1 F2400 X-20.216 Y50.664 E442.39216
G0 F7500 X-20.216 Y50.500
G0 X-30.400 Y43.319
G0 X-30.564 Y43.319
G1 F2400 X30.663 Y43.320 E444.59658
G0 F7500 X30.500 Y43.320
G0 X20.216 Y50.500
G0 X20.216 Y50.664
G1 F2400 X20.216 Y-50.464 E448.23760
G0 F7500 X20.216 Y-50.300
G0 X30.500 Y-43.319
G0 X30.664 Y-43.319
G1 F2400 X-30.563 Y-43.320 E450.44203
G0 F7500 X-30.400 Y-43.320
G0 X-30.400 Y-37.544
G0 X-30.563 Y-37.544
G1 F2400 X30.664 Y-37.543 E452.64645
G0 F7500 X30.500 Y-37.543
G0 X30.500 Y-31.767
G0 X30.664 Y-31.767
G1 F2400 X-30.563 Y-31.768 E454.85087
G0 F7500 X-30.400 Y-31.768
G0 X-30.400 Y-25.992
G0 X-30.563 Y-25.992
G1 F2400 X30.664 Y-25.991 E457.05530
G0 F7500 X30.500 Y-25.991
G0 X30.500 Y-20.215
G0 X30.664 Y-20.215
G1 F2400 X-30.563 Y-20.216 E459.25972
G0 F7500 X-30.400 Y-20.216
G0 X-30.400 Y-14.440
G0 X-30.563 Y-14.440
G1 F2400 X30.664 Y-14.439 E461.46414
G0 F7500 X30.500 Y-14.439
G0 X30.500 Y-8.663
G0 X30.664 Y-8.663
G1 F2400 X-30.563 Y-8.664 E463.66856
G0 F7500 X-30.400 Y-8.664
G0 X-30.400 Y-2.888
G0 X-30.563 Y-2.888
G1 F2400 X30.664 Y-2.887 E465.87299
G0 F7500 X30.500 Y-2.887
G0 X30.500 Y2.888
G0 X30.663 Y2.888
G1 F2400 X-30.564 Y2.887 E468.07741
G0 F7500 X-30.400 Y2.887
G0 X-30.400 Y8.663
G0 X-30.564 Y8.663
