;Generated with Cura_SteamEngine 15.04.6

;Layer count: 16
;LAYER:0
M107
G0 F7500 X-33.716 Y-8.616 Z0.300
;TYPE:SKIRT
G1 F1800 X33.816 Y-8.616 E3.64714
G1 X33.816 Y8.816 E4.58858
G1 X-33.716 Y8.816 E8.23572
G1 X-33.716 Y-8.616 E9.17716
G1 F2400 E8.17716
G0 F7500 X0.216 Y0.216
;TYPE:WALL-OUTER
G1 F2400 E9.17716
G1 F1800 X0.284 Y0.216 E9.18083
G1 X0.284 Y0.284 E9.18450
G1 X0.216 Y0.284 E9.18817
G1 X0.216 Y0.216 E9.19185
G0 F7500 X-0.700 Y-0.700
;TYPE:SUPPORT
G1 F1800 X-0.700 Y1.200 E9.29446
G1 X1.200 Y1.200 E9.39707
G1 X1.200 Y-0.700 E9.49968
G1 X-0.700 Y-0.700 E9.60229
G0 F7500 X-0.690 Y-0.800
G0 X-30.500 Y-5.400
G1 F1800 X30.600 Y-5.400 E12.90207
G1 X30.600 Y5.600 E13.49614
G1 X-30.500 Y5.600 E16.79591
G1 X-30.500 Y-5.400 E17.38998
G0 F7500 X-30.400 Y-2.888
G0 X-30.563 Y-2.888
G1 F1800 X30.664 Y-2.887 E20.69661
G0 F7500 X30.500 Y-2.887
G0 X25.992 Y-5.300
G0 X25.992 Y-5.464
G1 F1800 X25.992 Y5.664 E21.29759
G0 F7500 X25.992 Y5.500
G0 X30.500 Y2.888
G0 X30.663 Y2.888
G1 F1800 X-30.564 Y2.887 E24.60423
G0 F7500 X-30.400 Y2.887
G0 X-25.992 Y5.500
G0 X-25.992 Y5.664
G1 F1800 X-25.992 Y-5.464 E25.20521
G0 F7500 X-25.992 Y-5.300
G0 X-20.216 Y-5.300
G0 X-20.216 Y-5.464
G1 F1800 X-20.216 Y5.664 E25.80619
G0 F7500 X-20.216 Y5.500
G0 X-14.440 Y5.500
G0 X-14.440 Y5.664
G1 F1800 X-14.440 Y-5.464 E26.40717
G0 F7500 X-14.440 Y-5.300
G0 X-8.664 Y-5.300
G0 X-8.664 Y-5.464
G1 F1800 X-8.664 Y5.664 E27.00815
G0 F7500 X-8.664 Y5.500
G0 X-2.888 Y5.500
G0 X-2.888 Y5.664
G1 F1800 X-2.888 Y-5.464 E27.60913
G0 F7500 X-2.888 Y-5.300
G0 X2.888 Y-5.300
G0 X2.888 Y-5.464
G1 F1800 X2.888 Y5.664 E28.21011
G0 F7500 X2.888 Y5.500
G0 X8.664 Y5.500
G0 X8.664 Y5.664
G1 F1800 X8.664 Y-5.464 E28.81109
G0 F7500 X8.664 Y-5.300
G0 X14.440 Y-5.300
G0 X14.440 Y-5.464
G1 F1800 X14.440 Y5.664 E29.41207
G0 F7500 X14.440 Y5.500
G0 X20.216 Y5.500
G0 X20.216 Y5.664
G1 F1800 X20.216 Y-5.464 E30.01305
;LAYER:1
M106 S63
G1 F2400 E29.01305
G0 F7500 X0.284 Y0.216 Z0.500
;TYPE:WALL-OUTER
G1 F2400 E30.01305
G1 F1980 X0.284 Y0.284 E30.01550
G1 X0.216 Y0.284 E30.01795
G1 X0.216 Y0.216 E30.02040
G1 X0.284 Y0.216 E30.02284
G0 F7500 X1.200 Y-0.700
;TYPE:SUPPORT
G1 F1920 X-0.700 Y-0.700 E30.09125
G1 X-0.700 Y1.200 E30.15966
G1 X1.200 Y1.200 E30.22807
G1 X1.200 Y-0.700 E30.29647
G0 F7500 X30.600 Y-5.400
G1 F1920 X30.600 Y5.600 E30.69252
G1 X-30.500 Y5.600 E32.89237
G1 X-30.500 Y-5.400 E33.28842
G1 X30.600 Y-5.400 E35.48827
G0 F7500 X30.500 Y-2.887
G0 X30.664 Y-2.887
G1 F1920 X-30.563 Y-2.888 E37.69269
G0 F7500 X-30.400 Y-2.888
G0 X-25.992 Y-5.300
G0 X-25.992 Y-5.464
G1 F1920 X-25.992 Y5.664 E38.09334
G0 F7500 X-25.992 Y5.500
G0 X-30.400 Y2.887
G0 X-30.564 Y2.887
G1 F1920 X30.663 Y2.888 E40.29776
G0 F7500 X30.500 Y2.888
G0 X25.992 Y5.500
G0 X25.992 Y5.664
G1 F1920 X25.992 Y-5.464 E40.69842
G0 F7500 X25.992 Y-5.300
G0 X20.216 Y-5.300
G0 X20.216 Y-5.464
G1 F1920 X20.216 Y5.664 E41.09907
G0 F7500 X20.216 Y5.500
G0 X14.440 Y5.500
G0 X14.440 Y5.664
G1 F1920 X14.440 Y-5.464 E41.49973
G0 F7500 X14.440 Y-5.300
G0 X8.664 Y-5.300
G0 X8.664 Y-5.464
G1 F1920 X8.664 Y5.664 E41.90038
G0 F7500 X8.664 Y5.500
G0 X2.888 Y5.500
G0 X2.888 Y5.664
G1 F1920 X2.888 Y-5.464 E42.30103
G0 F7500 X2.888 Y-5.300
G0 X-2.888 Y-5.300
G0 X-2.888 Y-5.464
G1 F1920 X-2.888 Y5.664 E42.70169
G0 F7500 X-2.888 Y5.500
G0 X-8.664 Y5.500
G0 X-8.664 Y5.664
G1 F1920 X-8.664 Y-5.464 E43.10234
G0 F7500 X-8.664 Y-5.300
G0 X-14.440 Y-5.300
G0 X-14.440 Y-5.464
G1 F1920 X-14.440 Y5.664 E43.50299
G0 F7500 X-14.440 Y5.500
G0 X-20.216 Y5.500
G0 X-20.216 Y5.664
G1 F1920 X-20.216 Y-5.464 E43.90365
;LAYER:2
M106 S127
G1 F2400 E42.90365
G0 F7500 X0.216 Y0.216 Z0.700
;TYPE:WALL-OUTER
G1 F2400 E43.90365
G1 F2220 X0.284 Y0.216 E43.90610
G1 X0.284 Y0.284 E43.90854
G1 X0.216 Y0.284 E43.91099
G1 X0.216 Y0.216 E43.91344
G0 F7500 X-0.700 Y-0.700
;TYPE:SUPPORT
G1 F2100 X-0.700 Y1.200 E43.98185
G1 X1.200 Y1.200 E44.05026
G1 X1.200 Y-0.700 E44.11866
G1 X-0.700 Y-0.700 E44.18707
G0 F7500 X-0.690 Y-0.800
G0 X-30.500 Y-5.400
G1 F2100 X30.600 Y-5.400 E46.38692
G1 X30.600 Y5.600 E46.78297
G1 X-30.500 Y5.600 E48.98282
G1 X-30.500 Y-5.400 E49.37886
G0 F7500 X-30.400 Y-2.888
G0 X-30.563 Y-2.888
G1 F2100 X30.664 Y-2.887 E51.58328
G0 F7500 X30.500 Y-2.887
G0 X25.992 Y-5.300
G0 X25.992 Y-5.464
G1 F2100 X25.992 Y5.664 E51.98394
G0 F7500 X25.992 Y5.500
G0 X30.500 Y2.888
G0 X30.663 Y2.888
G1 F2100 X-30.564 Y2.887 E54.18836
G0 F7500 X-30.400 Y2.887
G0 X-25.992 Y5.500
G0 X-25.992 Y5.664
G1 F2100 X-25.992 Y-5.464 E54.58901
G0 F7500 X-25.992 Y-5.300
G0 X-20.216 Y-5.300
G0 X-20.216 Y-5.464
G1 F2100 X-20.216 Y5.664 E54.98967
G0 F7500 X-20.216 Y5.500
G0 X-14.440 Y5.500
G0 X-14.440 Y5.664
G1 F2100 X-14.440 Y-5.464 E55.39032
G0 F7500 X-14.440 Y-5.300
G0 X-8.664 Y-5.300
G0 X-8.664 Y-5.464
G1 F2100 X-8.664 Y5.664 E55.79098
G0 F7500 X-8.664 Y5.500
G0 X-2.888 Y5.500
G0 X-2.888 Y5.664
G1 F2100 X-2.888 Y-5.464 E56.19163
G0 F7500 X-2.888 Y-5.300
G0 X2.888 Y-5.300
G0 X2.888 Y-5.464
G1 F2100 X2.888 Y5.664 E56.59228
G0 F7500 X2.888 Y5.500
G0 X8.664 Y5.500
G0 X8.664 Y5.664
G1 F2100 X8.664 Y-5.464 E56.99294
G0 F7500 X8.664 Y-5.300
G0 X14.440 Y-5.300
G0 X14.440 Y-5.464
G1 F2100 X14.440 Y5.664 E57.39359
G0 F7500 X14.440 Y5.500
G0 X20.216 Y5.500
G0 X20.216 Y5.664
G1 F2100 X20.216 Y-5.464 E57.79424
;LAYER:3
G1 F2400 E56.79424
G0 F7500 X0.284 Y0.216 Z0.900
;TYPE:WALL-OUTER
G1 F2400 E57.79424
G1 X0.284 Y0.284 E57.79669
G1 X0.216 Y0.284 E57.79914
G1 X0.216 Y0.216 E57.80159
G1 X0.284 Y0.216 E57.80404
G0 F7500 X1.200 Y-0.700
;TYPE:SUPPORT
G1 F2220 X-0.700 Y-0.700 E57.87244
G1 X-0.700 Y1.200 E57.94085
G1 X1.200 Y1.200 E58.00926
G1 X1.200 Y-0.700 E58.07767
G0 F7500 X30.600 Y-5.400
G1 F2220 X30.600 Y5.600 E58.47371
G1 X-30.500 Y5.600 E60.67356
G1 X-30.500 Y-5.400 E61.06961
G1 X30.600 Y-5.400 E63.26946
G0 F7500 X30.500 Y-2.887
G0 X30.664 Y-2.887
G1 F2220 X-30.563 Y-2.888 E65.47388
G0 F7500 X-30.400 Y-2.888
G0 X-25.992 Y-5.300
G0 X-25.992 Y-5.464
G1 F2220 X-25.992 Y5.664 E65.87453
G0 F7500 X-25.992 Y5.500
G0 X-30.400 Y2.887
G0 X-30.564 Y2.887
G1 F2220 X30.663 Y2.888 E68.07896
G0 F7500 X30.500 Y2.888
G0 X25.992 Y5.500
G0 X25.992 Y5.664
G1 F2220 X25.992 Y-5.464 E68.47961
G0 F7500 X25.992 Y-5.300
G0 X20.216 Y-5.300
G0 X20.216 Y-5.464
G1 F2220 X20.216 Y5.664 E68.88026
G0 F7500 X20.216 Y5.500
G0 X14.440 Y5.500
G0 X14.440 Y5.664
G1 F2220 X14.440 Y-5.464 E69.28092
G0 F7500 X14.440 Y-5.300
G0 X8.664 Y-5.300
G0 X8.664 Y-5.464
G1 F2220 X8.664 Y5.664 E69.68157
G0 F7500 X8.664 Y5.500
G0 X2.888 Y5.500
G0 X2.888 Y5.664
G1 F2220 X2.888 Y-5.464 E70.08223
G0 F7500 X2.888 Y-5.300
G0 X-2.888 Y-5.300
G0 X-2.888 Y-5.464
G1 F2220 X-2.888 Y5.664 E70.48288
G0 F7500 X-2.888 Y5.500
G0 X-8.664 Y5.500
G0 X-8.664 Y5.664
G1 F2220 X-8.664 Y-5.464 E70.88353
G0 F7500 X-8.664 Y-5.300
G0 X-14.440 Y-5.300
G0 X-14.440 Y-5.464
G1 F2220 X-14.440 Y5.664 E71.28419
G0 F7500 X-14.440 Y5.500
G0 X-20.216 Y5.500
G0 X-20.216 Y5.664
G1 F2220 X-20.216 Y-5.464 E71.68484
;LAYER:4
G1 F2400 E70.68484
G0 F7500 X0.216 Y0.216 Z1.100
;TYPE:WALL-OUTER
G1 F2400 E71.68484
G1 F2700 X0.284 Y0.216 E71.68729
G1 X0.284 Y0.284 E71.68974
G1 X0.216 Y0.284 E71.69218
G1 X0.216 Y0.216 E71.69463
G0 F7500 X-0.700 Y-0.700
;TYPE:SUPPORT
G1 F2400 X-0.700 Y1.200 E71.76304
G1 X1.200 Y1.200 E71.83145
G1 X1.200 Y-0.700 E71.89986
G1 X-0.700 Y-0.700 E71.96826
G0 F7500 X-0.690 Y-0.800
G0 X-30.500 Y-5.400
G1 F2400 X30.600 Y-5.400 E74.16811
G1 X30.600 Y5.600 E74.56416
G1 X-30.500 Y5.600 E76.76401
G1 X-30.500 Y-5.400 E77.16005
G0 F7500 X-30.400 Y-2.888
G0 X-30.563 Y-2.888
G1 F2400 X30.664 Y-2.887 E79.36448
G0 F7500 X30.500 Y-2.887
G0 X25.992 Y-5.300
G0 X25.992 Y-5.464
G1 F2400 X25.992 Y5.664 E79.76513
G0 F7500 X25.992 Y5.500
G0 X30.500 Y2.888
G0 X30.663 Y2.888
G1 F2400 X-30.564 Y2.887 E81.96955
G0 F7500 X-30.400 Y2.887
G0 X-25.992 Y5.500
G0 X-25.992 Y5.664
G1 F2400 X-25.992 Y-5.464 E82.37021
G0 F7500 X-25.992 Y-5.300
G0 X-20.216 Y-5.300
G0 X-20.216 Y-5.464
G1 F2400 X-20.216 Y5.664 E82.77086
G0 F7500 X-20.216 Y5.500
G0 X-14.440 Y5.500
G0 X-14.440 Y5.664
G1 F2400 X-14.440 Y-5.464 E83.17151
G0 F7500 X-14.440 Y-5.300
G0 X-8.664 Y-5.300
G0 X-8.664 Y-5.464
G1 F2400 X-8.664 Y5.664 E83.57217
G0 F7500 X-8.664 Y5.500
G0 X-2.888 Y5.500
G0 X-2.888 Y5.664
G1 F2400 X-2.888 Y-5.464 E83.97282
G0 F7500 X-2.888 Y-5.300
G0 X2.888 Y-5.300
G0 X2.888 Y-5.464
G1 F2400 X2.888 Y5.664 E84.37348
G0 F7500 X2.888 Y5.500
G0 X8.664 Y5.500
G0 X8.664 Y5.664
G1 F2400 X8.664 Y-5.464 E84.77413
G0 F7500 X8.664 Y-5.300
G0 X14.440 Y-5.300
G0 X14.440 Y-5.464
G1 F2400 X14.440 Y5.664 E85.17478
G0 F7500 X14.440 Y5.500
G0 X20.216 Y5.500
G0 X20.216 Y5.664
G1 F2400 X20.216 Y-5.464 E85.57544
;LAYER:5
G1 F2400 E84.57544
G0 F7500 X0.284 Y0.216 Z1.300
;TYPE:WALL-OUTER
G1 F2400 E85.57544
G1 F2700 X0.284 Y0.284 E85.57788
G1 X0.216 Y0.284 E85.58033
G1 X0.216 Y0.216 E85.58278
G1 X0.284 Y0.216 E85.58523
G0 F7500 X1.200 Y-0.700
;TYPE:SUPPORT
G1 F2400 X-0.700 Y-0.700 E85.65364
G1 X-0.700 Y1.200 E85.72204
G1 X1.200 Y1.200 E85.79045
G1 X1.200 Y-0.700 E85.85886
G0 F7500 X30.600 Y-5.400
G1 F2400 X30.600 Y5.600 E86.25491
G1 X-30.500 Y5.600 E88.45476
G1 X-30.500 Y-5.400 E88.85080
G1 X30.600 Y-5.400 E91.05065
G0 F7500 X30.500 Y-2.887
G0 X30.664 Y-2.887
G1 F2400 X-30.563 Y-2.888 E93.25507
G0 F7500 X-30.400 Y-2.888
G0 X-25.992 Y-5.300
G0 X-25.992 Y-5.464
G1 F2400 X-25.992 Y5.664 E93.65573
G0 F7500 X-25.992 Y5.500
G0 X-30.400 Y2.887
G0 X-30.564 Y2.887
G1 F2400 X30.663 Y2.888 E95.86015
G0 F7500 X30.500 Y2.888
G0 X25.992 Y5.500
G0 X25.992 Y5.664
G1 F2400 X25.992 Y-5.464 E96.26080
G0 F7500 X25.992 Y-5.300
G0 X20.216 Y-5.300
G0 X20.216 Y-5.464
G1 F2400 X20.216 Y5.664 E96.66146
G0 F7500 X20.216 Y5.500
G0 X14.440 Y5.500
G0 X14.440 Y5.664
G1 F2400 X14.440 Y-5.464 E97.06211
G0 F7500 X14.440 Y-5.300
G0 X8.664 Y-5.300
G0 X8.664 Y-5.464
G1 F2400 X8.664 Y5.664 E97.46276
G0 F7500 X8.664 Y5.500
G0 X2.888 Y5.500
G0 X2.888 Y5.664
G1 F2400 X2.888 Y-5.464 E97.86342
G0 F7500 X2.888 Y-5.300
G0 X-2.888 Y-5.300
G0 X-2.888 Y-5.464
G1 F2400 X-2.888 Y5.664 E98.26407
G0 F7500 X-2.888 Y5.500
G0 X-8.664 Y5.500
G0 X-8.664 Y5.664
G1 F2400 X-8.664 Y-5.464 E98.66473
G0 F7500 X-8.664 Y-5.300
G0 X-14.440 Y-5.300
G0 X-14.440 Y-5.464
G1 F2400 X-14.440 Y5.664 E99.06538
G0 F7500 X-14.440 Y5.500
G0 X-20.216 Y5.500
G0 X-20.216 Y5.664
G1 F2400 X-20.216 Y-5.464 E99.46603
;LAYER:6
G1 F2400 E98.46603
G0 F7500 X0.216 Y0.216 Z1.500
;TYPE:WALL-OUTER
G1 F2400 E99.46603
G1 F2700 X0.284 Y0.216 E99.46848
G1 X0.284 Y0.284 E99.47093
G1 X0.216 Y0.284 E99.47338
G1 X0.216 Y0.216 E99.47583
G0 F7500 X-0.700 Y-0.700
;TYPE:SUPPORT
G1 F2400 X-0.700 Y1.200 E99.54423
G1 X1.200 Y1.200 E99.61264
G1 X1.200 Y-0.700 E99.68105
G1 X-0.700 Y-0.700 E99.74946
G0 F7500 X-0.690 Y-0.800
G0 X-30.500 Y-5.400
G1 F2400 X30.600 Y-5.400 E101.94931
G1 X30.600 Y5.600 E102.34535
G1 X-30.500 Y5.600 E104.54520
G1 X-30.500 Y-5.400 E104.94125
G0 F7500 X-30.400 Y-2.888
G0 X-30.563 Y-2.888
G1 F2400 X30.664 Y-2.887 E107.14567
G0 F7500 X30.500 Y-2.887
G0 X25.992 Y-5.300
G0 X25.992 Y-5.464
G1 F2400 X25.992 Y5.664 E107.54632
G0 F7500 X25.992 Y5.500
G0 X30.500 Y2.888
G0 X30.663 Y2.888
G1 F2400 X-30.564 Y2.887 E109.75075
G0 F7500 X-30.400 Y2.887
G0 X-25.992 Y5.500
G0 X-25.992 Y5.664
G1 F2400 X-25.992 Y-5.464 E110.15140
G0 F7500 X-25.992 Y-5.300
G0 X-20.216 Y-5.300
G0 X-20.216 Y-5.464
G1 F2400 X-20.216 Y5.664 E110.55205
G0 F7500 X-20.216 Y5.500
G0 X-14.440 Y5.500
G0 X-14.440 Y5.664
G1 F2400 X-14.440 Y-5.464 E110.95271
G0 F7500 X-14.440 Y-5.300
G0 X-8.664 Y-5.300
G0 X-8.664 Y-5.464
G1 F2400 X-8.664 Y5.664 E111.35336
G0 F7500 X-8.664 Y5.500
G0 X-2.888 Y5.500
G0 X-2.888 Y5.664
G1 F2400 X-2.888 Y-5.464 E111.75401
G0 F7500 X-2.888 Y-5.300
G0 X2.888 Y-5.300
G0 X2.888 Y-5.464
G1 F2400 X2.888 Y5.664 E112.15467
G0 F7500 X2.888 Y5.500
G0 X8.664 Y5.500
G0 X8.664 Y5.664
G1 F2400 X8.664 Y-5.464 E112.55532
G0 F7500 X8.664 Y-5.300
G0 X14.440 Y-5.300
G0 X14.440 Y-5.464
G1 F2400 X14.440 Y5.664 E112.95598
G0 F7500 X14.440 Y5.500
G0 X20.216 Y5.500
G0 X20.216 Y5.664
G1 F2400 X20.216 Y-5.464 E113.35663
;LAYER:7
G1 F2400 E112.35663
G0 F7500 X0.284 Y0.216 Z1.700
;TYPE:WALL-OUTER
G1 F2400 E113.35663
G1 F2700 X0.284 Y0.284 E113.35908
G1 X0.216 Y0.284 E113.36153
G1 X0.216 Y0.216 E113.36397
G1 X0.284 Y0.216 E113.36642
G0 F7500 X1.200 Y-0.700
;TYPE:SUPPORT
G1 F2400 X-0.700 Y-0.700 E113.43483
G1 X-0.700 Y1.200 E113.50324
G1 X1.200 Y1.200 E113.57165
G1 X1.200 Y-0.700 E113.64005
G0 F7500 X30.600 Y-5.400
G1 F2400 X30.600 Y5.600 E114.03610
G1 X-30.500 Y5.600 E116.23595
G1 X-30.500 Y-5.400 E116.63199
G1 X30.600 Y-5.400 E118.83184
G0 F7500 X30.500 Y-2.887
G0 X30.664 Y-2.887
G1 F2400 X-30.563 Y-2.888 E121.03627
G0 F7500 X-30.400 Y-2.888
G0 X-25.992 Y-5.300
G0 X-25.992 Y-5.464
G1 F2400 X-25.992 Y5.664 E121.43692
G0 F7500 X-25.992 Y5.500
G0 X-30.400 Y2.887
G0 X-30.564 Y2.887
G1 F2400 X30.663 Y2.888 E123.64134
G0 F7500 X30.500 Y2.888
G0 X25.992 Y5.500
G0 X25.992 Y5.664
G1 F2400 X25.992 Y-5.464 E124.04200
G0 F7500 X25.992 Y-5.300
G0 X20.216 Y-5.300
G0 X20.216 Y-5.464
G1 F2400 X20.216 Y5.664 E124.44265
G0 F7500 X20.216 Y5.500
G0 X14.440 Y5.500
G0 X14.440 Y5.664
G1 F2400 X14.440 Y-5.464 E124.84330
G0 F7500 X14.440 Y-5.300
G0 X8.664 Y-5.300
G0 X8.664 Y-5.464
G1 F2400 X8.664 Y5.664 E125.24396
G0 F7500 X8.664 Y5.500
G0 X2.888 Y5.500
G0 X2.888 Y5.664
G1 F2400 X2.888 Y-5.464 E125.64461
G0 F7500 X2.888 Y-5.300
G0 X-2.888 Y-5.300
G0 X-2.888 Y-5.464
G1 F2400 X-2.888 Y5.664 E126.04526
G0 F7500 X-2.888 Y5.500
G0 X-8.664 Y5.500
G0 X-8.664 Y5.664
G1 F2400 X-8.664 Y-5.464 E126.44592
G0 F7500 X-8.664 Y-5.300
G0 X-14.440 Y-5.300
G0 X-14.440 Y-5.464
G1 F2400 X-14.440 Y5.664 E126.84657
G0 F7500 X-14.440 Y5.500
G0 X-20.216 Y5.500
G0 X-20.216 Y5.664
G1 F2400 X-20.216 Y-5.464 E127.24722
;LAYER:8
G1 F2400 E126.24722
G0 F7500 X0.216 Y0.216 Z1.900
;TYPE:WALL-OUTER
G1 F2400 E127.24722
G1 F2700 X0.284 Y0.216 E127.24967
G1 X0.284 Y0.284 E127.25212
G1 X0.216 Y0.284 E127.25457
G1 X0.216 Y0.216 E127.25702
G0 F7500 X-0.700 Y-0.700
;TYPE:SUPPORT
G1 F2400 X-0.700 Y1.200 E127.32543
G1 X1.200 Y1.200 E127.39383
G1 X1.200 Y-0.700 E127.46224
G1 X-0.700 Y-0.700 E127.53065
G0 F7500 X-0.690 Y-0.800
G0 X-30.500 Y-5.400
G1 F2400 X30.600 Y-5.400 E129.73050
G1 X30.600 Y5.600 E130.12654
G1 X-30.500 Y5.600 E132.32639
G1 X-30.500 Y-5.400 E132.72244
G0 F7500 X-30.400 Y-2.888
G0 X-30.563 Y-2.888
G1 F2400 X30.664 Y-2.887 E134.92686
G0 F7500 X30.500 Y-2.887
G0 X25.992 Y-5.300
G0 X25.992 Y-5.464
G1 F2400 X25.992 Y5.664 E135.32752
G0 F7500 X25.992 Y5.500
G0 X30.500 Y2.888
G0 X30.663 Y2.888
G1 F2400 X-30.564 Y2.887 E137.53194
G0 F7500 X-30.400 Y2.887
G0 X-25.992 Y5.500
G0 X-25.992 Y5.664
G1 F2400 X-25.992 Y-5.464 E137.93259
G0 F7500 X-25.992 Y-5.300
G0 X-20.216 Y-5.300
G0 X-20.216 Y-5.464
G1 F2400 X-20.216 Y5.664 E138.33325
G0 F7500 X-20.216 Y5.500
G0 X-14.440 Y5.500
G0 X-14.440 Y5.664
G1 F2400 X-14.440 Y-5.464 E138.73390
G0 F7500 X-14.440 Y-5.300
G0 X-8.664 Y-5.300
G0 X-8.664 Y-5.464
G1 F2400 X-8.664 Y5.664 E139.13455
G0 F7500 X-8.664 Y5.500
G0 X-2.888 Y5.500
G0 X-2.888 Y5.664
G1 F2400 X-2.888 Y-5.464 E139.53521
G0 F7500 X-2.888 Y-5.300
G0 X2.888 Y-5.300
G0 X2.888 Y-5.464
G1 F2400 X2.888 Y5.664 E139.93586
G0 F7500 X2.888 Y5.500
G0 X8.664 Y5.500
G0 X8.664 Y5.664
G1 F2400 X8.664 Y-5.464 E140.33651
G0 F7500 X8.664 Y-5.300
G0 X14.440 Y-5.300
G0 X14.440 Y-5.464
G1 F2400 X14.440 Y5.664 E140.73717
G0 F7500 X14.440 Y5.500
G0 X20.216 Y5.500
G0 X20.216 Y5.664
G1 F2400 X20.216 Y-5.464 E141.13782
;LAYER:9
G1 F2400 E140.13782
G0 F7500 X0.284 Y0.216 Z2.100
;TYPE:WALL-OUTER
G1 F2400 E141.13782
G1 F2700 X0.284 Y0.284 E141.14027
G1 X0.216 Y0.284 E141.14272
G1 X0.216 Y0.216 E141.14517
G1 X0.284 Y0.216 E141.14761
G0 F7500 X1.200 Y-0.700
;TYPE:SUPPORT
G1 F2400 X-0.700 Y-0.700 E141.21602
G1 X-0.700 Y1.200 E141.28443
G1 X1.200 Y1.200 E141.35284
G1 X1.200 Y-0.700 E141.42125
G0 F7500 X30.600 Y-5.400
G1 F2400 X30.600 Y5.600 E141.81729
G1 X-30.500 Y5.600 E144.01714
G1 X-30.500 Y-5.400 E144.41319
G1 X30.600 Y-5.400 E146.61304
G0 F7500 X30.500 Y-2.887
G0 X30.664 Y-2.887
G1 F2400 X-30.563 Y-2.888 E148.81746
G0 F7500 X-30.400 Y-2.888
G0 X-25.992 Y-5.300
G0 X-25.992 Y-5.464
G1 F2400 X-25.992 Y5.664 E149.21811
G0 F7500 X-25.992 Y5.500
