;Generated with Cura_SteamEngine 15.04.6

;Layer count: 16
;LAYER:0
M107
G0 F7500 X-33.716 Y-13.616 Z0.300
;TYPE:SKIRT
G1 F1800 X33.816 Y-13.616 E3.64714
G1 X33.816 Y13.816 E5.12864
G1 X-33.716 Y13.816 E8.77578
G1 X-33.716 Y-13.616 E10.25728
G1 F2400 E9.25728
G0 F7500 X0.216 Y0.216
;TYPE:WALL-OUTER
G1 F2400 E10.25728
G1 F1800 X0.284 Y0.216 E10.26095
G1 X0.284 Y0.284 E10.26462
G1 X0.216 Y0.284 E10.26830
G1 X0.216 Y0.216 E10.27197
G0 F7500 X-0.700 Y-0.700
;TYPE:SUPPORT
G1 F1800 X-0.700 Y1.200 E10.37458
G1 X1.200 Y1.200 E10.47719
G1 X1.200 Y-0.700 E10.57980
G1 X-0.700 Y-0.700 E10.68242
G0 F7500 X-0.690 Y-0.800
G0 X-30.500 Y-10.400
G1 F1800 X30.600 Y-10.400 E13.98219
G1 X30.600 Y10.600 E15.11632
G1 X-30.500 Y10.600 E18.41610
G1 X-30.500 Y-10.400 E19.55022
G0 F7500 X-30.400 Y-8.664
G0 X-30.563 Y-8.664
G1 F1800 X30.664 Y-8.663 E22.85686
G0 F7500 X30.500 Y-8.663
G0 X25.992 Y-10.300
G0 X25.992 Y-10.464
G1 F1800 X25.992 Y10.664 E23.99790
G0 F7500 X25.992 Y10.500
G0 X30.500 Y8.664
G0 X30.663 Y8.664
G1 F1800 X-30.564 Y8.663 E27.30453
G0 F7500 X-30.400 Y8.663
G0 X-25.992 Y10.500
G0 X-25.992 Y10.664
G1 F1800 X-25.992 Y-10.464 E28.44558
G0 F7500 X-25.992 Y-10.300
G0 X-20.216 Y-10.300
G0 X-20.216 Y-10.464
G1 F1800 X-20.216 Y10.664 E29.58662
G0 F7500 X-20.216 Y10.500
G0 X-30.400 Y2.887
G0 X-30.564 Y2.887
G1 F1800 X30.663 Y2.888 E32.89325
G0 F7500 X30.500 Y2.888
G0 X30.500 Y-2.887
G0 X30.664 Y-2.887
G1 F1800 X-30.563 Y-2.888 E36.19989
G0 F7500 X-30.400 Y-2.888
G0 X-14.440 Y-10.300
G0 X-14.440 Y-10.464
G1 F1800 X-14.440 Y10.664 E37.34093
G0 F7500 X-14.440 Y10.500
G0 X-8.664 Y10.500
G0 X-8.664 Y10.664
G1 F1800 X-8.664 Y-10.464 E38.48197
G0 F7500 X-8.664 Y-10.300
G0 X-2.888 Y-10.300
G0 X-2.888 Y-10.464
G1 F1800 X-2.888 Y10.664 E39.62301
G0 F7500 X-2.888 Y10.500
G0 X2.888 Y10.500
G0 X2.888 Y10.664
G1 F1800 X2.888 Y-10.464 E40.76405
G0 F7500 X2.888 Y-10.300
G0 X8.664 Y-10.300
G0 X8.664 Y-10.464
G1 F1800 X8.664 Y10.664 E41.90510
G0 F7500 X8.664 Y10.500
G0 X14.440 Y10.500
G0 X14.440 Y10.664
G1 F1800 X14.440 Y-10.464 E43.04614
G0 F7500 X14.440 Y-10.300
G0 X20.216 Y-10.300
G0 X20.216 Y-10.464
G1 F1800 X20.216 Y10.664 E44.18718
;LAYER:1
M106 S63
G1 F2400 E43.18718
G0 F7500 X0.284 Y0.284 Z0.500
;TYPE:WALL-OUTER
G1 F2400 E44.18718
G1 F1980 X0.216 Y0.284 E44.18963
G1 X0.216 Y0.216 E44.19208
G1 X0.284 Y0.216 E44.19452
G1 X0.284 Y0.284 E44.19697
G0 F7500 X1.200 Y1.200
;TYPE:SUPPORT
G1 F1920 X1.200 Y-0.700 E44.26538
G1 X-0.700 Y-0.700 E44.33379
G1 X-0.700 Y1.200 E44.40220
G1 X1.200 Y1.200 E44.47060
G0 F7500 X1.190 Y1.300
G0 X30.500 Y10.590
G0 X30.600 Y10.600
G1 F1920 X-30.500 Y10.600 E46.67045
G1 X-30.500 Y-10.400 E47.42654
G1 X30.600 Y-10.400 E49.62639
G1 X30.600 Y10.600 E50.38248
G0 F7500 X30.500 Y10.590
G0 X30.500 Y8.664
G0 X30.663 Y8.664
G1 F1920 X-30.564 Y8.663 E52.58690
G0 F7500 X-30.400 Y8.663
G0 X-25.992 Y10.500
G0 X-25.992 Y10.664
G1 F1920 X-25.992 Y-10.464 E53.34759
G0 F7500 X-25.992 Y-10.300
G0 X-30.400 Y-8.664
G0 X-30.563 Y-8.664
G1 F1920 X30.664 Y-8.663 E55.55202
G0 F7500 X30.500 Y-8.663
G0 X25.992 Y-10.300
G0 X25.992 Y-10.464
G1 F1920 X25.992 Y10.664 E56.31271
G0 F7500 X25.992 Y10.500
G0 X20.216 Y10.500
G0 X20.216 Y10.664
G1 F1920 X20.216 Y-10.464 E57.07341
G0 F7500 X20.216 Y-10.300
G0 X30.500 Y-2.887
G0 X30.664 Y-2.887
G1 F1920 X-30.563 Y-2.888 E59.27783
G0 F7500 X-30.400 Y-2.888
G0 X-30.400 Y2.887
G0 X-30.564 Y2.887
G1 F1920 X30.663 Y2.888 E61.48225
G0 F7500 X30.500 Y2.888
G0 X14.440 Y10.500
G0 X14.440 Y10.664
G1 F1920 X14.440 Y-10.464 E62.24295
G0 F7500 X14.440 Y-10.300
G0 X8.664 Y-10.300
G0 X8.664 Y-10.464
G1 F1920 X8.664 Y10.664 E63.00364
G0 F7500 X8.664 Y10.500
G0 X2.888 Y10.500
G0 X2.888 Y10.664
G1 F1920 X2.888 Y-10.464 E63.76433
G0 F7500 X2.888 Y-10.300
G0 X-2.888 Y-10.300
G0 X-2.888 Y-10.464
G1 F1920 X-2.888 Y10.664 E64.52503
G0 F7500 X-2.888 Y10.500
G0 X-8.664 Y10.500
G0 X-8.664 Y10.664
G1 F1920 X-8.664 Y-10.464 E65.28572
G0 F7500 X-8.664 Y-10.300
G0 X-14.440 Y-10.300
G0 X-14.440 Y-10.464
G1 F1920 X-14.440 Y10.664 E66.04642
G0 F7500 X-14.440 Y10.500
G0 X-20.216 Y10.500
G0 X-20.216 Y10.664
G1 F1920 X-20.216 Y-10.464 E66.80711
;LAYER:2
M106 S127
G1 F2400 E65.80711
G0 F7500 X0.216 Y0.216 Z0.700
;TYPE:WALL-OUTER
G1 F2400 E66.80711
G1 F2220 X0.284 Y0.216 E66.80956
G1 X0.284 Y0.284 E66.81201
G1 X0.216 Y0.284 E66.81446
G1 X0.216 Y0.216 E66.81691
G0 F7500 X-0.700 Y-0.700
;TYPE:SUPPORT
G1 F2100 X-0.700 Y1.200 E66.88531
G1 X1.200 Y1.200 E66.95372
G1 X1.200 Y-0.700 E67.02213
G1 X-0.700 Y-0.700 E67.09054
G0 F7500 X-0.690 Y-0.800
G0 X-30.500 Y-10.400
G1 F2100 X30.600 Y-10.400 E69.29039
G1 X30.600 Y10.600 E70.04647
G1 X-30.500 Y10.600 E72.24632
G1 X-30.500 Y-10.400 E73.00241
G0 F7500 X-30.400 Y-8.664
G0 X-30.563 Y-8.664
G1 F2100 X30.664 Y-8.663 E75.20683
G0 F7500 X30.500 Y-8.663
G0 X25.992 Y-10.300
G0 X25.992 Y-10.464
G1 F2100 X25.992 Y10.664 E75.96753
G0 F7500 X25.992 Y10.500
G0 X30.500 Y8.664
G0 X30.663 Y8.664
G1 F2100 X-30.564 Y8.663 E78.17195
G0 F7500 X-30.400 Y8.663
G0 X-25.992 Y10.500
G0 X-25.992 Y10.664
G1 F2100 X-25.992 Y-10.464 E78.93264
G0 F7500 X-25.992 Y-10.300
G0 X-20.216 Y-10.300
G0 X-20.216 Y-10.464
G1 F2100 X-20.216 Y10.664 E79.69334
G0 F7500 X-20.216 Y10.500
G0 X-30.400 Y2.887
G0 X-30.564 Y2.887
G1 F2100 X30.663 Y2.888 E81.89776
G0 F7500 X30.500 Y2.888
G0 X30.500 Y-2.887
G0 X30.664 Y-2.887
G1 F2100 X-30.563 Y-2.888 E84.10218
G0 F7500 X-30.400 Y-2.888
G0 X-14.440 Y-10.300
G0 X-14.440 Y-10.464
G1 F2100 X-14.440 Y10.664 E84.86288
G0 F7500 X-14.440 Y10.500
G0 X-8.664 Y10.500
G0 X-8.664 Y10.664
G1 F2100 X-8.664 Y-10.464 E85.62357
G0 F7500 X-8.664 Y-10.300
G0 X-2.888 Y-10.300
G0 X-2.888 Y-10.464
G1 F2100 X-2.888 Y10.664 E86.38427
G0 F7500 X-2.888 Y10.500
G0 X2.888 Y10.500
G0 X2.888 Y10.664
G1 F2100 X2.888 Y-10.464 E87.14496
G0 F7500 X2.888 Y-10.300
G0 X8.664 Y-10.300
G0 X8.664 Y-10.464
G1 F2100 X8.664 Y10.664 E87.90566
G0 F7500 X8.664 Y10.500
G0 X14.440 Y10.500
G0 X14.440 Y10.664
G1 F2100 X14.440 Y-10.464 E88.66635
G0 F7500 X14.440 Y-10.300
G0 X20.216 Y-10.300
G0 X20.216 Y-10.464
G1 F2100 X20.216 Y10.664 E89.42705
;LAYER:3
G1 F2400 E88.42705
G0 F7500 X0.284 Y0.284 Z0.900
;TYPE:WALL-OUTER
G1 F2400 E89.42705
G1 X0.216 Y0.284 E89.42949
G1 X0.216 Y0.216 E89.43194
G1 X0.284 Y0.216 E89.43439
G1 X0.284 Y0.284 E89.43684
G0 F7500 X1.200 Y1.200
;TYPE:SUPPORT
G1 F2220 X1.200 Y-0.700 E89.50525
G1 X-0.700 Y-0.700 E89.57365
G1 X-0.700 Y1.200 E89.64206
G1 X1.200 Y1.200 E89.71047
G0 F7500 X1.190 Y1.300
G0 X30.500 Y10.590
G0 X30.600 Y10.600
G1 F2220 X-30.500 Y10.600 E91.91032
G1 X-30.500 Y-10.400 E92.66641
G1 X30.600 Y-10.400 E94.86626
G1 X30.600 Y10.600 E95.62234
G0 F7500 X30.500 Y10.590
G0 X30.500 Y8.664
G0 X30.663 Y8.664
G1 F2220 X-30.564 Y8.663 E97.82677
G0 F7500 X-30.400 Y8.663
G0 X-25.992 Y10.500
G0 X-25.992 Y10.664
G1 F2220 X-25.992 Y-10.464 E98.58746
G0 F7500 X-25.992 Y-10.300
G0 X-30.400 Y-8.664
G0 X-30.563 Y-8.664
G1 F2220 X30.664 Y-8.663 E100.79188
G0 F7500 X30.500 Y-8.663
G0 X25.992 Y-10.300
G0 X25.992 Y-10.464
G1 F2220 X25.992 Y10.664 E101.55258
G0 F7500 X25.992 Y10.500
G0 X20.216 Y10.500
G0 X20.216 Y10.664
G1 F2220 X20.216 Y-10.464 E102.31327
G0 F7500 X20.216 Y-10.300
G0 X30.500 Y-2.887
G0 X30.664 Y-2.887
G1 F2220 X-30.563 Y-2.888 E104.51769
G0 F7500 X-30.400 Y-2.888
G0 X-30.400 Y2.887
G0 X-30.564 Y2.887
G1 F2220 X30.663 Y2.888 E106.72212
G0 F7500 X30.500 Y2.888
G0 X14.440 Y10.500
G0 X14.440 Y10.664
G1 F2220 X14.440 Y-10.464 E107.48281
G0 F7500 X14.440 Y-10.300
G0 X8.664 Y-10.300
G0 X8.664 Y-10.464
G1 F2220 X8.664 Y10.664 E108.24351
G0 F7500 X8.664 Y10.500
G0 X2.888 Y10.500
G0 X2.888 Y10.664
G1 F2220 X2.888 Y-10.464 E109.00420
G0 F7500 X2.888 Y-10.300
G0 X-2.888 Y-10.300
G0 X-2.888 Y-10.464
G1 F2220 X-2.888 Y10.664 E109.76490
G0 F7500 X-2.888 Y10.500
G0 X-8.664 Y10.500
G0 X-8.664 Y10.664
G1 F2220 X-8.664 Y-10.464 E110.52559
G0 F7500 X-8.664 Y-10.300
G0 X-14.440 Y-10.300
G0 X-14.440 Y-10.464
G1 F2220 X-14.440 Y10.664 E111.28629
G0 F7500 X-14.440 Y10.500
G0 X-20.216 Y10.500
G0 X-20.216 Y10.664
G1 F2220 X-20.216 Y-10.464 E112.04698
;LAYER:4
G1 F2400 E111.04698
G0 F7500 X0.216 Y0.216 Z1.100
;TYPE:WALL-OUTER
G1 F2400 E112.04698
G1 F2700 X0.284 Y0.216 E112.04943
G1 X0.284 Y0.284 E112.05188
G1 X0.216 Y0.284 E112.05432
G1 X0.216 Y0.216 E112.05677
G0 F7500 X-0.700 Y-0.700
;TYPE:SUPPORT
G1 F2400 X-0.700 Y1.200 E112.12518
G1 X1.200 Y1.200 E112.19359
G1 X1.200 Y-0.700 E112.26200
G1 X-0.700 Y-0.700 E112.33040
G0 F7500 X-0.690 Y-0.800
G0 X-30.500 Y-10.400
G1 F2400 X30.600 Y-10.400 E114.53025
G1 X30.600 Y10.600 E115.28634
G1 X-30.500 Y10.600 E117.48619
G1 X-30.500 Y-10.400 E118.24228
G0 F7500 X-30.400 Y-8.664
G0 X-30.563 Y-8.664
G1 F2400 X30.664 Y-8.663 E120.44670
G0 F7500 X30.500 Y-8.663
G0 X25.992 Y-10.300
G0 X25.992 Y-10.464
G1 F2400 X25.992 Y10.664 E121.20739
G0 F7500 X25.992 Y10.500
G0 X30.500 Y8.664
G0 X30.663 Y8.664
G1 F2400 X-30.564 Y8.663 E123.41182
G0 F7500 X-30.400 Y8.663
G0 X-25.992 Y10.500
G0 X-25.992 Y10.664
G1 F2400 X-25.992 Y-10.464 E124.17251
G0 F7500 X-25.992 Y-10.300
G0 X-20.216 Y-10.300
G0 X-20.216 Y-10.464
G1 F2400 X-20.216 Y10.664 E124.93321
G0 F7500 X-20.216 Y10.500
G0 X-30.400 Y2.887
G0 X-30.564 Y2.887
G1 F2400 X30.663 Y2.888 E127.13763
G0 F7500 X30.500 Y2.888
G0 X30.500 Y-2.887
G0 X30.664 Y-2.887
G1 F2400 X-30.563 Y-2.888 E129.34205
G0 F7500 X-30.400 Y-2.888
G0 X-14.440 Y-10.300
G0 X-14.440 Y-10.464
G1 F2400 X-14.440 Y10.664 E130.10275
G0 F7500 X-14.440 Y10.500
G0 X-8.664 Y10.500
G0 X-8.664 Y10.664
G1 F2400 X-8.664 Y-10.464 E130.86344
G0 F7500 X-8.664 Y-10.300
G0 X-2.888 Y-10.300
G0 X-2.888 Y-10.464
G1 F2400 X-2.888 Y10.664 E131.62413
G0 F7500 X-2.888 Y10.500
G0 X2.888 Y10.500
G0 X2.888 Y10.664
G1 F2400 X2.888 Y-10.464 E132.38483
G0 F7500 X2.888 Y-10.300
G0 X8.664 Y-10.300
G0 X8.664 Y-10.464
G1 F2400 X8.664 Y10.664 E133.14552
G0 F7500 X8.664 Y10.500
G0 X14.440 Y10.500
G0 X14.440 Y10.664
G1 F2400 X14.440 Y-10.464 E133.90622
G0 F7500 X14.440 Y-10.300
G0 X20.216 Y-10.300
G0 X20.216 Y-10.464
G1 F2400 X20.216 Y10.664 E134.66691
;LAYER:5
G1 F2400 E133.66691
G0 F7500 X0.284 Y0.284 Z1.300
;TYPE:WALL-OUTER
G1 F2400 E134.66691
G1 F2700 X0.216 Y0.284 E134.66936
G1 X0.216 Y0.216 E134.67181
G1 X0.284 Y0.216 E134.67426
G1 X0.284 Y0.284 E134.67671
G0 F7500 X1.200 Y1.200
;TYPE:SUPPORT
G1 F2400 X1.200 Y-0.700 E134.74511
G1 X-0.700 Y-0.700 E134.81352
G1 X-0.700 Y1.200 E134.88193
G1 X1.200 Y1.200 E134.95034
G0 F7500 X1.190 Y1.300
G0 X30.500 Y10.590
G0 X30.600 Y10.600
G1 F2400 X-30.500 Y10.600 E137.15019
G1 X-30.500 Y-10.400 E137.90627
G1 X30.600 Y-10.400 E140.10612
G1 X30.600 Y10.600 E140.86221
G0 F7500 X30.500 Y10.590
G0 X30.500 Y8.664
G0 X30.663 Y8.664
G1 F2400 X-30.564 Y8.663 E143.06663
G0 F7500 X-30.400 Y8.663
G0 X-25.992 Y10.500
G0 X-25.992 Y10.664
G1 F2400 X-25.992 Y-10.464 E143.82733
G0 F7500 X-25.992 Y-10.300
G0 X-30.400 Y-8.664
G0 X-30.563 Y-8.664
G1 F2400 X30.664 Y-8.663 E146.03175
G0 F7500 X30.500 Y-8.663
G0 X25.992 Y-10.300
G0 X25.992 Y-10.464
G1 F2400 X25.992 Y10.664 E146.79244
G0 F7500 X25.992 Y10.500
G0 X20.216 Y10.500
G0 X20.216 Y10.664
G1 F2400 X20.216 Y-10.464 E147.55314
G0 F7500 X20.216 Y-10.300
G0 X30.500 Y-2.887
G0 X30.664 Y-2.887
G1 F2400 X-30.563 Y-2.888 E149.75756
G0 F7500 X-30.400 Y-2.888
G0 X-30.400 Y2.887
G0 X-30.564 Y2.887
G1 F2400 X30.663 Y2.888 E151.96198
G0 F7500 X30.500 Y2.888
G0 X14.440 Y10.500
G0 X14.440 Y10.664
G1 F2400 X14.440 Y-10.464 E152.72268
G0 F7500 X14.440 Y-10.300
G0 X8.664 Y-10.300
G0 X8.664 Y-10.464
G1 F2400 X8.664 Y10.664 E153.48337
G0 F7500 X8.664 Y10.500
G0 X2.888 Y10.500
G0 X2.888 Y10.664
G1 F2400 X2.888 Y-10.464 E154.24407
G0 F7500 X2.888 Y-10.300
G0 X-2.888 Y-10.300
G0 X-2.888 Y-10.464
G1 F2400 X-2.888 Y10.664 E155.00476
G0 F7500 X-2.888 Y10.500
G0 X-8.664 Y10.500
G0 X-8.664 Y10.664
G1 F2400 X-8.664 Y-10.464 E155.76546
G0 F7500 X-8.664 Y-10.300
G0 X-14.440 Y-10.300
G0 X-14.440 Y-10.464
G1 F2400 X-14.440 Y10.664 E156.52615
G0 F7500 X-14.440 Y10.500
G0 X-20.216 Y10.500
G0 X-20.216 Y10.664
G1 F2400 X-20.216 Y-10.464 E157.28685
;LAYER:6
G1 F2400 E156.28685
G0 F7500 X0.216 Y0.216 Z1.500
;TYPE:WALL-OUTER
G1 F2400 E157.28685
G1 F2700 X0.284 Y0.216 E157.28929
G1 X0.284 Y0.284 E157.29174
G1 X0.216 Y0.284 E157.29419
G1 X0.216 Y0.216 E157.29664
G0 F7500 X-0.700 Y-0.700
;TYPE:SUPPORT
G1 F2400 X-0.700 Y1.200 E157.36505
G1 X1.200 Y1.200 E157.43346
G1 X1.200 Y-0.700 E157.50186
G1 X-0.700 Y-0.700 E157.57027
G0 F7500 X-0.690 Y-0.800
G0 X-30.500 Y-10.400
G1 F2400 X30.600 Y-10.400 E159.77012
G1 X30.600 Y10.600 E160.52621
G1 X-30.500 Y10.600 E162.72606
G1 X-30.500 Y-10.400 E163.48214
G0 F7500 X-30.400 Y-8.664
G0 X-30.563 Y-8.664
G1 F2400 X30.664 Y-8.663 E165.68657
G0 F7500 X30.500 Y-8.663
G0 X25.992 Y-10.300
G0 X25.992 Y-10.464
G1 F2400 X25.992 Y10.664 E166.44726
G0 F7500 X25.992 Y10.500
G0 X30.500 Y8.664
G0 X30.663 Y8.664
G1 F2400 X-30.564 Y8.663 E168.65168
G0 F7500 X-30.400 Y8.663
G0 X-25.992 Y10.500
G0 X-25.992 Y10.664
G1 F2400 X-25.992 Y-10.464 E169.41238
G0 F7500 X-25.992 Y-10.300
G0 X-20.216 Y-10.300
G0 X-20.216 Y-10.464
G1 F2400 X-20.216 Y10.664 E170.17307
G0 F7500 X-20.216 Y10.500
G0 X-30.400 Y2.887
G0 X-30.564 Y2.887
G1 F2400 X30.663 Y2.888 E172.37750
G0 F7500 X30.500 Y2.888
G0 X30.500 Y-2.887
G0 X30.664 Y-2.887
G1 F2400 X-30.563 Y-2.888 E174.58192
G0 F7500 X-30.400 Y-2.888
G0 X-14.440 Y-10.300
G0 X-14.440 Y-10.464
G1 F2400 X-14.440 Y10.664 E175.34261
G0 F7500 X-14.440 Y10.500
G0 X-8.664 Y10.500
G0 X-8.664 Y10.664
G1 F2400 X-8.664 Y-10.464 E176.10331
G0 F7500 X-8.664 Y-10.300
G0 X-2.888 Y-10.300
G0 X-2.888 Y-10.464
G1 F2400 X-2.888 Y10.664 E176.86400
G0 F7500 X-2.888 Y10.500
G0 X2.888 Y10.500
G0 X2.888 Y10.664
G1 F2400 X2.888 Y-10.464 E177.62470
G0 F7500 X2.888 Y-10.300
G0 X8.664 Y-10.300
G0 X8.664 Y-10.464
G1 F2400 X8.664 Y10.664 E178.38539
G0 F7500 X8.664 Y10.500
G0 X14.440 Y10.500
G0 X14.440 Y10.664
G1 F2400 X14.440 Y-10.464 E179.14609
G0 F7500 X14.440 Y-10.300
G0 X20.216 Y-10.300
G0 X20.216 Y-10.464
G1 F2400 X20.216 Y10.664 E179.90678
;LAYER:7
G1 F2400 E178.90678
G0 F7500 X0.284 Y0.284 Z1.700
;TYPE:WALL-OUTER
G1 F2400 E179.90678
G1 F2700 X0.216 Y0.284 E179.90923
G1 X0.216 Y0.216 E179.91168
G1 X0.284 Y0.216 E179.91412
G1 X0.284 Y0.284 E179.91657
G0 F7500 X1.200 Y1.200
;TYPE:SUPPORT
G1 F2400 X1.200 Y-0.700 E179.98498
G1 X-0.700 Y-0.700 E180.05339
G1 X-0.700 Y1.200 E180.12180
G1 X1.200 Y1.200 E180.19020
G0 F7500 X1.190 Y1.300
G0 X30.500 Y10.590
G0 X30.600 Y10.600
G1 F2400 X-30.500 Y10.600 E182.39005
G1 X-30.500 Y-10.400 E183.14614
G1 X30.600 Y-10.400 E185.34599
G1 X30.600 Y10.600 E186.10208
G0 F7500 X30.500 Y10.590
G0 X30.500 Y8.664
G0 X30.663 Y8.664
G1 F2400 X-30.564 Y8.663 E188.30650
G0 F7500 X-30.400 Y8.663
G0 X-25.992 Y10.500
G0 X-25.992 Y10.664
G1 F2400 X-25.992 Y-10.464 E189.06719
G0 F7500 X-25.992 Y-10.300
G0 X-30.400 Y-8.664
G0 X-30.563 Y-8.664
G1 F2400 X30.664 Y-8.663 E191.27162
G0 F7500 X30.500 Y-8.663
G0 X25.992 Y-10.300
G0 X25.992 Y-10.464
G1 F2400 X25.992 Y10.664 E192.03231
G0 F7500 X25.992 Y10.500
G0 X20.216 Y10.500
G0 X20.216 Y10.664
G1 F2400 X20.216 Y-10.464 E192.79301
G0 F7500 X20.216 Y-10.300
G0 X30.500 Y-2.887
G0 X30.664 Y-2.887
G1 F2400 X-30.563 Y-2.888 E194.99743
G0 F7500 X-30.400 Y-2.888
G0 X-30.400 Y2.887
G0 X-30.564 Y2.887
G1 F2400 X30.663 Y2.888 E197.20185
G0 F7500 X30.500 Y2.888
G0 X14.440 Y10.500
G0 X14.440 Y10.664
G1 F2400 X14.440 Y-10.464 E197.96255
G0 F7500 X14.440 Y-10.300
G0 X8.664 Y-10.300
G0 X8.664 Y-10.464
G1 F2400 X8.664 Y10.664 E198.72324
G0 F7500 X8.664 Y10.500
G0 X2.888 Y10.500
G0 X2.888 Y10.664
G1 F2400 X2.888 Y-10.464 E199.48394
G0 F7500 X2.888 Y-10.300
G0 X-2.888 Y-10.300
G0 X-2.888 Y-10.464
G1 F2400 X-2.888 Y10.664 E200.24463
G0 F7500 X-2.888 Y10.500
G0 X-8.664 Y10.500
G0 X-8.664 Y10.664
G1 F2400 X-8.664 Y-10.464 E201.00532
G0 F7500 X-8.664 Y-10.300
G0 X-14.440 Y-10.300
G0 X-14.440 Y-10.464
G1 F2400 X-14.440 Y10.664 E201.76602
G0 F7500 X-14.440 Y10.500
G0 X-20.216 Y10.500
G0 X-20.216 Y10.664
G1 F2400 X-20.216 Y-10.464 E202.52671
;LAYER:8
G1 F2400 E201.52671
G0 F7500 X0.216 Y0.216 Z1.900
;TYPE:WALL-OUTER
G1 F2400 E202.52671
G1 F2700 X0.284 Y0.216 E202.52916
G1 X0.284 Y0.284 E202.53161
G1 X0.216 Y0.284 E202.53406
