;Generated with Cura_SteamEngine 15.04.6

;Layer count: 16
;LAYER:0
M107
G0 F7500 X-33.716 Y-18.616 Z0.300
;TYPE:SKIRT
G1 F1800 X33.816 Y-18.616 E3.64714
G1 X33.816 Y18.816 E5.66870
G1 X-33.716 Y18.816 E9.31584
G1 X-33.716 Y-18.616 E11.33740
G1 F2400 E10.33740
G0 F7500 X0.216 Y0.216
;TYPE:WALL-OUTER
G1 F2400 E11.33740
G1 F1800 X0.284 Y0.216 E11.34107
G1 X0.284 Y0.284 E11.34475
G1 X0.216 Y0.284 E11.34842
G1 X0.216 Y0.216 E11.35209
G0 F7500 X-0.700 Y-0.700
;TYPE:SUPPORT
G1 F1800 X-0.700 Y1.200 E11.45470
G1 X1.200 Y1.200 E11.55731
G1 X1.200 Y-0.700 E11.65993
G1 X-0.700 Y-0.700 E11.76254
G0 F7500 X-0.690 Y-0.800
G0 X-30.500 Y-15.400
G1 F1800 X30.600 Y-15.400 E15.06231
G1 X30.600 Y15.600 E16.73650
G1 X-30.500 Y15.600 E20.03628
G1 X-30.500 Y-15.400 E21.71047
G0 F7500 X-30.563 Y-14.440
G1 F1800 X30.664 Y-14.439 E25.01710
G0 F7500 X30.500 Y-14.439
G0 X25.992 Y-15.300
G0 X25.992 Y-15.464
G1 F1800 X25.992 Y15.664 E26.69821
G0 F7500 X25.992 Y15.500
G0 X30.500 Y14.440
G0 X30.663 Y14.440
G1 F1800 X-30.564 Y14.439 E30.00484
G0 F7500 X-30.400 Y14.439
G0 X-25.992 Y15.500
G0 X-25.992 Y15.664
G1 F1800 X-25.992 Y-15.464 E31.68594
G0 F7500 X-25.992 Y-15.300
G0 X-20.216 Y-15.300
G0 X-20.216 Y-15.464
G1 F1800 X-20.216 Y15.664 E33.36705
G0 F7500 X-20.216 Y15.500
G0 X-30.400 Y8.663
G0 X-30.564 Y8.663
G1 F1800 X30.663 Y8.664 E36.67368
G0 F7500 X30.500 Y8.664
G0 X30.500 Y2.888
G0 X30.663 Y2.888
G1 F1800 X-30.564 Y2.887 E39.98032
G0 F7500 X-30.400 Y2.887
G0 X-30.400 Y-2.888
G0 X-30.563 Y-2.888
G1 F1800 X30.664 Y-2.887 E43.28695
G0 F7500 X30.500 Y-2.887
G0 X30.500 Y-8.663
G0 X30.664 Y-8.663
G1 F1800 X-30.563 Y-8.664 E46.59358
G0 F7500 X-30.400 Y-8.664
G0 X-14.440 Y-15.300
G0 X-14.440 Y-15.464
G1 F1800 X-14.440 Y15.664 E48.27469
G0 F7500 X-14.440 Y15.500
G0 X-8.664 Y15.500
G0 X-8.664 Y15.664
G1 F1800 X-8.664 Y-15.464 E49.95579
G0 F7500 X-8.664 Y-15.300
G0 X-2.888 Y-15.300
G0 X-2.888 Y-15.464
G1 F1800 X-2.888 Y15.664 E51.63689
G0 F7500 X-2.888 Y15.500
G0 X2.888 Y15.500
G0 X2.888 Y15.664
G1 F1800 X2.888 Y-15.464 E53.31800
G0 F7500 X2.888 Y-15.300
G0 X8.664 Y-15.300
G0 X8.664 Y-15.464
G1 F1800 X8.664 Y15.664 E54.99910
G0 F7500 X8.664 Y15.500
G0 X14.440 Y15.500
G0 X14.440 Y15.664
G1 F1800 X14.440 Y-15.464 E56.68020
G0 F7500 X14.440 Y-15.300
G0 X20.216 Y-15.300
G0 X20.216 Y-15.464
G1 F1800 X20.216 Y15.664 E58.36131
;LAYER:1
M106 S63
G1 F2400 E57.36131
G0 F7500 X0.284 Y0.284 Z0.500
;TYPE:WALL-OUTER
G1 F2400 E58.36131
G1 F1980 X0.216 Y0.284 E58.36376
G1 X0.216 Y0.216 E58.36620
G1 X0.284 Y0.216 E58.36865
G1 X0.284 Y0.284 E58.37110
G0 F7500 X1.200 Y1.200
;TYPE:SUPPORT
G1 F1920 X1.200 Y-0.700 E58.43951
G1 X-0.700 Y-0.700 E58.50792
G1 X-0.700 Y1.200 E58.57632
G1 X1.200 Y1.200 E58.64473
G0 F7500 X1.190 Y1.300
G0 X30.500 Y15.590
G0 X30.600 Y15.600
G1 F1920 X-30.500 Y15.600 E60.84458
G1 X-30.500 Y-15.400 E61.96071
G1 X30.600 Y-15.400 E64.16056
G1 X30.600 Y15.600 E65.27669
G0 F7500 X30.663 Y14.440
G1 F1920 X-30.564 Y14.439 E67.48111
G0 F7500 X-30.400 Y14.439
G0 X-25.992 Y15.500
G0 X-25.992 Y15.664
G1 F1920 X-25.992 Y-15.464 E68.60184
G0 F7500 X-25.992 Y-15.300
G0 X-30.400 Y-14.440
G0 X-30.563 Y-14.440
G1 F1920 X30.664 Y-14.439 E70.80627
G0 F7500 X30.500 Y-14.439
G0 X25.992 Y-15.300
G0 X25.992 Y-15.464
G1 F1920 X25.992 Y15.664 E71.92700
G0 F7500 X25.992 Y15.500
G0 X20.216 Y15.500
G0 X20.216 Y15.664
G1 F1920 X20.216 Y-15.464 E73.04774
G0 F7500 X20.216 Y-15.300
G0 X30.500 Y-8.663
G0 X30.664 Y-8.663
G1 F1920 X-30.563 Y-8.664 E75.25216
G0 F7500 X-30.400 Y-8.664
G0 X-30.400 Y-2.888
G0 X-30.563 Y-2.888
G1 F1920 X30.664 Y-2.887 E77.45658
G0 F7500 X30.500 Y-2.887
G0 X30.500 Y2.888
G0 X30.663 Y2.888
G1 F1920 X-30.564 Y2.887 E79.66101
G0 F7500 X-30.400 Y2.887
G0 X-30.400 Y8.663
G0 X-30.564 Y8.663
G1 F1920 X30.663 Y8.664 E81.86543
G0 F7500 X30.500 Y8.664
G0 X14.440 Y15.500
G0 X14.440 Y15.664
G1 F1920 X14.440 Y-15.464 E82.98617
G0 F7500 X14.440 Y-15.300
G0 X8.664 Y-15.300
G0 X8.664 Y-15.464
G1 F1920 X8.664 Y15.664 E84.10690
G0 F7500 X8.664 Y15.500
G0 X2.888 Y15.500
G0 X2.888 Y15.664
G1 F1920 X2.888 Y-15.464 E85.22764
G0 F7500 X2.888 Y-15.300
G0 X-2.888 Y-15.300
G0 X-2.888 Y-15.464
G1 F1920 X-2.888 Y15.664 E86.34837
G0 F7500 X-2.888 Y15.500
G0 X-8.664 Y15.500
G0 X-8.664 Y15.664
G1 F1920 X-8.664 Y-15.464 E87.46911
G0 F7500 X-8.664 Y-15.300
G0 X-14.440 Y-15.300
G0 X-14.440 Y-15.464
G1 F1920 X-14.440 Y15.664 E88.58984
G0 F7500 X-14.440 Y15.500
G0 X-20.216 Y15.500
G0 X-20.216 Y15.664
G1 F1920 X-20.216 Y-15.464 E89.71058
;LAYER:2
M106 S127
G1 F2400 E88.71058
G0 F7500 X0.216 Y0.216 Z0.700
;TYPE:WALL-OUTER
G1 F2400 E89.71058
G1 F2220 X0.284 Y0.216 E89.71303
G1 X0.284 Y0.284 E89.71547
G1 X0.216 Y0.284 E89.71792
G1 X0.216 Y0.216 E89.72037
G0 F7500 X-0.700 Y-0.700
;TYPE:SUPPORT
G1 F2100 X-0.700 Y1.200 E89.78878
G1 X1.200 Y1.200 E89.85719
G1 X1.200 Y-0.700 E89.92559
G1 X-0.700 Y-0.700 E89.99400
G0 F7500 X-0.690 Y-0.800
G0 X-30.500 Y-15.400
G1 F2100 X30.600 Y-15.400 E92.19385
G1 X30.600 Y15.600 E93.30998
G1 X-30.500 Y15.600 E95.50983
G1 X-30.500 Y-15.400 E96.62596
G0 F7500 X-30.563 Y-14.440
G1 F2100 X30.664 Y-14.439 E98.83038
G0 F7500 X30.500 Y-14.439
G0 X25.992 Y-15.300
G0 X25.992 Y-15.464
G1 F2100 X25.992 Y15.664 E99.95112
G0 F7500 X25.992 Y15.500
G0 X30.500 Y14.440
G0 X30.663 Y14.440
G1 F2100 X-30.564 Y14.439 E102.15554
G0 F7500 X-30.400 Y14.439
G0 X-25.992 Y15.500
G0 X-25.992 Y15.664
G1 F2100 X-25.992 Y-15.464 E103.27627
G0 F7500 X-25.992 Y-15.300
G0 X-20.216 Y-15.300
G0 X-20.216 Y-15.464
G1 F2100 X-20.216 Y15.664 E104.39701
G0 F7500 X-20.216 Y15.500
G0 X-30.400 Y8.663
G0 X-30.564 Y8.663
G1 F2100 X30.663 Y8.664 E106.60143
G0 F7500 X30.500 Y8.664
G0 X30.500 Y2.888
G0 X30.663 Y2.888
G1 F2100 X-30.564 Y2.887 E108.80585
G0 F7500 X-30.400 Y2.887
G0 X-30.400 Y-2.888
G0 X-30.563 Y-2.888
G1 F2100 X30.664 Y-2.887 E111.01028
G0 F7500 X30.500 Y-2.887
G0 X30.500 Y-8.663
G0 X30.664 Y-8.663
G1 F2100 X-30.563 Y-8.664 E113.21470
G0 F7500 X-30.400 Y-8.664
G0 X-14.440 Y-15.300
G0 X-14.440 Y-15.464
G1 F2100 X-14.440 Y15.664 E114.33544
G0 F7500 X-14.440 Y15.500
G0 X-8.664 Y15.500
G0 X-8.664 Y15.664
G1 F2100 X-8.664 Y-15.464 E115.45617
G0 F7500 X-8.664 Y-15.300
G0 X-2.888 Y-15.300
G0 X-2.888 Y-15.464
G1 F2100 X-2.888 Y15.664 E116.57691
G0 F7500 X-2.888 Y15.500
G0 X2.888 Y15.500
G0 X2.888 Y15.664
G1 F2100 X2.888 Y-15.464 E117.69764
G0 F7500 X2.888 Y-15.300
G0 X8.664 Y-15.300
G0 X8.664 Y-15.464
G1 F2100 X8.664 Y15.664 E118.81838
G0 F7500 X8.664 Y15.500
G0 X14.440 Y15.500
G0 X14.440 Y15.664
G1 F2100 X14.440 Y-15.464 E119.93911
G0 F7500 X14.440 Y-15.300
G0 X20.216 Y-15.300
G0 X20.216 Y-15.464
G1 F2100 X20.216 Y15.664 E121.05985
;LAYER:3
G1 F2400 E120.05985
G0 F7500 X0.284 Y0.284 Z0.900
;TYPE:WALL-OUTER
G1 F2400 E121.05985
G1 X0.216 Y0.284 E121.06230
G1 X0.216 Y0.216 E121.06475
G1 X0.284 Y0.216 E121.06719
G1 X0.284 Y0.284 E121.06964
G0 F7500 X1.200 Y1.200
;TYPE:SUPPORT
G1 F2220 X1.200 Y-0.700 E121.13805
G1 X-0.700 Y-0.700 E121.20646
G1 X-0.700 Y1.200 E121.27487
G1 X1.200 Y1.200 E121.34327
G0 F7500 X1.190 Y1.300
G0 X30.500 Y15.590
G0 X30.600 Y15.600
G1 F2220 X-30.500 Y15.600 E123.54312
G1 X-30.500 Y-15.400 E124.65925
G1 X30.600 Y-15.400 E126.85910
G1 X30.600 Y15.600 E127.97523
G0 F7500 X30.663 Y14.440
G1 F2220 X-30.564 Y14.439 E130.17965
G0 F7500 X-30.400 Y14.439
G0 X-25.992 Y15.500
G0 X-25.992 Y15.664
G1 F2220 X-25.992 Y-15.464 E131.30039
G0 F7500 X-25.992 Y-15.300
G0 X-30.400 Y-14.440
G0 X-30.563 Y-14.440
G1 F2220 X30.664 Y-14.439 E133.50481
G0 F7500 X30.500 Y-14.439
G0 X25.992 Y-15.300
G0 X25.992 Y-15.464
G1 F2220 X25.992 Y15.664 E134.62554
G0 F7500 X25.992 Y15.500
G0 X20.216 Y15.500
G0 X20.216 Y15.664
G1 F2220 X20.216 Y-15.464 E135.74628
G0 F7500 X20.216 Y-15.300
G0 X30.500 Y-8.663
G0 X30.664 Y-8.663
G1 F2220 X-30.563 Y-8.664 E137.95070
G0 F7500 X-30.400 Y-8.664
G0 X-30.400 Y-2.888
G0 X-30.563 Y-2.888
G1 F2220 X30.664 Y-2.887 E140.15513
G0 F7500 X30.500 Y-2.887
G0 X30.500 Y2.888
G0 X30.663 Y2.888
G1 F2220 X-30.564 Y2.887 E142.35955
G0 F7500 X-30.400 Y2.887
G0 X-30.400 Y8.663
G0 X-30.564 Y8.663
G1 F2220 X30.663 Y8.664 E144.56397
G0 F7500 X30.500 Y8.664
G0 X14.440 Y15.500
G0 X14.440 Y15.664
G1 F2220 X14.440 Y-15.464 E145.68471
G0 F7500 X14.440 Y-15.300
G0 X8.664 Y-15.300
G0 X8.664 Y-15.464
G1 F2220 X8.664 Y15.664 E146.80544
G0 F7500 X8.664 Y15.500
G0 X2.888 Y15.500
G0 X2.888 Y15.664
G1 F2220 X2.888 Y-15.464 E147.92618
G0 F7500 X2.888 Y-15.300
G0 X-2.888 Y-15.300
G0 X-2.888 Y-15.464
G1 F2220 X-2.888 Y15.664 E149.04691
G0 F7500 X-2.888 Y15.500
G0 X-8.664 Y15.500
G0 X-8.664 Y15.664
G1 F2220 X-8.664 Y-15.464 E150.16765
G0 F7500 X-8.664 Y-15.300
G0 X-14.440 Y-15.300
G0 X-14.440 Y-15.464
G1 F2220 X-14.440 Y15.664 E151.28838
G0 F7500 X-14.440 Y15.500
G0 X-20.216 Y15.500
G0 X-20.216 Y15.664
G1 F2220 X-20.216 Y-15.464 E152.40912
;LAYER:4
G1 F2400 E151.40912
G0 F7500 X0.216 Y0.216 Z1.100
;TYPE:WALL-OUTER
G1 F2400 E152.40912
G1 F2700 X0.284 Y0.216 E152.41157
G1 X0.284 Y0.284 E152.41402
G1 X0.216 Y0.284 E152.41646
G1 X0.216 Y0.216 E152.41891
G0 F7500 X-0.700 Y-0.700
;TYPE:SUPPORT
G1 F2400 X-0.700 Y1.200 E152.48732
G1 X1.200 Y1.200 E152.55573
G1 X1.200 Y-0.700 E152.62414
G1 X-0.700 Y-0.700 E152.69254
G0 F7500 X-0.690 Y-0.800
G0 X-30.500 Y-15.400
G1 F2400 X30.600 Y-15.400 E154.89239
G1 X30.600 Y15.600 E156.00852
G1 X-30.500 Y15.600 E158.20837
G1 X-30.500 Y-15.400 E159.32450
G0 F7500 X-30.563 Y-14.440
G1 F2400 X30.664 Y-14.439 E161.52892
G0 F7500 X30.500 Y-14.439
G0 X25.992 Y-15.300
G0 X25.992 Y-15.464
G1 F2400 X25.992 Y15.664 E162.64966
G0 F7500 X25.992 Y15.500
G0 X30.500 Y14.440
G0 X30.663 Y14.440
G1 F2400 X-30.564 Y14.439 E164.85408
G0 F7500 X-30.400 Y14.439
G0 X-25.992 Y15.500
G0 X-25.992 Y15.664
G1 F2400 X-25.992 Y-15.464 E165.97481
G0 F7500 X-25.992 Y-15.300
G0 X-20.216 Y-15.300
G0 X-20.216 Y-15.464
G1 F2400 X-20.216 Y15.664 E167.09555
G0 F7500 X-20.216 Y15.500
G0 X-30.400 Y8.663
G0 X-30.564 Y8.663
G1 F2400 X30.663 Y8.664 E169.29997
G0 F7500 X30.500 Y8.664
G0 X30.500 Y2.888
G0 X30.663 Y2.888
G1 F2400 X-30.564 Y2.887 E171.50440
G0 F7500 X-30.400 Y2.887
G0 X-30.400 Y-2.888
G0 X-30.563 Y-2.888
G1 F2400 X30.664 Y-2.887 E173.70882
G0 F7500 X30.500 Y-2.887
G0 X30.500 Y-8.663
G0 X30.664 Y-8.663
G1 F2400 X-30.563 Y-8.664 E175.91324
G0 F7500 X-30.400 Y-8.664
G0 X-14.440 Y-15.300
G0 X-14.440 Y-15.464
G1 F2400 X-14.440 Y15.664 E177.03398
G0 F7500 X-14.440 Y15.500
G0 X-8.664 Y15.500
G0 X-8.664 Y15.664
G1 F2400 X-8.664 Y-15.464 E178.15471
G0 F7500 X-8.664 Y-15.300
G0 X-2.888 Y-15.300
G0 X-2.888 Y-15.464
G1 F2400 X-2.888 Y15.664 E179.27545
G0 F7500 X-2.888 Y15.500
G0 X2.888 Y15.500
G0 X2.888 Y15.664
G1 F2400 X2.888 Y-15.464 E180.39618
G0 F7500 X2.888 Y-15.300
G0 X8.664 Y-15.300
G0 X8.664 Y-15.464
G1 F2400 X8.664 Y15.664 E181.51692
G0 F7500 X8.664 Y15.500
G0 X14.440 Y15.500
G0 X14.440 Y15.664
G1 F2400 X14.440 Y-15.464 E182.63765
G0 F7500 X14.440 Y-15.300
G0 X20.216 Y-15.300
G0 X20.216 Y-15.464
G1 F2400 X20.216 Y15.664 E183.75839
;LAYER:5
G1 F2400 E182.75839
G0 F7500 X0.284 Y0.284 Z1.300
;TYPE:WALL-OUTER
G1 F2400 E183.75839
G1 F2700 X0.216 Y0.284 E183.76084
G1 X0.216 Y0.216 E183.76329
G1 X0.284 Y0.216 E183.76574
G1 X0.284 Y0.284 E183.76818
G0 F7500 X1.200 Y1.200
;TYPE:SUPPORT
G1 F2400 X1.200 Y-0.700 E183.83659
G1 X-0.700 Y-0.700 E183.90500
G1 X-0.700 Y1.200 E183.97341
G1 X1.200 Y1.200 E184.04181
G0 F7500 X1.190 Y1.300
G0 X30.500 Y15.590
G0 X30.600 Y15.600
G1 F2400 X-30.500 Y15.600 E186.24166
G1 X-30.500 Y-15.400 E187.35779
G1 X30.600 Y-15.400 E189.55764
G1 X30.600 Y15.600 E190.67377
G0 F7500 X30.663 Y14.440
G1 F2400 X-30.564 Y14.439 E192.87819
G0 F7500 X-30.400 Y14.439
G0 X-25.992 Y15.500
G0 X-25.992 Y15.664
G1 F2400 X-25.992 Y-15.464 E193.99893
G0 F7500 X-25.992 Y-15.300
G0 X-30.400 Y-14.440
G0 X-30.563 Y-14.440
G1 F2400 X30.664 Y-14.439 E196.20335
G0 F7500 X30.500 Y-14.439
G0 X25.992 Y-15.300
G0 X25.992 Y-15.464
G1 F2400 X25.992 Y15.664 E197.32409
G0 F7500 X25.992 Y15.500
G0 X20.216 Y15.500
G0 X20.216 Y15.664
G1 F2400 X20.216 Y-15.464 E198.44482
G0 F7500 X20.216 Y-15.300
G0 X30.500 Y-8.663
G0 X30.664 Y-8.663
G1 F2400 X-30.563 Y-8.664 E200.64924
G0 F7500 X-30.400 Y-8.664
G0 X-30.400 Y-2.888
G0 X-30.563 Y-2.888
G1 F2400 X30.664 Y-2.887 E202.85367
G0 F7500 X30.500 Y-2.887
G0 X30.500 Y2.888
G0 X30.663 Y2.888
G1 F2400 X-30.564 Y2.887 E205.05809
G0 F7500 X-30.400 Y2.887
G0 X-30.400 Y8.663
G0 X-30.564 Y8.663
G1 F2400 X30.663 Y8.664 E207.26251
G0 F7500 X30.500 Y8.664
G0 X14.440 Y15.500
G0 X14.440 Y15.664
G1 F2400 X14.440 Y-15.464 E208.38325
G0 F7500 X14.440 Y-15.300
G0 X8.664 Y-15.300
G0 X8.664 Y-15.464
G1 F2400 X8.664 Y15.664 E209.50398
G0 F7500 X8.664 Y15.500
G0 X2.888 Y15.500
G0 X2.888 Y15.664
G1 F2400 X2.888 Y-15.464 E210.62472
G0 F7500 X2.888 Y-15.300
G0 X-2.888 Y-15.300
G0 X-2.888 Y-15.464
G1 F2400 X-2.888 Y15.664 E211.74545
G0 F7500 X-2.888 Y15.500
G0 X-8.664 Y15.500
G0 X-8.664 Y15.664
G1 F2400 X-8.664 Y-15.464 E212.86619
G0 F7500 X-8.664 Y-15.300
G0 X-14.440 Y-15.300
G0 X-14.440 Y-15.464
G1 F2400 X-14.440 Y15.664 E213.98693
G0 F7500 X-14.440 Y15.500
G0 X-20.216 Y15.500
G0 X-20.216 Y15.664
G1 F2400 X-20.216 Y-15.464 E215.10766
;LAYER:6
G1 F2400 E214.10766
G0 F7500 X0.216 Y0.216 Z1.500
;TYPE:WALL-OUTER
G1 F2400 E215.10766
G1 F2700 X0.284 Y0.216 E215.11011
G1 X0.284 Y0.284 E215.11256
G1 X0.216 Y0.284 E215.11501
G1 X0.216 Y0.216 E215.11745
G0 F7500 X-0.700 Y-0.700
;TYPE:SUPPORT
G1 F2400 X-0.700 Y1.200 E215.18586
G1 X1.200 Y1.200 E215.25427
G1 X1.200 Y-0.700 E215.32268
G1 X-0.700 Y-0.700 E215.39109
G0 F7500 X-0.690 Y-0.800
G0 X-30.500 Y-15.400
G1 F2400 X30.600 Y-15.400 E217.59094
G1 X30.600 Y15.600 E218.70706
G1 X-30.500 Y15.600 E220.90691
G1 X-30.500 Y-15.400 E222.02304
G0 F7500 X-30.563 Y-14.440
G1 F2400 X30.664 Y-14.439 E224.22746
G0 F7500 X30.500 Y-14.439
G0 X25.992 Y-15.300
G0 X25.992 Y-15.464
G1 F2400 X25.992 Y15.664 E225.34820
G0 F7500 X25.992 Y15.500
G0 X30.500 Y14.440
G0 X30.663 Y14.440
G1 F2400 X-30.564 Y14.439 E227.55262
G0 F7500 X-30.400 Y14.439
G0 X-25.992 Y15.500
G0 X-25.992 Y15.664
G1 F2400 X-25.992 Y-15.464 E228.67336
G0 F7500 X-25.992 Y-15.300
G0 X-20.216 Y-15.300
G0 X-20.216 Y-15.464
G1 F2400 X-20.216 Y15.664 E229.79409
G0 F7500 X-20.216 Y15.500
G0 X-30.400 Y8.663
G0 X-30.564 Y8.663
G1 F2400 X30.663 Y8.664 E231.99851
G0 F7500 X30.500 Y8.664
G0 X30.500 Y2.888
G0 X30.663 Y2.888
G1 F2400 X-30.564 Y2.887 E234.20294
G0 F7500 X-30.400 Y2.887
G0 X-30.400 Y-2.888
G0 X-30.563 Y-2.888
G1 F2400 X30.664 Y-2.887 E236.40736
G0 F7500 X30.500 Y-2.887
G0 X30.500 Y-8.663
G0 X30.664 Y-8.663
G1 F2400 X-30.563 Y-8.664 E238.61178
G0 F7500 X-30.400 Y-8.664
G0 X-14.440 Y-15.300
G0 X-14.440 Y-15.464
G1 F2400 X-14.440 Y15.664 E239.73252
G0 F7500 X-14.440 Y15.500
G0 X-8.664 Y15.500
G0 X-8.664 Y15.664
G1 F2400 X-8.664 Y-15.464 E240.85325
G0 F7500 X-8.664 Y-15.300
G0 X-2.888 Y-15.300
G0 X-2.888 Y-15.464
G1 F2400 X-2.888 Y15.664 E241.97399
G0 F7500 X-2.888 Y15.500
G0 X2.888 Y15.500
G0 X2.888 Y15.664
G1 F2400 X2.888 Y-15.464 E243.09472
G0 F7500 X2.888 Y-15.300
G0 X8.664 Y-15.300
G0 X8.664 Y-15.464
G1 F2400 X8.664 Y15.664 E244.21546
G0 F7500 X8.664 Y15.500
G0 X14.440 Y15.500
G0 X14.440 Y15.664
G1 F2400 X14.440 Y-15.464 E245.33620
G0 F7500 X14.440 Y-15.300
G0 X20.216 Y-15.300
G0 X20.216 Y-15.464
G1 F2400 X20.216 Y15.664 E246.45693
;LAYER:7
G1 F2400 E245.45693
G0 F7500 X0.284 Y0.284 Z1.700
;TYPE:WALL-OUTER
G1 F2400 E246.45693
G1 F2700 X0.216 Y0.284 E246.45938
G1 X0.216 Y0.216 E246.46183
G1 X0.284 Y0.216 E246.46428
G1 X0.284 Y0.284 E246.46672
G0 F7500 X1.200 Y1.200
;TYPE:SUPPORT
G1 F2400 X1.200 Y-0.700 E246.53513
G1 X-0.700 Y-0.700 E246.60354
G1 X-0.700 Y1.200 E246.67195
G1 X1.200 Y1.200 E246.74036
G0 F7500 X1.190 Y1.300
G0 X30.500 Y15.590
G0 X30.600 Y15.600
G1 F2400 X-30.500 Y15.600 E248.94021
G1 X-30.500 Y-15.400 E250.05633
G1 X30.600 Y-15.400 E252.25618
G1 X30.600 Y15.600 E253.37231
G0 F7500 X30.663 Y14.440
G1 F2400 X-30.564 Y14.439 E255.57673
G0 F7500 X-30.400 Y14.439
G0 X-25.992 Y15.500
G0 X-25.992 Y15.664
G1 F2400 X-25.992 Y-15.464 E256.69747
G0 F7500 X-25.992 Y-15.300
G0 X-30.400 Y-14.440
G0 X-30.563 Y-14.440
G1 F2400 X30.664 Y-14.439 E258.90189
G0 F7500 X30.500 Y-14.439
G0 X25.992 Y-15.300
G0 X25.992 Y-15.464
