;Generated with Cura_SteamEngine 15.04.6

;Layer count: 16
;LAYER:0
M107
G0 F7500 X-33.716 Y-23.616 Z0.300
;TYPE:SKIRT
G1 F1800 X33.816 Y-23.616 E3.64714
G1 X33.816 Y23.816 E6.20876
G1 X-33.716 Y23.816 E9.85591
G1 X-33.716 Y-23.616 E12.41752
G1 F2400 E11.41752
G0 F7500 X0.216 Y0.216
;TYPE:WALL-OUTER
G1 F2400 E12.41752
G1 F1800 X0.284 Y0.216 E12.42120
G1 X0.284 Y0.284 E12.42487
G1 X0.216 Y0.284 E12.42854
G1 X0.216 Y0.216 E12.43221
G0 F7500 X-0.700 Y-0.700
;TYPE:SUPPORT
G1 F1800 X-0.700 Y1.200 E12.53483
G1 X1.200 Y1.200 E12.63744
G1 X1.200 Y-0.700 E12.74005
G1 X-0.700 Y-0.700 E12.84266
G0 F7500 X-0.690 Y-0.800
G0 X-30.500 Y-20.400
G1 F1800 X30.600 Y-20.400 E16.14244
G1 X30.600 Y20.600 E18.35669
G1 X-30.500 Y20.600 E21.65646
G1 X-30.500 Y-20.400 E23.87072
G0 F7500 X-30.563 Y-20.216
G1 F1800 X30.664 Y-20.215 E27.17735
G0 F7500 X30.500 Y-20.215
G0 X25.992 Y-20.300
G0 X25.992 Y-20.464
G1 F1800 X25.992 Y20.664 E29.39851
G0 F7500 X25.992 Y20.500
G0 X30.500 Y20.216
G0 X30.663 Y20.216
G1 F1800 X-30.564 Y20.215 E32.70515
G0 F7500 X-30.400 Y20.215
G0 X-25.992 Y20.500
G0 X-25.992 Y20.664
G1 F1800 X-25.992 Y-20.464 E34.92631
G0 F7500 X-25.992 Y-20.300
G0 X-20.216 Y-20.300
G0 X-20.216 Y-20.464
G1 F1800 X-20.216 Y20.664 E37.14748
G0 F7500 X-20.216 Y20.500
G0 X-14.440 Y20.500
G0 X-14.440 Y20.664
G1 F1800 X-14.440 Y-20.464 E39.36864
G0 F7500 X-14.440 Y-20.300
G0 X-8.664 Y-20.300
G0 X-8.664 Y-20.464
G1 F1800 X-8.664 Y20.664 E41.58981
G0 F7500 X-8.664 Y20.500
G0 X-2.888 Y20.500
G0 X-2.888 Y20.664
G1 F1800 X-2.888 Y-20.464 E43.81097
G0 F7500 X-2.888 Y-20.300
G0 X2.888 Y-20.300
G0 X2.888 Y-20.464
G1 F1800 X2.888 Y20.664 E46.03214
G0 F7500 X2.888 Y20.500
G0 X8.664 Y20.500
G0 X8.664 Y20.664
G1 F1800 X8.664 Y-20.464 E48.25330
G0 F7500 X8.664 Y-20.300
G0 X14.440 Y-20.300
G0 X14.440 Y-20.464
G1 F1800 X14.440 Y20.664 E50.47447
G0 F7500 X14.440 Y20.500
G0 X20.216 Y20.500
G0 X20.216 Y20.664
G1 F1800 X20.216 Y-20.464 E52.69563
G0 F7500 X20.216 Y-20.300
G0 X30.500 Y-14.439
G0 X30.664 Y-14.439
G1 F1800 X-30.563 Y-14.440 E56.00227
G0 F7500 X-30.400 Y-14.440
G0 X-30.400 Y-8.664
G0 X-30.563 Y-8.664
G1 F1800 X30.664 Y-8.663 E59.30890
G0 F7500 X30.500 Y-8.663
G0 X30.500 Y-2.887
G0 X30.664 Y-2.887
G1 F1800 X-30.563 Y-2.888 E62.61553
G0 F7500 X-30.400 Y-2.888
G0 X-30.400 Y2.887
G0 X-30.564 Y2.887
G1 F1800 X30.663 Y2.888 E65.92217
G0 F7500 X30.500 Y2.888
G0 X30.500 Y8.664
G0 X30.663 Y8.664
G1 F1800 X-30.564 Y8.663 E69.22880
G0 F7500 X-30.400 Y8.663
G0 X-30.400 Y14.439
G0 X-30.564 Y14.439
G1 F1800 X30.663 Y14.440 E72.53544
;LAYER:1
M106 S63
G1 F2400 E71.53544
G0 F7500 X0.284 Y0.284 Z0.500
;TYPE:WALL-OUTER
G1 F2400 E72.53544
G1 F1980 X0.216 Y0.284 E72.53788
G1 X0.216 Y0.216 E72.54033
G1 X0.284 Y0.216 E72.54278
G1 X0.284 Y0.284 E72.54523
G0 F7500 X1.200 Y1.200
;TYPE:SUPPORT
G1 F1920 X1.200 Y-0.700 E72.61364
G1 X-0.700 Y-0.700 E72.68205
G1 X-0.700 Y1.200 E72.75045
G1 X1.200 Y1.200 E72.81886
G0 F7500 X1.190 Y1.300
G0 X30.500 Y20.590
G0 X30.600 Y20.600
G1 F1920 X-30.500 Y20.600 E75.01871
G1 X-30.500 Y-20.400 E76.49488
G1 X30.600 Y-20.400 E78.69473
G1 X30.600 Y20.600 E80.17090
G0 F7500 X30.663 Y20.216
G1 F1920 X-30.564 Y20.215 E82.37532
G0 F7500 X-30.400 Y20.215
G0 X-25.992 Y20.500
G0 X-25.992 Y20.664
G1 F1920 X-25.992 Y-20.464 E83.85610
G0 F7500 X-25.992 Y-20.300
G0 X-30.400 Y-20.216
G0 X-30.563 Y-20.216
G1 F1920 X30.664 Y-20.215 E86.06052
G0 F7500 X30.500 Y-20.215
G0 X25.992 Y-20.300
G0 X25.992 Y-20.464
G1 F1920 X25.992 Y20.664 E87.54130
G0 F7500 X25.992 Y20.500
G0 X20.216 Y20.500
G0 X20.216 Y20.664
G1 F1920 X20.216 Y-20.464 E89.02207
G0 F7500 X20.216 Y-20.300
G0 X14.440 Y-20.300
G0 X14.440 Y-20.464
G1 F1920 X14.440 Y20.664 E90.50285
G0 F7500 X14.440 Y20.500
G0 X8.664 Y20.500
G0 X8.664 Y20.664
G1 F1920 X8.664 Y-20.464 E91.98362
G0 F7500 X8.664 Y-20.300
G0 X2.888 Y-20.300
G0 X2.888 Y-20.464
G1 F1920 X2.888 Y20.664 E93.46440
G0 F7500 X2.888 Y20.500
G0 X-2.888 Y20.500
G0 X-2.888 Y20.664
G1 F1920 X-2.888 Y-20.464 E94.94518
G0 F7500 X-2.888 Y-20.300
G0 X-8.664 Y-20.300
G0 X-8.664 Y-20.464
G1 F1920 X-8.664 Y20.664 E96.42595
G0 F7500 X-8.664 Y20.500
G0 X-14.440 Y20.500
G0 X-14.440 Y20.664
G1 F1920 X-14.440 Y-20.464 E97.90673
G0 F7500 X-14.440 Y-20.300
G0 X-20.216 Y-20.300
G0 X-20.216 Y-20.464
G1 F1920 X-20.216 Y20.664 E99.38751
G0 F7500 X-20.216 Y20.500
G0 X-30.400 Y14.439
G0 X-30.564 Y14.439
G1 F1920 X30.663 Y14.440 E101.59193
G0 F7500 X30.500 Y14.440
G0 X30.500 Y8.664
G0 X30.663 Y8.664
G1 F1920 X-30.564 Y8.663 E103.79635
G0 F7500 X-30.400 Y8.663
G0 X-30.400 Y2.887
G0 X-30.564 Y2.887
G1 F1920 X30.663 Y2.888 E106.00078
G0 F7500 X30.500 Y2.888
G0 X30.500 Y-2.887
G0 X30.664 Y-2.887
G1 F1920 X-30.563 Y-2.888 E108.20520
G0 F7500 X-30.400 Y-2.888
G0 X-30.400 Y-8.664
G0 X-30.563 Y-8.664
G1 F1920 X30.664 Y-8.663 E110.40962
G0 F7500 X30.500 Y-8.663
G0 X30.500 Y-14.439
G0 X30.664 Y-14.439
G1 F1920 X-30.563 Y-14.440 E112.61404
;LAYER:2
M106 S127
G1 F2400 E111.61404
G0 F7500 X0.216 Y0.216 Z0.700
;TYPE:WALL-OUTER
G1 F2400 E112.61404
G1 F2220 X0.284 Y0.216 E112.61649
G1 X0.284 Y0.284 E112.61894
G1 X0.216 Y0.284 E112.62139
G1 X0.216 Y0.216 E112.62384
G0 F7500 X-0.700 Y-0.700
;TYPE:SUPPORT
G1 F2100 X-0.700 Y1.200 E112.69225
G1 X1.200 Y1.200 E112.76065
G1 X1.200 Y-0.700 E112.82906
G1 X-0.700 Y-0.700 E112.89747
G0 F7500 X-0.690 Y-0.800
G0 X-30.500 Y-20.400
G1 F2100 X30.600 Y-20.400 E115.09732
G1 X30.600 Y20.600 E116.57349
G1 X-30.500 Y20.600 E118.77334
G1 X-30.500 Y-20.400 E120.24950
G0 F7500 X-30.563 Y-20.216
G1 F2100 X30.664 Y-20.215 E122.45393
G0 F7500 X30.500 Y-20.215
G0 X25.992 Y-20.300
G0 X25.992 Y-20.464
G1 F2100 X25.992 Y20.664 E123.93470
G0 F7500 X25.992 Y20.500
G0 X30.500 Y20.216
G0 X30.663 Y20.216
G1 F2100 X-30.564 Y20.215 E126.13913
G0 F7500 X-30.400 Y20.215
G0 X-25.992 Y20.500
G0 X-25.992 Y20.664
G1 F2100 X-25.992 Y-20.464 E127.61990
G0 F7500 X-25.992 Y-20.300
G0 X-20.216 Y-20.300
G0 X-20.216 Y-20.464
G1 F2100 X-20.216 Y20.664 E129.10068
G0 F7500 X-20.216 Y20.500
G0 X-14.440 Y20.500
G0 X-14.440 Y20.664
G1 F2100 X-14.440 Y-20.464 E130.58146
G0 F7500 X-14.440 Y-20.300
G0 X-8.664 Y-20.300
G0 X-8.664 Y-20.464
G1 F2100 X-8.664 Y20.664 E132.06223
G0 F7500 X-8.664 Y20.500
G0 X-2.888 Y20.500
G0 X-2.888 Y20.664
G1 F2100 X-2.888 Y-20.464 E133.54301
G0 F7500 X-2.888 Y-20.300
G0 X2.888 Y-20.300
G0 X2.888 Y-20.464
G1 F2100 X2.888 Y20.664 E135.02379
G0 F7500 X2.888 Y20.500
G0 X8.664 Y20.500
G0 X8.664 Y20.664
G1 F2100 X8.664 Y-20.464 E136.50456
G0 F7500 X8.664 Y-20.300
G0 X14.440 Y-20.300
G0 X14.440 Y-20.464
G1 F2100 X14.440 Y20.664 E137.98534
G0 F7500 X14.440 Y20.500
G0 X20.216 Y20.500
G0 X20.216 Y20.664
G1 F2100 X20.216 Y-20.464 E139.46612
G0 F7500 X20.216 Y-20.300
G0 X30.500 Y-14.439
G0 X30.664 Y-14.439
G1 F2100 X-30.563 Y-14.440 E141.67054
G0 F7500 X-30.400 Y-14.440
G0 X-30.400 Y-8.664
G0 X-30.563 Y-8.664
G1 F2100 X30.664 Y-8.663 E143.87496
G0 F7500 X30.500 Y-8.663
G0 X30.500 Y-2.887
G0 X30.664 Y-2.887
G1 F2100 X-30.563 Y-2.888 E146.07938
G0 F7500 X-30.400 Y-2.888
G0 X-30.400 Y2.887
G0 X-30.564 Y2.887
G1 F2100 X30.663 Y2.888 E148.28381
G0 F7500 X30.500 Y2.888
G0 X30.500 Y8.664
G0 X30.663 Y8.664
G1 F2100 X-30.564 Y8.663 E150.48823
G0 F7500 X-30.400 Y8.663
G0 X-30.400 Y14.439
G0 X-30.564 Y14.439
G1 F2100 X30.663 Y14.440 E152.69265
;LAYER:3
G1 F2400 E151.69265
G0 F7500 X0.284 Y0.284 Z0.900
;TYPE:WALL-OUTER
G1 F2400 E152.69265
G1 X0.216 Y0.284 E152.69510
G1 X0.216 Y0.216 E152.69755
G1 X0.284 Y0.216 E152.70000
G1 X0.284 Y0.284 E152.70244
G0 F7500 X1.200 Y1.200
;TYPE:SUPPORT
G1 F2220 X1.200 Y-0.700 E152.77085
G1 X-0.700 Y-0.700 E152.83926
G1 X-0.700 Y1.200 E152.90767
G1 X1.200 Y1.200 E152.97608
G0 F7500 X1.190 Y1.300
G0 X30.500 Y20.590
G0 X30.600 Y20.600
G1 F2220 X-30.500 Y20.600 E155.17593
G1 X-30.500 Y-20.400 E156.65209
G1 X30.600 Y-20.400 E158.85194
G1 X30.600 Y20.600 E160.32811
G0 F7500 X30.663 Y20.216
G1 F2220 X-30.564 Y20.215 E162.53254
G0 F7500 X-30.400 Y20.215
G0 X-25.992 Y20.500
G0 X-25.992 Y20.664
G1 F2220 X-25.992 Y-20.464 E164.01331
G0 F7500 X-25.992 Y-20.300
G0 X-30.400 Y-20.216
G0 X-30.563 Y-20.216
G1 F2220 X30.664 Y-20.215 E166.21773
G0 F7500 X30.500 Y-20.215
G0 X25.992 Y-20.300
G0 X25.992 Y-20.464
G1 F2220 X25.992 Y20.664 E167.69851
G0 F7500 X25.992 Y20.500
G0 X20.216 Y20.500
G0 X20.216 Y20.664
G1 F2220 X20.216 Y-20.464 E169.17929
G0 F7500 X20.216 Y-20.300
G0 X14.440 Y-20.300
G0 X14.440 Y-20.464
G1 F2220 X14.440 Y20.664 E170.66006
G0 F7500 X14.440 Y20.500
G0 X8.664 Y20.500
G0 X8.664 Y20.664
G1 F2220 X8.664 Y-20.464 E172.14084
G0 F7500 X8.664 Y-20.300
G0 X2.888 Y-20.300
G0 X2.888 Y-20.464
G1 F2220 X2.888 Y20.664 E173.62162
G0 F7500 X2.888 Y20.500
G0 X-2.888 Y20.500
G0 X-2.888 Y20.664
G1 F2220 X-2.888 Y-20.464 E175.10239
G0 F7500 X-2.888 Y-20.300
G0 X-8.664 Y-20.300
G0 X-8.664 Y-20.464
G1 F2220 X-8.664 Y20.664 E176.58317
G0 F7500 X-8.664 Y20.500
G0 X-14.440 Y20.500
G0 X-14.440 Y20.664
G1 F2220 X-14.440 Y-20.464 E178.06395
G0 F7500 X-14.440 Y-20.300
G0 X-20.216 Y-20.300
G0 X-20.216 Y-20.464
G1 F2220 X-20.216 Y20.664 E179.54472
G0 F7500 X-20.216 Y20.500
G0 X-30.400 Y14.439
G0 X-30.564 Y14.439
G1 F2220 X30.663 Y14.440 E181.74915
G0 F7500 X30.500 Y14.440
G0 X30.500 Y8.664
G0 X30.663 Y8.664
G1 F2220 X-30.564 Y8.663 E183.95357
G0 F7500 X-30.400 Y8.663
G0 X-30.400 Y2.887
G0 X-30.564 Y2.887
G1 F2220 X30.663 Y2.888 E186.15799
G0 F7500 X30.500 Y2.888
G0 X30.500 Y-2.887
G0 X30.664 Y-2.887
G1 F2220 X-30.563 Y-2.888 E188.36241
G0 F7500 X-30.400 Y-2.888
G0 X-30.400 Y-8.664
G0 X-30.563 Y-8.664
G1 F2220 X30.664 Y-8.663 E190.56684
G0 F7500 X30.500 Y-8.663
G0 X30.500 Y-14.439
G0 X30.664 Y-14.439
G1 F2220 X-30.563 Y-14.440 E192.77126
;LAYER:4
G1 F2400 E191.77126
G0 F7500 X0.216 Y0.216 Z1.100
;TYPE:WALL-OUTER
G1 F2400 E192.77126
G1 F2700 X0.284 Y0.216 E192.77371
G1 X0.284 Y0.284 E192.77616
G1 X0.216 Y0.284 E192.77860
G1 X0.216 Y0.216 E192.78105
G0 F7500 X-0.700 Y-0.700
;TYPE:SUPPORT
G1 F2400 X-0.700 Y1.200 E192.84946
G1 X1.200 Y1.200 E192.91787
G1 X1.200 Y-0.700 E192.98628
G1 X-0.700 Y-0.700 E193.05468
G0 F7500 X-0.690 Y-0.800
G0 X-30.500 Y-20.400
G1 F2400 X30.600 Y-20.400 E195.25453
G1 X30.600 Y20.600 E196.73070
G1 X-30.500 Y20.600 E198.93055
G1 X-30.500 Y-20.400 E200.40672
G0 F7500 X-30.563 Y-20.216
G1 F2400 X30.664 Y-20.215 E202.61114
G0 F7500 X30.500 Y-20.215
G0 X25.992 Y-20.300
G0 X25.992 Y-20.464
G1 F2400 X25.992 Y20.664 E204.09192
G0 F7500 X25.992 Y20.500
G0 X30.500 Y20.216
G0 X30.663 Y20.216
G1 F2400 X-30.564 Y20.215 E206.29634
G0 F7500 X-30.400 Y20.215
G0 X-25.992 Y20.500
G0 X-25.992 Y20.664
G1 F2400 X-25.992 Y-20.464 E207.77712
G0 F7500 X-25.992 Y-20.300
G0 X-20.216 Y-20.300
G0 X-20.216 Y-20.464
G1 F2400 X-20.216 Y20.664 E209.25790
G0 F7500 X-20.216 Y20.500
G0 X-14.440 Y20.500
G0 X-14.440 Y20.664
G1 F2400 X-14.440 Y-20.464 E210.73867
G0 F7500 X-14.440 Y-20.300
G0 X-8.664 Y-20.300
G0 X-8.664 Y-20.464
G1 F2400 X-8.664 Y20.664 E212.21945
G0 F7500 X-8.664 Y20.500
G0 X-2.888 Y20.500
G0 X-2.888 Y20.664
G1 F2400 X-2.888 Y-20.464 E213.70022
G0 F7500 X-2.888 Y-20.300
G0 X2.888 Y-20.300
G0 X2.888 Y-20.464
G1 F2400 X2.888 Y20.664 E215.18100
G0 F7500 X2.888 Y20.500
G0 X8.664 Y20.500
G0 X8.664 Y20.664
G1 F2400 X8.664 Y-20.464 E216.66178
G0 F7500 X8.664 Y-20.300
G0 X14.440 Y-20.300
G0 X14.440 Y-20.464
G1 F2400 X14.440 Y20.664 E218.14255
G0 F7500 X14.440 Y20.500
G0 X20.216 Y20.500
G0 X20.216 Y20.664
G1 F2400 X20.216 Y-20.464 E219.62333
G0 F7500 X20.216 Y-20.300
G0 X30.500 Y-14.439
G0 X30.664 Y-14.439
G1 F2400 X-30.563 Y-14.440 E221.82775
G0 F7500 X-30.400 Y-14.440
G0 X-30.400 Y-8.664
G0 X-30.563 Y-8.664
G1 F2400 X30.664 Y-8.663 E224.03218
G0 F7500 X30.500 Y-8.663
G0 X30.500 Y-2.887
G0 X30.664 Y-2.887
G1 F2400 X-30.563 Y-2.888 E226.23660
G0 F7500 X-30.400 Y-2.888
G0 X-30.400 Y2.887
G0 X-30.564 Y2.887
G1 F2400 X30.663 Y2.888 E228.44102
G0 F7500 X30.500 Y2.888
G0 X30.500 Y8.664
G0 X30.663 Y8.664
G1 F2400 X-30.564 Y8.663 E230.64544
G0 F7500 X-30.400 Y8.663
G0 X-30.400 Y14.439
G0 X-30.564 Y14.439
G1 F2400 X30.663 Y14.440 E232.84987
;LAYER:5
G1 F2400 E231.84987
G0 F7500 X0.284 Y0.284 Z1.300
;TYPE:WALL-OUTER
G1 F2400 E232.84987
G1 F2700 X0.216 Y0.284 E232.85232
G1 X0.216 Y0.216 E232.85476
G1 X0.284 Y0.216 E232.85721
G1 X0.284 Y0.284 E232.85966
G0 F7500 X1.200 Y1.200
;TYPE:SUPPORT
G1 F2400 X1.200 Y-0.700 E232.92807
G1 X-0.700 Y-0.700 E232.99648
G1 X-0.700 Y1.200 E233.06488
G1 X1.200 Y1.200 E233.13329
G0 F7500 X1.190 Y1.300
G0 X30.500 Y20.590
G0 X30.600 Y20.600
G1 F2400 X-30.500 Y20.600 E235.33314
G1 X-30.500 Y-20.400 E236.80931
G1 X30.600 Y-20.400 E239.00916
G1 X30.600 Y20.600 E240.48533
G0 F7500 X30.663 Y20.216
G1 F2400 X-30.564 Y20.215 E242.68975
G0 F7500 X-30.400 Y20.215
G0 X-25.992 Y20.500
G0 X-25.992 Y20.664
G1 F2400 X-25.992 Y-20.464 E244.17053
G0 F7500 X-25.992 Y-20.300
G0 X-30.400 Y-20.216
G0 X-30.563 Y-20.216
G1 F2400 X30.664 Y-20.215 E246.37495
G0 F7500 X30.500 Y-20.215
G0 X25.992 Y-20.300
G0 X25.992 Y-20.464
G1 F2400 X25.992 Y20.664 E247.85573
G0 F7500 X25.992 Y20.500
G0 X20.216 Y20.500
G0 X20.216 Y20.664
G1 F2400 X20.216 Y-20.464 E249.33650
G0 F7500 X20.216 Y-20.300
G0 X14.440 Y-20.300
G0 X14.440 Y-20.464
G1 F2400 X14.440 Y20.664 E250.81728
G0 F7500 X14.440 Y20.500
G0 X8.664 Y20.500
G0 X8.664 Y20.664
G1 F2400 X8.664 Y-20.464 E252.29806
G0 F7500 X8.664 Y-20.300
G0 X2.888 Y-20.300
G0 X2.888 Y-20.464
G1 F2400 X2.888 Y20.664 E253.77883
G0 F7500 X2.888 Y20.500
G0 X-2.888 Y20.500
G0 X-2.888 Y20.664
G1 F2400 X-2.888 Y-20.464 E255.25961
G0 F7500 X-2.888 Y-20.300
G0 X-8.664 Y-20.300
G0 X-8.664 Y-20.464
G1 F2400 X-8.664 Y20.664 E256.74039
G0 F7500 X-8.664 Y20.500
G0 X-14.440 Y20.500
G0 X-14.440 Y20.664
G1 F2400 X-14.440 Y-20.464 E258.22116
G0 F7500 X-14.440 Y-20.300
G0 X-20.216 Y-20.300
G0 X-20.216 Y-20.464
G1 F2400 X-20.216 Y20.664 E259.70194
G0 F7500 X-20.216 Y20.500
G0 X-30.400 Y14.439
G0 X-30.564 Y14.439
G1 F2400 X30.663 Y14.440 E261.90636
G0 F7500 X30.500 Y14.440
G0 X30.500 Y8.664
G0 X30.663 Y8.664
G1 F2400 X-30.564 Y8.663 E264.11078
G0 F7500 X-30.400 Y8.663
G0 X-30.400 Y2.887
G0 X-30.564 Y2.887
G1 F2400 X30.663 Y2.888 E266.31521
G0 F7500 X30.500 Y2.888
G0 X30.500 Y-2.887
G0 X30.664 Y-2.887
G1 F2400 X-30.563 Y-2.888 E268.51963
G0 F7500 X-30.400 Y-2.888
G0 X-30.400 Y-8.664
G0 X-30.563 Y-8.664
G1 F2400 X30.664 Y-8.663 E270.72405
G0 F7500 X30.500 Y-8.663
G0 X30.500 Y-14.439
G0 X30.664 Y-14.439
G1 F2400 X-30.563 Y-14.440 E272.92848
;LAYER:6
G1 F2400 E271.92848
G0 F7500 X0.216 Y0.216 Z1.500
;TYPE:WALL-OUTER
G1 F2400 E272.92848
G1 F2700 X0.284 Y0.216 E272.93092
G1 X0.284 Y0.284 E272.93337
G1 X0.216 Y0.284 E272.93582
G1 X0.216 Y0.216 E272.93827
G0 F7500 X-0.700 Y-0.700
;TYPE:SUPPORT
G1 F2400 X-0.700 Y1.200 E273.00668
G1 X1.200 Y1.200 E273.07508
G1 X1.200 Y-0.700 E273.14349
G1 X-0.700 Y-0.700 E273.21190
G0 F7500 X-0.690 Y-0.800
G0 X-30.500 Y-20.400
G1 F2400 X30.600 Y-20.400 E275.41175
G1 X30.600 Y20.600 E276.88792
G1 X-30.500 Y20.600 E279.08777
G1 X-30.500 Y-20.400 E280.56394
G0 F7500 X-30.563 Y-20.216
G1 F2400 X30.664 Y-20.215 E282.76836
G0 F7500 X30.500 Y-20.215
G0 X25.992 Y-20.300
G0 X25.992 Y-20.464
G1 F2400 X25.992 Y20.664 E284.24914
G0 F7500 X25.992 Y20.500
G0 X30.500 Y20.216
G0 X30.663 Y20.216
G1 F2400 X-30.564 Y20.215 E286.45356
G0 F7500 X-30.400 Y20.215
G0 X-25.992 Y20.500
G0 X-25.992 Y20.664
G1 F2400 X-25.992 Y-20.464 E287.93433
G0 F7500 X-25.992 Y-20.300
G0 X-20.216 Y-20.300
G0 X-20.216 Y-20.464
G1 F2400 X-20.216 Y20.664 E289.41511
G0 F7500 X-20.216 Y20.500
G0 X-14.440 Y20.500
G0 X-14.440 Y20.664
G1 F2400 X-14.440 Y-20.464 E290.89589
G0 F7500 X-14.440 Y-20.300
G0 X-8.664 Y-20.300
G0 X-8.664 Y-20.464
G1 F2400 X-8.664 Y20.664 E292.37666
G0 F7500 X-8.664 Y20.500
G0 X-2.888 Y20.500
G0 X-2.888 Y20.664
G1 F2400 X-2.888 Y-20.464 E293.85744
G0 F7500 X-2.888 Y-20.300
G0 X2.888 Y-20.300
G0 X2.888 Y-20.464
G1 F2400 X2.888 Y20.664 E295.33822
G0 F7500 X2.888 Y20.500
G0 X8.664 Y20.500
G0 X8.664 Y20.664
G1 F2400 X8.664 Y-20.464 E296.81899
G0 F7500 X8.664 Y-20.300
G0 X14.440 Y-20.300
G0 X14.440 Y-20.464
G1 F2400 X14.440 Y20.664 E298.29977
G0 F7500 X14.440 Y20.500
G0 X20.216 Y20.500
G0 X20.216 Y20.664
G1 F2400 X20.216 Y-20.464 E299.78055
G0 F7500 X20.216 Y-20.300
G0 X30.500 Y-14.439
