;Generated with Cura_SteamEngine 15.04.6

;Layer count: 16
;LAYER:0
M107
G0 F7500 X-33.716 Y-28.616 Z0.300
;TYPE:SKIRT
G1 F1800 X33.816 Y-28.616 E3.64714
G1 X33.816 Y28.816 E6.74882
G1 X-33.716 Y28.816 E10.39597
G1 X-33.716 Y-28.616 E13.49765
G1 F2400 E12.49765
G0 F7500 X0.216 Y0.216
;TYPE:WALL-OUTER
G1 F2400 E13.49765
G1 F1800 X0.284 Y0.216 E13.50132
G1 X0.284 Y0.284 E13.50499
G1 X0.216 Y0.284 E13.50866
G1 X0.216 Y0.216 E13.51234
G0 F7500 X-0.700 Y-0.700
;TYPE:SUPPORT
G1 F1800 X-0.700 Y1.200 E13.61495
G1 X1.200 Y1.200 E13.71756
G1 X1.200 Y-0.700 E13.82017
G1 X-0.700 Y-0.700 E13.92278
G0 F7500 X-0.690 Y-0.800
G0 X-30.500 Y-25.400
G1 F1800 X30.600 Y-25.400 E17.22256
G1 X30.600 Y25.600 E19.97687
G1 X-30.500 Y25.600 E23.27665
G1 X-30.500 Y-25.400 E26.03096
G0 F7500 X-25.992 Y-25.300
G0 X-25.992 Y-25.464
G1 F1800 X-25.992 Y25.664 E28.79219
G0 F7500 X-25.992 Y25.500
G0 X-20.216 Y25.500
G0 X-20.216 Y25.664
G1 F1800 X-20.216 Y-25.464 E31.55341
G0 F7500 X-20.216 Y-25.300
G0 X-30.400 Y-20.216
G0 X-30.563 Y-20.216
G1 F1800 X30.664 Y-20.215 E34.86005
G0 F7500 X30.500 Y-20.215
G0 X25.992 Y-25.300
G0 X25.992 Y-25.464
G1 F1800 X25.992 Y25.664 E37.62127
G0 F7500 X25.992 Y25.500
G0 X20.216 Y25.500
G0 X20.216 Y25.664
G1 F1800 X20.216 Y-25.464 E40.38250
G0 F7500 X20.216 Y-25.300
G0 X14.440 Y-25.300
G0 X14.440 Y-25.464
G1 F1800 X14.440 Y25.664 E43.14373
G0 F7500 X14.440 Y25.500
G0 X8.664 Y25.500
G0 X8.664 Y25.664
G1 F1800 X8.664 Y-25.464 E45.90495
G0 F7500 X8.664 Y-25.300
G0 X2.888 Y-25.300
G0 X2.888 Y-25.464
G1 F1800 X2.888 Y25.664 E48.66618
G0 F7500 X2.888 Y25.500
G0 X-2.888 Y25.500
G0 X-2.888 Y25.664
G1 F1800 X-2.888 Y-25.464 E51.42740
G0 F7500 X-2.888 Y-25.300
G0 X-8.664 Y-25.300
G0 X-8.664 Y-25.464
G1 F1800 X-8.664 Y25.664 E54.18863
G0 F7500 X-8.664 Y25.500
G0 X-14.440 Y25.500
G0 X-14.440 Y25.664
G1 F1800 X-14.440 Y-25.464 E56.94986
G0 F7500 X-14.440 Y-25.300
G0 X-30.400 Y-14.440
G0 X-30.563 Y-14.440
G1 F1800 X30.664 Y-14.439 E60.25649
G0 F7500 X30.500 Y-14.439
G0 X30.500 Y-8.663
G0 X30.664 Y-8.663
G1 F1800 X-30.563 Y-8.664 E63.56313
G0 F7500 X-30.400 Y-8.664
G0 X-30.400 Y-2.888
G0 X-30.563 Y-2.888
G1 F1800 X30.664 Y-2.887 E66.86976
G0 F7500 X30.500 Y-2.887
G0 X30.500 Y2.888
G0 X30.663 Y2.888
G1 F1800 X-30.564 Y2.887 E70.17639
G0 F7500 X-30.400 Y2.887
G0 X-30.400 Y8.663
G0 X-30.564 Y8.663
G1 F1800 X30.663 Y8.664 E73.48303
G0 F7500 X30.500 Y8.664
G0 X30.500 Y14.440
G0 X30.663 Y14.440
G1 F1800 X-30.564 Y14.439 E76.78966
G0 F7500 X-30.400 Y14.439
G0 X-30.400 Y20.215
G0 X-30.564 Y20.215
G1 F1800 X30.663 Y20.216 E80.09630
;LAYER:1
M106 S63
G1 F2400 E79.09630
G0 F7500 X0.284 Y0.284 Z0.500
;TYPE:WALL-OUTER
G1 F2400 E80.09630
G1 F1980 X0.216 Y0.284 E80.09874
G1 X0.216 Y0.216 E80.10119
G1 X0.284 Y0.216 E80.10364
G1 X0.284 Y0.284 E80.10609
G0 F7500 X1.200 Y1.200
;TYPE:SUPPORT
G1 F1920 X1.200 Y-0.700 E80.17450
G1 X-0.700 Y-0.700 E80.24291
G1 X-0.700 Y1.200 E80.31131
G1 X1.200 Y1.200 E80.37972
G0 F7500 X1.190 Y1.300
G0 X30.500 Y25.590
G0 X30.600 Y25.600
G1 F1920 X-30.500 Y25.600 E82.57957
G1 X-30.500 Y-25.400 E84.41578
G1 X30.600 Y-25.400 E86.61563
G1 X30.600 Y25.600 E88.45184
G0 F7500 X30.500 Y25.590
G0 X25.992 Y25.500
G0 X25.992 Y25.664
G1 F1920 X25.992 Y-25.464 E90.29266
G0 F7500 X25.992 Y-25.300
G0 X20.216 Y-25.300
G0 X20.216 Y-25.464
G1 F1920 X20.216 Y25.664 E92.13347
G0 F7500 X20.216 Y25.500
G0 X30.500 Y20.216
G0 X30.663 Y20.216
G1 F1920 X-30.564 Y20.215 E94.33790
G0 F7500 X-30.400 Y20.215
G0 X-25.992 Y25.500
G0 X-25.992 Y25.664
G1 F1920 X-25.992 Y-25.464 E96.17871
G0 F7500 X-25.992 Y-25.300
G0 X-20.216 Y-25.300
G0 X-20.216 Y-25.464
G1 F1920 X-20.216 Y25.664 E98.01953
G0 F7500 X-20.216 Y25.500
G0 X-14.440 Y25.500
G0 X-14.440 Y25.664
G1 F1920 X-14.440 Y-25.464 E99.86035
G0 F7500 X-14.440 Y-25.300
G0 X-8.664 Y-25.300
G0 X-8.664 Y-25.464
G1 F1920 X-8.664 Y25.664 E101.70117
G0 F7500 X-8.664 Y25.500
G0 X-2.888 Y25.500
G0 X-2.888 Y25.664
G1 F1920 X-2.888 Y-25.464 E103.54198
G0 F7500 X-2.888 Y-25.300
G0 X2.888 Y-25.300
G0 X2.888 Y-25.464
G1 F1920 X2.888 Y25.664 E105.38280
G0 F7500 X2.888 Y25.500
G0 X8.664 Y25.500
G0 X8.664 Y25.664
G1 F1920 X8.664 Y-25.464 E107.22362
G0 F7500 X8.664 Y-25.300
G0 X14.440 Y-25.300
G0 X14.440 Y-25.464
G1 F1920 X14.440 Y25.664 E109.06444
G0 F7500 X14.440 Y25.500
G0 X30.500 Y14.440
G0 X30.663 Y14.440
G1 F1920 X-30.564 Y14.439 E111.26886
G0 F7500 X-30.400 Y14.439
G0 X-30.400 Y8.663
G0 X-30.564 Y8.663
G1 F1920 X30.663 Y8.664 E113.47328
G0 F7500 X30.500 Y8.664
G0 X30.500 Y2.888
G0 X30.663 Y2.888
G1 F1920 X-30.564 Y2.887 E115.67770
G0 F7500 X-30.400 Y2.887
G0 X-30.400 Y-2.888
G0 X-30.563 Y-2.888
G1 F1920 X30.664 Y-2.887 E117.88213
G0 F7500 X30.500 Y-2.887
G0 X30.500 Y-8.663
G0 X30.664 Y-8.663
G1 F1920 X-30.563 Y-8.664 E120.08655
G0 F7500 X-30.400 Y-8.664
G0 X-30.400 Y-14.440
G0 X-30.563 Y-14.440
G1 F1920 X30.664 Y-14.439 E122.29097
G0 F7500 X30.500 Y-14.439
G0 X30.500 Y-20.215
G0 X30.664 Y-20.215
G1 F1920 X-30.563 Y-20.216 E124.49540
;LAYER:2
M106 S127
G1 F2400 E123.49540
G0 F7500 X0.216 Y0.216 Z0.700
;TYPE:WALL-OUTER
G1 F2400 E124.49540
G1 F2220 X0.284 Y0.216 E124.49784
G1 X0.284 Y0.284 E124.50029
G1 X0.216 Y0.284 E124.50274
G1 X0.216 Y0.216 E124.50519
G0 F7500 X-0.700 Y-0.700
;TYPE:SUPPORT
G1 F2100 X-0.700 Y1.200 E124.57360
G1 X1.200 Y1.200 E124.64200
G1 X1.200 Y-0.700 E124.71041
G1 X-0.700 Y-0.700 E124.77882
G0 F7500 X-0.690 Y-0.800
G0 X-30.500 Y-25.400
G1 F2100 X30.600 Y-25.400 E126.97867
G1 X30.600 Y25.600 E128.81488
G1 X-30.500 Y25.600 E131.01473
G1 X-30.500 Y-25.400 E132.85094
G0 F7500 X-25.992 Y-25.300
G0 X-25.992 Y-25.464
G1 F2100 X-25.992 Y25.664 E134.69176
G0 F7500 X-25.992 Y25.500
G0 X-20.216 Y25.500
G0 X-20.216 Y25.664
G1 F2100 X-20.216 Y-25.464 E136.53257
G0 F7500 X-20.216 Y-25.300
G0 X-30.400 Y-20.216
G0 X-30.563 Y-20.216
G1 F2100 X30.664 Y-20.215 E138.73700
G0 F7500 X30.500 Y-20.215
G0 X25.992 Y-25.300
G0 X25.992 Y-25.464
G1 F2100 X25.992 Y25.664 E140.57781
G0 F7500 X25.992 Y25.500
G0 X20.216 Y25.500
G0 X20.216 Y25.664
G1 F2100 X20.216 Y-25.464 E142.41863
G0 F7500 X20.216 Y-25.300
G0 X14.440 Y-25.300
G0 X14.440 Y-25.464
G1 F2100 X14.440 Y25.664 E144.25945
G0 F7500 X14.440 Y25.500
G0 X8.664 Y25.500
G0 X8.664 Y25.664
G1 F2100 X8.664 Y-25.464 E146.10027
G0 F7500 X8.664 Y-25.300
G0 X2.888 Y-25.300
G0 X2.888 Y-25.464
G1 F2100 X2.888 Y25.664 E147.94108
G0 F7500 X2.888 Y25.500
G0 X-2.888 Y25.500
G0 X-2.888 Y25.664
G1 F2100 X-2.888 Y-25.464 E149.78190
G0 F7500 X-2.888 Y-25.300
G0 X-8.664 Y-25.300
G0 X-8.664 Y-25.464
G1 F2100 X-8.664 Y25.664 E151.62272
G0 F7500 X-8.664 Y25.500
G0 X-14.440 Y25.500
G0 X-14.440 Y25.664
G1 F2100 X-14.440 Y-25.464 E153.46354
G0 F7500 X-14.440 Y-25.300
G0 X-30.400 Y-14.440
G0 X-30.563 Y-14.440
G1 F2100 X30.664 Y-14.439 E155.66796
G0 F7500 X30.500 Y-14.439
G0 X30.500 Y-8.663
G0 X30.664 Y-8.663
G1 F2100 X-30.563 Y-8.664 E157.87238
G0 F7500 X-30.400 Y-8.664
G0 X-30.400 Y-2.888
G0 X-30.563 Y-2.888
G1 F2100 X30.664 Y-2.887 E160.07680
G0 F7500 X30.500 Y-2.887
G0 X30.500 Y2.888
G0 X30.663 Y2.888
G1 F2100 X-30.564 Y2.887 E162.28123
G0 F7500 X-30.400 Y2.887
G0 X-30.400 Y8.663
G0 X-30.564 Y8.663
G1 F2100 X30.663 Y8.664 E164.48565
G0 F7500 X30.500 Y8.664
G0 X30.500 Y14.440
G0 X30.663 Y14.440
G1 F2100 X-30.564 Y14.439 E166.69007
G0 F7500 X-30.400 Y14.439
G0 X-30.400 Y20.215
G0 X-30.564 Y20.215
G1 F2100 X30.663 Y20.216 E168.89450
;LAYER:3
G1 F2400 E167.89450
G0 F7500 X0.284 Y0.284 Z0.900
;TYPE:WALL-OUTER
G1 F2400 E168.89450
G1 X0.216 Y0.284 E168.89694
G1 X0.216 Y0.216 E168.89939
G1 X0.284 Y0.216 E168.90184
G1 X0.284 Y0.284 E168.90429
G0 F7500 X1.200 Y1.200
;TYPE:SUPPORT
G1 F2220 X1.200 Y-0.700 E168.97270
G1 X-0.700 Y-0.700 E169.04110
G1 X-0.700 Y1.200 E169.10951
G1 X1.200 Y1.200 E169.17792
G0 F7500 X1.190 Y1.300
G0 X30.500 Y25.590
G0 X30.600 Y25.600
G1 F2220 X-30.500 Y25.600 E171.37777
G1 X-30.500 Y-25.400 E173.21398
G1 X30.600 Y-25.400 E175.41383
G1 X30.600 Y25.600 E177.25004
G0 F7500 X30.500 Y25.590
G0 X25.992 Y25.500
G0 X25.992 Y25.664
G1 F2220 X25.992 Y-25.464 E179.09086
G0 F7500 X25.992 Y-25.300
G0 X20.216 Y-25.300
G0 X20.216 Y-25.464
G1 F2220 X20.216 Y25.664 E180.93167
G0 F7500 X20.216 Y25.500
G0 X30.500 Y20.216
G0 X30.663 Y20.216
G1 F2220 X-30.564 Y20.215 E183.13610
G0 F7500 X-30.400 Y20.215
G0 X-25.992 Y25.500
G0 X-25.992 Y25.664
G1 F2220 X-25.992 Y-25.464 E184.97691
G0 F7500 X-25.992 Y-25.300
G0 X-20.216 Y-25.300
G0 X-20.216 Y-25.464
G1 F2220 X-20.216 Y25.664 E186.81773
G0 F7500 X-20.216 Y25.500
G0 X-14.440 Y25.500
G0 X-14.440 Y25.664
G1 F2220 X-14.440 Y-25.464 E188.65855
G0 F7500 X-14.440 Y-25.300
G0 X-8.664 Y-25.300
G0 X-8.664 Y-25.464
G1 F2220 X-8.664 Y25.664 E190.49937
G0 F7500 X-8.664 Y25.500
G0 X-2.888 Y25.500
G0 X-2.888 Y25.664
G1 F2220 X-2.888 Y-25.464 E192.34018
G0 F7500 X-2.888 Y-25.300
G0 X2.888 Y-25.300
G0 X2.888 Y-25.464
G1 F2220 X2.888 Y25.664 E194.18100
G0 F7500 X2.888 Y25.500
G0 X8.664 Y25.500
G0 X8.664 Y25.664
G1 F2220 X8.664 Y-25.464 E196.02182
G0 F7500 X8.664 Y-25.300
G0 X14.440 Y-25.300
G0 X14.440 Y-25.464
G1 F2220 X14.440 Y25.664 E197.86263
G0 F7500 X14.440 Y25.500
G0 X30.500 Y14.440
G0 X30.663 Y14.440
G1 F2220 X-30.564 Y14.439 E200.06706
G0 F7500 X-30.400 Y14.439
G0 X-30.400 Y8.663
G0 X-30.564 Y8.663
G1 F2220 X30.663 Y8.664 E202.27148
G0 F7500 X30.500 Y8.664
G0 X30.500 Y2.888
G0 X30.663 Y2.888
G1 F2220 X-30.564 Y2.887 E204.47590
G0 F7500 X-30.400 Y2.887
G0 X-30.400 Y-2.888
G0 X-30.563 Y-2.888
G1 F2220 X30.664 Y-2.887 E206.68033
G0 F7500 X30.500 Y-2.887
G0 X30.500 Y-8.663
G0 X30.664 Y-8.663
G1 F2220 X-30.563 Y-8.664 E208.88475
G0 F7500 X-30.400 Y-8.664
G0 X-30.400 Y-14.440
G0 X-30.563 Y-14.440
G1 F2220 X30.664 Y-14.439 E211.08917
G0 F7500 X30.500 Y-14.439
G0 X30.500 Y-20.215
G0 X30.664 Y-20.215
G1 F2220 X-30.563 Y-20.216 E213.29359
;LAYER:4
G1 F2400 E212.29359
G0 F7500 X0.216 Y0.216 Z1.100
;TYPE:WALL-OUTER
G1 F2400 E213.29359
G1 F2700 X0.284 Y0.216 E213.29604
G1 X0.284 Y0.284 E213.29849
G1 X0.216 Y0.284 E213.30094
G1 X0.216 Y0.216 E213.30339
G0 F7500 X-0.700 Y-0.700
;TYPE:SUPPORT
G1 F2400 X-0.700 Y1.200 E213.37180
G1 X1.200 Y1.200 E213.44020
G1 X1.200 Y-0.700 E213.50861
G1 X-0.700 Y-0.700 E213.57702
G0 F7500 X-0.690 Y-0.800
G0 X-30.500 Y-25.400
G1 F2400 X30.600 Y-25.400 E215.77687
G1 X30.600 Y25.600 E217.61308
G1 X-30.500 Y25.600 E219.81293
G1 X-30.500 Y-25.400 E221.64914
G0 F7500 X-25.992 Y-25.300
G0 X-25.992 Y-25.464
G1 F2400 X-25.992 Y25.664 E223.48995
G0 F7500 X-25.992 Y25.500
G0 X-20.216 Y25.500
G0 X-20.216 Y25.664
G1 F2400 X-20.216 Y-25.464 E225.33077
G0 F7500 X-20.216 Y-25.300
G0 X-30.400 Y-20.216
G0 X-30.563 Y-20.216
G1 F2400 X30.664 Y-20.215 E227.53519
G0 F7500 X30.500 Y-20.215
G0 X25.992 Y-25.300
G0 X25.992 Y-25.464
G1 F2400 X25.992 Y25.664 E229.37601
G0 F7500 X25.992 Y25.500
G0 X20.216 Y25.500
G0 X20.216 Y25.664
G1 F2400 X20.216 Y-25.464 E231.21683
G0 F7500 X20.216 Y-25.300
G0 X14.440 Y-25.300
G0 X14.440 Y-25.464
G1 F2400 X14.440 Y25.664 E233.05765
G0 F7500 X14.440 Y25.500
G0 X8.664 Y25.500
G0 X8.664 Y25.664
G1 F2400 X8.664 Y-25.464 E234.89846
G0 F7500 X8.664 Y-25.300
G0 X2.888 Y-25.300
G0 X2.888 Y-25.464
G1 F2400 X2.888 Y25.664 E236.73928
G0 F7500 X2.888 Y25.500
G0 X-2.888 Y25.500
G0 X-2.888 Y25.664
G1 F2400 X-2.888 Y-25.464 E238.58010
G0 F7500 X-2.888 Y-25.300
G0 X-8.664 Y-25.300
G0 X-8.664 Y-25.464
G1 F2400 X-8.664 Y25.664 E240.42092
G0 F7500 X-8.664 Y25.500
G0 X-14.440 Y25.500
G0 X-14.440 Y25.664
G1 F2400 X-14.440 Y-25.464 E242.26173
G0 F7500 X-14.440 Y-25.300
G0 X-30.400 Y-14.440
G0 X-30.563 Y-14.440
G1 F2400 X30.664 Y-14.439 E244.46616
G0 F7500 X30.500 Y-14.439
G0 X30.500 Y-8.663
G0 X30.664 Y-8.663
G1 F2400 X-30.563 Y-8.664 E246.67058
G0 F7500 X-30.400 Y-8.664
G0 X-30.400 Y-2.888
G0 X-30.563 Y-2.888
G1 F2400 X30.664 Y-2.887 E248.87500
G0 F7500 X30.500 Y-2.887
G0 X30.500 Y2.888
G0 X30.663 Y2.888
G1 F2400 X-30.564 Y2.887 E251.07943
G0 F7500 X-30.400 Y2.887
G0 X-30.400 Y8.663
G0 X-30.564 Y8.663
G1 F2400 X30.663 Y8.664 E253.28385
G0 F7500 X30.500 Y8.664
G0 X30.500 Y14.440
G0 X30.663 Y14.440
G1 F2400 X-30.564 Y14.439 E255.48827
G0 F7500 X-30.400 Y14.439
G0 X-30.400 Y20.215
G0 X-30.564 Y20.215
G1 F2400 X30.663 Y20.216 E257.69269
;LAYER:5
G1 F2400 E256.69269
G0 F7500 X0.284 Y0.284 Z1.300
;TYPE:WALL-OUTER
G1 F2400 E257.69269
G1 F2700 X0.216 Y0.284 E257.69514
G1 X0.216 Y0.216 E257.69759
G1 X0.284 Y0.216 E257.70004
G1 X0.284 Y0.284 E257.70249
G0 F7500 X1.200 Y1.200
;TYPE:SUPPORT
G1 F2400 X1.200 Y-0.700 E257.77089
G1 X-0.700 Y-0.700 E257.83930
G1 X-0.700 Y1.200 E257.90771
G1 X1.200 Y1.200 E257.97612
G0 F7500 X1.190 Y1.300
G0 X30.500 Y25.590
G0 X30.600 Y25.600
G1 F2400 X-30.500 Y25.600 E260.17597
G1 X-30.500 Y-25.400 E262.01218
G1 X30.600 Y-25.400 E264.21203
G1 X30.600 Y25.600 E266.04824
G0 F7500 X30.500 Y25.590
G0 X25.992 Y25.500
G0 X25.992 Y25.664
G1 F2400 X25.992 Y-25.464 E267.88905
G0 F7500 X25.992 Y-25.300
G0 X20.216 Y-25.300
G0 X20.216 Y-25.464
G1 F2400 X20.216 Y25.664 E269.72987
G0 F7500 X20.216 Y25.500
G0 X30.500 Y20.216
G0 X30.663 Y20.216
G1 F2400 X-30.564 Y20.215 E271.93429
G0 F7500 X-30.400 Y20.215
G0 X-25.992 Y25.500
G0 X-25.992 Y25.664
G1 F2400 X-25.992 Y-25.464 E273.77511
G0 F7500 X-25.992 Y-25.300
G0 X-20.216 Y-25.300
G0 X-20.216 Y-25.464
G1 F2400 X-20.216 Y25.664 E275.61593
G0 F7500 X-20.216 Y25.500
G0 X-14.440 Y25.500
G0 X-14.440 Y25.664
G1 F2400 X-14.440 Y-25.464 E277.45675
G0 F7500 X-14.440 Y-25.300
G0 X-8.664 Y-25.300
G0 X-8.664 Y-25.464
G1 F2400 X-8.664 Y25.664 E279.29756
G0 F7500 X-8.664 Y25.500
G0 X-2.888 Y25.500
G0 X-2.888 Y25.664
G1 F2400 X-2.888 Y-25.464 E281.13838
G0 F7500 X-2.888 Y-25.300
G0 X2.888 Y-25.300
G0 X2.888 Y-25.464
G1 F2400 X2.888 Y25.664 E282.97920
G0 F7500 X2.888 Y25.500
G0 X8.664 Y25.500
G0 X8.664 Y25.664
G1 F2400 X8.664 Y-25.464 E284.82002
G0 F7500 X8.664 Y-25.300
G0 X14.440 Y-25.300
G0 X14.440 Y-25.464
G1 F2400 X14.440 Y25.664 E286.66083
G0 F7500 X14.440 Y25.500
G0 X30.500 Y14.440
G0 X30.663 Y14.440
G1 F2400 X-30.564 Y14.439 E288.86526
G0 F7500 X-30.400 Y14.439
G0 X-30.400 Y8.663
G0 X-30.564 Y8.663
G1 F2400 X30.663 Y8.664 E291.06968
G0 F7500 X30.500 Y8.664
G0 X30.500 Y2.888
G0 X30.663 Y2.888
G1 F2400 X-30.564 Y2.887 E293.27410
G0 F7500 X-30.400 Y2.887
G0 X-30.400 Y-2.888
G0 X-30.563 Y-2.888
G1 F2400 X30.664 Y-2.887 E295.47852
G0 F7500 X30.500 Y-2.887
G0 X30.500 Y-8.663
G0 X30.664 Y-8.663
G1 F2400 X-30.563 Y-8.664 E297.68295
G0 F7500 X-30.400 Y-8.664
G0 X-30.400 Y-14.440
G0 X-30.563 Y-14.440
G1 F2400 X30.664 Y-14.439 E299.88737
G0 F7500 X30.500 Y-14.439
G0 X30.500 Y-20.215
G0 X30.664 Y-20.215
G1 F2400 X-30.563 Y-20.216 E302.09179
;LAYER:6
G1 F2400 E301.09179
G0 F7500 X0.216 Y0.216 Z1.500
;TYPE:WALL-OUTER
G1 F2400 E302.09179
G1 F2700 X0.284 Y0.216 E302.09424
G1 X0.284 Y0.284 E302.09669
G1 X0.216 Y0.284 E302.09914
G1 X0.216 Y0.216 E302.10159
G0 F7500 X-0.700 Y-0.700
;TYPE:SUPPORT
G1 F2400 X-0.700 Y1.200 E302.16999
G1 X1.200 Y1.200 E302.23840
G1 X1.200 Y-0.700 E302.30681
G1 X-0.700 Y-0.700 E302.37522
G0 F7500 X-0.690 Y-0.800
G0 X-30.500 Y-25.400
G1 F2400 X30.600 Y-25.400 E304.57507
G1 X30.600 Y25.600 E306.41128
G1 X-30.500 Y25.600 E308.61113
G1 X-30.500 Y-25.400 E310.44734
G0 F7500 X-25.992 Y-25.300
G0 X-25.992 Y-25.464
G1 F2400 X-25.992 Y25.664 E312.28815
G0 F7500 X-25.992 Y25.500
G0 X-20.216 Y25.500
G0 X-20.216 Y25.664
G1 F2400 X-20.216 Y-25.464 E314.12897
G0 F7500 X-20.216 Y-25.300
G0 X-30.400 Y-20.216
G0 X-30.563 Y-20.216
G1 F2400 X30.664 Y-20.215 E316.33339
G0 F7500 X30.500 Y-20.215
G0 X25.992 Y-25.300
G0 X25.992 Y-25.464
G1 F2400 X25.992 Y25.664 E318.17421
G0 F7500 X25.992 Y25.500
G0 X20.216 Y25.500
G0 X20.216 Y25.664
G1 F2400 X20.216 Y-25.464 E320.01503
G0 F7500 X20.216 Y-25.300
G0 X14.440 Y-25.300
G0 X14.440 Y-25.464
G1 F2400 X14.440 Y25.664 E321.85585
G0 F7500 X14.440 Y25.500
G0 X8.664 Y25.500
G0 X8.664 Y25.664
G1 F2400 X8.664 Y-25.464 E323.69666
G0 F7500 X8.664 Y-25.300
G0 X2.888 Y-25.300
G0 X2.888 Y-25.464
G1 F2400 X2.888 Y25.664 E325.53748
G0 F7500 X2.888 Y25.500
G0 X-2.888 Y25.500
G0 X-2.888 Y25.664
G1 F2400 X-2.888 Y-25.464 E327.37830
G0 F7500 X-2.888 Y-25.300
G0 X-8.664 Y-25.300
G0 X-8.664 Y-25.464
G1 F2400 X-8.664 Y25.664 E329.21912
G0 F7500 X-8.664 Y25.500
G0 X-14.440 Y25.500
