;Generated with Cura_SteamEngine 15.04.6

;Layer count: 16
;LAYER:0
M107
G0 F7500 X-33.716 Y-33.616 Z0.300
;TYPE:SKIRT
G1 F1800 X33.816 Y-33.616 E3.64714
G1 X33.816 Y33.816 E7.28889
G1 X-33.716 Y33.816 E10.93603
G1 X-33.716 Y-33.616 E14.57777
G1 F2400 E13.57777
G0 F7500 X0.216 Y0.216
;TYPE:WALL-OUTER
G1 F2400 E14.57777
G1 F1800 X0.284 Y0.216 E14.58144
G1 X0.284 Y0.284 E14.58512
G1 X0.216 Y0.284 E14.58879
G1 X0.216 Y0.216 E14.59246
G0 F7500 X-0.700 Y-0.700
;TYPE:SUPPORT
G1 F1800 X-0.700 Y1.200 E14.69507
G1 X1.200 Y1.200 E14.79768
G1 X1.200 Y-0.700 E14.90030
G1 X-0.700 Y-0.700 E15.00291
G0 F7500 X-0.690 Y-0.800
G0 X-30.500 Y-30.400
G1 F1800 X30.600 Y-30.400 E18.30268
G1 X30.600 Y30.600 E21.59706
G1 X-30.500 Y30.600 E24.89683
G1 X-30.500 Y-30.400 E28.19121
G0 F7500 X-30.400 Y-25.992
G0 X-30.563 Y-25.992
G1 F1800 X30.664 Y-25.991 E31.49784
G0 F7500 X30.500 Y-25.991
G0 X30.500 Y-20.215
G0 X30.664 Y-20.215
G1 F1800 X-30.563 Y-20.216 E34.80448
G0 F7500 X-30.400 Y-20.216
G0 X-25.992 Y-30.300
G0 X-25.992 Y-30.464
G1 F1800 X-25.992 Y30.664 E38.10576
G0 F7500 X-25.992 Y30.500
G0 X-20.216 Y30.500
G0 X-20.216 Y30.664
G1 F1800 X-20.216 Y-30.464 E41.40705
G0 F7500 X-20.216 Y-30.300
G0 X-14.440 Y-30.300
G0 X-14.440 Y-30.464
G1 F1800 X-14.440 Y30.664 E44.70834
G0 F7500 X-14.440 Y30.500
G0 X-8.664 Y30.500
G0 X-8.664 Y30.664
G1 F1800 X-8.664 Y-30.464 E48.00963
G0 F7500 X-8.664 Y-30.300
G0 X-2.888 Y-30.300
G0 X-2.888 Y-30.464
G1 F1800 X-2.888 Y30.664 E51.31091
G0 F7500 X-2.888 Y30.500
G0 X2.888 Y30.500
G0 X2.888 Y30.664
G1 F1800 X2.888 Y-30.464 E54.61220
G0 F7500 X2.888 Y-30.300
G0 X8.664 Y-30.300
G0 X8.664 Y-30.464
G1 F1800 X8.664 Y30.664 E57.91349
G0 F7500 X8.664 Y30.500
G0 X14.440 Y30.500
G0 X14.440 Y30.664
G1 F1800 X14.440 Y-30.464 E61.21478
G0 F7500 X14.440 Y-30.300
G0 X20.216 Y-30.300
G0 X20.216 Y-30.464
G1 F1800 X20.216 Y30.664 E64.51606
G0 F7500 X20.216 Y30.500
G0 X25.992 Y30.500
G0 X25.992 Y30.664
G1 F1800 X25.992 Y-30.464 E67.81735
G0 F7500 X25.992 Y-30.300
G0 X30.500 Y-14.439
G0 X30.664 Y-14.439
G1 F1800 X-30.563 Y-14.440 E71.12399
G0 F7500 X-30.400 Y-14.440
G0 X-30.400 Y-8.664
G0 X-30.563 Y-8.664
G1 F1800 X30.664 Y-8.663 E74.43062
G0 F7500 X30.500 Y-8.663
G0 X30.500 Y-2.887
G0 X30.664 Y-2.887
G1 F1800 X-30.563 Y-2.888 E77.73725
G0 F7500 X-30.400 Y-2.888
G0 X-30.400 Y2.887
G0 X-30.564 Y2.887
G1 F1800 X30.663 Y2.888 E81.04389
G0 F7500 X30.500 Y2.888
G0 X30.500 Y8.664
G0 X30.663 Y8.664
G1 F1800 X-30.564 Y8.663 E84.35052
G0 F7500 X-30.400 Y8.663
G0 X-30.400 Y14.439
G0 X-30.564 Y14.439
G1 F1800 X30.663 Y14.440 E87.65716
G0 F7500 X30.500 Y14.440
G0 X30.500 Y20.216
G0 X30.663 Y20.216
G1 F1800 X-30.564 Y20.215 E90.96379
G0 F7500 X-30.400 Y20.215
G0 X-30.400 Y25.991
G0 X-30.564 Y25.991
G1 F1800 X30.663 Y25.992 E94.27043
;LAYER:1
M106 S63
G1 F2400 E93.27043
G0 F7500 X0.284 Y0.284 Z0.500
;TYPE:WALL-OUTER
G1 F2400 E94.27043
G1 F1980 X0.216 Y0.284 E94.27287
G1 X0.216 Y0.216 E94.27532
G1 X0.284 Y0.216 E94.27777
G1 X0.284 Y0.284 E94.28022
G0 F7500 X1.200 Y1.200
;TYPE:SUPPORT
G1 F1920 X1.200 Y-0.700 E94.34863
G1 X-0.700 Y-0.700 E94.41703
G1 X-0.700 Y1.200 E94.48544
G1 X1.200 Y1.200 E94.55385
G0 F7500 X1.190 Y1.300
G0 X30.500 Y30.590
G0 X30.600 Y30.600
G1 F1920 X-30.500 Y30.600 E96.75370
G1 X-30.500 Y-30.400 E98.94995
G1 X30.600 Y-30.400 E101.14980
G1 X30.600 Y30.600 E103.34605
G0 F7500 X30.500 Y30.590
G0 X30.500 Y25.992
G0 X30.663 Y25.992
G1 F1920 X-30.564 Y25.991 E105.55047
G0 F7500 X-30.400 Y25.991
G0 X-30.400 Y20.215
G0 X-30.564 Y20.215
G1 F1920 X30.663 Y20.216 E107.75490
G0 F7500 X30.500 Y20.216
G0 X25.992 Y30.500
G0 X25.992 Y30.664
G1 F1920 X25.992 Y-30.464 E109.95575
G0 F7500 X25.992 Y-30.300
G0 X20.216 Y-30.300
G0 X20.216 Y-30.464
G1 F1920 X20.216 Y30.664 E112.15661
G0 F7500 X20.216 Y30.500
G0 X14.440 Y30.500
G0 X14.440 Y30.664
G1 F1920 X14.440 Y-30.464 E114.35747
G0 F7500 X14.440 Y-30.300
G0 X8.664 Y-30.300
G0 X8.664 Y-30.464
G1 F1920 X8.664 Y30.664 E116.55833
G0 F7500 X8.664 Y30.500
G0 X2.888 Y30.500
G0 X2.888 Y30.664
G1 F1920 X2.888 Y-30.464 E118.75919
G0 F7500 X2.888 Y-30.300
G0 X-2.888 Y-30.300
G0 X-2.888 Y-30.464
G1 F1920 X-2.888 Y30.664 E120.96005
G0 F7500 X-2.888 Y30.500
G0 X-8.664 Y30.500
G0 X-8.664 Y30.664
G1 F1920 X-8.664 Y-30.464 E123.16090
G0 F7500 X-8.664 Y-30.300
G0 X-14.440 Y-30.300
G0 X-14.440 Y-30.464
G1 F1920 X-14.440 Y30.664 E125.36176
G0 F7500 X-14.440 Y30.500
G0 X-20.216 Y30.500
G0 X-20.216 Y30.664
G1 F1920 X-20.216 Y-30.464 E127.56262
G0 F7500 X-20.216 Y-30.300
G0 X-25.992 Y-30.300
G0 X-25.992 Y-30.464
G1 F1920 X-25.992 Y30.664 E129.76348
G0 F7500 X-25.992 Y30.500
G0 X-30.400 Y14.439
G0 X-30.564 Y14.439
G1 F1920 X30.663 Y14.440 E131.96790
G0 F7500 X30.500 Y14.440
G0 X30.500 Y8.664
G0 X30.663 Y8.664
G1 F1920 X-30.564 Y8.663 E134.17232
G0 F7500 X-30.400 Y8.663
G0 X-30.400 Y2.887
G0 X-30.564 Y2.887
G1 F1920 X30.663 Y2.888 E136.37675
G0 F7500 X30.500 Y2.888
G0 X30.500 Y-2.887
G0 X30.664 Y-2.887
G1 F1920 X-30.563 Y-2.888 E138.58117
G0 F7500 X-30.400 Y-2.888
G0 X-30.400 Y-8.664
G0 X-30.563 Y-8.664
G1 F1920 X30.664 Y-8.663 E140.78559
G0 F7500 X30.500 Y-8.663
G0 X30.500 Y-14.439
G0 X30.664 Y-14.439
G1 F1920 X-30.563 Y-14.440 E142.99002
G0 F7500 X-30.400 Y-14.440
G0 X-30.400 Y-20.216
G0 X-30.563 Y-20.216
G1 F1920 X30.664 Y-20.215 E145.19444
G0 F7500 X30.500 Y-20.215
G0 X30.500 Y-25.991
G0 X30.664 Y-25.991
G1 F1920 X-30.563 Y-25.992 E147.39886
;LAYER:2
M106 S127
G1 F2400 E146.39886
G0 F7500 X0.216 Y0.216 Z0.700
;TYPE:WALL-OUTER
G1 F2400 E147.39886
G1 F2220 X0.284 Y0.216 E147.40131
G1 X0.284 Y0.284 E147.40376
G1 X0.216 Y0.284 E147.40621
G1 X0.216 Y0.216 E147.40865
G0 F7500 X-0.700 Y-0.700
;TYPE:SUPPORT
G1 F2100 X-0.700 Y1.200 E147.47706
G1 X1.200 Y1.200 E147.54547
G1 X1.200 Y-0.700 E147.61388
G1 X-0.700 Y-0.700 E147.68229
G0 F7500 X-0.690 Y-0.800
G0 X-30.500 Y-30.400
G1 F2100 X30.600 Y-30.400 E149.88214
G1 X30.600 Y30.600 E152.07839
G1 X-30.500 Y30.600 E154.27824
G1 X-30.500 Y-30.400 E156.47449
G0 F7500 X-30.400 Y-25.992
G0 X-30.563 Y-25.992
G1 F2100 X30.664 Y-25.991 E158.67891
G0 F7500 X30.500 Y-25.991
G0 X30.500 Y-20.215
G0 X30.664 Y-20.215
G1 F2100 X-30.563 Y-20.216 E160.88333
G0 F7500 X-30.400 Y-20.216
G0 X-25.992 Y-30.300
G0 X-25.992 Y-30.464
G1 F2100 X-25.992 Y30.664 E163.08419
G0 F7500 X-25.992 Y30.500
G0 X-20.216 Y30.500
G0 X-20.216 Y30.664
G1 F2100 X-20.216 Y-30.464 E165.28505
G0 F7500 X-20.216 Y-30.300
G0 X-14.440 Y-30.300
G0 X-14.440 Y-30.464
G1 F2100 X-14.440 Y30.664 E167.48591
G0 F7500 X-14.440 Y30.500
G0 X-8.664 Y30.500
G0 X-8.664 Y30.664
G1 F2100 X-8.664 Y-30.464 E169.68677
G0 F7500 X-8.664 Y-30.300
G0 X-2.888 Y-30.300
G0 X-2.888 Y-30.464
G1 F2100 X-2.888 Y30.664 E171.88762
G0 F7500 X-2.888 Y30.500
G0 X2.888 Y30.500
G0 X2.888 Y30.664
G1 F2100 X2.888 Y-30.464 E174.08848
G0 F7500 X2.888 Y-30.300
G0 X8.664 Y-30.300
G0 X8.664 Y-30.464
G1 F2100 X8.664 Y30.664 E176.28934
G0 F7500 X8.664 Y30.500
G0 X14.440 Y30.500
G0 X14.440 Y30.664
G1 F2100 X14.440 Y-30.464 E178.49020
G0 F7500 X14.440 Y-30.300
G0 X20.216 Y-30.300
G0 X20.216 Y-30.464
G1 F2100 X20.216 Y30.664 E180.69106
G0 F7500 X20.216 Y30.500
G0 X25.992 Y30.500
G0 X25.992 Y30.664
G1 F2100 X25.992 Y-30.464 E182.89192
G0 F7500 X25.992 Y-30.300
G0 X30.500 Y-14.439
G0 X30.664 Y-14.439
G1 F2100 X-30.563 Y-14.440 E185.09634
G0 F7500 X-30.400 Y-14.440
G0 X-30.400 Y-8.664
G0 X-30.563 Y-8.664
G1 F2100 X30.664 Y-8.663 E187.30076
G0 F7500 X30.500 Y-8.663
G0 X30.500 Y-2.887
G0 X30.664 Y-2.887
G1 F2100 X-30.563 Y-2.888 E189.50518
G0 F7500 X-30.400 Y-2.888
G0 X-30.400 Y2.887
G0 X-30.564 Y2.887
G1 F2100 X30.663 Y2.888 E191.70961
G0 F7500 X30.500 Y2.888
G0 X30.500 Y8.664
G0 X30.663 Y8.664
G1 F2100 X-30.564 Y8.663 E193.91403
G0 F7500 X-30.400 Y8.663
G0 X-30.400 Y14.439
G0 X-30.564 Y14.439
G1 F2100 X30.663 Y14.440 E196.11845
G0 F7500 X30.500 Y14.440
G0 X30.500 Y20.216
G0 X30.663 Y20.216
G1 F2100 X-30.564 Y20.215 E198.32288
G0 F7500 X-30.400 Y20.215
G0 X-30.400 Y25.991
G0 X-30.564 Y25.991
G1 F2100 X30.663 Y25.992 E200.52730
;LAYER:3
G1 F2400 E199.52730
G0 F7500 X0.284 Y0.284 Z0.900
;TYPE:WALL-OUTER
G1 F2400 E200.52730
G1 X0.216 Y0.284 E200.52975
G1 X0.216 Y0.216 E200.53219
G1 X0.284 Y0.216 E200.53464
G1 X0.284 Y0.284 E200.53709
G0 F7500 X1.200 Y1.200
;TYPE:SUPPORT
G1 F2220 X1.200 Y-0.700 E200.60550
G1 X-0.700 Y-0.700 E200.67391
G1 X-0.700 Y1.200 E200.74231
G1 X1.200 Y1.200 E200.81072
G0 F7500 X1.190 Y1.300
G0 X30.500 Y30.590
G0 X30.600 Y30.600
G1 F2220 X-30.500 Y30.600 E203.01057
G1 X-30.500 Y-30.400 E205.20682
G1 X30.600 Y-30.400 E207.40667
G1 X30.600 Y30.600 E209.60292
G0 F7500 X30.500 Y30.590
G0 X30.500 Y25.992
G0 X30.663 Y25.992
G1 F2220 X-30.564 Y25.991 E211.80735
G0 F7500 X-30.400 Y25.991
G0 X-30.400 Y20.215
G0 X-30.564 Y20.215
G1 F2220 X30.663 Y20.216 E214.01177
G0 F7500 X30.500 Y20.216
G0 X25.992 Y30.500
G0 X25.992 Y30.664
G1 F2220 X25.992 Y-30.464 E216.21263
G0 F7500 X25.992 Y-30.300
G0 X20.216 Y-30.300
G0 X20.216 Y-30.464
G1 F2220 X20.216 Y30.664 E218.41348
G0 F7500 X20.216 Y30.500
G0 X14.440 Y30.500
G0 X14.440 Y30.664
G1 F2220 X14.440 Y-30.464 E220.61434
G0 F7500 X14.440 Y-30.300
G0 X8.664 Y-30.300
G0 X8.664 Y-30.464
G1 F2220 X8.664 Y30.664 E222.81520
G0 F7500 X8.664 Y30.500
G0 X2.888 Y30.500
G0 X2.888 Y30.664
G1 F2220 X2.888 Y-30.464 E225.01606
G0 F7500 X2.888 Y-30.300
G0 X-2.888 Y-30.300
G0 X-2.888 Y-30.464
G1 F2220 X-2.888 Y30.664 E227.21692
G0 F7500 X-2.888 Y30.500
G0 X-8.664 Y30.500
G0 X-8.664 Y30.664
G1 F2220 X-8.664 Y-30.464 E229.41778
G0 F7500 X-8.664 Y-30.300
G0 X-14.440 Y-30.300
G0 X-14.440 Y-30.464
G1 F2220 X-14.440 Y30.664 E231.61864
G0 F7500 X-14.440 Y30.500
G0 X-20.216 Y30.500
G0 X-20.216 Y30.664
G1 F2220 X-20.216 Y-30.464 E233.81949
G0 F7500 X-20.216 Y-30.300
G0 X-25.992 Y-30.300
G0 X-25.992 Y-30.464
G1 F2220 X-25.992 Y30.664 E236.02035
G0 F7500 X-25.992 Y30.500
G0 X-30.400 Y14.439
G0 X-30.564 Y14.439
G1 F2220 X30.663 Y14.440 E238.22477
G0 F7500 X30.500 Y14.440
G0 X30.500 Y8.664
G0 X30.663 Y8.664
G1 F2220 X-30.564 Y8.663 E240.42920
G0 F7500 X-30.400 Y8.663
G0 X-30.400 Y2.887
G0 X-30.564 Y2.887
G1 F2220 X30.663 Y2.888 E242.63362
G0 F7500 X30.500 Y2.888
G0 X30.500 Y-2.887
G0 X30.664 Y-2.887
G1 F2220 X-30.563 Y-2.888 E244.83804
G0 F7500 X-30.400 Y-2.888
G0 X-30.400 Y-8.664
G0 X-30.563 Y-8.664
G1 F2220 X30.664 Y-8.663 E247.04247
G0 F7500 X30.500 Y-8.663
G0 X30.500 Y-14.439
G0 X30.664 Y-14.439
G1 F2220 X-30.563 Y-14.440 E249.24689
G0 F7500 X-30.400 Y-14.440
G0 X-30.400 Y-20.216
G0 X-30.563 Y-20.216
G1 F2220 X30.664 Y-20.215 E251.45131
G0 F7500 X30.500 Y-20.215
G0 X30.500 Y-25.991
G0 X30.664 Y-25.991
G1 F2220 X-30.563 Y-25.992 E253.65573
;LAYER:4
G1 F2400 E252.65573
G0 F7500 X0.216 Y0.216 Z1.100
;TYPE:WALL-OUTER
G1 F2400 E253.65573
G1 F2700 X0.284 Y0.216 E253.65818
G1 X0.284 Y0.284 E253.66063
G1 X0.216 Y0.284 E253.66308
G1 X0.216 Y0.216 E253.66553
G0 F7500 X-0.700 Y-0.700
;TYPE:SUPPORT
G1 F2400 X-0.700 Y1.200 E253.73394
G1 X1.200 Y1.200 E253.80234
G1 X1.200 Y-0.700 E253.87075
G1 X-0.700 Y-0.700 E253.93916
G0 F7500 X-0.690 Y-0.800
G0 X-30.500 Y-30.400
G1 F2400 X30.600 Y-30.400 E256.13901
G1 X30.600 Y30.600 E258.33526
G1 X-30.500 Y30.600 E260.53511
G1 X-30.500 Y-30.400 E262.73136
G0 F7500 X-30.400 Y-25.992
G0 X-30.563 Y-25.992
G1 F2400 X30.664 Y-25.991 E264.93578
G0 F7500 X30.500 Y-25.991
G0 X30.500 Y-20.215
G0 X30.664 Y-20.215
G1 F2400 X-30.563 Y-20.216 E267.14020
G0 F7500 X-30.400 Y-20.216
G0 X-25.992 Y-30.300
G0 X-25.992 Y-30.464
G1 F2400 X-25.992 Y30.664 E269.34106
G0 F7500 X-25.992 Y30.500
G0 X-20.216 Y30.500
G0 X-20.216 Y30.664
G1 F2400 X-20.216 Y-30.464 E271.54192
G0 F7500 X-20.216 Y-30.300
G0 X-14.440 Y-30.300
G0 X-14.440 Y-30.464
G1 F2400 X-14.440 Y30.664 E273.74278
G0 F7500 X-14.440 Y30.500
G0 X-8.664 Y30.500
G0 X-8.664 Y30.664
G1 F2400 X-8.664 Y-30.464 E275.94364
G0 F7500 X-8.664 Y-30.300
G0 X-2.888 Y-30.300
G0 X-2.888 Y-30.464
G1 F2400 X-2.888 Y30.664 E278.14450
G0 F7500 X-2.888 Y30.500
G0 X2.888 Y30.500
G0 X2.888 Y30.664
G1 F2400 X2.888 Y-30.464 E280.34535
G0 F7500 X2.888 Y-30.300
G0 X8.664 Y-30.300
G0 X8.664 Y-30.464
G1 F2400 X8.664 Y30.664 E282.54621
G0 F7500 X8.664 Y30.500
G0 X14.440 Y30.500
G0 X14.440 Y30.664
G1 F2400 X14.440 Y-30.464 E284.74707
G0 F7500 X14.440 Y-30.300
G0 X20.216 Y-30.300
G0 X20.216 Y-30.464
G1 F2400 X20.216 Y30.664 E286.94793
G0 F7500 X20.216 Y30.500
G0 X25.992 Y30.500
G0 X25.992 Y30.664
G1 F2400 X25.992 Y-30.464 E289.14879
G0 F7500 X25.992 Y-30.300
G0 X30.500 Y-14.439
G0 X30.664 Y-14.439
G1 F2400 X-30.563 Y-14.440 E291.35321
G0 F7500 X-30.400 Y-14.440
G0 X-30.400 Y-8.664
G0 X-30.563 Y-8.664
G1 F2400 X30.664 Y-8.663 E293.55763
G0 F7500 X30.500 Y-8.663
G0 X30.500 Y-2.887
G0 X30.664 Y-2.887
G1 F2400 X-30.563 Y-2.888 E295.76206
G0 F7500 X-30.400 Y-2.888
G0 X-30.400 Y2.887
G0 X-30.564 Y2.887
G1 F2400 X30.663 Y2.888 E297.96648
G0 F7500 X30.500 Y2.888
G0 X30.500 Y8.664
G0 X30.663 Y8.664
G1 F2400 X-30.564 Y8.663 E300.17090
G0 F7500 X-30.400 Y8.663
G0 X-30.400 Y14.439
G0 X-30.564 Y14.439
G1 F2400 X30.663 Y14.440 E302.37533
G0 F7500 X30.500 Y14.440
G0 X30.500 Y20.216
G0 X30.663 Y20.216
G1 F2400 X-30.564 Y20.215 E304.57975
G0 F7500 X-30.400 Y20.215
G0 X-30.400 Y25.991
G0 X-30.564 Y25.991
G1 F2400 X30.663 Y25.992 E306.78417
;LAYER:5
G1 F2400 E305.78417
G0 F7500 X0.284 Y0.284 Z1.300
;TYPE:WALL-OUTER
G1 F2400 E306.78417
G1 F2700 X0.216 Y0.284 E306.78662
G1 X0.216 Y0.216 E306.78907
G1 X0.284 Y0.216 E306.79152
G1 X0.284 Y0.284 E306.79396
G0 F7500 X1.200 Y1.200
;TYPE:SUPPORT
G1 F2400 X1.200 Y-0.700 E306.86237
G1 X-0.700 Y-0.700 E306.93078
G1 X-0.700 Y1.200 E306.99919
G1 X1.200 Y1.200 E307.06760
G0 F7500 X1.190 Y1.300
G0 X30.500 Y30.590
G0 X30.600 Y30.600
G1 F2400 X-30.500 Y30.600 E309.26745
G1 X-30.500 Y-30.400 E311.46370
G1 X30.600 Y-30.400 E313.66355
G1 X30.600 Y30.600 E315.85980
G0 F7500 X30.500 Y30.590
G0 X30.500 Y25.992
G0 X30.663 Y25.992
G1 F2400 X-30.564 Y25.991 E318.06422
G0 F7500 X-30.400 Y25.991
G0 X-30.400 Y20.215
G0 X-30.564 Y20.215
G1 F2400 X30.663 Y20.216 E320.26864
G0 F7500 X30.500 Y20.216
G0 X25.992 Y30.500
G0 X25.992 Y30.664
G1 F2400 X25.992 Y-30.464 E322.46950
G0 F7500 X25.992 Y-30.300
G0 X20.216 Y-30.300
G0 X20.216 Y-30.464
G1 F2400 X20.216 Y30.664 E324.67036
G0 F7500 X20.216 Y30.500
G0 X14.440 Y30.500
G0 X14.440 Y30.664
G1 F2400 X14.440 Y-30.464 E326.87122
G0 F7500 X14.440 Y-30.300
G0 X8.664 Y-30.300
G0 X8.664 Y-30.464
G1 F2400 X8.664 Y30.664 E329.07207
G0 F7500 X8.664 Y30.500
G0 X2.888 Y30.500
G0 X2.888 Y30.664
G1 F2400 X2.888 Y-30.464 E331.27293
G0 F7500 X2.888 Y-30.300
G0 X-2.888 Y-30.300
G0 X-2.888 Y-30.464
G1 F2400 X-2.888 Y30.664 E333.47379
G0 F7500 X-2.888 Y30.500
G0 X-8.664 Y30.500
G0 X-8.664 Y30.664
G1 F2400 X-8.664 Y-30.464 E335.67465
G0 F7500 X-8.664 Y-30.300
G0 X-14.440 Y-30.300
G0 X-14.440 Y-30.464
G1 F2400 X-14.440 Y30.664 E337.87551
G0 F7500 X-14.440 Y30.500
G0 X-20.216 Y30.500
G0 X-20.216 Y30.664
G1 F2400 X-20.216 Y-30.464 E340.07637
G0 F7500 X-20.216 Y-30.300
G0 X-25.992 Y-30.300
G0 X-25.992 Y-30.464
G1 F2400 X-25.992 Y30.664 E342.27722
G0 F7500 X-25.992 Y30.500
G0 X-30.400 Y14.439
G0 X-30.564 Y14.439
G1 F2400 X30.663 Y14.440 E344.48165
G0 F7500 X30.500 Y14.440
G0 X30.500 Y8.664
G0 X30.663 Y8.664
G1 F2400 X-30.564 Y8.663 E346.68607
G0 F7500 X-30.400 Y8.663
G0 X-30.400 Y2.887
G0 X-30.564 Y2.887
G1 F2400 X30.663 Y2.888 E348.89049
G0 F7500 X30.500 Y2.888
G0 X30.500 Y-2.887
G0 X30.664 Y-2.887
G1 F2400 X-30.563 Y-2.888 E351.09492
G0 F7500 X-30.400 Y-2.888
G0 X-30.400 Y-8.664
G0 X-30.563 Y-8.664
G1 F2400 X30.664 Y-8.663 E353.29934
G0 F7500 X30.500 Y-8.663
G0 X30.500 Y-14.439
G0 X30.664 Y-14.439
G1 F2400 X-30.563 Y-14.440 E355.50376
G0 F7500 X-30.400 Y-14.440
G0 X-30.400 Y-20.216
G0 X-30.563 Y-20.216
G1 F2400 X30.664 Y-20.215 E357.70818
G0 F7500 X30.500 Y-20.215
G0 X30.500 Y-25.991
G0 X30.664 Y-25.991
G1 F2400 X-30.563 Y-25.992 E359.91261
;LAYER:6
G1 F2400 E358.91261
G0 F7500 X0.216 Y0.216 Z1.500
;TYPE:WALL-OUTER
G1 F2400 E359.91261
G1 F2700 X0.284 Y0.216 E359.91506
G1 X0.284 Y0.284 E359.91750
G1 X0.216 Y0.284 E359.91995
G1 X0.216 Y0.216 E359.92240
G0 F7500 X-0.700 Y-0.700
;TYPE:SUPPORT
G1 F2400 X-0.700 Y1.200 E359.99081
G1 X1.200 Y1.200 E360.05922
G1 X1.200 Y-0.700 E360.12762
