;Generated with Cura_SteamEngine 15.04.6

;Layer count: 16
;LAYER:0
M107
G0 F7500 X-33.716 Y-38.616 Z0.300
;TYPE:SKIRT
G1 F1800 X33.816 Y-38.616 E3.64714
G1 X33.816 Y38.816 E7.82895
G1 X-33.716 Y38.816 E11.47609
G1 X-33.716 Y-38.616 E15.65789
G1 F2400 E14.65789
G0 F7500 X0.216 Y0.216
;TYPE:WALL-OUTER
G1 F2400 E15.65789
G1 F1800 X0.284 Y0.216 E15.66157
G1 X0.284 Y0.284 E15.66524
G1 X0.216 Y0.284 E15.66891
G1 X0.216 Y0.216 E15.67258
G0 F7500 X-0.700 Y-0.700
;TYPE:SUPPORT
G1 F1800 X-0.700 Y1.200 E15.77519
G1 X1.200 Y1.200 E15.87781
G1 X1.200 Y-0.700 E15.98042
G1 X-0.700 Y-0.700 E16.08303
G0 F7500 X-0.690 Y-0.800
G0 X-30.500 Y-35.400
G1 F1800 X30.600 Y-35.400 E19.38281
G1 X30.600 Y35.600 E23.21724
G1 X-30.500 Y35.600 E26.51702
G1 X-30.500 Y-35.400 E30.35145
G0 F7500 X-30.400 Y-31.768
G0 X-30.563 Y-31.768
G1 F1800 X30.664 Y-31.767 E33.65809
G0 F7500 X30.500 Y-31.767
G0 X30.500 Y-25.991
G0 X30.664 Y-25.991
G1 F1800 X-30.563 Y-25.992 E36.96472
G0 F7500 X-30.400 Y-25.992
G0 X-30.400 Y-20.216
G0 X-30.563 Y-20.216
G1 F1800 X30.664 Y-20.215 E40.27136
G0 F7500 X30.500 Y-20.215
G0 X25.992 Y-35.300
G0 X25.992 Y-35.464
G1 F1800 X25.992 Y35.664 E44.11270
G0 F7500 X25.992 Y35.500
G0 X20.216 Y35.500
G0 X20.216 Y35.664
G1 F1800 X20.216 Y-35.464 E47.95405
G0 F7500 X20.216 Y-35.300
G0 X14.440 Y-35.300
G0 X14.440 Y-35.464
G1 F1800 X14.440 Y35.664 E51.79540
G0 F7500 X14.440 Y35.500
G0 X8.664 Y35.500
G0 X8.664 Y35.664
G1 F1800 X8.664 Y-35.464 E55.63675
G0 F7500 X8.664 Y-35.300
G0 X2.888 Y-35.300
G0 X2.888 Y-35.464
G1 F1800 X2.888 Y35.664 E59.47810
G0 F7500 X2.888 Y35.500
G0 X-2.888 Y35.500
G0 X-2.888 Y35.664
G1 F1800 X-2.888 Y-35.464 E63.31945
G0 F7500 X-2.888 Y-35.300
G0 X-8.664 Y-35.300
G0 X-8.664 Y-35.464
G1 F1800 X-8.664 Y35.664 E67.16080
G0 F7500 X-8.664 Y35.500
G0 X-14.440 Y35.500
G0 X-14.440 Y35.664
G1 F1800 X-14.440 Y-35.464 E71.00215
G0 F7500 X-14.440 Y-35.300
G0 X-20.216 Y-35.300
G0 X-20.216 Y-35.464
G1 F1800 X-20.216 Y35.664 E74.84350
G0 F7500 X-20.216 Y35.500
G0 X-25.992 Y35.500
G0 X-25.992 Y35.664
G1 F1800 X-25.992 Y-35.464 E78.68485
G0 F7500 X-25.992 Y-35.300
G0 X-30.400 Y-14.440
G0 X-30.563 Y-14.440
G1 F1800 X30.664 Y-14.439 E81.99148
G0 F7500 X30.500 Y-14.439
G0 X30.500 Y-8.663
G0 X30.664 Y-8.663
G1 F1800 X-30.563 Y-8.664 E85.29811
G0 F7500 X-30.400 Y-8.664
G0 X-30.400 Y-2.888
G0 X-30.563 Y-2.888
G1 F1800 X30.664 Y-2.887 E88.60475
G0 F7500 X30.500 Y-2.887
G0 X30.500 Y2.888
G0 X30.663 Y2.888
G1 F1800 X-30.564 Y2.887 E91.91138
G0 F7500 X-30.400 Y2.887
G0 X-30.400 Y8.663
G0 X-30.564 Y8.663
G1 F1800 X30.663 Y8.664 E95.21802
G0 F7500 X30.500 Y8.664
G0 X30.500 Y14.440
G0 X30.663 Y14.440
G1 F1800 X-30.564 Y14.439 E98.52465
G0 F7500 X-30.400 Y14.439
G0 X-30.400 Y20.215
G0 X-30.564 Y20.215
G1 F1800 X30.663 Y20.216 E101.83129
G0 F7500 X30.500 Y20.216
G0 X30.500 Y25.992
G0 X30.663 Y25.992
G1 F1800 X-30.564 Y25.991 E105.13792
G0 F7500 X-30.400 Y25.991
G0 X-30.400 Y31.767
G0 X-30.564 Y31.767
G1 F1800 X30.663 Y31.768 E108.44455
;LAYER:1
M106 S63
G1 F2400 E107.44455
G0 F7500 X0.284 Y0.284 Z0.500
;TYPE:WALL-OUTER
G1 F2400 E108.44455
G1 F1980 X0.216 Y0.284 E108.44700
G1 X0.216 Y0.216 E108.44945
G1 X0.284 Y0.216 E108.45190
G1 X0.284 Y0.284 E108.45435
G0 F7500 X1.200 Y1.200
;TYPE:SUPPORT
G1 F1920 X1.200 Y-0.700 E108.52275
G1 X-0.700 Y-0.700 E108.59116
G1 X-0.700 Y1.200 E108.65957
G1 X1.200 Y1.200 E108.72798
G0 F7500 X1.190 Y1.300
G0 X30.500 Y35.590
G0 X30.600 Y35.600
G1 F1920 X-30.500 Y35.600 E110.92783
G1 X-30.500 Y-35.400 E113.48412
G1 X30.600 Y-35.400 E115.68397
G1 X30.600 Y35.600 E118.24026
G0 F7500 X30.500 Y35.590
G0 X30.500 Y31.768
G0 X30.663 Y31.768
G1 F1920 X-30.564 Y31.767 E120.44468
G0 F7500 X-30.400 Y31.767
G0 X-30.400 Y25.991
G0 X-30.564 Y25.991
G1 F1920 X30.663 Y25.992 E122.64911
G0 F7500 X30.500 Y25.992
G0 X30.500 Y20.216
G0 X30.663 Y20.216
G1 F1920 X-30.564 Y20.215 E124.85353
G0 F7500 X-30.400 Y20.215
G0 X-25.992 Y35.500
G0 X-25.992 Y35.664
G1 F1920 X-25.992 Y-35.464 E127.41443
G0 F7500 X-25.992 Y-35.300
G0 X-20.216 Y-35.300
G0 X-20.216 Y-35.464
G1 F1920 X-20.216 Y35.664 E129.97533
G0 F7500 X-20.216 Y35.500
G0 X-14.440 Y35.500
G0 X-14.440 Y35.664
G1 F1920 X-14.440 Y-35.464 E132.53623
G0 F7500 X-14.440 Y-35.300
G0 X-8.664 Y-35.300
G0 X-8.664 Y-35.464
G1 F1920 X-8.664 Y35.664 E135.09713
G0 F7500 X-8.664 Y35.500
G0 X-2.888 Y35.500
G0 X-2.888 Y35.664
G1 F1920 X-2.888 Y-35.464 E137.65803
G0 F7500 X-2.888 Y-35.300
G0 X2.888 Y-35.300
G0 X2.888 Y-35.464
G1 F1920 X2.888 Y35.664 E140.21892
G0 F7500 X2.888 Y35.500
G0 X8.664 Y35.500
G0 X8.664 Y35.664
G1 F1920 X8.664 Y-35.464 E142.77982
G0 F7500 X8.664 Y-35.300
G0 X14.440 Y-35.300
G0 X14.440 Y-35.464
G1 F1920 X14.440 Y35.664 E145.34072
G0 F7500 X14.440 Y35.500
G0 X20.216 Y35.500
G0 X20.216 Y35.664
G1 F1920 X20.216 Y-35.464 E147.90162
G0 F7500 X20.216 Y-35.300
G0 X25.992 Y-35.300
G0 X25.992 Y-35.464
G1 F1920 X25.992 Y35.664 E150.46252
G0 F7500 X25.992 Y35.500
G0 X30.500 Y14.440
G0 X30.663 Y14.440
G1 F1920 X-30.564 Y14.439 E152.66694
G0 F7500 X-30.400 Y14.439
G0 X-30.400 Y8.663
G0 X-30.564 Y8.663
G1 F1920 X30.663 Y8.664 E154.87137
G0 F7500 X30.500 Y8.664
G0 X30.500 Y2.888
G0 X30.663 Y2.888
G1 F1920 X-30.564 Y2.887 E157.07579
G0 F7500 X-30.400 Y2.887
G0 X-30.400 Y-2.888
G0 X-30.563 Y-2.888
G1 F1920 X30.664 Y-2.887 E159.28021
G0 F7500 X30.500 Y-2.887
G0 X30.500 Y-8.663
G0 X30.664 Y-8.663
G1 F1920 X-30.563 Y-8.664 E161.48464
G0 F7500 X-30.400 Y-8.664
G0 X-30.400 Y-14.440
G0 X-30.563 Y-14.440
G1 F1920 X30.664 Y-14.439 E163.68906
G0 F7500 X30.500 Y-14.439
G0 X30.500 Y-20.215
G0 X30.664 Y-20.215
G1 F1920 X-30.563 Y-20.216 E165.89348
G0 F7500 X-30.400 Y-20.216
G0 X-30.400 Y-25.992
G0 X-30.563 Y-25.992
G1 F1920 X30.664 Y-25.991 E168.09790
G0 F7500 X30.500 Y-25.991
G0 X30.500 Y-31.767
G0 X30.664 Y-31.767
G1 F1920 X-30.563 Y-31.768 E170.30233
;LAYER:2
M106 S127
G1 F2400 E169.30233
G0 F7500 X0.216 Y0.216 Z0.700
;TYPE:WALL-OUTER
G1 F2400 E170.30233
G1 F2220 X0.284 Y0.216 E170.30478
G1 X0.284 Y0.284 E170.30722
G1 X0.216 Y0.284 E170.30967
G1 X0.216 Y0.216 E170.31212
G0 F7500 X-0.700 Y-0.700
;TYPE:SUPPORT
G1 F2100 X-0.700 Y1.200 E170.38053
G1 X1.200 Y1.200 E170.44894
G1 X1.200 Y-0.700 E170.51734
G1 X-0.700 Y-0.700 E170.58575
G0 F7500 X-0.690 Y-0.800
G0 X-30.500 Y-35.400
G1 F2100 X30.600 Y-35.400 E172.78560
G1 X30.600 Y35.600 E175.34189
G1 X-30.500 Y35.600 E177.54174
G1 X-30.500 Y-35.400 E180.09803
G0 F7500 X-30.400 Y-31.768
G0 X-30.563 Y-31.768
G1 F2100 X30.664 Y-31.767 E182.30246
G0 F7500 X30.500 Y-31.767
G0 X30.500 Y-25.991
G0 X30.664 Y-25.991
G1 F2100 X-30.563 Y-25.992 E184.50688
G0 F7500 X-30.400 Y-25.992
G0 X-30.400 Y-20.216
G0 X-30.563 Y-20.216
G1 F2100 X30.664 Y-20.215 E186.71130
G0 F7500 X30.500 Y-20.215
G0 X25.992 Y-35.300
G0 X25.992 Y-35.464
G1 F2100 X25.992 Y35.664 E189.27220
G0 F7500 X25.992 Y35.500
G0 X20.216 Y35.500
G0 X20.216 Y35.664
G1 F2100 X20.216 Y-35.464 E191.83310
G0 F7500 X20.216 Y-35.300
G0 X14.440 Y-35.300
G0 X14.440 Y-35.464
G1 F2100 X14.440 Y35.664 E194.39400
G0 F7500 X14.440 Y35.500
G0 X8.664 Y35.500
G0 X8.664 Y35.664
G1 F2100 X8.664 Y-35.464 E196.95490
G0 F7500 X8.664 Y-35.300
G0 X2.888 Y-35.300
G0 X2.888 Y-35.464
G1 F2100 X2.888 Y35.664 E199.51580
G0 F7500 X2.888 Y35.500
G0 X-2.888 Y35.500
G0 X-2.888 Y35.664
G1 F2100 X-2.888 Y-35.464 E202.07670
G0 F7500 X-2.888 Y-35.300
G0 X-8.664 Y-35.300
G0 X-8.664 Y-35.464
G1 F2100 X-8.664 Y35.664 E204.63760
G0 F7500 X-8.664 Y35.500
G0 X-14.440 Y35.500
G0 X-14.440 Y35.664
G1 F2100 X-14.440 Y-35.464 E207.19850
G0 F7500 X-14.440 Y-35.300
G0 X-20.216 Y-35.300
G0 X-20.216 Y-35.464
G1 F2100 X-20.216 Y35.664 E209.75940
G0 F7500 X-20.216 Y35.500
G0 X-25.992 Y35.500
G0 X-25.992 Y35.664
G1 F2100 X-25.992 Y-35.464 E212.32030
G0 F7500 X-25.992 Y-35.300
G0 X-30.400 Y-14.440
G0 X-30.563 Y-14.440
G1 F2100 X30.664 Y-14.439 E214.52472
G0 F7500 X30.500 Y-14.439
G0 X30.500 Y-8.663
G0 X30.664 Y-8.663
G1 F2100 X-30.563 Y-8.664 E216.72914
G0 F7500 X-30.400 Y-8.664
G0 X-30.400 Y-2.888
G0 X-30.563 Y-2.888
G1 F2100 X30.664 Y-2.887 E218.93356
G0 F7500 X30.500 Y-2.887
G0 X30.500 Y2.888
G0 X30.663 Y2.888
G1 F2100 X-30.564 Y2.887 E221.13799
G0 F7500 X-30.400 Y2.887
G0 X-30.400 Y8.663
G0 X-30.564 Y8.663
G1 F2100 X30.663 Y8.664 E223.34241
G0 F7500 X30.500 Y8.664
G0 X30.500 Y14.440
G0 X30.663 Y14.440
G1 F2100 X-30.564 Y14.439 E225.54683
G0 F7500 X-30.400 Y14.439
G0 X-30.400 Y20.215
G0 X-30.564 Y20.215
G1 F2100 X30.663 Y20.216 E227.75126
G0 F7500 X30.500 Y20.216
G0 X30.500 Y25.992
G0 X30.663 Y25.992
G1 F2100 X-30.564 Y25.991 E229.95568
G0 F7500 X-30.400 Y25.991
G0 X-30.400 Y31.767
G0 X-30.564 Y31.767
G1 F2100 X30.663 Y31.768 E232.16010
;LAYER:3
G1 F2400 E231.16010
G0 F7500 X0.284 Y0.284 Z0.900
;TYPE:WALL-OUTER
G1 F2400 E232.16010
G1 X0.216 Y0.284 E232.16255
G1 X0.216 Y0.216 E232.16500
G1 X0.284 Y0.216 E232.16745
G1 X0.284 Y0.284 E232.16989
G0 F7500 X1.200 Y1.200
;TYPE:SUPPORT
G1 F2220 X1.200 Y-0.700 E232.23830
G1 X-0.700 Y-0.700 E232.30671
G1 X-0.700 Y1.200 E232.37512
G1 X1.200 Y1.200 E232.44353
G0 F7500 X1.190 Y1.300
G0 X30.500 Y35.590
G0 X30.600 Y35.600
G1 F2220 X-30.500 Y35.600 E234.64338
G1 X-30.500 Y-35.400 E237.19967
G1 X30.600 Y-35.400 E239.39952
G1 X30.600 Y35.600 E241.95581
G0 F7500 X30.500 Y35.590
G0 X30.500 Y31.768
G0 X30.663 Y31.768
G1 F2220 X-30.564 Y31.767 E244.16023
G0 F7500 X-30.400 Y31.767
G0 X-30.400 Y25.991
G0 X-30.564 Y25.991
G1 F2220 X30.663 Y25.992 E246.36465
G0 F7500 X30.500 Y25.992
G0 X30.500 Y20.216
G0 X30.663 Y20.216
G1 F2220 X-30.564 Y20.215 E248.56908
G0 F7500 X-30.400 Y20.215
G0 X-25.992 Y35.500
G0 X-25.992 Y35.664
G1 F2220 X-25.992 Y-35.464 E251.12998
G0 F7500 X-25.992 Y-35.300
G0 X-20.216 Y-35.300
G0 X-20.216 Y-35.464
G1 F2220 X-20.216 Y35.664 E253.69087
G0 F7500 X-20.216 Y35.500
G0 X-14.440 Y35.500
G0 X-14.440 Y35.664
G1 F2220 X-14.440 Y-35.464 E256.25177
G0 F7500 X-14.440 Y-35.300
G0 X-8.664 Y-35.300
G0 X-8.664 Y-35.464
G1 F2220 X-8.664 Y35.664 E258.81267
G0 F7500 X-8.664 Y35.500
G0 X-2.888 Y35.500
G0 X-2.888 Y35.664
G1 F2220 X-2.888 Y-35.464 E261.37357
G0 F7500 X-2.888 Y-35.300
G0 X2.888 Y-35.300
G0 X2.888 Y-35.464
G1 F2220 X2.888 Y35.664 E263.93447
G0 F7500 X2.888 Y35.500
G0 X8.664 Y35.500
G0 X8.664 Y35.664
G1 F2220 X8.664 Y-35.464 E266.49537
G0 F7500 X8.664 Y-35.300
G0 X14.440 Y-35.300
G0 X14.440 Y-35.464
G1 F2220 X14.440 Y35.664 E269.05627
G0 F7500 X14.440 Y35.500
G0 X20.216 Y35.500
G0 X20.216 Y35.664
G1 F2220 X20.216 Y-35.464 E271.61717
G0 F7500 X20.216 Y-35.300
G0 X25.992 Y-35.300
G0 X25.992 Y-35.464
G1 F2220 X25.992 Y35.664 E274.17807
G0 F7500 X25.992 Y35.500
G0 X30.500 Y14.440
G0 X30.663 Y14.440
G1 F2220 X-30.564 Y14.439 E276.38249
G0 F7500 X-30.400 Y14.439
G0 X-30.400 Y8.663
G0 X-30.564 Y8.663
G1 F2220 X30.663 Y8.664 E278.58691
G0 F7500 X30.500 Y8.664
G0 X30.500 Y2.888
G0 X30.663 Y2.888
G1 F2220 X-30.564 Y2.887 E280.79134
G0 F7500 X-30.400 Y2.887
G0 X-30.400 Y-2.888
G0 X-30.563 Y-2.888
G1 F2220 X30.664 Y-2.887 E282.99576
G0 F7500 X30.500 Y-2.887
G0 X30.500 Y-8.663
G0 X30.664 Y-8.663
G1 F2220 X-30.563 Y-8.664 E285.20018
G0 F7500 X-30.400 Y-8.664
G0 X-30.400 Y-14.440
G0 X-30.563 Y-14.440
G1 F2220 X30.664 Y-14.439 E287.40461
G0 F7500 X30.500 Y-14.439
G0 X30.500 Y-20.215
G0 X30.664 Y-20.215
G1 F2220 X-30.563 Y-20.216 E289.60903
G0 F7500 X-30.400 Y-20.216
G0 X-30.400 Y-25.992
G0 X-30.563 Y-25.992
G1 F2220 X30.664 Y-25.991 E291.81345
G0 F7500 X30.500 Y-25.991
G0 X30.500 Y-31.767
G0 X30.664 Y-31.767
G1 F2220 X-30.563 Y-31.768 E294.01787
;LAYER:4
G1 F2400 E293.01787
G0 F7500 X0.216 Y0.216 Z1.100
;TYPE:WALL-OUTER
G1 F2400 E294.01787
G1 F2700 X0.284 Y0.216 E294.02032
G1 X0.284 Y0.284 E294.02277
G1 X0.216 Y0.284 E294.02522
G1 X0.216 Y0.216 E294.02767
G0 F7500 X-0.700 Y-0.700
;TYPE:SUPPORT
G1 F2400 X-0.700 Y1.200 E294.09608
G1 X1.200 Y1.200 E294.16448
G1 X1.200 Y-0.700 E294.23289
G1 X-0.700 Y-0.700 E294.30130
G0 F7500 X-0.690 Y-0.800
G0 X-30.500 Y-35.400
G1 F2400 X30.600 Y-35.400 E296.50115
G1 X30.600 Y35.600 E299.05744
G1 X-30.500 Y35.600 E301.25729
G1 X-30.500 Y-35.400 E303.81358
G0 F7500 X-30.400 Y-31.768
G0 X-30.563 Y-31.768
G1 F2400 X30.664 Y-31.767 E306.01800
G0 F7500 X30.500 Y-31.767
G0 X30.500 Y-25.991
G0 X30.664 Y-25.991
G1 F2400 X-30.563 Y-25.992 E308.22243
G0 F7500 X-30.400 Y-25.992
G0 X-30.400 Y-20.216
G0 X-30.563 Y-20.216
G1 F2400 X30.664 Y-20.215 E310.42685
G0 F7500 X30.500 Y-20.215
G0 X25.992 Y-35.300
G0 X25.992 Y-35.464
G1 F2400 X25.992 Y35.664 E312.98775
G0 F7500 X25.992 Y35.500
G0 X20.216 Y35.500
G0 X20.216 Y35.664
G1 F2400 X20.216 Y-35.464 E315.54865
G0 F7500 X20.216 Y-35.300
G0 X14.440 Y-35.300
G0 X14.440 Y-35.464
G1 F2400 X14.440 Y35.664 E318.10955
G0 F7500 X14.440 Y35.500
G0 X8.664 Y35.500
G0 X8.664 Y35.664
G1 F2400 X8.664 Y-35.464 E320.67045
G0 F7500 X8.664 Y-35.300
G0 X2.888 Y-35.300
G0 X2.888 Y-35.464
G1 F2400 X2.888 Y35.664 E323.23135
G0 F7500 X2.888 Y35.500
G0 X-2.888 Y35.500
G0 X-2.888 Y35.664
G1 F2400 X-2.888 Y-35.464 E325.79225
G0 F7500 X-2.888 Y-35.300
G0 X-8.664 Y-35.300
G0 X-8.664 Y-35.464
G1 F2400 X-8.664 Y35.664 E328.35314
G0 F7500 X-8.664 Y35.500
G0 X-14.440 Y35.500
G0 X-14.440 Y35.664
G1 F2400 X-14.440 Y-35.464 E330.91404
G0 F7500 X-14.440 Y-35.300
G0 X-20.216 Y-35.300
G0 X-20.216 Y-35.464
G1 F2400 X-20.216 Y35.664 E333.47494
G0 F7500 X-20.216 Y35.500
G0 X-25.992 Y35.500
G0 X-25.992 Y35.664
G1 F2400 X-25.992 Y-35.464 E336.03584
G0 F7500 X-25.992 Y-35.300
G0 X-30.400 Y-14.440
G0 X-30.563 Y-14.440
G1 F2400 X30.664 Y-14.439 E338.24027
G0 F7500 X30.500 Y-14.439
G0 X30.500 Y-8.663
G0 X30.664 Y-8.663
G1 F2400 X-30.563 Y-8.664 E340.44469
G0 F7500 X-30.400 Y-8.664
G0 X-30.400 Y-2.888
G0 X-30.563 Y-2.888
G1 F2400 X30.664 Y-2.887 E342.64911
G0 F7500 X30.500 Y-2.887
G0 X30.500 Y2.888
G0 X30.663 Y2.888
G1 F2400 X-30.564 Y2.887 E344.85353
G0 F7500 X-30.400 Y2.887
G0 X-30.400 Y8.663
G0 X-30.564 Y8.663
G1 F2400 X30.663 Y8.664 E347.05796
G0 F7500 X30.500 Y8.664
G0 X30.500 Y14.440
G0 X30.663 Y14.440
G1 F2400 X-30.564 Y14.439 E349.26238
G0 F7500 X-30.400 Y14.439
G0 X-30.400 Y20.215
G0 X-30.564 Y20.215
G1 F2400 X30.663 Y20.216 E351.46680
G0 F7500 X30.500 Y20.216
G0 X30.500 Y25.992
G0 X30.663 Y25.992
G1 F2400 X-30.564 Y25.991 E353.67123
G0 F7500 X-30.400 Y25.991
G0 X-30.400 Y31.767
G0 X-30.564 Y31.767
G1 F2400 X30.663 Y31.768 E355.87565
;LAYER:5
G1 F2400 E354.87565
G0 F7500 X0.284 Y0.284 Z1.300
;TYPE:WALL-OUTER
G1 F2400 E355.87565
G1 F2700 X0.216 Y0.284 E355.87810
G1 X0.216 Y0.216 E355.88054
G1 X0.284 Y0.216 E355.88299
G1 X0.284 Y0.284 E355.88544
G0 F7500 X1.200 Y1.200
;TYPE:SUPPORT
G1 F2400 X1.200 Y-0.700 E355.95385
G1 X-0.700 Y-0.700 E356.02226
G1 X-0.700 Y1.200 E356.09066
G1 X1.200 Y1.200 E356.15907
G0 F7500 X1.190 Y1.300
G0 X30.500 Y35.590
G0 X30.600 Y35.600
G1 F2400 X-30.500 Y35.600 E358.35892
G1 X-30.500 Y-35.400 E360.91521
G1 X30.600 Y-35.400 E363.11506
G1 X30.600 Y35.600 E365.67135
G0 F7500 X30.500 Y35.590
G0 X30.500 Y31.768
G0 X30.663 Y31.768
G1 F2400 X-30.564 Y31.767 E367.87578
G0 F7500 X-30.400 Y31.767
G0 X-30.400 Y25.991
G0 X-30.564 Y25.991
G1 F2400 X30.663 Y25.992 E370.08020
G0 F7500 X30.500 Y25.992
G0 X30.500 Y20.216
G0 X30.663 Y20.216
G1 F2400 X-30.564 Y20.215 E372.28462
G0 F7500 X-30.400 Y20.215
G0 X-25.992 Y35.500
G0 X-25.992 Y35.664
G1 F2400 X-25.992 Y-35.464 E374.84552
G0 F7500 X-25.992 Y-35.300
G0 X-20.216 Y-35.300
G0 X-20.216 Y-35.464
G1 F2400 X-20.216 Y35.664 E377.40642
G0 F7500 X-20.216 Y35.500
G0 X-14.440 Y35.500
G0 X-14.440 Y35.664
G1 F2400 X-14.440 Y-35.464 E379.96732
G0 F7500 X-14.440 Y-35.300
G0 X-8.664 Y-35.300
G0 X-8.664 Y-35.464
G1 F2400 X-8.664 Y35.664 E382.52822
G0 F7500 X-8.664 Y35.500
G0 X-2.888 Y35.500
G0 X-2.888 Y35.664
G1 F2400 X-2.888 Y-35.464 E385.08912
G0 F7500 X-2.888 Y-35.300
G0 X2.888 Y-35.300
G0 X2.888 Y-35.464
G1 F2400 X2.888 Y35.664 E387.65002
G0 F7500 X2.888 Y35.500
G0 X8.664 Y35.500
G0 X8.664 Y35.664
G1 F2400 X8.664 Y-35.464 E390.21092
G0 F7500 X8.664 Y-35.300
G0 X14.440 Y-35.300
G0 X14.440 Y-35.464
G1 F2400 X14.440 Y35.664 E392.77182
G0 F7500 X14.440 Y35.500
G0 X20.216 Y35.500
G0 X20.216 Y35.664
G1 F2400 X20.216 Y-35.464 E395.33272
G0 F7500 X20.216 Y-35.300
G0 X25.992 Y-35.300
G0 X25.992 Y-35.464
G1 F2400 X25.992 Y35.664 E397.89362
