;Generated with Cura_SteamEngine 15.04.6

;Layer count: 16
;LAYER:0
M107
G0 F7500 X-33.716 Y-43.616 Z0.300
;TYPE:SKIRT
G1 F1800 X33.816 Y-43.616 E3.64714
G1 X33.816 Y43.816 E8.36901
G1 X-33.716 Y43.816 E12.01615
G1 X-33.716 Y-43.616 E16.73802
G1 F2400 E15.73802
G0 F7500 X0.216 Y0.216
;TYPE:WALL-OUTER
G1 F2400 E16.73802
G1 F1800 X0.284 Y0.216 E16.74169
G1 X0.284 Y0.284 E16.74536
G1 X0.216 Y0.284 E16.74903
G1 X0.216 Y0.216 E16.75271
G0 F7500 X-0.700 Y-0.700
;TYPE:SUPPORT
G1 F1800 X-0.700 Y1.200 E16.85532
G1 X1.200 Y1.200 E16.95793
G1 X1.200 Y-0.700 E17.06054
G1 X-0.700 Y-0.700 E17.16315
G0 F7500 X-0.690 Y-0.800
G0 X-30.500 Y-40.400
G1 F1800 X30.600 Y-40.400 E20.46293
G1 X30.600 Y40.600 E24.83743
G1 X-30.500 Y40.600 E28.13720
G1 X-30.500 Y-40.400 E32.51170
G0 F7500 X-25.992 Y-40.300
G0 X-25.992 Y-40.464
G1 F1800 X-25.992 Y40.664 E36.89311
G0 F7500 X-25.992 Y40.500
G0 X-20.216 Y40.500
G0 X-20.216 Y40.664
G1 F1800 X-20.216 Y-40.464 E41.27452
G0 F7500 X-20.216 Y-40.300
G0 X-14.440 Y-40.300
G0 X-14.440 Y-40.464
G1 F1800 X-14.440 Y40.664 E45.65593
G0 F7500 X-14.440 Y40.500
G0 X-8.664 Y40.500
G0 X-8.664 Y40.664
G1 F1800 X-8.664 Y-40.464 E50.03734
G0 F7500 X-8.664 Y-40.300
G0 X-2.888 Y-40.300
G0 X-2.888 Y-40.464
G1 F1800 X-2.888 Y40.664 E54.41875
G0 F7500 X-2.888 Y40.500
G0 X2.888 Y40.500
G0 X2.888 Y40.664
G1 F1800 X2.888 Y-40.464 E58.80016
G0 F7500 X2.888 Y-40.300
G0 X8.664 Y-40.300
G0 X8.664 Y-40.464
G1 F1800 X8.664 Y40.664 E63.18157
G0 F7500 X8.664 Y40.500
G0 X14.440 Y40.500
G0 X14.440 Y40.664
G1 F1800 X14.440 Y-40.464 E67.56298
G0 F7500 X14.440 Y-40.300
G0 X20.216 Y-40.300
G0 X20.216 Y-40.464
G1 F1800 X20.216 Y40.664 E71.94439
G0 F7500 X20.216 Y40.500
G0 X25.992 Y40.500
G0 X25.992 Y40.664
G1 F1800 X25.992 Y-40.464 E76.32580
G0 F7500 X25.992 Y-40.300
G0 X30.500 Y-37.543
G0 X30.664 Y-37.543
G1 F1800 X-30.563 Y-37.544 E79.63244
G0 F7500 X-30.400 Y-37.544
G0 X-30.400 Y-31.768
G0 X-30.563 Y-31.768
G1 F1800 X30.664 Y-31.767 E82.93907
G0 F7500 X30.500 Y-31.767
G0 X30.500 Y-25.991
G0 X30.664 Y-25.991
G1 F1800 X-30.563 Y-25.992 E86.24571
G0 F7500 X-30.400 Y-25.992
G0 X-30.400 Y-20.216
G0 X-30.563 Y-20.216
G1 F1800 X30.664 Y-20.215 E89.55234
G0 F7500 X30.500 Y-20.215
G0 X30.500 Y-14.439
G0 X30.664 Y-14.439
G1 F1800 X-30.563 Y-14.440 E92.85897
G0 F7500 X-30.400 Y-14.440
G0 X-30.400 Y-8.664
G0 X-30.563 Y-8.664
G1 F1800 X30.664 Y-8.663 E96.16561
G0 F7500 X30.500 Y-8.663
G0 X30.500 Y-2.887
G0 X30.664 Y-2.887
G1 F1800 X-30.563 Y-2.888 E99.47224
G0 F7500 X-30.400 Y-2.888
G0 X-30.400 Y2.887
G0 X-30.564 Y2.887
G1 F1800 X30.663 Y2.888 E102.77888
G0 F7500 X30.500 Y2.888
G0 X30.500 Y8.664
G0 X30.663 Y8.664
G1 F1800 X-30.564 Y8.663 E106.08551
G0 F7500 X-30.400 Y8.663
G0 X-30.400 Y14.439
G0 X-30.564 Y14.439
G1 F1800 X30.663 Y14.440 E109.39215
G0 F7500 X30.500 Y14.440
G0 X30.500 Y20.216
G0 X30.663 Y20.216
G1 F1800 X-30.564 Y20.215 E112.69878
G0 F7500 X-30.400 Y20.215
G0 X-30.400 Y25.991
G0 X-30.564 Y25.991
G1 F1800 X30.663 Y25.992 E116.00541
G0 F7500 X30.500 Y25.992
G0 X30.500 Y31.768
G0 X30.663 Y31.768
G1 F1800 X-30.564 Y31.767 E119.31205
G0 F7500 X-30.400 Y31.767
G0 X-30.400 Y37.543
G0 X-30.564 Y37.543
G1 F1800 X30.663 Y37.544 E122.61868
;LAYER:1
M106 S63
G1 F2400 E121.61868
G0 F7500 X0.284 Y0.284 Z0.500
;TYPE:WALL-OUTER
G1 F2400 E122.61868
G1 F1980 X0.216 Y0.284 E122.62113
G1 X0.216 Y0.216 E122.62358
G1 X0.284 Y0.216 E122.62603
G1 X0.284 Y0.284 E122.62848
G0 F7500 X1.200 Y1.200
;TYPE:SUPPORT
G1 F1920 X1.200 Y-0.700 E122.69688
G1 X-0.700 Y-0.700 E122.76529
G1 X-0.700 Y1.200 E122.83370
G1 X1.200 Y1.200 E122.90211
G0 F7500 X1.190 Y1.300
G0 X30.500 Y40.590
G0 X30.600 Y40.600
G1 F1920 X-30.500 Y40.600 E125.10196
G1 X-30.500 Y-40.400 E128.01829
G1 X30.600 Y-40.400 E130.21814
G1 X30.600 Y40.600 E133.13447
G0 F7500 X30.500 Y40.590
G0 X25.992 Y40.500
G0 X25.992 Y40.664
G1 F1920 X25.992 Y-40.464 E136.05541
G0 F7500 X25.992 Y-40.300
G0 X20.216 Y-40.300
G0 X20.216 Y-40.464
G1 F1920 X20.216 Y40.664 E138.97635
G0 F7500 X20.216 Y40.500
G0 X14.440 Y40.500
G0 X14.440 Y40.664
G1 F1920 X14.440 Y-40.464 E141.89729
G0 F7500 X14.440 Y-40.300
G0 X8.664 Y-40.300
G0 X8.664 Y-40.464
G1 F1920 X8.664 Y40.664 E144.81823
G0 F7500 X8.664 Y40.500
G0 X2.888 Y40.500
G0 X2.888 Y40.664
G1 F1920 X2.888 Y-40.464 E147.73917
G0 F7500 X2.888 Y-40.300
G0 X-2.888 Y-40.300
G0 X-2.888 Y-40.464
G1 F1920 X-2.888 Y40.664 E150.66011
G0 F7500 X-2.888 Y40.500
G0 X-8.664 Y40.500
G0 X-8.664 Y40.664
G1 F1920 X-8.664 Y-40.464 E153.58105
G0 F7500 X-8.664 Y-40.300
G0 X-14.440 Y-40.300
G0 X-14.440 Y-40.464
G1 F1920 X-14.440 Y40.664 E156.50199
G0 F7500 X-14.440 Y40.500
G0 X-20.216 Y40.500
G0 X-20.216 Y40.664
G1 F1920 X-20.216 Y-40.464 E159.42293
G0 F7500 X-20.216 Y-40.300
G0 X-25.992 Y-40.300
G0 X-25.992 Y-40.464
G1 F1920 X-25.992 Y40.664 E162.34387
G0 F7500 X-25.992 Y40.500
G0 X-30.400 Y37.543
G0 X-30.564 Y37.543
G1 F1920 X30.663 Y37.544 E164.54830
G0 F7500 X30.500 Y37.544
G0 X30.500 Y31.768
G0 X30.663 Y31.768
G1 F1920 X-30.564 Y31.767 E166.75272
G0 F7500 X-30.400 Y31.767
G0 X-30.400 Y25.991
G0 X-30.564 Y25.991
G1 F1920 X30.663 Y25.992 E168.95714
G0 F7500 X30.500 Y25.992
G0 X30.500 Y20.216
G0 X30.663 Y20.216
G1 F1920 X-30.564 Y20.215 E171.16157
G0 F7500 X-30.400 Y20.215
G0 X-30.400 Y14.439
G0 X-30.564 Y14.439
G1 F1920 X30.663 Y14.440 E173.36599
G0 F7500 X30.500 Y14.440
G0 X30.500 Y8.664
G0 X30.663 Y8.664
G1 F1920 X-30.564 Y8.663 E175.57041
G0 F7500 X-30.400 Y8.663
G0 X-30.400 Y2.887
G0 X-30.564 Y2.887
G1 F1920 X30.663 Y2.888 E177.77483
G0 F7500 X30.500 Y2.888
G0 X30.500 Y-2.887
G0 X30.664 Y-2.887
G1 F1920 X-30.563 Y-2.888 E179.97926
G0 F7500 X-30.400 Y-2.888
G0 X-30.400 Y-8.664
G0 X-30.563 Y-8.664
G1 F1920 X30.664 Y-8.663 E182.18368
G0 F7500 X30.500 Y-8.663
G0 X30.500 Y-14.439
G0 X30.664 Y-14.439
G1 F1920 X-30.563 Y-14.440 E184.38810
G0 F7500 X-30.400 Y-14.440
G0 X-30.400 Y-20.216
G0 X-30.563 Y-20.216
G1 F1920 X30.664 Y-20.215 E186.59252
G0 F7500 X30.500 Y-20.215
G0 X30.500 Y-25.991
G0 X30.664 Y-25.991
G1 F1920 X-30.563 Y-25.992 E188.79695
G0 F7500 X-30.400 Y-25.992
G0 X-30.400 Y-31.768
G0 X-30.563 Y-31.768
G1 F1920 X30.664 Y-31.767 E191.00137
G0 F7500 X30.500 Y-31.767
G0 X30.500 Y-37.543
G0 X30.664 Y-37.543
G1 F1920 X-30.563 Y-37.544 E193.20579
;LAYER:2
M106 S127
G1 F2400 E192.20579
G0 F7500 X0.216 Y0.216 Z0.700
;TYPE:WALL-OUTER
G1 F2400 E193.20579
G1 F2220 X0.284 Y0.216 E193.20824
G1 X0.284 Y0.284 E193.21069
G1 X0.216 Y0.284 E193.21314
G1 X0.216 Y0.216 E193.21559
G0 F7500 X-0.700 Y-0.700
;TYPE:SUPPORT
G1 F2100 X-0.700 Y1.200 E193.28399
G1 X1.200 Y1.200 E193.35240
G1 X1.200 Y-0.700 E193.42081
G1 X-0.700 Y-0.700 E193.48922
G0 F7500 X-0.690 Y-0.800
G0 X-30.500 Y-40.400
G1 F2100 X30.600 Y-40.400 E195.68907
G1 X30.600 Y40.600 E198.60540
G1 X-30.500 Y40.600 E200.80525
G1 X-30.500 Y-40.400 E203.72158
G0 F7500 X-25.992 Y-40.300
G0 X-25.992 Y-40.464
G1 F2100 X-25.992 Y40.664 E206.64252
G0 F7500 X-25.992 Y40.500
G0 X-20.216 Y40.500
G0 X-20.216 Y40.664
G1 F2100 X-20.216 Y-40.464 E209.56346
G0 F7500 X-20.216 Y-40.300
G0 X-14.440 Y-40.300
G0 X-14.440 Y-40.464
G1 F2100 X-14.440 Y40.664 E212.48440
G0 F7500 X-14.440 Y40.500
G0 X-8.664 Y40.500
G0 X-8.664 Y40.664
G1 F2100 X-8.664 Y-40.464 E215.40534
G0 F7500 X-8.664 Y-40.300
G0 X-2.888 Y-40.300
G0 X-2.888 Y-40.464
G1 F2100 X-2.888 Y40.664 E218.32628
G0 F7500 X-2.888 Y40.500
G0 X2.888 Y40.500
G0 X2.888 Y40.664
G1 F2100 X2.888 Y-40.464 E221.24722
G0 F7500 X2.888 Y-40.300
G0 X8.664 Y-40.300
G0 X8.664 Y-40.464
G1 F2100 X8.664 Y40.664 E224.16816
G0 F7500 X8.664 Y40.500
G0 X14.440 Y40.500
G0 X14.440 Y40.664
G1 F2100 X14.440 Y-40.464 E227.08910
G0 F7500 X14.440 Y-40.300
G0 X20.216 Y-40.300
G0 X20.216 Y-40.464
G1 F2100 X20.216 Y40.664 E230.01004
G0 F7500 X20.216 Y40.500
G0 X25.992 Y40.500
G0 X25.992 Y40.664
G1 F2100 X25.992 Y-40.464 E232.93098
G0 F7500 X25.992 Y-40.300
G0 X30.500 Y-37.543
G0 X30.664 Y-37.543
G1 F2100 X-30.563 Y-37.544 E235.13541
G0 F7500 X-30.400 Y-37.544
G0 X-30.400 Y-31.768
G0 X-30.563 Y-31.768
G1 F2100 X30.664 Y-31.767 E237.33983
G0 F7500 X30.500 Y-31.767
G0 X30.500 Y-25.991
G0 X30.664 Y-25.991
G1 F2100 X-30.563 Y-25.992 E239.54425
G0 F7500 X-30.400 Y-25.992
G0 X-30.400 Y-20.216
G0 X-30.563 Y-20.216
G1 F2100 X30.664 Y-20.215 E241.74868
G0 F7500 X30.500 Y-20.215
G0 X30.500 Y-14.439
G0 X30.664 Y-14.439
G1 F2100 X-30.563 Y-14.440 E243.95310
G0 F7500 X-30.400 Y-14.440
G0 X-30.400 Y-8.664
G0 X-30.563 Y-8.664
G1 F2100 X30.664 Y-8.663 E246.15752
G0 F7500 X30.500 Y-8.663
G0 X30.500 Y-2.887
G0 X30.664 Y-2.887
G1 F2100 X-30.563 Y-2.888 E248.36194
G0 F7500 X-30.400 Y-2.888
G0 X-30.400 Y2.887
G0 X-30.564 Y2.887
G1 F2100 X30.663 Y2.888 E250.56637
G0 F7500 X30.500 Y2.888
G0 X30.500 Y8.664
G0 X30.663 Y8.664
G1 F2100 X-30.564 Y8.663 E252.77079
G0 F7500 X-30.400 Y8.663
G0 X-30.400 Y14.439
G0 X-30.564 Y14.439
G1 F2100 X30.663 Y14.440 E254.97521
G0 F7500 X30.500 Y14.440
G0 X30.500 Y20.216
G0 X30.663 Y20.216
G1 F2100 X-30.564 Y20.215 E257.17964
G0 F7500 X-30.400 Y20.215
G0 X-30.400 Y25.991
G0 X-30.564 Y25.991
G1 F2100 X30.663 Y25.992 E259.38406
G0 F7500 X30.500 Y25.992
G0 X30.500 Y31.768
G0 X30.663 Y31.768
G1 F2100 X-30.564 Y31.767 E261.58848
G0 F7500 X-30.400 Y31.767
G0 X-30.400 Y37.543
G0 X-30.564 Y37.543
G1 F2100 X30.663 Y37.544 E263.79290
;LAYER:3
G1 F2400 E262.79290
G0 F7500 X0.284 Y0.284 Z0.900
;TYPE:WALL-OUTER
G1 F2400 E263.79290
G1 X0.216 Y0.284 E263.79535
G1 X0.216 Y0.216 E263.79780
G1 X0.284 Y0.216 E263.80025
G1 X0.284 Y0.284 E263.80270
G0 F7500 X1.200 Y1.200
;TYPE:SUPPORT
G1 F2220 X1.200 Y-0.700 E263.87110
G1 X-0.700 Y-0.700 E263.93951
G1 X-0.700 Y1.200 E264.00792
G1 X1.200 Y1.200 E264.07633
G0 F7500 X1.190 Y1.300
G0 X30.500 Y40.590
G0 X30.600 Y40.600
G1 F2220 X-30.500 Y40.600 E266.27618
G1 X-30.500 Y-40.400 E269.19251
G1 X30.600 Y-40.400 E271.39236
G1 X30.600 Y40.600 E274.30869
G0 F7500 X30.500 Y40.590
G0 X25.992 Y40.500
G0 X25.992 Y40.664
G1 F2220 X25.992 Y-40.464 E277.22963
G0 F7500 X25.992 Y-40.300
G0 X20.216 Y-40.300
G0 X20.216 Y-40.464
G1 F2220 X20.216 Y40.664 E280.15057
G0 F7500 X20.216 Y40.500
G0 X14.440 Y40.500
G0 X14.440 Y40.664
G1 F2220 X14.440 Y-40.464 E283.07151
G0 F7500 X14.440 Y-40.300
G0 X8.664 Y-40.300
G0 X8.664 Y-40.464
G1 F2220 X8.664 Y40.664 E285.99245
G0 F7500 X8.664 Y40.500
G0 X2.888 Y40.500
G0 X2.888 Y40.664
G1 F2220 X2.888 Y-40.464 E288.91339
G0 F7500 X2.888 Y-40.300
G0 X-2.888 Y-40.300
G0 X-2.888 Y-40.464
G1 F2220 X-2.888 Y40.664 E291.83433
G0 F7500 X-2.888 Y40.500
G0 X-8.664 Y40.500
G0 X-8.664 Y40.664
G1 F2220 X-8.664 Y-40.464 E294.75527
G0 F7500 X-8.664 Y-40.300
G0 X-14.440 Y-40.300
G0 X-14.440 Y-40.464
G1 F2220 X-14.440 Y40.664 E297.67621
G0 F7500 X-14.440 Y40.500
G0 X-20.216 Y40.500
G0 X-20.216 Y40.664
G1 F2220 X-20.216 Y-40.464 E300.59715
G0 F7500 X-20.216 Y-40.300
G0 X-25.992 Y-40.300
G0 X-25.992 Y-40.464
G1 F2220 X-25.992 Y40.664 E303.51810
G0 F7500 X-25.992 Y40.500
G0 X-30.400 Y37.543
G0 X-30.564 Y37.543
G1 F2220 X30.663 Y37.544 E305.72252
G0 F7500 X30.500 Y37.544
G0 X30.500 Y31.768
G0 X30.663 Y31.768
G1 F2220 X-30.564 Y31.767 E307.92694
G0 F7500 X-30.400 Y31.767
G0 X-30.400 Y25.991
G0 X-30.564 Y25.991
G1 F2220 X30.663 Y25.992 E310.13136
G0 F7500 X30.500 Y25.992
G0 X30.500 Y20.216
G0 X30.663 Y20.216
G1 F2220 X-30.564 Y20.215 E312.33579
G0 F7500 X-30.400 Y20.215
G0 X-30.400 Y14.439
G0 X-30.564 Y14.439
G1 F2220 X30.663 Y14.440 E314.54021
G0 F7500 X30.500 Y14.440
G0 X30.500 Y8.664
G0 X30.663 Y8.664
G1 F2220 X-30.564 Y8.663 E316.74463
G0 F7500 X-30.400 Y8.663
G0 X-30.400 Y2.887
G0 X-30.564 Y2.887
G1 F2220 X30.663 Y2.888 E318.94905
G0 F7500 X30.500 Y2.888
G0 X30.500 Y-2.887
G0 X30.664 Y-2.887
G1 F2220 X-30.563 Y-2.888 E321.15348
G0 F7500 X-30.400 Y-2.888
G0 X-30.400 Y-8.664
G0 X-30.563 Y-8.664
G1 F2220 X30.664 Y-8.663 E323.35790
G0 F7500 X30.500 Y-8.663
G0 X30.500 Y-14.439
G0 X30.664 Y-14.439
G1 F2220 X-30.563 Y-14.440 E325.56232
G0 F7500 X-30.400 Y-14.440
G0 X-30.400 Y-20.216
G0 X-30.563 Y-20.216
G1 F2220 X30.664 Y-20.215 E327.76675
G0 F7500 X30.500 Y-20.215
G0 X30.500 Y-25.991
G0 X30.664 Y-25.991
G1 F2220 X-30.563 Y-25.992 E329.97117
G0 F7500 X-30.400 Y-25.992
G0 X-30.400 Y-31.768
G0 X-30.563 Y-31.768
G1 F2220 X30.664 Y-31.767 E332.17559
G0 F7500 X30.500 Y-31.767
G0 X30.500 Y-37.543
G0 X30.664 Y-37.543
G1 F2220 X-30.563 Y-37.544 E334.38001
;LAYER:4
G1 F2400 E333.38001
G0 F7500 X0.216 Y0.216 Z1.100
;TYPE:WALL-OUTER
G1 F2400 E334.38001
G1 F2700 X0.284 Y0.216 E334.38246
G1 X0.284 Y0.284 E334.38491
G1 X0.216 Y0.284 E334.38736
G1 X0.216 Y0.216 E334.38981
G0 F7500 X-0.700 Y-0.700
;TYPE:SUPPORT
G1 F2400 X-0.700 Y1.200 E334.45822
G1 X1.200 Y1.200 E334.52662
G1 X1.200 Y-0.700 E334.59503
G1 X-0.700 Y-0.700 E334.66344
G0 F7500 X-0.690 Y-0.800
G0 X-30.500 Y-40.400
G1 F2400 X30.600 Y-40.400 E336.86329
G1 X30.600 Y40.600 E339.77962
G1 X-30.500 Y40.600 E341.97947
G1 X-30.500 Y-40.400 E344.89580
G0 F7500 X-25.992 Y-40.300
G0 X-25.992 Y-40.464
G1 F2400 X-25.992 Y40.664 E347.81674
G0 F7500 X-25.992 Y40.500
G0 X-20.216 Y40.500
G0 X-20.216 Y40.664
G1 F2400 X-20.216 Y-40.464 E350.73768
G0 F7500 X-20.216 Y-40.300
G0 X-14.440 Y-40.300
G0 X-14.440 Y-40.464
G1 F2400 X-14.440 Y40.664 E353.65862
G0 F7500 X-14.440 Y40.500
G0 X-8.664 Y40.500
G0 X-8.664 Y40.664
G1 F2400 X-8.664 Y-40.464 E356.57956
G0 F7500 X-8.664 Y-40.300
G0 X-2.888 Y-40.300
G0 X-2.888 Y-40.464
G1 F2400 X-2.888 Y40.664 E359.50050
G0 F7500 X-2.888 Y40.500
G0 X2.888 Y40.500
G0 X2.888 Y40.664
G1 F2400 X2.888 Y-40.464 E362.42144
G0 F7500 X2.888 Y-40.300
G0 X8.664 Y-40.300
G0 X8.664 Y-40.464
G1 F2400 X8.664 Y40.664 E365.34239
G0 F7500 X8.664 Y40.500
G0 X14.440 Y40.500
G0 X14.440 Y40.664
G1 F2400 X14.440 Y-40.464 E368.26333
G0 F7500 X14.440 Y-40.300
G0 X20.216 Y-40.300
G0 X20.216 Y-40.464
G1 F2400 X20.216 Y40.664 E371.18427
G0 F7500 X20.216 Y40.500
G0 X25.992 Y40.500
G0 X25.992 Y40.664
G1 F2400 X25.992 Y-40.464 E374.10521
G0 F7500 X25.992 Y-40.300
G0 X30.500 Y-37.543
G0 X30.664 Y-37.543
G1 F2400 X-30.563 Y-37.544 E376.30963
G0 F7500 X-30.400 Y-37.544
G0 X-30.400 Y-31.768
G0 X-30.563 Y-31.768
G1 F2400 X30.664 Y-31.767 E378.51405
G0 F7500 X30.500 Y-31.767
G0 X30.500 Y-25.991
G0 X30.664 Y-25.991
G1 F2400 X-30.563 Y-25.992 E380.71847
G0 F7500 X-30.400 Y-25.992
G0 X-30.400 Y-20.216
G0 X-30.563 Y-20.216
G1 F2400 X30.664 Y-20.215 E382.92290
G0 F7500 X30.500 Y-20.215
G0 X30.500 Y-14.439
G0 X30.664 Y-14.439
G1 F2400 X-30.563 Y-14.440 E385.12732
G0 F7500 X-30.400 Y-14.440
G0 X-30.400 Y-8.664
G0 X-30.563 Y-8.664
G1 F2400 X30.664 Y-8.663 E387.33174
G0 F7500 X30.500 Y-8.663
G0 X30.500 Y-2.887
G0 X30.664 Y-2.887
G1 F2400 X-30.563 Y-2.888 E389.53617
G0 F7500 X-30.400 Y-2.888
G0 X-30.400 Y2.887
G0 X-30.564 Y2.887
G1 F2400 X30.663 Y2.888 E391.74059
G0 F7500 X30.500 Y2.888
G0 X30.500 Y8.664
G0 X30.663 Y8.664
G1 F2400 X-30.564 Y8.663 E393.94501
G0 F7500 X-30.400 Y8.663
G0 X-30.400 Y14.439
G0 X-30.564 Y14.439
G1 F2400 X30.663 Y14.440 E396.14943
G0 F7500 X30.500 Y14.440
G0 X30.500 Y20.216
G0 X30.663 Y20.216
G1 F2400 X-30.564 Y20.215 E398.35386
G0 F7500 X-30.400 Y20.215
G0 X-30.400 Y25.991
G0 X-30.564 Y25.991
G1 F2400 X30.663 Y25.992 E400.55828
G0 F7500 X30.500 Y25.992
G0 X30.500 Y31.768
G0 X30.663 Y31.768
G1 F2400 X-30.564 Y31.767 E402.76270
G0 F7500 X-30.400 Y31.767
G0 X-30.400 Y37.543
G0 X-30.564 Y37.543
G1 F2400 X30.663 Y37.544 E404.96713
;LAYER:5
G1 F2400 E403.96713
G0 F7500 X0.284 Y0.284 Z1.300
;TYPE:WALL-OUTER
G1 F2400 E404.96713
G1 F2700 X0.216 Y0.284 E404.96957
G1 X0.216 Y0.216 E404.97202
G1 X0.284 Y0.216 E404.97447
G1 X0.284 Y0.284 E404.97692
G0 F7500 X1.200 Y1.200
;TYPE:SUPPORT
G1 F2400 X1.200 Y-0.700 E405.04533
G1 X-0.700 Y-0.700 E405.11373
G1 X-0.700 Y1.200 E405.18214
G1 X1.200 Y1.200 E405.25055
G0 F7500 X1.190 Y1.300
G0 X30.500 Y40.590
G0 X30.600 Y40.600
G1 F2400 X-30.500 Y40.600 E407.45040
G1 X-30.500 Y-40.400 E410.36673
G1 X30.600 Y-40.400 E412.56658
G1 X30.600 Y40.600 E415.48291
G0 F7500 X30.500 Y40.590
G0 X25.992 Y40.500
G0 X25.992 Y40.664
G1 F2400 X25.992 Y-40.464 E418.40385
G0 F7500 X25.992 Y-40.300
G0 X20.216 Y-40.300
G0 X20.216 Y-40.464
G1 F2400 X20.216 Y40.664 E421.32479
G0 F7500 X20.216 Y40.500
G0 X14.440 Y40.500
G0 X14.440 Y40.664
G1 F2400 X14.440 Y-40.464 E424.24573
