;Generated with Cura_SteamEngine 15.04.6

;Layer count: 16
;LAYER:0
M107
G0 F7500 X-33.716 Y-48.616 Z0.300
;TYPE:SKIRT
G1 F1800 X33.816 Y-48.616 E3.64714
G1 X33.816 Y48.816 E8.90907
G1 X-33.716 Y48.816 E12.55621
G1 X-33.716 Y-48.616 E17.81814
G1 F2400 E16.81814
G0 F7500 X0.216 Y0.216
;TYPE:WALL-OUTER
G1 F2400 E17.81814
G1 F1800 X0.284 Y0.216 E17.82181
G1 X0.284 Y0.284 E17.82548
G1 X0.216 Y0.284 E17.82916
G1 X0.216 Y0.216 E17.83283
G0 F7500 X-0.700 Y-0.700
;TYPE:SUPPORT
G1 F1800 X-0.700 Y1.200 E17.93544
G1 X1.200 Y1.200 E18.03805
G1 X1.200 Y-0.700 E18.14066
G1 X-0.700 Y-0.700 E18.24328
G0 F7500 X-0.690 Y-0.800
G0 X-30.500 Y-45.400
G1 F1800 X30.600 Y-45.400 E21.54305
G1 X30.600 Y45.600 E26.45761
G1 X-30.500 Y45.600 E29.75739
G1 X-30.500 Y-45.400 E34.67194
G0 F7500 X-30.400 Y-43.320
G0 X-30.563 Y-43.320
G1 F1800 X30.664 Y-43.319 E37.97858
G0 F7500 X30.500 Y-43.319
G0 X25.992 Y-45.300
G0 X25.992 Y-45.464
G1 F1800 X25.992 Y45.664 E42.90005
G0 F7500 X25.992 Y45.500
G0 X30.500 Y43.320
G0 X30.663 Y43.320
G1 F1800 X-30.564 Y43.319 E46.20668
G0 F7500 X-30.400 Y43.319
G0 X-25.992 Y45.500
G0 X-25.992 Y45.664
G1 F1800 X-25.992 Y-45.464 E51.12816
G0 F7500 X-25.992 Y-45.300
G0 X-20.216 Y-45.300
G0 X-20.216 Y-45.464
G1 F1800 X-20.216 Y45.664 E56.04963
G0 F7500 X-20.216 Y45.500
G0 X-14.440 Y45.500
G0 X-14.440 Y45.664
G1 F1800 X-14.440 Y-45.464 E60.97110
G0 F7500 X-14.440 Y-45.300
G0 X-8.664 Y-45.300
G0 X-8.664 Y-45.464
G1 F1800 X-8.664 Y45.664 E65.89257
G0 F7500 X-8.664 Y45.500
G0 X-2.888 Y45.500
G0 X-2.888 Y45.664
G1 F1800 X-2.888 Y-45.464 E70.81404
G0 F7500 X-2.888 Y-45.300
G0 X2.888 Y-45.300
G0 X2.888 Y-45.464
G1 F1800 X2.888 Y45.664 E75.73552
G0 F7500 X2.888 Y45.500
G0 X8.664 Y45.500
G0 X8.664 Y45.664
G1 F1800 X8.664 Y-45.464 E80.65699
G0 F7500 X8.664 Y-45.300
G0 X14.440 Y-45.300
G0 X14.440 Y-45.464
G1 F1800 X14.440 Y45.664 E85.57846
G0 F7500 X14.440 Y45.500
G0 X20.216 Y45.500
G0 X20.216 Y45.664
G1 F1800 X20.216 Y-45.464 E90.49993
G0 F7500 X20.216 Y-45.300
G0 X30.500 Y-37.543
G0 X30.664 Y-37.543
G1 F1800 X-30.563 Y-37.544 E93.80657
G0 F7500 X-30.400 Y-37.544
G0 X-30.400 Y-31.768
G0 X-30.563 Y-31.768
G1 F1800 X30.664 Y-31.767 E97.11320
G0 F7500 X30.500 Y-31.767
G0 X30.500 Y-25.991
G0 X30.664 Y-25.991
G1 F1800 X-30.563 Y-25.992 E100.41983
G0 F7500 X-30.400 Y-25.992
G0 X-30.400 Y-20.216
G0 X-30.563 Y-20.216
G1 F1800 X30.664 Y-20.215 E103.72647
G0 F7500 X30.500 Y-20.215
G0 X30.500 Y-14.439
G0 X30.664 Y-14.439
G1 F1800 X-30.563 Y-14.440 E107.03310
G0 F7500 X-30.400 Y-14.440
G0 X-30.400 Y-8.664
G0 X-30.563 Y-8.664
G1 F1800 X30.664 Y-8.663 E110.33974
G0 F7500 X30.500 Y-8.663
G0 X30.500 Y-2.887
G0 X30.664 Y-2.887
G1 F1800 X-30.563 Y-2.888 E113.64637
G0 F7500 X-30.400 Y-2.888
G0 X-30.400 Y2.887
G0 X-30.564 Y2.887
G1 F1800 X30.663 Y2.888 E116.95301
G0 F7500 X30.500 Y2.888
G0 X30.500 Y8.664
G0 X30.663 Y8.664
G1 F1800 X-30.564 Y8.663 E120.25964
G0 F7500 X-30.400 Y8.663
G0 X-30.400 Y14.439
G0 X-30.564 Y14.439
G1 F1800 X30.663 Y14.440 E123.56627
G0 F7500 X30.500 Y14.440
G0 X30.500 Y20.216
G0 X30.663 Y20.216
G1 F1800 X-30.564 Y20.215 E126.87291
G0 F7500 X-30.400 Y20.215
G0 X-30.400 Y25.991
G0 X-30.564 Y25.991
G1 F1800 X30.663 Y25.992 E130.17954
G0 F7500 X30.500 Y25.992
G0 X30.500 Y31.768
G0 X30.663 Y31.768
G1 F1800 X-30.564 Y31.767 E133.48618
G0 F7500 X-30.400 Y31.767
G0 X-30.400 Y37.543
G0 X-30.564 Y37.543
G1 F1800 X30.663 Y37.544 E136.79281
;LAYER:1
M106 S63
G1 F2400 E135.79281
G0 F7500 X0.284 Y0.284 Z0.500
;TYPE:WALL-OUTER
G1 F2400 E136.79281
G1 F1980 X0.216 Y0.284 E136.79526
G1 X0.216 Y0.216 E136.79771
G1 X0.284 Y0.216 E136.80016
G1 X0.284 Y0.284 E136.80260
G0 F7500 X1.200 Y1.200
;TYPE:SUPPORT
G1 F1920 X1.200 Y-0.700 E136.87101
G1 X-0.700 Y-0.700 E136.93942
G1 X-0.700 Y1.200 E137.00783
G1 X1.200 Y1.200 E137.07624
G0 F7500 X1.190 Y1.300
G0 X30.500 Y45.590
G0 X30.600 Y45.600
G1 F1920 X-30.500 Y45.600 E139.27609
G1 X-30.500 Y-45.400 E142.55246
G1 X30.600 Y-45.400 E144.75231
G1 X30.600 Y45.600 E148.02868
G0 F7500 X30.500 Y45.590
G0 X30.500 Y43.320
G0 X30.663 Y43.320
G1 F1920 X-30.564 Y43.319 E150.23310
G0 F7500 X-30.400 Y43.319
G0 X-25.992 Y45.500
G0 X-25.992 Y45.664
G1 F1920 X-25.992 Y-45.464 E153.51409
G0 F7500 X-25.992 Y-45.300
G0 X-30.400 Y-43.320
G0 X-30.563 Y-43.320
G1 F1920 X30.664 Y-43.319 E155.71851
G0 F7500 X30.500 Y-43.319
G0 X25.992 Y-45.300
G0 X25.992 Y-45.464
G1 F1920 X25.992 Y45.664 E158.99949
G0 F7500 X25.992 Y45.500
G0 X20.216 Y45.500
G0 X20.216 Y45.664
G1 F1920 X20.216 Y-45.464 E162.28047
G0 F7500 X20.216 Y-45.300
G0 X14.440 Y-45.300
G0 X14.440 Y-45.464
G1 F1920 X14.440 Y45.664 E165.56145
G0 F7500 X14.440 Y45.500
G0 X8.664 Y45.500
G0 X8.664 Y45.664
G1 F1920 X8.664 Y-45.464 E168.84243
G0 F7500 X8.664 Y-45.300
G0 X2.888 Y-45.300
G0 X2.888 Y-45.464
G1 F1920 X2.888 Y45.664 E172.12341
G0 F7500 X2.888 Y45.500
G0 X-2.888 Y45.500
G0 X-2.888 Y45.664
G1 F1920 X-2.888 Y-45.464 E175.40440
G0 F7500 X-2.888 Y-45.300
G0 X-8.664 Y-45.300
G0 X-8.664 Y-45.464
G1 F1920 X-8.664 Y45.664 E178.68538
G0 F7500 X-8.664 Y45.500
G0 X-14.440 Y45.500
G0 X-14.440 Y45.664
G1 F1920 X-14.440 Y-45.464 E181.96636
G0 F7500 X-14.440 Y-45.300
G0 X-20.216 Y-45.300
G0 X-20.216 Y-45.464
G1 F1920 X-20.216 Y45.664 E185.24734
G0 F7500 X-20.216 Y45.500
G0 X-30.400 Y37.543
G0 X-30.564 Y37.543
G1 F1920 X30.663 Y37.544 E187.45176
G0 F7500 X30.500 Y37.544
G0 X30.500 Y31.768
G0 X30.663 Y31.768
G1 F1920 X-30.564 Y31.767 E189.65619
G0 F7500 X-30.400 Y31.767
G0 X-30.400 Y25.991
G0 X-30.564 Y25.991
G1 F1920 X30.663 Y25.992 E191.86061
G0 F7500 X30.500 Y25.992
G0 X30.500 Y20.216
G0 X30.663 Y20.216
G1 F1920 X-30.564 Y20.215 E194.06503
G0 F7500 X-30.400 Y20.215
G0 X-30.400 Y14.439
G0 X-30.564 Y14.439
G1 F1920 X30.663 Y14.440 E196.26945
G0 F7500 X30.500 Y14.440
G0 X30.500 Y8.664
G0 X30.663 Y8.664
G1 F1920 X-30.564 Y8.663 E198.47388
G0 F7500 X-30.400 Y8.663
G0 X-30.400 Y2.887
G0 X-30.564 Y2.887
G1 F1920 X30.663 Y2.888 E200.67830
G0 F7500 X30.500 Y2.888
G0 X30.500 Y-2.887
G0 X30.664 Y-2.887
G1 F1920 X-30.563 Y-2.888 E202.88272
G0 F7500 X-30.400 Y-2.888
G0 X-30.400 Y-8.664
G0 X-30.563 Y-8.664
G1 F1920 X30.664 Y-8.663 E205.08714
G0 F7500 X30.500 Y-8.663
G0 X30.500 Y-14.439
G0 X30.664 Y-14.439
G1 F1920 X-30.563 Y-14.440 E207.29157
G0 F7500 X-30.400 Y-14.440
G0 X-30.400 Y-20.216
G0 X-30.563 Y-20.216
G1 F1920 X30.664 Y-20.215 E209.49599
G0 F7500 X30.500 Y-20.215
G0 X30.500 Y-25.991
G0 X30.664 Y-25.991
G1 F1920 X-30.563 Y-25.992 E211.70041
G0 F7500 X-30.400 Y-25.992
G0 X-30.400 Y-31.768
G0 X-30.563 Y-31.768
G1 F1920 X30.664 Y-31.767 E213.90484
G0 F7500 X30.500 Y-31.767
G0 X30.500 Y-37.543
G0 X30.664 Y-37.543
G1 F1920 X-30.563 Y-37.544 E216.10926
;LAYER:2
M106 S127
G1 F2400 E215.10926
G0 F7500 X0.216 Y0.216 Z0.700
;TYPE:WALL-OUTER
G1 F2400 E216.10926
G1 F2220 X0.284 Y0.216 E216.11171
G1 X0.284 Y0.284 E216.11416
G1 X0.216 Y0.284 E216.11660
G1 X0.216 Y0.216 E216.11905
G0 F7500 X-0.700 Y-0.700
;TYPE:SUPPORT
G1 F2100 X-0.700 Y1.200 E216.18746
G1 X1.200 Y1.200 E216.25587
G1 X1.200 Y-0.700 E216.32428
G1 X-0.700 Y-0.700 E216.39268
G0 F7500 X-0.690 Y-0.800
G0 X-30.500 Y-45.400
G1 F2100 X30.600 Y-45.400 E218.59253
G1 X30.600 Y45.600 E221.86891
G1 X-30.500 Y45.600 E224.06876
G1 X-30.500 Y-45.400 E227.34513
G0 F7500 X-30.400 Y-43.320
G0 X-30.563 Y-43.320
G1 F2100 X30.664 Y-43.319 E229.54955
G0 F7500 X30.500 Y-43.319
G0 X25.992 Y-45.300
G0 X25.992 Y-45.464
G1 F2100 X25.992 Y45.664 E232.83053
G0 F7500 X25.992 Y45.500
G0 X30.500 Y43.320
G0 X30.663 Y43.320
G1 F2100 X-30.564 Y43.319 E235.03496
G0 F7500 X-30.400 Y43.319
G0 X-25.992 Y45.500
G0 X-25.992 Y45.664
G1 F2100 X-25.992 Y-45.464 E238.31594
G0 F7500 X-25.992 Y-45.300
G0 X-20.216 Y-45.300
G0 X-20.216 Y-45.464
G1 F2100 X-20.216 Y45.664 E241.59692
G0 F7500 X-20.216 Y45.500
G0 X-14.440 Y45.500
G0 X-14.440 Y45.664
G1 F2100 X-14.440 Y-45.464 E244.87790
G0 F7500 X-14.440 Y-45.300
G0 X-8.664 Y-45.300
G0 X-8.664 Y-45.464
G1 F2100 X-8.664 Y45.664 E248.15888
G0 F7500 X-8.664 Y45.500
G0 X-2.888 Y45.500
G0 X-2.888 Y45.664
G1 F2100 X-2.888 Y-45.464 E251.43986
G0 F7500 X-2.888 Y-45.300
G0 X2.888 Y-45.300
G0 X2.888 Y-45.464
G1 F2100 X2.888 Y45.664 E254.72084
G0 F7500 X2.888 Y45.500
G0 X8.664 Y45.500
G0 X8.664 Y45.664
G1 F2100 X8.664 Y-45.464 E258.00182
G0 F7500 X8.664 Y-45.300
G0 X14.440 Y-45.300
G0 X14.440 Y-45.464
G1 F2100 X14.440 Y45.664 E261.28281
G0 F7500 X14.440 Y45.500
G0 X20.216 Y45.500
G0 X20.216 Y45.664
G1 F2100 X20.216 Y-45.464 E264.56379
G0 F7500 X20.216 Y-45.300
G0 X30.500 Y-37.543
G0 X30.664 Y-37.543
G1 F2100 X-30.563 Y-37.544 E266.76821
G0 F7500 X-30.400 Y-37.544
G0 X-30.400 Y-31.768
G0 X-30.563 Y-31.768
G1 F2100 X30.664 Y-31.767 E268.97263
G0 F7500 X30.500 Y-31.767
G0 X30.500 Y-25.991
G0 X30.664 Y-25.991
G1 F2100 X-30.563 Y-25.992 E271.17706
G0 F7500 X-30.400 Y-25.992
G0 X-30.400 Y-20.216
G0 X-30.563 Y-20.216
G1 F2100 X30.664 Y-20.215 E273.38148
G0 F7500 X30.500 Y-20.215
G0 X30.500 Y-14.439
G0 X30.664 Y-14.439
G1 F2100 X-30.563 Y-14.440 E275.58590
G0 F7500 X-30.400 Y-14.440
G0 X-30.400 Y-8.664
G0 X-30.563 Y-8.664
G1 F2100 X30.664 Y-8.663 E277.79032
G0 F7500 X30.500 Y-8.663
G0 X30.500 Y-2.887
G0 X30.664 Y-2.887
G1 F2100 X-30.563 Y-2.888 E279.99475
G0 F7500 X-30.400 Y-2.888
G0 X-30.400 Y2.887
G0 X-30.564 Y2.887
G1 F2100 X30.663 Y2.888 E282.19917
G0 F7500 X30.500 Y2.888
G0 X30.500 Y8.664
G0 X30.663 Y8.664
G1 F2100 X-30.564 Y8.663 E284.40359
G0 F7500 X-30.400 Y8.663
G0 X-30.400 Y14.439
G0 X-30.564 Y14.439
G1 F2100 X30.663 Y14.440 E286.60802
G0 F7500 X30.500 Y14.440
G0 X30.500 Y20.216
G0 X30.663 Y20.216
G1 F2100 X-30.564 Y20.215 E288.81244
G0 F7500 X-30.400 Y20.215
G0 X-30.400 Y25.991
G0 X-30.564 Y25.991
G1 F2100 X30.663 Y25.992 E291.01686
G0 F7500 X30.500 Y25.992
G0 X30.500 Y31.768
G0 X30.663 Y31.768
G1 F2100 X-30.564 Y31.767 E293.22128
G0 F7500 X-30.400 Y31.767
G0 X-30.400 Y37.543
G0 X-30.564 Y37.543
G1 F2100 X30.663 Y37.544 E295.42571
;LAYER:3
G1 F2400 E294.42571
G0 F7500 X0.284 Y0.284 Z0.900
;TYPE:WALL-OUTER
G1 F2400 E295.42571
G1 X0.216 Y0.284 E295.42815
G1 X0.216 Y0.216 E295.43060
G1 X0.284 Y0.216 E295.43305
G1 X0.284 Y0.284 E295.43550
G0 F7500 X1.200 Y1.200
;TYPE:SUPPORT
G1 F2220 X1.200 Y-0.700 E295.50391
G1 X-0.700 Y-0.700 E295.57232
G1 X-0.700 Y1.200 E295.64072
G1 X1.200 Y1.200 E295.70913
G0 F7500 X1.190 Y1.300
G0 X30.500 Y45.590
G0 X30.600 Y45.600
G1 F2220 X-30.500 Y45.600 E297.90898
G1 X-30.500 Y-45.400 E301.18535
G1 X30.600 Y-45.400 E303.38520
G1 X30.600 Y45.600 E306.66158
G0 F7500 X30.500 Y45.590
G0 X30.500 Y43.320
G0 X30.663 Y43.320
G1 F2220 X-30.564 Y43.319 E308.86600
G0 F7500 X-30.400 Y43.319
G0 X-25.992 Y45.500
G0 X-25.992 Y45.664
G1 F2220 X-25.992 Y-45.464 E312.14698
G0 F7500 X-25.992 Y-45.300
G0 X-30.400 Y-43.320
G0 X-30.563 Y-43.320
G1 F2220 X30.664 Y-43.319 E314.35140
G0 F7500 X30.500 Y-43.319
G0 X25.992 Y-45.300
G0 X25.992 Y-45.464
G1 F2220 X25.992 Y45.664 E317.63239
G0 F7500 X25.992 Y45.500
G0 X20.216 Y45.500
G0 X20.216 Y45.664
G1 F2220 X20.216 Y-45.464 E320.91337
G0 F7500 X20.216 Y-45.300
G0 X14.440 Y-45.300
G0 X14.440 Y-45.464
G1 F2220 X14.440 Y45.664 E324.19435
G0 F7500 X14.440 Y45.500
G0 X8.664 Y45.500
G0 X8.664 Y45.664
G1 F2220 X8.664 Y-45.464 E327.47533
G0 F7500 X8.664 Y-45.300
G0 X2.888 Y-45.300
G0 X2.888 Y-45.464
G1 F2220 X2.888 Y45.664 E330.75631
G0 F7500 X2.888 Y45.500
G0 X-2.888 Y45.500
G0 X-2.888 Y45.664
G1 F2220 X-2.888 Y-45.464 E334.03729
G0 F7500 X-2.888 Y-45.300
G0 X-8.664 Y-45.300
G0 X-8.664 Y-45.464
G1 F2220 X-8.664 Y45.664 E337.31827
G0 F7500 X-8.664 Y45.500
G0 X-14.440 Y45.500
G0 X-14.440 Y45.664
G1 F2220 X-14.440 Y-45.464 E340.59925
G0 F7500 X-14.440 Y-45.300
G0 X-20.216 Y-45.300
G0 X-20.216 Y-45.464
G1 F2220 X-20.216 Y45.664 E343.88024
G0 F7500 X-20.216 Y45.500
G0 X-30.400 Y37.543
G0 X-30.564 Y37.543
G1 F2220 X30.663 Y37.544 E346.08466
G0 F7500 X30.500 Y37.544
G0 X30.500 Y31.768
G0 X30.663 Y31.768
G1 F2220 X-30.564 Y31.767 E348.28908
G0 F7500 X-30.400 Y31.767
G0 X-30.400 Y25.991
G0 X-30.564 Y25.991
G1 F2220 X30.663 Y25.992 E350.49350
G0 F7500 X30.500 Y25.992
G0 X30.500 Y20.216
G0 X30.663 Y20.216
G1 F2220 X-30.564 Y20.215 E352.69793
G0 F7500 X-30.400 Y20.215
G0 X-30.400 Y14.439
G0 X-30.564 Y14.439
G1 F2220 X30.663 Y14.440 E354.90235
G0 F7500 X30.500 Y14.440
G0 X30.500 Y8.664
G0 X30.663 Y8.664
G1 F2220 X-30.564 Y8.663 E357.10677
G0 F7500 X-30.400 Y8.663
G0 X-30.400 Y2.887
G0 X-30.564 Y2.887
G1 F2220 X30.663 Y2.888 E359.31119
G0 F7500 X30.500 Y2.888
G0 X30.500 Y-2.887
G0 X30.664 Y-2.887
G1 F2220 X-30.563 Y-2.888 E361.51562
G0 F7500 X-30.400 Y-2.888
G0 X-30.400 Y-8.664
G0 X-30.563 Y-8.664
G1 F2220 X30.664 Y-8.663 E363.72004
G0 F7500 X30.500 Y-8.663
G0 X30.500 Y-14.439
G0 X30.664 Y-14.439
G1 F2220 X-30.563 Y-14.440 E365.92446
G0 F7500 X-30.400 Y-14.440
G0 X-30.400 Y-20.216
G0 X-30.563 Y-20.216
G1 F2220 X30.664 Y-20.215 E368.12889
G0 F7500 X30.500 Y-20.215
G0 X30.500 Y-25.991
G0 X30.664 Y-25.991
G1 F2220 X-30.563 Y-25.992 E370.33331
G0 F7500 X-30.400 Y-25.992
G0 X-30.400 Y-31.768
G0 X-30.563 Y-31.768
G1 F2220 X30.664 Y-31.767 E372.53773
G0 F7500 X30.500 Y-31.767
G0 X30.500 Y-37.543
G0 X30.664 Y-37.543
G1 F2220 X-30.563 Y-37.544 E374.74215
;LAYER:4
G1 F2400 E373.74215
G0 F7500 X0.216 Y0.216 Z1.100
;TYPE:WALL-OUTER
G1 F2400 E374.74215
G1 F2700 X0.284 Y0.216 E374.74460
G1 X0.284 Y0.284 E374.74705
G1 X0.216 Y0.284 E374.74950
G1 X0.216 Y0.216 E374.75195
G0 F7500 X-0.700 Y-0.700
;TYPE:SUPPORT
G1 F2400 X-0.700 Y1.200 E374.82036
G1 X1.200 Y1.200 E374.88876
G1 X1.200 Y-0.700 E374.95717
G1 X-0.700 Y-0.700 E375.02558
G0 F7500 X-0.690 Y-0.800
G0 X-30.500 Y-45.400
G1 F2400 X30.600 Y-45.400 E377.22543
G1 X30.600 Y45.600 E380.50180
G1 X-30.500 Y45.600 E382.70165
G1 X-30.500 Y-45.400 E385.97802
G0 F7500 X-30.400 Y-43.320
G0 X-30.563 Y-43.320
G1 F2400 X30.664 Y-43.319 E388.18245
G0 F7500 X30.500 Y-43.319
G0 X25.992 Y-45.300
G0 X25.992 Y-45.464
G1 F2400 X25.992 Y45.664 E391.46343
G0 F7500 X25.992 Y45.500
G0 X30.500 Y43.320
G0 X30.663 Y43.320
G1 F2400 X-30.564 Y43.319 E393.66785
G0 F7500 X-30.400 Y43.319
G0 X-25.992 Y45.500
G0 X-25.992 Y45.664
G1 F2400 X-25.992 Y-45.464 E396.94883
G0 F7500 X-25.992 Y-45.300
G0 X-20.216 Y-45.300
G0 X-20.216 Y-45.464
G1 F2400 X-20.216 Y45.664 E400.22981
G0 F7500 X-20.216 Y45.500
G0 X-14.440 Y45.500
G0 X-14.440 Y45.664
G1 F2400 X-14.440 Y-45.464 E403.51080
G0 F7500 X-14.440 Y-45.300
G0 X-8.664 Y-45.300
G0 X-8.664 Y-45.464
G1 F2400 X-8.664 Y45.664 E406.79178
G0 F7500 X-8.664 Y45.500
G0 X-2.888 Y45.500
G0 X-2.888 Y45.664
G1 F2400 X-2.888 Y-45.464 E410.07276
G0 F7500 X-2.888 Y-45.300
G0 X2.888 Y-45.300
G0 X2.888 Y-45.464
G1 F2400 X2.888 Y45.664 E413.35374
G0 F7500 X2.888 Y45.500
G0 X8.664 Y45.500
G0 X8.664 Y45.664
G1 F2400 X8.664 Y-45.464 E416.63472
G0 F7500 X8.664 Y-45.300
G0 X14.440 Y-45.300
G0 X14.440 Y-45.464
G1 F2400 X14.440 Y45.664 E419.91570
G0 F7500 X14.440 Y45.500
G0 X20.216 Y45.500
G0 X20.216 Y45.664
G1 F2400 X20.216 Y-45.464 E423.19668
G0 F7500 X20.216 Y-45.300
G0 X30.500 Y-37.543
G0 X30.664 Y-37.543
G1 F2400 X-30.563 Y-37.544 E425.40111
G0 F7500 X-30.400 Y-37.544
G0 X-30.400 Y-31.768
G0 X-30.563 Y-31.768
G1 F2400 X30.664 Y-31.767 E427.60553
G0 F7500 X30.500 Y-31.767
G0 X30.500 Y-25.991
G0 X30.664 Y-25.991
G1 F2400 X-30.563 Y-25.992 E429.80995
G0 F7500 X-30.400 Y-25.992
G0 X-30.400 Y-20.216
G0 X-30.563 Y-20.216
G1 F2400 X30.664 Y-20.215 E432.01437
G0 F7500 X30.500 Y-20.215
G0 X30.500 Y-14.439
G0 X30.664 Y-14.439
G1 F2400 X-30.563 Y-14.440 E434.21880
G0 F7500 X-30.400 Y-14.440
G0 X-30.400 Y-8.664
G0 X-30.563 Y-8.664
G1 F2400 X30.664 Y-8.663 E436.42322
G0 F7500 X30.500 Y-8.663
G0 X30.500 Y-2.887
G0 X30.664 Y-2.887
G1 F2400 X-30.563 Y-2.888 E438.62764
G0 F7500 X-30.400 Y-2.888
G0 X-30.400 Y2.887
G0 X-30.564 Y2.887
G1 F2400 X30.663 Y2.888 E440.83207
G0 F7500 X30.500 Y2.888
G0 X30.500 Y8.664
G0 X30.663 Y8.664
G1 F2400 X-30.564 Y8.663 E443.03649
G0 F7500 X-30.400 Y8.663
G0 X-30.400 Y14.439
G0 X-30.564 Y14.439
G1 F2400 X30.663 Y14.440 E445.24091
G0 F7500 X30.500 Y14.440
G0 X30.500 Y20.216
G0 X30.663 Y20.216
G1 F2400 X-30.564 Y20.215 E447.44533
G0 F7500 X-30.400 Y20.215
G0 X-30.400 Y25.991
G0 X-30.564 Y25.991
G1 F2400 X30.663 Y25.992 E449.64976
G0 F7500 X30.500 Y25.992
