;Generated with Cura_SteamEngine 15.04.6

;Layer count: 16
;LAYER:0
M107
G0 F7500 X-38.716 Y-8.616 Z0.300
;TYPE:SKIRT
G1 F1800 X38.816 Y-8.616 E4.18720
G1 X38.816 Y8.816 E5.12864
G1 X-38.716 Y8.816 E9.31584
G1 X-38.716 Y-8.616 E10.25728
G1 F2400 E9.25728
G0 F7500 X0.216 Y0.216
;TYPE:WALL-OUTER
G1 F2400 E10.25728
G1 F1800 X0.284 Y0.216 E10.26095
G1 X0.284 Y0.284 E10.26462
G1 X0.216 Y0.284 E10.26830
G1 X0.216 Y0.216 E10.27197
G0 F7500 X-0.700 Y-0.700
;TYPE:SUPPORT
G1 F1800 X-0.700 Y1.200 E10.37458
G1 X1.200 Y1.200 E10.47719
G1 X1.200 Y-0.700 E10.57980
G1 X-0.700 Y-0.700 E10.68242
G0 F7500 X-0.690 Y-0.800
G0 X-35.500 Y-5.400
G1 F1800 X35.600 Y-5.400 E14.52225
G1 X35.600 Y5.600 E15.11632
G1 X-35.500 Y5.600 E18.95616
G1 X-35.500 Y-5.400 E19.55022
G0 F7500 X-35.400 Y-2.888
G0 X-35.563 Y-2.888
G1 F1800 X35.664 Y-2.887 E23.39692
G0 F7500 X35.500 Y-2.887
G0 X31.768 Y-5.300
G0 X31.768 Y-5.464
G1 F1800 X31.768 Y5.664 E23.99790
G0 F7500 X31.768 Y5.500
G0 X35.500 Y2.888
G0 X35.663 Y2.888
G1 F1800 X-35.564 Y2.887 E27.84460
G0 F7500 X-35.400 Y2.887
G0 X-31.768 Y5.500
G0 X-31.768 Y5.664
G1 F1800 X-31.768 Y-5.464 E28.44558
G0 F7500 X-31.768 Y-5.300
G0 X-25.992 Y-5.300
G0 X-25.992 Y-5.464
G1 F1800 X-25.992 Y5.664 E29.04656
G0 F7500 X-25.992 Y5.500
G0 X-20.216 Y5.500
G0 X-20.216 Y5.664
G1 F1800 X-20.216 Y-5.464 E29.64754
G0 F7500 X-20.216 Y-5.300
G0 X-14.440 Y-5.300
G0 X-14.440 Y-5.464
G1 F1800 X-14.440 Y5.664 E30.24852
G0 F7500 X-14.440 Y5.500
G0 X-8.664 Y5.500
G0 X-8.664 Y5.664
G1 F1800 X-8.664 Y-5.464 E30.84950
G0 F7500 X-8.664 Y-5.300
G0 X-2.888 Y-5.300
G0 X-2.888 Y-5.464
G1 F1800 X-2.888 Y5.664 E31.45048
G0 F7500 X-2.888 Y5.500
G0 X2.888 Y5.500
G0 X2.888 Y5.664
G1 F1800 X2.888 Y-5.464 E32.05146
G0 F7500 X2.888 Y-5.300
G0 X8.664 Y-5.300
G0 X8.664 Y-5.464
G1 F1800 X8.664 Y5.664 E32.65244
G0 F7500 X8.664 Y5.500
G0 X14.440 Y5.500
G0 X14.440 Y5.664
G1 F1800 X14.440 Y-5.464 E33.25342
G0 F7500 X14.440 Y-5.300
G0 X20.216 Y-5.300
G0 X20.216 Y-5.464
G1 F1800 X20.216 Y5.664 E33.85440
G0 F7500 X20.216 Y5.500
G0 X25.992 Y5.500
G0 X25.992 Y5.664
G1 F1800 X25.992 Y-5.464 E34.45538
;LAYER:1
M106 S63
G1 F2400 E33.45538
G0 F7500 X0.284 Y0.216 Z0.500
;TYPE:WALL-OUTER
G1 F2400 E34.45538
G1 F1980 X0.284 Y0.284 E34.45783
G1 X0.216 Y0.284 E34.46028
G1 X0.216 Y0.216 E34.46272
G1 X0.284 Y0.216 E34.46517
G0 F7500 X1.200 Y-0.700
;TYPE:SUPPORT
G1 F1920 X-0.700 Y-0.700 E34.53358
G1 X-0.700 Y1.200 E34.60199
G1 X1.200 Y1.200 E34.67040
G1 X1.200 Y-0.700 E34.73880
G0 F7500 X35.600 Y-5.400
G1 F1920 X35.600 Y5.600 E35.13485
G1 X-35.500 Y5.600 E37.69474
G1 X-35.500 Y-5.400 E38.09079
G1 X35.600 Y-5.400 E40.65068
G0 F7500 X35.500 Y-2.887
G0 X35.664 Y-2.887
G1 F1920 X-35.563 Y-2.888 E43.21514
G0 F7500 X-35.400 Y-2.888
G0 X-31.768 Y-5.300
G0 X-31.768 Y-5.464
G1 F1920 X-31.768 Y5.664 E43.61579
G0 F7500 X-31.768 Y5.500
G0 X-35.400 Y2.887
G0 X-35.564 Y2.887
G1 F1920 X35.663 Y2.888 E46.18026
G0 F7500 X35.500 Y2.888
G0 X31.768 Y5.500
G0 X31.768 Y5.664
G1 F1920 X31.768 Y-5.464 E46.58091
G0 F7500 X31.768 Y-5.300
G0 X25.992 Y-5.300
G0 X25.992 Y-5.464
G1 F1920 X25.992 Y5.664 E46.98157
G0 F7500 X25.992 Y5.500
G0 X20.216 Y5.500
G0 X20.216 Y5.664
G1 F1920 X20.216 Y-5.464 E47.38222
G0 F7500 X20.216 Y-5.300
G0 X14.440 Y-5.300
G0 X14.440 Y-5.464
G1 F1920 X14.440 Y5.664 E47.78287
G0 F7500 X14.440 Y5.500
G0 X8.664 Y5.500
G0 X8.664 Y5.664
G1 F1920 X8.664 Y-5.464 E48.18353
G0 F7500 X8.664 Y-5.300
G0 X2.888 Y-5.300
G0 X2.888 Y-5.464
G1 F1920 X2.888 Y5.664 E48.58418
G0 F7500 X2.888 Y5.500
G0 X-2.888 Y5.500
G0 X-2.888 Y5.664
G1 F1920 X-2.888 Y-5.464 E48.98483
G0 F7500 X-2.888 Y-5.300
G0 X-8.664 Y-5.300
G0 X-8.664 Y-5.464
G1 F1920 X-8.664 Y5.664 E49.38549
G0 F7500 X-8.664 Y5.500
G0 X-14.440 Y5.500
G0 X-14.440 Y5.664
G1 F1920 X-14.440 Y-5.464 E49.78614
G0 F7500 X-14.440 Y-5.300
G0 X-20.216 Y-5.300
G0 X-20.216 Y-5.464
G1 F1920 X-20.216 Y5.664 E50.18679
G0 F7500 X-20.216 Y5.500
G0 X-25.992 Y5.500
G0 X-25.992 Y5.664
G1 F1920 X-25.992 Y-5.464 E50.58745
;LAYER:2
M106 S127
G1 F2400 E49.58745
G0 F7500 X0.216 Y0.216 Z0.700
;TYPE:WALL-OUTER
G1 F2400 E50.58745
G1 F2220 X0.284 Y0.216 E50.58990
G1 X0.284 Y0.284 E50.59234
G1 X0.216 Y0.284 E50.59479
G1 X0.216 Y0.216 E50.59724
G0 F7500 X-0.700 Y-0.700
;TYPE:SUPPORT
G1 F2100 X-0.700 Y1.200 E50.66565
G1 X1.200 Y1.200 E50.73406
G1 X1.200 Y-0.700 E50.80246
G1 X-0.700 Y-0.700 E50.87087
G0 F7500 X-0.690 Y-0.800
G0 X-35.500 Y-5.400
G1 F2100 X35.600 Y-5.400 E53.43076
G1 X35.600 Y5.600 E53.82681
G1 X-35.500 Y5.600 E56.38670
G1 X-35.500 Y-5.400 E56.78274
G0 F7500 X-35.400 Y-2.888
G0 X-35.563 Y-2.888
G1 F2100 X35.664 Y-2.887 E59.34721
G0 F7500 X35.500 Y-2.887
G0 X31.768 Y-5.300
G0 X31.768 Y-5.464
G1 F2100 X31.768 Y5.664 E59.74786
G0 F7500 X31.768 Y5.500
G0 X35.500 Y2.888
G0 X35.663 Y2.888
G1 F2100 X-35.564 Y2.887 E62.31233
G0 F7500 X-35.400 Y2.887
G0 X-31.768 Y5.500
G0 X-31.768 Y5.664
G1 F2100 X-31.768 Y-5.464 E62.71298
G0 F7500 X-31.768 Y-5.300
G0 X-25.992 Y-5.300
G0 X-25.992 Y-5.464
G1 F2100 X-25.992 Y5.664 E63.11363
G0 F7500 X-25.992 Y5.500
G0 X-20.216 Y5.500
G0 X-20.216 Y5.664
G1 F2100 X-20.216 Y-5.464 E63.51429
G0 F7500 X-20.216 Y-5.300
G0 X-14.440 Y-5.300
G0 X-14.440 Y-5.464
G1 F2100 X-14.440 Y5.664 E63.91494
G0 F7500 X-14.440 Y5.500
G0 X-8.664 Y5.500
G0 X-8.664 Y5.664
G1 F2100 X-8.664 Y-5.464 E64.31559
G0 F7500 X-8.664 Y-5.300
G0 X-2.888 Y-5.300
G0 X-2.888 Y-5.464
G1 F2100 X-2.888 Y5.664 E64.71625
G0 F7500 X-2.888 Y5.500
G0 X2.888 Y5.500
G0 X2.888 Y5.664
G1 F2100 X2.888 Y-5.464 E65.11690
G0 F7500 X2.888 Y-5.300
G0 X8.664 Y-5.300
G0 X8.664 Y-5.464
G1 F2100 X8.664 Y5.664 E65.51755
G0 F7500 X8.664 Y5.500
G0 X14.440 Y5.500
G0 X14.440 Y5.664
G1 F2100 X14.440 Y-5.464 E65.91821
G0 F7500 X14.440 Y-5.300
G0 X20.216 Y-5.300
G0 X20.216 Y-5.464
G1 F2100 X20.216 Y5.664 E66.31886
G0 F7500 X20.216 Y5.500
G0 X25.992 Y5.500
G0 X25.992 Y5.664
G1 F2100 X25.992 Y-5.464 E66.71951
;LAYER:3
G1 F2400 E65.71951
G0 F7500 X0.284 Y0.216 Z0.900
;TYPE:WALL-OUTER
G1 F2400 E66.71951
G1 X0.284 Y0.284 E66.72196
G1 X0.216 Y0.284 E66.72441
G1 X0.216 Y0.216 E66.72686
G1 X0.284 Y0.216 E66.72931
G0 F7500 X1.200 Y-0.700
;TYPE:SUPPORT
G1 F2220 X-0.700 Y-0.700 E66.79772
G1 X-0.700 Y1.200 E66.86612
G1 X1.200 Y1.200 E66.93453
G1 X1.200 Y-0.700 E67.00294
G0 F7500 X35.600 Y-5.400
G1 F2220 X35.600 Y5.600 E67.39898
G1 X-35.500 Y5.600 E69.95888
G1 X-35.500 Y-5.400 E70.35492
G1 X35.600 Y-5.400 E72.91481
G0 F7500 X35.500 Y-2.887
G0 X35.664 Y-2.887
G1 F2220 X-35.563 Y-2.888 E75.47928
G0 F7500 X-35.400 Y-2.888
G0 X-31.768 Y-5.300
G0 X-31.768 Y-5.464
G1 F2220 X-31.768 Y5.664 E75.87993
G0 F7500 X-31.768 Y5.500
G0 X-35.400 Y2.887
G0 X-35.564 Y2.887
G1 F2220 X35.663 Y2.888 E78.44439
G0 F7500 X35.500 Y2.888
G0 X31.768 Y5.500
G0 X31.768 Y5.664
G1 F2220 X31.768 Y-5.464 E78.84505
G0 F7500 X31.768 Y-5.300
G0 X25.992 Y-5.300
G0 X25.992 Y-5.464
G1 F2220 X25.992 Y5.664 E79.24570
G0 F7500 X25.992 Y5.500
G0 X20.216 Y5.500
G0 X20.216 Y5.664
G1 F2220 X20.216 Y-5.464 E79.64635
G0 F7500 X20.216 Y-5.300
G0 X14.440 Y-5.300
G0 X14.440 Y-5.464
G1 F2220 X14.440 Y5.664 E80.04701
G0 F7500 X14.440 Y5.500
G0 X8.664 Y5.500
G0 X8.664 Y5.664
G1 F2220 X8.664 Y-5.464 E80.44766
G0 F7500 X8.664 Y-5.300
G0 X2.888 Y-5.300
G0 X2.888 Y-5.464
G1 F2220 X2.888 Y5.664 E80.84831
G0 F7500 X2.888 Y5.500
G0 X-2.888 Y5.500
G0 X-2.888 Y5.664
G1 F2220 X-2.888 Y-5.464 E81.24897
G0 F7500 X-2.888 Y-5.300
G0 X-8.664 Y-5.300
G0 X-8.664 Y-5.464
G1 F2220 X-8.664 Y5.664 E81.64962
G0 F7500 X-8.664 Y5.500
G0 X-14.440 Y5.500
G0 X-14.440 Y5.664
G1 F2220 X-14.440 Y-5.464 E82.05027
G0 F7500 X-14.440 Y-5.300
G0 X-20.216 Y-5.300
G0 X-20.216 Y-5.464
G1 F2220 X-20.216 Y5.664 E82.45093
G0 F7500 X-20.216 Y5.500
G0 X-25.992 Y5.500
G0 X-25.992 Y5.664
G1 F2220 X-25.992 Y-5.464 E82.85158
;LAYER:4
G1 F2400 E81.85158
G0 F7500 X0.216 Y0.216 Z1.100
;TYPE:WALL-OUTER
G1 F2400 E82.85158
G1 F2700 X0.284 Y0.216 E82.85403
G1 X0.284 Y0.284 E82.85648
G1 X0.216 Y0.284 E82.85893
G1 X0.216 Y0.216 E82.86138
G0 F7500 X-0.700 Y-0.700
;TYPE:SUPPORT
G1 F2400 X-0.700 Y1.200 E82.92978
G1 X1.200 Y1.200 E82.99819
G1 X1.200 Y-0.700 E83.06660
G1 X-0.700 Y-0.700 E83.13501
G0 F7500 X-0.690 Y-0.800
G0 X-35.500 Y-5.400
G1 F2400 X35.600 Y-5.400 E85.69490
G1 X35.600 Y5.600 E86.09094
G1 X-35.500 Y5.600 E88.65083
G1 X-35.500 Y-5.400 E89.04688
G0 F7500 X-35.400 Y-2.888
G0 X-35.563 Y-2.888
G1 F2400 X35.664 Y-2.887 E91.61134
G0 F7500 X35.500 Y-2.887
G0 X31.768 Y-5.300
G0 X31.768 Y-5.464
G1 F2400 X31.768 Y5.664 E92.01200
G0 F7500 X31.768 Y5.500
G0 X35.500 Y2.888
G0 X35.663 Y2.888
G1 F2400 X-35.564 Y2.887 E94.57646
G0 F7500 X-35.400 Y2.887
G0 X-31.768 Y5.500
G0 X-31.768 Y5.664
G1 F2400 X-31.768 Y-5.464 E94.97711
G0 F7500 X-31.768 Y-5.300
G0 X-25.992 Y-5.300
G0 X-25.992 Y-5.464
G1 F2400 X-25.992 Y5.664 E95.37777
G0 F7500 X-25.992 Y5.500
G0 X-20.216 Y5.500
G0 X-20.216 Y5.664
G1 F2400 X-20.216 Y-5.464 E95.77842
G0 F7500 X-20.216 Y-5.300
G0 X-14.440 Y-5.300
G0 X-14.440 Y-5.464
G1 F2400 X-14.440 Y5.664 E96.17907
G0 F7500 X-14.440 Y5.500
G0 X-8.664 Y5.500
G0 X-8.664 Y5.664
G1 F2400 X-8.664 Y-5.464 E96.57973
G0 F7500 X-8.664 Y-5.300
G0 X-2.888 Y-5.300
G0 X-2.888 Y-5.464
G1 F2400 X-2.888 Y5.664 E96.98038
G0 F7500 X-2.888 Y5.500
G0 X2.888 Y5.500
G0 X2.888 Y5.664
G1 F2400 X2.888 Y-5.464 E97.38104
G0 F7500 X2.888 Y-5.300
G0 X8.664 Y-5.300
G0 X8.664 Y-5.464
G1 F2400 X8.664 Y5.664 E97.78169
G0 F7500 X8.664 Y5.500
G0 X14.440 Y5.500
G0 X14.440 Y5.664
G1 F2400 X14.440 Y-5.464 E98.18234
G0 F7500 X14.440 Y-5.300
G0 X20.216 Y-5.300
G0 X20.216 Y-5.464
G1 F2400 X20.216 Y5.664 E98.58300
G0 F7500 X20.216 Y5.500
G0 X25.992 Y5.500
G0 X25.992 Y5.664
G1 F2400 X25.992 Y-5.464 E98.98365
;LAYER:5
G1 F2400 E97.98365
G0 F7500 X0.284 Y0.216 Z1.300
;TYPE:WALL-OUTER
G1 F2400 E98.98365
G1 F2700 X0.284 Y0.284 E98.98610
G1 X0.216 Y0.284 E98.98855
G1 X0.216 Y0.216 E98.99099
G1 X0.284 Y0.216 E98.99344
G0 F7500 X1.200 Y-0.700
;TYPE:SUPPORT
G1 F2400 X-0.700 Y-0.700 E99.06185
G1 X-0.700 Y1.200 E99.13026
G1 X1.200 Y1.200 E99.19867
G1 X1.200 Y-0.700 E99.26707
G0 F7500 X35.600 Y-5.400
G1 F2400 X35.600 Y5.600 E99.66312
G1 X-35.500 Y5.600 E102.22301
G1 X-35.500 Y-5.400 E102.61905
G1 X35.600 Y-5.400 E105.17895
G0 F7500 X35.500 Y-2.887
G0 X35.664 Y-2.887
G1 F2400 X-35.563 Y-2.888 E107.74341
G0 F7500 X-35.400 Y-2.888
G0 X-31.768 Y-5.300
G0 X-31.768 Y-5.464
G1 F2400 X-31.768 Y5.664 E108.14406
G0 F7500 X-31.768 Y5.500
G0 X-35.400 Y2.887
G0 X-35.564 Y2.887
G1 F2400 X35.663 Y2.888 E110.70853
G0 F7500 X35.500 Y2.888
G0 X31.768 Y5.500
G0 X31.768 Y5.664
G1 F2400 X31.768 Y-5.464 E111.10918
G0 F7500 X31.768 Y-5.300
G0 X25.992 Y-5.300
G0 X25.992 Y-5.464
G1 F2400 X25.992 Y5.664 E111.50983
G0 F7500 X25.992 Y5.500
G0 X20.216 Y5.500
G0 X20.216 Y5.664
G1 F2400 X20.216 Y-5.464 E111.91049
G0 F7500 X20.216 Y-5.300
G0 X14.440 Y-5.300
G0 X14.440 Y-5.464
G1 F2400 X14.440 Y5.664 E112.31114
G0 F7500 X14.440 Y5.500
G0 X8.664 Y5.500
G0 X8.664 Y5.664
G1 F2400 X8.664 Y-5.464 E112.71180
G0 F7500 X8.664 Y-5.300
G0 X2.888 Y-5.300
G0 X2.888 Y-5.464
G1 F2400 X2.888 Y5.664 E113.11245
G0 F7500 X2.888 Y5.500
G0 X-2.888 Y5.500
G0 X-2.888 Y5.664
G1 F2400 X-2.888 Y-5.464 E113.51310
G0 F7500 X-2.888 Y-5.300
G0 X-8.664 Y-5.300
G0 X-8.664 Y-5.464
G1 F2400 X-8.664 Y5.664 E113.91376
G0 F7500 X-8.664 Y5.500
G0 X-14.440 Y5.500
G0 X-14.440 Y5.664
G1 F2400 X-14.440 Y-5.464 E114.31441
G0 F7500 X-14.440 Y-5.300
G0 X-20.216 Y-5.300
G0 X-20.216 Y-5.464
G1 F2400 X-20.216 Y5.664 E114.71506
G0 F7500 X-20.216 Y5.500
G0 X-25.992 Y5.500
G0 X-25.992 Y5.664
G1 F2400 X-25.992 Y-5.464 E115.11572
;LAYER:6
G1 F2400 E114.11572
G0 F7500 X0.216 Y0.216 Z1.500
;TYPE:WALL-OUTER
G1 F2400 E115.11572
G1 F2700 X0.284 Y0.216 E115.11817
G1 X0.284 Y0.284 E115.12061
G1 X0.216 Y0.284 E115.12306
G1 X0.216 Y0.216 E115.12551
G0 F7500 X-0.700 Y-0.700
;TYPE:SUPPORT
G1 F2400 X-0.700 Y1.200 E115.19392
G1 X1.200 Y1.200 E115.26233
G1 X1.200 Y-0.700 E115.33073
G1 X-0.700 Y-0.700 E115.39914
G0 F7500 X-0.690 Y-0.800
G0 X-35.500 Y-5.400
G1 F2400 X35.600 Y-5.400 E117.95903
G1 X35.600 Y5.600 E118.35508
G1 X-35.500 Y5.600 E120.91497
G1 X-35.500 Y-5.400 E121.31101
G0 F7500 X-35.400 Y-2.888
G0 X-35.563 Y-2.888
G1 F2400 X35.664 Y-2.887 E123.87548
G0 F7500 X35.500 Y-2.887
G0 X31.768 Y-5.300
G0 X31.768 Y-5.464
G1 F2400 X31.768 Y5.664 E124.27613
G0 F7500 X31.768 Y5.500
G0 X35.500 Y2.888
G0 X35.663 Y2.888
G1 F2400 X-35.564 Y2.887 E126.84059
G0 F7500 X-35.400 Y2.887
G0 X-31.768 Y5.500
G0 X-31.768 Y5.664
G1 F2400 X-31.768 Y-5.464 E127.24125
G0 F7500 X-31.768 Y-5.300
G0 X-25.992 Y-5.300
G0 X-25.992 Y-5.464
G1 F2400 X-25.992 Y5.664 E127.64190
G0 F7500 X-25.992 Y5.500
G0 X-20.216 Y5.500
G0 X-20.216 Y5.664
G1 F2400 X-20.216 Y-5.464 E128.04256
G0 F7500 X-20.216 Y-5.300
G0 X-14.440 Y-5.300
G0 X-14.440 Y-5.464
G1 F2400 X-14.440 Y5.664 E128.44321
G0 F7500 X-14.440 Y5.500
G0 X-8.664 Y5.500
G0 X-8.664 Y5.664
G1 F2400 X-8.664 Y-5.464 E128.84386
G0 F7500 X-8.664 Y-5.300
G0 X-2.888 Y-5.300
G0 X-2.888 Y-5.464
G1 F2400 X-2.888 Y5.664 E129.24452
G0 F7500 X-2.888 Y5.500
G0 X2.888 Y5.500
G0 X2.888 Y5.664
G1 F2400 X2.888 Y-5.464 E129.64517
G0 F7500 X2.888 Y-5.300
G0 X8.664 Y-5.300
G0 X8.664 Y-5.464
G1 F2400 X8.664 Y5.664 E130.04582
G0 F7500 X8.664 Y5.500
G0 X14.440 Y5.500
G0 X14.440 Y5.664
G1 F2400 X14.440 Y-5.464 E130.44648
G0 F7500 X14.440 Y-5.300
G0 X20.216 Y-5.300
G0 X20.216 Y-5.464
G1 F2400 X20.216 Y5.664 E130.84713
G0 F7500 X20.216 Y5.500
G0 X25.992 Y5.500
G0 X25.992 Y5.664
G1 F2400 X25.992 Y-5.464 E131.24778
;LAYER:7
G1 F2400 E130.24778
G0 F7500 X0.284 Y0.216 Z1.700
;TYPE:WALL-OUTER
G1 F2400 E131.24778
G1 F2700 X0.284 Y0.284 E131.25023
G1 X0.216 Y0.284 E131.25268
G1 X0.216 Y0.216 E131.25513
G1 X0.284 Y0.216 E131.25758
G0 F7500 X1.200 Y-0.700
;TYPE:SUPPORT
G1 F2400 X-0.700 Y-0.700 E131.32598
G1 X-0.700 Y1.200 E131.39439
G1 X1.200 Y1.200 E131.46280
G1 X1.200 Y-0.700 E131.53121
G0 F7500 X35.600 Y-5.400
G1 F2400 X35.600 Y5.600 E131.92725
G1 X-35.500 Y5.600 E134.48714
G1 X-35.500 Y-5.400 E134.88319
G1 X35.600 Y-5.400 E137.44308
G0 F7500 X35.500 Y-2.887
G0 X35.664 Y-2.887
G1 F2400 X-35.563 Y-2.888 E140.00754
G0 F7500 X-35.400 Y-2.888
G0 X-31.768 Y-5.300
G0 X-31.768 Y-5.464
G1 F2400 X-31.768 Y5.664 E140.40820
G0 F7500 X-31.768 Y5.500
G0 X-35.400 Y2.887
G0 X-35.564 Y2.887
G1 F2400 X35.663 Y2.888 E142.97266
G0 F7500 X35.500 Y2.888
G0 X31.768 Y5.500
G0 X31.768 Y5.664
G1 F2400 X31.768 Y-5.464 E143.37332
G0 F7500 X31.768 Y-5.300
G0 X25.992 Y-5.300
G0 X25.992 Y-5.464
G1 F2400 X25.992 Y5.664 E143.77397
G0 F7500 X25.992 Y5.500
G0 X20.216 Y5.500
G0 X20.216 Y5.664
G1 F2400 X20.216 Y-5.464 E144.17462
G0 F7500 X20.216 Y-5.300
G0 X14.440 Y-5.300
G0 X14.440 Y-5.464
G1 F2400 X14.440 Y5.664 E144.57528
G0 F7500 X14.440 Y5.500
G0 X8.664 Y5.500
G0 X8.664 Y5.664
G1 F2400 X8.664 Y-5.464 E144.97593
G0 F7500 X8.664 Y-5.300
G0 X2.888 Y-5.300
G0 X2.888 Y-5.464
G1 F2400 X2.888 Y5.664 E145.37658
G0 F7500 X2.888 Y5.500
G0 X-2.888 Y5.500
G0 X-2.888 Y5.664
G1 F2400 X-2.888 Y-5.464 E145.77724
G0 F7500 X-2.888 Y-5.300
G0 X-8.664 Y-5.300
G0 X-8.664 Y-5.464
G1 F2400 X-8.664 Y5.664 E146.17789
G0 F7500 X-8.664 Y5.500
G0 X-14.440 Y5.500
G0 X-14.440 Y5.664
G1 F2400 X-14.440 Y-5.464 E146.57854
G0 F7500 X-14.440 Y-5.300
G0 X-20.216 Y-5.300
G0 X-20.216 Y-5.464
G1 F2400 X-20.216 Y5.664 E146.97920
G0 F7500 X-20.216 Y5.500
G0 X-25.992 Y5.500
G0 X-25.992 Y5.664
G1 F2400 X-25.992 Y-5.464 E147.37985
;LAYER:8
G1 F2400 E146.37985
G0 F7500 X0.216 Y0.216 Z1.900
;TYPE:WALL-OUTER
G1 F2400 E147.37985
G1 F2700 X0.284 Y0.216 E147.38230
G1 X0.284 Y0.284 E147.38475
G1 X0.216 Y0.284 E147.38720
G1 X0.216 Y0.216 E147.38964
G0 F7500 X-0.700 Y-0.700
;TYPE:SUPPORT
G1 F2400 X-0.700 Y1.200 E147.45805
G1 X1.200 Y1.200 E147.52646
G1 X1.200 Y-0.700 E147.59487
G1 X-0.700 Y-0.700 E147.66328
G0 F7500 X-0.690 Y-0.800
G0 X-35.500 Y-5.400
G1 F2400 X35.600 Y-5.400 E150.22317
G1 X35.600 Y5.600 E150.61921
G1 X-35.500 Y5.600 E153.17910
G1 X-35.500 Y-5.400 E153.57515
G0 F7500 X-35.400 Y-2.888
G0 X-35.563 Y-2.888
G1 F2400 X35.664 Y-2.887 E156.13961
G0 F7500 X35.500 Y-2.887
G0 X31.768 Y-5.300
G0 X31.768 Y-5.464
G1 F2400 X31.768 Y5.664 E156.54027
G0 F7500 X31.768 Y5.500
G0 X35.500 Y2.888
G0 X35.663 Y2.888
G1 F2400 X-35.564 Y2.887 E159.10473
