;Generated with Cura_SteamEngine 15.04.6

;Layer count: 16
;LAYER:0
M107
G0 F7500 X-38.716 Y-53.616 Z0.300
;TYPE:SKIRT
G1 F1800 X38.816 Y-53.616 E4.18720
G1 X38.816 Y53.816 E9.98919
G1 X-38.716 Y53.816 E14.17640
G1 X-38.716 Y-53.616 E19.97838
G1 F2400 E18.97838
G0 F7500 X0.216 Y0.216
;TYPE:WALL-OUTER
G1 F2400 E19.97838
G1 F1800 X0.284 Y0.216 E19.98206
G1 X0.284 Y0.284 E19.98573
G1 X0.216 Y0.284 E19.98940
G1 X0.216 Y0.216 E19.99307
G0 F7500 X-0.700 Y-0.700
;TYPE:SUPPORT
G1 F1800 X-0.700 Y1.200 E20.09569
G1 X1.200 Y1.200 E20.19830
G1 X1.200 Y-0.700 E20.30091
G1 X-0.700 Y-0.700 E20.40352
G0 F7500 X-0.690 Y-0.800
G0 X-35.500 Y-50.400
G1 F1800 X35.600 Y-50.400 E24.24336
G1 X35.600 Y50.600 E29.69798
G1 X-35.500 Y50.600 E33.53782
G1 X-35.500 Y-50.400 E38.99244
G0 F7500 X-35.563 Y-49.096
G1 F1800 X35.664 Y-49.095 E42.83913
G0 F7500 X35.500 Y-49.095
G0 X31.768 Y-50.300
G0 X31.768 Y-50.464
G1 F1800 X31.768 Y50.664 E48.30067
G0 F7500 X31.768 Y50.500
G0 X35.500 Y49.096
G0 X35.663 Y49.096
G1 F1800 X-35.564 Y49.095 E52.14736
G0 F7500 X-35.400 Y49.095
G0 X-31.768 Y50.500
G0 X-31.768 Y50.664
G1 F1800 X-31.768 Y-50.464 E57.60889
G0 F7500 X-31.768 Y-50.300
G0 X-25.992 Y-50.300
G0 X-25.992 Y-50.464
G1 F1800 X-25.992 Y50.664 E63.07043
G0 F7500 X-25.992 Y50.500
G0 X-20.216 Y50.500
G0 X-20.216 Y50.664
G1 F1800 X-20.216 Y-50.464 E68.53196
G0 F7500 X-20.216 Y-50.300
G0 X-35.400 Y-43.320
G0 X-35.563 Y-43.320
G1 F1800 X35.664 Y-43.319 E72.37866
G0 F7500 X35.500 Y-43.319
G0 X25.992 Y-50.300
G0 X25.992 Y-50.464
G1 F1800 X25.992 Y50.664 E77.84019
G0 F7500 X25.992 Y50.500
G0 X20.216 Y50.500
G0 X20.216 Y50.664
G1 F1800 X20.216 Y-50.464 E83.30172
G0 F7500 X20.216 Y-50.300
G0 X14.440 Y-50.300
G0 X14.440 Y-50.464
G1 F1800 X14.440 Y50.664 E88.76326
G0 F7500 X14.440 Y50.500
G0 X8.664 Y50.500
G0 X8.664 Y50.664
G1 F1800 X8.664 Y-50.464 E94.22479
G0 F7500 X8.664 Y-50.300
G0 X2.888 Y-50.300
G0 X2.888 Y-50.464
G1 F1800 X2.888 Y50.664 E99.68632
G0 F7500 X2.888 Y50.500
G0 X-2.888 Y50.500
G0 X-2.888 Y50.664
G1 F1800 X-2.888 Y-50.464 E105.14786
G0 F7500 X-2.888 Y-50.300
G0 X-8.664 Y-50.300
G0 X-8.664 Y-50.464
G1 F1800 X-8.664 Y50.664 E110.60939
G0 F7500 X-8.664 Y50.500
G0 X-14.440 Y50.500
G0 X-14.440 Y50.664
G1 F1800 X-14.440 Y-50.464 E116.07092
G0 F7500 X-14.440 Y-50.300
G0 X-35.400 Y-37.544
G0 X-35.563 Y-37.544
G1 F1800 X35.664 Y-37.543 E119.91762
G0 F7500 X35.500 Y-37.543
G0 X35.500 Y-31.767
G0 X35.664 Y-31.767
G1 F1800 X-35.563 Y-31.768 E123.76431
G0 F7500 X-35.400 Y-31.768
G0 X-35.400 Y-25.992
G0 X-35.563 Y-25.992
G1 F1800 X35.664 Y-25.991 E127.61101
G0 F7500 X35.500 Y-25.991
G0 X35.500 Y-20.215
G0 X35.664 Y-20.215
G1 F1800 X-35.563 Y-20.216 E131.45771
G0 F7500 X-35.400 Y-20.216
G0 X-35.400 Y-14.440
G0 X-35.563 Y-14.440
G1 F1800 X35.664 Y-14.439 E135.30440
G0 F7500 X35.500 Y-14.439
G0 X35.500 Y-8.663
G0 X35.664 Y-8.663
G1 F1800 X-35.563 Y-8.664 E139.15110
G0 F7500 X-35.400 Y-8.664
G0 X-35.400 Y-2.888
G0 X-35.563 Y-2.888
G1 F1800 X35.664 Y-2.887 E142.99779
G0 F7500 X35.500 Y-2.887
G0 X35.500 Y2.888
G0 X35.663 Y2.888
G1 F1800 X-35.564 Y2.887 E146.84449
G0 F7500 X-35.400 Y2.887
G0 X-35.400 Y8.663
G0 X-35.564 Y8.663
G1 F1800 X35.663 Y8.664 E150.69118
G0 F7500 X35.500 Y8.664
G0 X35.500 Y14.440
G0 X35.663 Y14.440
G1 F1800 X-35.564 Y14.439 E154.53788
G0 F7500 X-35.400 Y14.439
G0 X-35.400 Y20.215
G0 X-35.564 Y20.215
G1 F1800 X35.663 Y20.216 E158.38458
G0 F7500 X35.500 Y20.216
G0 X35.500 Y25.992
G0 X35.663 Y25.992
G1 F1800 X-35.564 Y25.991 E162.23127
G0 F7500 X-35.400 Y25.991
G0 X-35.400 Y31.767
G0 X-35.564 Y31.767
G1 F1800 X35.663 Y31.768 E166.07797
G0 F7500 X35.500 Y31.768
G0 X35.500 Y37.544
G0 X35.663 Y37.544
G1 F1800 X-35.564 Y37.543 E169.92466
G0 F7500 X-35.400 Y37.543
G0 X-35.400 Y43.319
G0 X-35.564 Y43.319
G1 F1800 X35.663 Y43.320 E173.77136
;LAYER:1
M106 S63
G1 F2400 E172.77136
G0 F7500 X0.284 Y0.284 Z0.500
;TYPE:WALL-OUTER
G1 F2400 E173.77136
G1 F1980 X0.216 Y0.284 E173.77381
G1 X0.216 Y0.216 E173.77625
G1 X0.284 Y0.216 E173.77870
G1 X0.284 Y0.284 E173.78115
G0 F7500 X1.200 Y1.200
;TYPE:SUPPORT
G1 F1920 X1.200 Y-0.700 E173.84956
G1 X-0.700 Y-0.700 E173.91797
G1 X-0.700 Y1.200 E173.98637
G1 X1.200 Y1.200 E174.05478
G0 F7500 X1.190 Y1.300
G0 X35.500 Y50.590
G0 X35.600 Y50.600
G1 F1920 X-35.500 Y50.600 E176.61467
G1 X-35.500 Y-50.400 E180.25109
G1 X35.600 Y-50.400 E182.81098
G1 X35.600 Y50.600 E186.44739
G0 F7500 X35.500 Y50.590
G0 X35.500 Y49.096
G0 X35.663 Y49.096
G1 F1920 X-35.564 Y49.095 E189.01186
G0 F7500 X-35.400 Y49.095
G0 X-31.768 Y50.500
G0 X-31.768 Y50.664
G1 F1920 X-31.768 Y-50.464 E192.65288
G0 F7500 X-31.768 Y-50.300
G0 X-35.400 Y-49.096
G0 X-35.563 Y-49.096
G1 F1920 X35.664 Y-49.095 E195.21734
G0 F7500 X35.500 Y-49.095
G0 X31.768 Y-50.300
G0 X31.768 Y-50.464
G1 F1920 X31.768 Y50.664 E198.85836
G0 F7500 X31.768 Y50.500
G0 X25.992 Y50.500
G0 X25.992 Y50.664
G1 F1920 X25.992 Y-50.464 E202.49939
G0 F7500 X25.992 Y-50.300
G0 X20.216 Y-50.300
G0 X20.216 Y-50.464
G1 F1920 X20.216 Y50.664 E206.14041
G0 F7500 X20.216 Y50.500
G0 X35.500 Y43.320
G0 X35.663 Y43.320
G1 F1920 X-35.564 Y43.319 E208.70487
G0 F7500 X-35.400 Y43.319
G0 X-25.992 Y50.500
G0 X-25.992 Y50.664
G1 F1920 X-25.992 Y-50.464 E212.34589
G0 F7500 X-25.992 Y-50.300
G0 X-20.216 Y-50.300
G0 X-20.216 Y-50.464
G1 F1920 X-20.216 Y50.664 E215.98692
G0 F7500 X-20.216 Y50.500
G0 X-14.440 Y50.500
G0 X-14.440 Y50.664
G1 F1920 X-14.440 Y-50.464 E219.62794
G0 F7500 X-14.440 Y-50.300
G0 X-8.664 Y-50.300
G0 X-8.664 Y-50.464
G1 F1920 X-8.664 Y50.664 E223.26896
G0 F7500 X-8.664 Y50.500
G0 X-2.888 Y50.500
G0 X-2.888 Y50.664
G1 F1920 X-2.888 Y-50.464 E226.90998
G0 F7500 X-2.888 Y-50.300
G0 X2.888 Y-50.300
G0 X2.888 Y-50.464
G1 F1920 X2.888 Y50.664 E230.55101
G0 F7500 X2.888 Y50.500
G0 X8.664 Y50.500
G0 X8.664 Y50.664
G1 F1920 X8.664 Y-50.464 E234.19203
G0 F7500 X8.664 Y-50.300
G0 X14.440 Y-50.300
G0 X14.440 Y-50.464
G1 F1920 X14.440 Y50.664 E237.83305
G0 F7500 X14.440 Y50.500
G0 X35.500 Y37.544
G0 X35.663 Y37.544
G1 F1920 X-35.564 Y37.543 E240.39751
G0 F7500 X-35.400 Y37.543
G0 X-35.400 Y31.767
G0 X-35.564 Y31.767
G1 F1920 X35.663 Y31.768 E242.96198
G0 F7500 X35.500 Y31.768
G0 X35.500 Y25.992
G0 X35.663 Y25.992
G1 F1920 X-35.564 Y25.991 E245.52644
G0 F7500 X-35.400 Y25.991
G0 X-35.400 Y20.215
G0 X-35.564 Y20.215
G1 F1920 X35.663 Y20.216 E248.09091
G0 F7500 X35.500 Y20.216
G0 X35.500 Y14.440
G0 X35.663 Y14.440
G1 F1920 X-35.564 Y14.439 E250.65537
G0 F7500 X-35.400 Y14.439
G0 X-35.400 Y8.663
G0 X-35.564 Y8.663
G1 F1920 X35.663 Y8.664 E253.21983
G0 F7500 X35.500 Y8.664
G0 X35.500 Y2.888
G0 X35.663 Y2.888
G1 F1920 X-35.564 Y2.887 E255.78430
G0 F7500 X-35.400 Y2.887
G0 X-35.400 Y-2.888
G0 X-35.563 Y-2.888
G1 F1920 X35.664 Y-2.887 E258.34876
G0 F7500 X35.500 Y-2.887
G0 X35.500 Y-8.663
G0 X35.664 Y-8.663
G1 F1920 X-35.563 Y-8.664 E260.91322
G0 F7500 X-35.400 Y-8.664
G0 X-35.400 Y-14.440
G0 X-35.563 Y-14.440
G1 F1920 X35.664 Y-14.439 E263.47769
G0 F7500 X35.500 Y-14.439
G0 X35.500 Y-20.215
G0 X35.664 Y-20.215
G1 F1920 X-35.563 Y-20.216 E266.04215
G0 F7500 X-35.400 Y-20.216
G0 X-35.400 Y-25.992
G0 X-35.563 Y-25.992
G1 F1920 X35.664 Y-25.991 E268.60662
G0 F7500 X35.500 Y-25.991
G0 X35.500 Y-31.767
G0 X35.664 Y-31.767
G1 F1920 X-35.563 Y-31.768 E271.17108
G0 F7500 X-35.400 Y-31.768
G0 X-35.400 Y-37.544
G0 X-35.563 Y-37.544
G1 F1920 X35.664 Y-37.543 E273.73554
G0 F7500 X35.500 Y-37.543
G0 X35.500 Y-43.319
G0 X35.664 Y-43.319
G1 F1920 X-35.563 Y-43.320 E276.30001
;LAYER:2
M106 S127
G1 F2400 E275.30001
G0 F7500 X0.216 Y0.216 Z0.700
;TYPE:WALL-OUTER
G1 F2400 E276.30001
G1 F2220 X0.284 Y0.216 E276.30245
G1 X0.284 Y0.284 E276.30490
G1 X0.216 Y0.284 E276.30735
G1 X0.216 Y0.216 E276.30980
G0 F7500 X-0.700 Y-0.700
;TYPE:SUPPORT
G1 F2100 X-0.700 Y1.200 E276.37821
G1 X1.200 Y1.200 E276.44662
G1 X1.200 Y-0.700 E276.51502
G1 X-0.700 Y-0.700 E276.58343
G0 F7500 X-0.690 Y-0.800
G0 X-35.500 Y-50.400
G1 F2100 X35.600 Y-50.400 E279.14332
G1 X35.600 Y50.600 E282.77974
G1 X-35.500 Y50.600 E285.33963
G1 X-35.500 Y-50.400 E288.97604
G0 F7500 X-35.563 Y-49.096
G1 F2100 X35.664 Y-49.095 E291.54050
G0 F7500 X35.500 Y-49.095
G0 X31.768 Y-50.300
G0 X31.768 Y-50.464
G1 F2100 X31.768 Y50.664 E295.18153
G0 F7500 X31.768 Y50.500
G0 X35.500 Y49.096
G0 X35.663 Y49.096
G1 F2100 X-35.564 Y49.095 E297.74599
G0 F7500 X-35.400 Y49.095
G0 X-31.768 Y50.500
G0 X-31.768 Y50.664
G1 F2100 X-31.768 Y-50.464 E301.38701
G0 F7500 X-31.768 Y-50.300
G0 X-25.992 Y-50.300
G0 X-25.992 Y-50.464
G1 F2100 X-25.992 Y50.664 E305.02804
G0 F7500 X-25.992 Y50.500
G0 X-20.216 Y50.500
G0 X-20.216 Y50.664
G1 F2100 X-20.216 Y-50.464 E308.66906
G0 F7500 X-20.216 Y-50.300
G0 X-35.400 Y-43.320
G0 X-35.563 Y-43.320
G1 F2100 X35.664 Y-43.319 E311.23352
G0 F7500 X35.500 Y-43.319
G0 X25.992 Y-50.300
G0 X25.992 Y-50.464
G1 F2100 X25.992 Y50.664 E314.87454
G0 F7500 X25.992 Y50.500
G0 X20.216 Y50.500
G0 X20.216 Y50.664
G1 F2100 X20.216 Y-50.464 E318.51557
G0 F7500 X20.216 Y-50.300
G0 X14.440 Y-50.300
G0 X14.440 Y-50.464
G1 F2100 X14.440 Y50.664 E322.15659
G0 F7500 X14.440 Y50.500
G0 X8.664 Y50.500
G0 X8.664 Y50.664
G1 F2100 X8.664 Y-50.464 E325.79761
G0 F7500 X8.664 Y-50.300
G0 X2.888 Y-50.300
G0 X2.888 Y-50.464
G1 F2100 X2.888 Y50.664 E329.43863
G0 F7500 X2.888 Y50.500
G0 X-2.888 Y50.500
G0 X-2.888 Y50.664
G1 F2100 X-2.888 Y-50.464 E333.07965
G0 F7500 X-2.888 Y-50.300
G0 X-8.664 Y-50.300
G0 X-8.664 Y-50.464
G1 F2100 X-8.664 Y50.664 E336.72068
G0 F7500 X-8.664 Y50.500
G0 X-14.440 Y50.500
G0 X-14.440 Y50.664
G1 F2100 X-14.440 Y-50.464 E340.36170
G0 F7500 X-14.440 Y-50.300
G0 X-35.400 Y-37.544
G0 X-35.563 Y-37.544
G1 F2100 X35.664 Y-37.543 E342.92616
G0 F7500 X35.500 Y-37.543
G0 X35.500 Y-31.767
G0 X35.664 Y-31.767
G1 F2100 X-35.563 Y-31.768 E345.49063
G0 F7500 X-35.400 Y-31.768
G0 X-35.400 Y-25.992
G0 X-35.563 Y-25.992
G1 F2100 X35.664 Y-25.991 E348.05509
G0 F7500 X35.500 Y-25.991
G0 X35.500 Y-20.215
G0 X35.664 Y-20.215
G1 F2100 X-35.563 Y-20.216 E350.61955
G0 F7500 X-35.400 Y-20.216
G0 X-35.400 Y-14.440
G0 X-35.563 Y-14.440
G1 F2100 X35.664 Y-14.439 E353.18402
G0 F7500 X35.500 Y-14.439
G0 X35.500 Y-8.663
G0 X35.664 Y-8.663
G1 F2100 X-35.563 Y-8.664 E355.74848
G0 F7500 X-35.400 Y-8.664
G0 X-35.400 Y-2.888
G0 X-35.563 Y-2.888
G1 F2100 X35.664 Y-2.887 E358.31295
G0 F7500 X35.500 Y-2.887
G0 X35.500 Y2.888
G0 X35.663 Y2.888
G1 F2100 X-35.564 Y2.887 E360.87741
G0 F7500 X-35.400 Y2.887
G0 X-35.400 Y8.663
G0 X-35.564 Y8.663
G1 F2100 X35.663 Y8.664 E363.44187
G0 F7500 X35.500 Y8.664
G0 X35.500 Y14.440
G0 X35.663 Y14.440
G1 F2100 X-35.564 Y14.439 E366.00634
G0 F7500 X-35.400 Y14.439
G0 X-35.400 Y20.215
G0 X-35.564 Y20.215
G1 F2100 X35.663 Y20.216 E368.57080
G0 F7500 X35.500 Y20.216
G0 X35.500 Y25.992
G0 X35.663 Y25.992
G1 F2100 X-35.564 Y25.991 E371.13526
G0 F7500 X-35.400 Y25.991
G0 X-35.400 Y31.767
G0 X-35.564 Y31.767
G1 F2100 X35.663 Y31.768 E373.69973
G0 F7500 X35.500 Y31.768
G0 X35.500 Y37.544
G0 X35.663 Y37.544
G1 F2100 X-35.564 Y37.543 E376.26419
G0 F7500 X-35.400 Y37.543
G0 X-35.400 Y43.319
G0 X-35.564 Y43.319
G1 F2100 X35.663 Y43.320 E378.82866
;LAYER:3
G1 F2400 E377.82866
G0 F7500 X0.284 Y0.284 Z0.900
;TYPE:WALL-OUTER
G1 F2400 E378.82866
G1 X0.216 Y0.284 E378.83110
G1 X0.216 Y0.216 E378.83355
G1 X0.284 Y0.216 E378.83600
G1 X0.284 Y0.284 E378.83845
G0 F7500 X1.200 Y1.200
;TYPE:SUPPORT
G1 F2220 X1.200 Y-0.700 E378.90686
G1 X-0.700 Y-0.700 E378.97526
G1 X-0.700 Y1.200 E379.04367
G1 X1.200 Y1.200 E379.11208
G0 F7500 X1.190 Y1.300
G0 X35.500 Y50.590
G0 X35.600 Y50.600
G1 F2220 X-35.500 Y50.600 E381.67197
G1 X-35.500 Y-50.400 E385.30838
G1 X35.600 Y-50.400 E387.86828
G1 X35.600 Y50.600 E391.50469
G0 F7500 X35.500 Y50.590
G0 X35.500 Y49.096
G0 X35.663 Y49.096
G1 F2220 X-35.564 Y49.095 E394.06915
G0 F7500 X-35.400 Y49.095
G0 X-31.768 Y50.500
G0 X-31.768 Y50.664
G1 F2220 X-31.768 Y-50.464 E397.71018
G0 F7500 X-31.768 Y-50.300
G0 X-35.400 Y-49.096
G0 X-35.563 Y-49.096
G1 F2220 X35.664 Y-49.095 E400.27464
G0 F7500 X35.500 Y-49.095
G0 X31.768 Y-50.300
G0 X31.768 Y-50.464
G1 F2220 X31.768 Y50.664 E403.91566
G0 F7500 X31.768 Y50.500
G0 X25.992 Y50.500
G0 X25.992 Y50.664
G1 F2220 X25.992 Y-50.464 E407.55668
G0 F7500 X25.992 Y-50.300
G0 X20.216 Y-50.300
G0 X20.216 Y-50.464
G1 F2220 X20.216 Y50.664 E411.19771
G0 F7500 X20.216 Y50.500
G0 X35.500 Y43.320
G0 X35.663 Y43.320
G1 F2220 X-35.564 Y43.319 E413.76217
G0 F7500 X-35.400 Y43.319
G0 X-25.992 Y50.500
G0 X-25.992 Y50.664
G1 F2220 X-25.992 Y-50.464 E417.40319
G0 F7500 X-25.992 Y-50.300
G0 X-20.216 Y-50.300
G0 X-20.216 Y-50.464
G1 F2220 X-20.216 Y50.664 E421.04421
G0 F7500 X-20.216 Y50.500
G0 X-14.440 Y50.500
G0 X-14.440 Y50.664
G1 F2220 X-14.440 Y-50.464 E424.68524
G0 F7500 X-14.440 Y-50.300
G0 X-8.664 Y-50.300
G0 X-8.664 Y-50.464
G1 F2220 X-8.664 Y50.664 E428.32626
G0 F7500 X-8.664 Y50.500
G0 X-2.888 Y50.500
G0 X-2.888 Y50.664
G1 F2220 X-2.888 Y-50.464 E431.96728
G0 F7500 X-2.888 Y-50.300
G0 X2.888 Y-50.300
G0 X2.888 Y-50.464
G1 F2220 X2.888 Y50.664 E435.60830
G0 F7500 X2.888 Y50.500
G0 X8.664 Y50.500
G0 X8.664 Y50.664
G1 F2220 X8.664 Y-50.464 E439.24933
G0 F7500 X8.664 Y-50.300
G0 X14.440 Y-50.300
G0 X14.440 Y-50.464
G1 F2220 X14.440 Y50.664 E442.89035
G0 F7500 X14.440 Y50.500
G0 X35.500 Y37.544
G0 X35.663 Y37.544
G1 F2220 X-35.564 Y37.543 E445.45481
G0 F7500 X-35.400 Y37.543
G0 X-35.400 Y31.767
G0 X-35.564 Y31.767
G1 F2220 X35.663 Y31.768 E448.01928
G0 F7500 X35.500 Y31.768
G0 X35.500 Y25.992
G0 X35.663 Y25.992
G1 F2220 X-35.564 Y25.991 E450.58374
G0 F7500 X-35.400 Y25.991
G0 X-35.400 Y20.215
G0 X-35.564 Y20.215
G1 F2220 X35.663 Y20.216 E453.14820
G0 F7500 X35.500 Y20.216
G0 X35.500 Y14.440
G0 X35.663 Y14.440
G1 F2220 X-35.564 Y14.439 E455.71267
G0 F7500 X-35.400 Y14.439
G0 X-35.400 Y8.663
G0 X-35.564 Y8.663
G1 F2220 X35.663 Y8.664 E458.27713
G0 F7500 X35.500 Y8.664
G0 X35.500 Y2.888
G0 X35.663 Y2.888
G1 F2220 X-35.564 Y2.887 E460.84159
G0 F7500 X-35.400 Y2.887
G0 X-35.400 Y-2.888
G0 X-35.563 Y-2.888
G1 F2220 X35.664 Y-2.887 E463.40606
G0 F7500 X35.500 Y-2.887
G0 X35.500 Y-8.663
G0 X35.664 Y-8.663
G1 F2220 X-35.563 Y-8.664 E465.97052
G0 F7500 X-35.400 Y-8.664
G0 X-35.400 Y-14.440
G0 X-35.563 Y-14.440
G1 F2220 X35.664 Y-14.439 E468.53499
G0 F7500 X35.500 Y-14.439
G0 X35.500 Y-20.215
G0 X35.664 Y-20.215
G1 F2220 X-35.563 Y-20.216 E471.09945
G0 F7500 X-35.400 Y-20.216
G0 X-35.400 Y-25.992
G0 X-35.563 Y-25.992
G1 F2220 X35.664 Y-25.991 E473.66391
G0 F7500 X35.500 Y-25.991
G0 X35.500 Y-31.767
G0 X35.664 Y-31.767
G1 F2220 X-35.563 Y-31.768 E476.22838
G0 F7500 X-35.400 Y-31.768
G0 X-35.400 Y-37.544
G0 X-35.563 Y-37.544
G1 F2220 X35.664 Y-37.543 E478.79284
G0 F7500 X35.500 Y-37.543
G0 X35.500 Y-43.319
G0 X35.664 Y-43.319
G1 F2220 X-35.563 Y-43.320 E481.35730
;LAYER:4
G1 F2400 E480.35730
G0 F7500 X0.216 Y0.216 Z1.100
;TYPE:WALL-OUTER
G1 F2400 E481.35730
G1 F2700 X0.284 Y0.216 E481.35975
G1 X0.284 Y0.284 E481.36220
G1 X0.216 Y0.284 E481.36465
G1 X0.216 Y0.216 E481.36710
G0 F7500 X-0.700 Y-0.700
;TYPE:SUPPORT
G1 F2400 X-0.700 Y1.200 E481.43550
G1 X1.200 Y1.200 E481.50391
G1 X1.200 Y-0.700 E481.57232
G1 X-0.700 Y-0.700 E481.64073
G0 F7500 X-0.690 Y-0.800
G0 X-35.500 Y-50.400
G1 F2400 X35.600 Y-50.400 E484.20062
G1 X35.600 Y50.600 E487.83703
G1 X-35.500 Y50.600 E490.39692
G1 X-35.500 Y-50.400 E494.03334
G0 F7500 X-35.563 Y-49.096
G1 F2400 X35.664 Y-49.095 E496.59780
G0 F7500 X35.500 Y-49.095
G0 X31.768 Y-50.300
G0 X31.768 Y-50.464
G1 F2400 X31.768 Y50.664 E500.23882
G0 F7500 X31.768 Y50.500
G0 X35.500 Y49.096
G0 X35.663 Y49.096
G1 F2400 X-35.564 Y49.095 E502.80329
G0 F7500 X-35.400 Y49.095
G0 X-31.768 Y50.500
G0 X-31.768 Y50.664
G1 F2400 X-31.768 Y-50.464 E506.44431
G0 F7500 X-31.768 Y-50.300
G0 X-25.992 Y-50.300
G0 X-25.992 Y-50.464
G1 F2400 X-25.992 Y50.664 E510.08533
G0 F7500 X-25.992 Y50.500
G0 X-20.216 Y50.500
G0 X-20.216 Y50.664
G1 F2400 X-20.216 Y-50.464 E513.72635
G0 F7500 X-20.216 Y-50.300
G0 X-35.400 Y-43.320
G0 X-35.563 Y-43.320
G1 F2400 X35.664 Y-43.319 E516.29082
G0 F7500 X35.500 Y-43.319
G0 X25.992 Y-50.300
G0 X25.992 Y-50.464
G1 F2400 X25.992 Y50.664 E519.93184
G0 F7500 X25.992 Y50.500
G0 X20.216 Y50.500
G0 X20.216 Y50.664
