;Generated with Cura_SteamEngine 15.04.6

;Layer count: 16
;LAYER:0
M107
G0 F7500 X-38.716 Y-13.616 Z0.300
;TYPE:SKIRT
G1 F1800 X38.816 Y-13.616 E4.18720
G1 X38.816 Y13.816 E5.66870
G1 X-38.716 Y13.816 E9.85591
G1 X-38.716 Y-13.616 E11.33740
G1 F2400 E10.33740
G0 F7500 X0.216 Y0.216
;TYPE:WALL-OUTER
G1 F2400 E11.33740
G1 F1800 X0.284 Y0.216 E11.34107
G1 X0.284 Y0.284 E11.34475
G1 X0.216 Y0.284 E11.34842
G1 X0.216 Y0.216 E11.35209
G0 F7500 X-0.700 Y-0.700
;TYPE:SUPPORT
G1 F1800 X-0.700 Y1.200 E11.45470
G1 X1.200 Y1.200 E11.55731
G1 X1.200 Y-0.700 E11.65993
G1 X-0.700 Y-0.700 E11.76254
G0 F7500 X-0.690 Y-0.800
G0 X-35.500 Y-10.400
G1 F1800 X35.600 Y-10.400 E15.60238
G1 X35.600 Y10.600 E16.73650
G1 X-35.500 Y10.600 E20.57634
G1 X-35.500 Y-10.400 E21.71047
G0 F7500 X-35.400 Y-8.664
G0 X-35.563 Y-8.664
G1 F1800 X35.664 Y-8.663 E25.55717
G0 F7500 X35.500 Y-8.663
G0 X31.768 Y-10.300
G0 X31.768 Y-10.464
G1 F1800 X31.768 Y10.664 E26.69821
G0 F7500 X31.768 Y10.500
G0 X35.500 Y8.664
G0 X35.663 Y8.664
G1 F1800 X-35.564 Y8.663 E30.54490
G0 F7500 X-35.400 Y8.663
G0 X-31.768 Y10.500
G0 X-31.768 Y10.664
G1 F1800 X-31.768 Y-10.464 E31.68594
G0 F7500 X-31.768 Y-10.300
G0 X-25.992 Y-10.300
G0 X-25.992 Y-10.464
G1 F1800 X-25.992 Y10.664 E32.82699
G0 F7500 X-25.992 Y10.500
G0 X-20.216 Y10.500
G0 X-20.216 Y10.664
G1 F1800 X-20.216 Y-10.464 E33.96803
G0 F7500 X-20.216 Y-10.300
G0 X-35.400 Y-2.888
G0 X-35.563 Y-2.888
G1 F1800 X35.664 Y-2.887 E37.81472
G0 F7500 X35.500 Y-2.887
G0 X35.500 Y2.888
G0 X35.663 Y2.888
G1 F1800 X-35.564 Y2.887 E41.66142
G0 F7500 X-35.400 Y2.887
G0 X-14.440 Y10.500
G0 X-14.440 Y10.664
G1 F1800 X-14.440 Y-10.464 E42.80246
G0 F7500 X-14.440 Y-10.300
G0 X-8.664 Y-10.300
G0 X-8.664 Y-10.464
G1 F1800 X-8.664 Y10.664 E43.94350
G0 F7500 X-8.664 Y10.500
G0 X-2.888 Y10.500
G0 X-2.888 Y10.664
G1 F1800 X-2.888 Y-10.464 E45.08455
G0 F7500 X-2.888 Y-10.300
G0 X2.888 Y-10.300
G0 X2.888 Y-10.464
G1 F1800 X2.888 Y10.664 E46.22559
G0 F7500 X2.888 Y10.500
G0 X8.664 Y10.500
G0 X8.664 Y10.664
G1 F1800 X8.664 Y-10.464 E47.36663
G0 F7500 X8.664 Y-10.300
G0 X14.440 Y-10.300
G0 X14.440 Y-10.464
G1 F1800 X14.440 Y10.664 E48.50767
G0 F7500 X14.440 Y10.500
G0 X20.216 Y10.500
G0 X20.216 Y10.664
G1 F1800 X20.216 Y-10.464 E49.64871
G0 F7500 X20.216 Y-10.300
G0 X25.992 Y-10.300
G0 X25.992 Y-10.464
G1 F1800 X25.992 Y10.664 E50.78975
;LAYER:1
M106 S63
G1 F2400 E49.78975
G0 F7500 X0.284 Y0.284 Z0.500
;TYPE:WALL-OUTER
G1 F2400 E50.78975
G1 F1980 X0.216 Y0.284 E50.79220
G1 X0.216 Y0.216 E50.79465
G1 X0.284 Y0.216 E50.79710
G1 X0.284 Y0.284 E50.79955
G0 F7500 X1.200 Y1.200
;TYPE:SUPPORT
G1 F1920 X1.200 Y-0.700 E50.86796
G1 X-0.700 Y-0.700 E50.93636
G1 X-0.700 Y1.200 E51.00477
G1 X1.200 Y1.200 E51.07318
G0 F7500 X1.190 Y1.300
G0 X35.500 Y10.590
G0 X35.600 Y10.600
G1 F1920 X-35.500 Y10.600 E53.63307
G1 X-35.500 Y-10.400 E54.38916
G1 X35.600 Y-10.400 E56.94905
G1 X35.600 Y10.600 E57.70513
G0 F7500 X35.500 Y10.590
G0 X35.500 Y8.664
G0 X35.663 Y8.664
G1 F1920 X-35.564 Y8.663 E60.26960
G0 F7500 X-35.400 Y8.663
G0 X-31.768 Y10.500
G0 X-31.768 Y10.664
G1 F1920 X-31.768 Y-10.464 E61.03029
G0 F7500 X-31.768 Y-10.300
G0 X-35.400 Y-8.664
G0 X-35.563 Y-8.664
G1 F1920 X35.664 Y-8.663 E63.59476
G0 F7500 X35.500 Y-8.663
G0 X31.768 Y-10.300
G0 X31.768 Y-10.464
G1 F1920 X31.768 Y10.664 E64.35545
G0 F7500 X31.768 Y10.500
G0 X25.992 Y10.500
G0 X25.992 Y10.664
G1 F1920 X25.992 Y-10.464 E65.11614
G0 F7500 X25.992 Y-10.300
G0 X20.216 Y-10.300
G0 X20.216 Y-10.464
G1 F1920 X20.216 Y10.664 E65.87684
G0 F7500 X20.216 Y10.500
G0 X35.500 Y2.888
G0 X35.663 Y2.888
G1 F1920 X-35.564 Y2.887 E68.44130
G0 F7500 X-35.400 Y2.887
G0 X-35.400 Y-2.888
G0 X-35.563 Y-2.888
G1 F1920 X35.664 Y-2.887 E71.00577
G0 F7500 X35.500 Y-2.887
G0 X14.440 Y-10.300
G0 X14.440 Y-10.464
G1 F1920 X14.440 Y10.664 E71.76646
G0 F7500 X14.440 Y10.500
G0 X8.664 Y10.500
G0 X8.664 Y10.664
G1 F1920 X8.664 Y-10.464 E72.52716
G0 F7500 X8.664 Y-10.300
G0 X2.888 Y-10.300
G0 X2.888 Y-10.464
G1 F1920 X2.888 Y10.664 E73.28785
G0 F7500 X2.888 Y10.500
G0 X-2.888 Y10.500
G0 X-2.888 Y10.664
G1 F1920 X-2.888 Y-10.464 E74.04854
G0 F7500 X-2.888 Y-10.300
G0 X-8.664 Y-10.300
G0 X-8.664 Y-10.464
G1 F1920 X-8.664 Y10.664 E74.80924
G0 F7500 X-8.664 Y10.500
G0 X-14.440 Y10.500
G0 X-14.440 Y10.664
G1 F1920 X-14.440 Y-10.464 E75.56993
G0 F7500 X-14.440 Y-10.300
G0 X-20.216 Y-10.300
G0 X-20.216 Y-10.464
G1 F1920 X-20.216 Y10.664 E76.33063
G0 F7500 X-20.216 Y10.500
G0 X-25.992 Y10.500
G0 X-25.992 Y10.664
G1 F1920 X-25.992 Y-10.464 E77.09132
;LAYER:2
M106 S127
G1 F2400 E76.09132
G0 F7500 X0.216 Y0.216 Z0.700
;TYPE:WALL-OUTER
G1 F2400 E77.09132
G1 F2220 X0.284 Y0.216 E77.09377
G1 X0.284 Y0.284 E77.09622
G1 X0.216 Y0.284 E77.09867
G1 X0.216 Y0.216 E77.10112
G0 F7500 X-0.700 Y-0.700
;TYPE:SUPPORT
G1 F2100 X-0.700 Y1.200 E77.16952
G1 X1.200 Y1.200 E77.23793
G1 X1.200 Y-0.700 E77.30634
G1 X-0.700 Y-0.700 E77.37475
G0 F7500 X-0.690 Y-0.800
G0 X-35.500 Y-10.400
G1 F2100 X35.600 Y-10.400 E79.93464
G1 X35.600 Y10.600 E80.69072
G1 X-35.500 Y10.600 E83.25062
G1 X-35.500 Y-10.400 E84.00670
G0 F7500 X-35.400 Y-8.664
G0 X-35.563 Y-8.664
G1 F2100 X35.664 Y-8.663 E86.57117
G0 F7500 X35.500 Y-8.663
G0 X31.768 Y-10.300
G0 X31.768 Y-10.464
G1 F2100 X31.768 Y10.664 E87.33186
G0 F7500 X31.768 Y10.500
G0 X35.500 Y8.664
G0 X35.663 Y8.664
G1 F2100 X-35.564 Y8.663 E89.89632
G0 F7500 X-35.400 Y8.663
G0 X-31.768 Y10.500
G0 X-31.768 Y10.664
G1 F2100 X-31.768 Y-10.464 E90.65702
G0 F7500 X-31.768 Y-10.300
G0 X-25.992 Y-10.300
G0 X-25.992 Y-10.464
G1 F2100 X-25.992 Y10.664 E91.41771
G0 F7500 X-25.992 Y10.500
G0 X-20.216 Y10.500
G0 X-20.216 Y10.664
G1 F2100 X-20.216 Y-10.464 E92.17841
G0 F7500 X-20.216 Y-10.300
G0 X-35.400 Y-2.888
G0 X-35.563 Y-2.888
G1 F2100 X35.664 Y-2.887 E94.74287
G0 F7500 X35.500 Y-2.887
G0 X35.500 Y2.888
G0 X35.663 Y2.888
G1 F2100 X-35.564 Y2.887 E97.30733
G0 F7500 X-35.400 Y2.887
G0 X-14.440 Y10.500
G0 X-14.440 Y10.664
G1 F2100 X-14.440 Y-10.464 E98.06803
G0 F7500 X-14.440 Y-10.300
G0 X-8.664 Y-10.300
G0 X-8.664 Y-10.464
G1 F2100 X-8.664 Y10.664 E98.82872
G0 F7500 X-8.664 Y10.500
G0 X-2.888 Y10.500
G0 X-2.888 Y10.664
G1 F2100 X-2.888 Y-10.464 E99.58942
G0 F7500 X-2.888 Y-10.300
G0 X2.888 Y-10.300
G0 X2.888 Y-10.464
G1 F2100 X2.888 Y10.664 E100.35011
G0 F7500 X2.888 Y10.500
G0 X8.664 Y10.500
G0 X8.664 Y10.664
G1 F2100 X8.664 Y-10.464 E101.11081
G0 F7500 X8.664 Y-10.300
G0 X14.440 Y-10.300
G0 X14.440 Y-10.464
G1 F2100 X14.440 Y10.664 E101.87150
G0 F7500 X14.440 Y10.500
G0 X20.216 Y10.500
G0 X20.216 Y10.664
G1 F2100 X20.216 Y-10.464 E102.63220
G0 F7500 X20.216 Y-10.300
G0 X25.992 Y-10.300
G0 X25.992 Y-10.464
G1 F2100 X25.992 Y10.664 E103.39289
;LAYER:3
G1 F2400 E102.39289
G0 F7500 X0.284 Y0.284 Z0.900
;TYPE:WALL-OUTER
G1 F2400 E103.39289
G1 X0.216 Y0.284 E103.39534
G1 X0.216 Y0.216 E103.39779
G1 X0.284 Y0.216 E103.40024
G1 X0.284 Y0.284 E103.40268
G0 F7500 X1.200 Y1.200
;TYPE:SUPPORT
G1 F2220 X1.200 Y-0.700 E103.47109
G1 X-0.700 Y-0.700 E103.53950
G1 X-0.700 Y1.200 E103.60791
G1 X1.200 Y1.200 E103.67632
G0 F7500 X1.190 Y1.300
G0 X35.500 Y10.590
G0 X35.600 Y10.600
G1 F2220 X-35.500 Y10.600 E106.23621
G1 X-35.500 Y-10.400 E106.99229
G1 X35.600 Y-10.400 E109.55218
G1 X35.600 Y10.600 E110.30827
G0 F7500 X35.500 Y10.590
G0 X35.500 Y8.664
G0 X35.663 Y8.664
G1 F2220 X-35.564 Y8.663 E112.87273
G0 F7500 X-35.400 Y8.663
G0 X-31.768 Y10.500
G0 X-31.768 Y10.664
G1 F2220 X-31.768 Y-10.464 E113.63343
G0 F7500 X-31.768 Y-10.300
G0 X-35.400 Y-8.664
G0 X-35.563 Y-8.664
G1 F2220 X35.664 Y-8.663 E116.19789
G0 F7500 X35.500 Y-8.663
G0 X31.768 Y-10.300
G0 X31.768 Y-10.464
G1 F2220 X31.768 Y10.664 E116.95859
G0 F7500 X31.768 Y10.500
G0 X25.992 Y10.500
G0 X25.992 Y10.664
G1 F2220 X25.992 Y-10.464 E117.71928
G0 F7500 X25.992 Y-10.300
G0 X20.216 Y-10.300
G0 X20.216 Y-10.464
G1 F2220 X20.216 Y10.664 E118.47998
G0 F7500 X20.216 Y10.500
G0 X35.500 Y2.888
G0 X35.663 Y2.888
G1 F2220 X-35.564 Y2.887 E121.04444
G0 F7500 X-35.400 Y2.887
G0 X-35.400 Y-2.888
G0 X-35.563 Y-2.888
G1 F2220 X35.664 Y-2.887 E123.60890
G0 F7500 X35.500 Y-2.887
G0 X14.440 Y-10.300
G0 X14.440 Y-10.464
G1 F2220 X14.440 Y10.664 E124.36960
G0 F7500 X14.440 Y10.500
G0 X8.664 Y10.500
G0 X8.664 Y10.664
G1 F2220 X8.664 Y-10.464 E125.13029
G0 F7500 X8.664 Y-10.300
G0 X2.888 Y-10.300
G0 X2.888 Y-10.464
G1 F2220 X2.888 Y10.664 E125.89099
G0 F7500 X2.888 Y10.500
G0 X-2.888 Y10.500
G0 X-2.888 Y10.664
G1 F2220 X-2.888 Y-10.464 E126.65168
G0 F7500 X-2.888 Y-10.300
G0 X-8.664 Y-10.300
G0 X-8.664 Y-10.464
G1 F2220 X-8.664 Y10.664 E127.41238
G0 F7500 X-8.664 Y10.500
G0 X-14.440 Y10.500
G0 X-14.440 Y10.664
G1 F2220 X-14.440 Y-10.464 E128.17307
G0 F7500 X-14.440 Y-10.300
G0 X-20.216 Y-10.300
G0 X-20.216 Y-10.464
G1 F2220 X-20.216 Y10.664 E128.93376
G0 F7500 X-20.216 Y10.500
G0 X-25.992 Y10.500
G0 X-25.992 Y10.664
G1 F2220 X-25.992 Y-10.464 E129.69446
;LAYER:4
G1 F2400 E128.69446
G0 F7500 X0.216 Y0.216 Z1.100
;TYPE:WALL-OUTER
G1 F2400 E129.69446
G1 F2700 X0.284 Y0.216 E129.69691
G1 X0.284 Y0.284 E129.69936
G1 X0.216 Y0.284 E129.70180
G1 X0.216 Y0.216 E129.70425
G0 F7500 X-0.700 Y-0.700
;TYPE:SUPPORT
G1 F2400 X-0.700 Y1.200 E129.77266
G1 X1.200 Y1.200 E129.84107
G1 X1.200 Y-0.700 E129.90948
G1 X-0.700 Y-0.700 E129.97788
G0 F7500 X-0.690 Y-0.800
G0 X-35.500 Y-10.400
G1 F2400 X35.600 Y-10.400 E132.53777
G1 X35.600 Y10.600 E133.29386
G1 X-35.500 Y10.600 E135.85375
G1 X-35.500 Y-10.400 E136.60984
G0 F7500 X-35.400 Y-8.664
G0 X-35.563 Y-8.664
G1 F2400 X35.664 Y-8.663 E139.17430
G0 F7500 X35.500 Y-8.663
G0 X31.768 Y-10.300
G0 X31.768 Y-10.464
G1 F2400 X31.768 Y10.664 E139.93500
G0 F7500 X31.768 Y10.500
G0 X35.500 Y8.664
G0 X35.663 Y8.664
G1 F2400 X-35.564 Y8.663 E142.49946
G0 F7500 X-35.400 Y8.663
G0 X-31.768 Y10.500
G0 X-31.768 Y10.664
G1 F2400 X-31.768 Y-10.464 E143.26015
G0 F7500 X-31.768 Y-10.300
G0 X-25.992 Y-10.300
G0 X-25.992 Y-10.464
G1 F2400 X-25.992 Y10.664 E144.02085
G0 F7500 X-25.992 Y10.500
G0 X-20.216 Y10.500
G0 X-20.216 Y10.664
G1 F2400 X-20.216 Y-10.464 E144.78154
G0 F7500 X-20.216 Y-10.300
G0 X-35.400 Y-2.888
G0 X-35.563 Y-2.888
G1 F2400 X35.664 Y-2.887 E147.34601
G0 F7500 X35.500 Y-2.887
G0 X35.500 Y2.888
G0 X35.663 Y2.888
G1 F2400 X-35.564 Y2.887 E149.91047
G0 F7500 X-35.400 Y2.887
G0 X-14.440 Y10.500
G0 X-14.440 Y10.664
G1 F2400 X-14.440 Y-10.464 E150.67117
G0 F7500 X-14.440 Y-10.300
G0 X-8.664 Y-10.300
G0 X-8.664 Y-10.464
G1 F2400 X-8.664 Y10.664 E151.43186
G0 F7500 X-8.664 Y10.500
G0 X-2.888 Y10.500
G0 X-2.888 Y10.664
G1 F2400 X-2.888 Y-10.464 E152.19255
G0 F7500 X-2.888 Y-10.300
G0 X2.888 Y-10.300
G0 X2.888 Y-10.464
G1 F2400 X2.888 Y10.664 E152.95325
G0 F7500 X2.888 Y10.500
G0 X8.664 Y10.500
G0 X8.664 Y10.664
G1 F2400 X8.664 Y-10.464 E153.71394
G0 F7500 X8.664 Y-10.300
G0 X14.440 Y-10.300
G0 X14.440 Y-10.464
G1 F2400 X14.440 Y10.664 E154.47464
G0 F7500 X14.440 Y10.500
G0 X20.216 Y10.500
G0 X20.216 Y10.664
G1 F2400 X20.216 Y-10.464 E155.23533
G0 F7500 X20.216 Y-10.300
G0 X25.992 Y-10.300
G0 X25.992 Y-10.464
G1 F2400 X25.992 Y10.664 E155.99603
;LAYER:5
G1 F2400 E154.99603
G0 F7500 X0.284 Y0.284 Z1.300
;TYPE:WALL-OUTER
G1 F2400 E155.99603
G1 F2700 X0.216 Y0.284 E155.99848
G1 X0.216 Y0.216 E156.00092
G1 X0.284 Y0.216 E156.00337
G1 X0.284 Y0.284 E156.00582
G0 F7500 X1.200 Y1.200
;TYPE:SUPPORT
G1 F2400 X1.200 Y-0.700 E156.07423
G1 X-0.700 Y-0.700 E156.14264
G1 X-0.700 Y1.200 E156.21104
G1 X1.200 Y1.200 E156.27945
G0 F7500 X1.190 Y1.300
G0 X35.500 Y10.590
G0 X35.600 Y10.600
G1 F2400 X-35.500 Y10.600 E158.83934
G1 X-35.500 Y-10.400 E159.59543
G1 X35.600 Y-10.400 E162.15532
G1 X35.600 Y10.600 E162.91141
G0 F7500 X35.500 Y10.590
G0 X35.500 Y8.664
G0 X35.663 Y8.664
G1 F2400 X-35.564 Y8.663 E165.47587
G0 F7500 X-35.400 Y8.663
G0 X-31.768 Y10.500
G0 X-31.768 Y10.664
G1 F2400 X-31.768 Y-10.464 E166.23656
G0 F7500 X-31.768 Y-10.300
G0 X-35.400 Y-8.664
G0 X-35.563 Y-8.664
G1 F2400 X35.664 Y-8.663 E168.80103
G0 F7500 X35.500 Y-8.663
G0 X31.768 Y-10.300
G0 X31.768 Y-10.464
G1 F2400 X31.768 Y10.664 E169.56172
G0 F7500 X31.768 Y10.500
G0 X25.992 Y10.500
G0 X25.992 Y10.664
G1 F2400 X25.992 Y-10.464 E170.32242
G0 F7500 X25.992 Y-10.300
G0 X20.216 Y-10.300
G0 X20.216 Y-10.464
G1 F2400 X20.216 Y10.664 E171.08311
G0 F7500 X20.216 Y10.500
G0 X35.500 Y2.888
G0 X35.663 Y2.888
G1 F2400 X-35.564 Y2.887 E173.64758
G0 F7500 X-35.400 Y2.887
G0 X-35.400 Y-2.888
G0 X-35.563 Y-2.888
G1 F2400 X35.664 Y-2.887 E176.21204
G0 F7500 X35.500 Y-2.887
G0 X14.440 Y-10.300
G0 X14.440 Y-10.464
G1 F2400 X14.440 Y10.664 E176.97273
G0 F7500 X14.440 Y10.500
G0 X8.664 Y10.500
G0 X8.664 Y10.664
G1 F2400 X8.664 Y-10.464 E177.73343
G0 F7500 X8.664 Y-10.300
G0 X2.888 Y-10.300
G0 X2.888 Y-10.464
G1 F2400 X2.888 Y10.664 E178.49412
G0 F7500 X2.888 Y10.500
G0 X-2.888 Y10.500
G0 X-2.888 Y10.664
G1 F2400 X-2.888 Y-10.464 E179.25482
G0 F7500 X-2.888 Y-10.300
G0 X-8.664 Y-10.300
G0 X-8.664 Y-10.464
G1 F2400 X-8.664 Y10.664 E180.01551
G0 F7500 X-8.664 Y10.500
G0 X-14.440 Y10.500
G0 X-14.440 Y10.664
G1 F2400 X-14.440 Y-10.464 E180.77621
G0 F7500 X-14.440 Y-10.300
G0 X-20.216 Y-10.300
G0 X-20.216 Y-10.464
G1 F2400 X-20.216 Y10.664 E181.53690
G0 F7500 X-20.216 Y10.500
G0 X-25.992 Y10.500
G0 X-25.992 Y10.664
G1 F2400 X-25.992 Y-10.464 E182.29760
;LAYER:6
G1 F2400 E181.29760
G0 F7500 X0.216 Y0.216 Z1.500
;TYPE:WALL-OUTER
G1 F2400 E182.29760
G1 F2700 X0.284 Y0.216 E182.30004
G1 X0.284 Y0.284 E182.30249
G1 X0.216 Y0.284 E182.30494
G1 X0.216 Y0.216 E182.30739
G0 F7500 X-0.700 Y-0.700
;TYPE:SUPPORT
G1 F2400 X-0.700 Y1.200 E182.37580
G1 X1.200 Y1.200 E182.44420
G1 X1.200 Y-0.700 E182.51261
G1 X-0.700 Y-0.700 E182.58102
G0 F7500 X-0.690 Y-0.800
G0 X-35.500 Y-10.400
G1 F2400 X35.600 Y-10.400 E185.14091
G1 X35.600 Y10.600 E185.89700
G1 X-35.500 Y10.600 E188.45689
G1 X-35.500 Y-10.400 E189.21297
G0 F7500 X-35.400 Y-8.664
G0 X-35.563 Y-8.664
G1 F2400 X35.664 Y-8.663 E191.77744
G0 F7500 X35.500 Y-8.663
G0 X31.768 Y-10.300
G0 X31.768 Y-10.464
G1 F2400 X31.768 Y10.664 E192.53813
G0 F7500 X31.768 Y10.500
G0 X35.500 Y8.664
G0 X35.663 Y8.664
G1 F2400 X-35.564 Y8.663 E195.10260
G0 F7500 X-35.400 Y8.663
G0 X-31.768 Y10.500
G0 X-31.768 Y10.664
G1 F2400 X-31.768 Y-10.464 E195.86329
G0 F7500 X-31.768 Y-10.300
G0 X-25.992 Y-10.300
G0 X-25.992 Y-10.464
G1 F2400 X-25.992 Y10.664 E196.62399
G0 F7500 X-25.992 Y10.500
G0 X-20.216 Y10.500
G0 X-20.216 Y10.664
G1 F2400 X-20.216 Y-10.464 E197.38468
G0 F7500 X-20.216 Y-10.300
G0 X-35.400 Y-2.888
G0 X-35.563 Y-2.888
G1 F2400 X35.664 Y-2.887 E199.94914
G0 F7500 X35.500 Y-2.887
G0 X35.500 Y2.888
G0 X35.663 Y2.888
G1 F2400 X-35.564 Y2.887 E202.51361
G0 F7500 X-35.400 Y2.887
G0 X-14.440 Y10.500
G0 X-14.440 Y10.664
G1 F2400 X-14.440 Y-10.464 E203.27430
G0 F7500 X-14.440 Y-10.300
G0 X-8.664 Y-10.300
G0 X-8.664 Y-10.464
G1 F2400 X-8.664 Y10.664 E204.03500
G0 F7500 X-8.664 Y10.500
G0 X-2.888 Y10.500
G0 X-2.888 Y10.664
G1 F2400 X-2.888 Y-10.464 E204.79569
G0 F7500 X-2.888 Y-10.300
G0 X2.888 Y-10.300
G0 X2.888 Y-10.464
G1 F2400 X2.888 Y10.664 E205.55639
G0 F7500 X2.888 Y10.500
G0 X8.664 Y10.500
G0 X8.664 Y10.664
G1 F2400 X8.664 Y-10.464 E206.31708
G0 F7500 X8.664 Y-10.300
G0 X14.440 Y-10.300
G0 X14.440 Y-10.464
G1 F2400 X14.440 Y10.664 E207.07778
G0 F7500 X14.440 Y10.500
G0 X20.216 Y10.500
G0 X20.216 Y10.664
G1 F2400 X20.216 Y-10.464 E207.83847
G0 F7500 X20.216 Y-10.300
G0 X25.992 Y-10.300
G0 X25.992 Y-10.464
G1 F2400 X25.992 Y10.664 E208.59916
;LAYER:7
G1 F2400 E207.59916
G0 F7500 X0.284 Y0.284 Z1.700
;TYPE:WALL-OUTER
G1 F2400 E208.59916
G1 F2700 X0.216 Y0.284 E208.60161
G1 X0.216 Y0.216 E208.60406
G1 X0.284 Y0.216 E208.60651
G1 X0.284 Y0.284 E208.60896
G0 F7500 X1.200 Y1.200
;TYPE:SUPPORT
G1 F2400 X1.200 Y-0.700 E208.67737
G1 X-0.700 Y-0.700 E208.74577
G1 X-0.700 Y1.200 E208.81418
G1 X1.200 Y1.200 E208.88259
G0 F7500 X1.190 Y1.300
G0 X35.500 Y10.590
G0 X35.600 Y10.600
G1 F2400 X-35.500 Y10.600 E211.44248
G1 X-35.500 Y-10.400 E212.19857
G1 X35.600 Y-10.400 E214.75846
G1 X35.600 Y10.600 E215.51454
G0 F7500 X35.500 Y10.590
G0 X35.500 Y8.664
G0 X35.663 Y8.664
G1 F2400 X-35.564 Y8.663 E218.07901
G0 F7500 X-35.400 Y8.663
G0 X-31.768 Y10.500
