;Generated with Cura_SteamEngine 15.04.6

;Layer count: 16
;LAYER:0
M107
G0 F7500 X-38.716 Y-18.616 Z0.300
;TYPE:SKIRT
G1 F1800 X38.816 Y-18.616 E4.18720
G1 X38.816 Y18.816 E6.20876
G1 X-38.716 Y18.816 E10.39597
G1 X-38.716 Y-18.616 E12.41752
G1 F2400 E11.41752
G0 F7500 X0.216 Y0.216
;TYPE:WALL-OUTER
G1 F2400 E12.41752
G1 F1800 X0.284 Y0.216 E12.42120
G1 X0.284 Y0.284 E12.42487
G1 X0.216 Y0.284 E12.42854
G1 X0.216 Y0.216 E12.43221
G0 F7500 X-0.700 Y-0.700
;TYPE:SUPPORT
G1 F1800 X-0.700 Y1.200 E12.53483
G1 X1.200 Y1.200 E12.63744
G1 X1.200 Y-0.700 E12.74005
G1 X-0.700 Y-0.700 E12.84266
G0 F7500 X-0.690 Y-0.800
G0 X-35.500 Y-15.400
G1 F1800 X35.600 Y-15.400 E16.68250
G1 X35.600 Y15.600 E18.35669
G1 X-35.500 Y15.600 E22.19653
G1 X-35.500 Y-15.400 E23.87072
G0 F7500 X-35.563 Y-14.440
G1 F1800 X35.664 Y-14.439 E27.71741
G0 F7500 X35.500 Y-14.439
G0 X31.768 Y-15.300
G0 X31.768 Y-15.464
G1 F1800 X31.768 Y15.664 E29.39851
G0 F7500 X31.768 Y15.500
G0 X35.500 Y14.440
G0 X35.663 Y14.440
G1 F1800 X-35.564 Y14.439 E33.24521
G0 F7500 X-35.400 Y14.439
G0 X-31.768 Y15.500
G0 X-31.768 Y15.664
G1 F1800 X-31.768 Y-15.464 E34.92631
G0 F7500 X-31.768 Y-15.300
G0 X-25.992 Y-15.300
G0 X-25.992 Y-15.464
G1 F1800 X-25.992 Y15.664 E36.60742
G0 F7500 X-25.992 Y15.500
G0 X-20.216 Y15.500
G0 X-20.216 Y15.664
G1 F1800 X-20.216 Y-15.464 E38.28852
G0 F7500 X-20.216 Y-15.300
G0 X-35.400 Y-8.664
G0 X-35.563 Y-8.664
G1 F1800 X35.664 Y-8.663 E42.13522
G0 F7500 X35.500 Y-8.663
G0 X35.500 Y-2.887
G0 X35.664 Y-2.887
G1 F1800 X-35.563 Y-2.888 E45.98191
G0 F7500 X-35.400 Y-2.888
G0 X-35.400 Y2.887
G0 X-35.564 Y2.887
G1 F1800 X35.663 Y2.888 E49.82861
G0 F7500 X35.500 Y2.888
G0 X35.500 Y8.664
G0 X35.663 Y8.664
G1 F1800 X-35.564 Y8.663 E53.67530
G0 F7500 X-35.400 Y8.663
G0 X-14.440 Y15.500
G0 X-14.440 Y15.664
G1 F1800 X-14.440 Y-15.464 E55.35641
G0 F7500 X-14.440 Y-15.300
G0 X-8.664 Y-15.300
G0 X-8.664 Y-15.464
G1 F1800 X-8.664 Y15.664 E57.03751
G0 F7500 X-8.664 Y15.500
G0 X-2.888 Y15.500
G0 X-2.888 Y15.664
G1 F1800 X-2.888 Y-15.464 E58.71861
G0 F7500 X-2.888 Y-15.300
G0 X2.888 Y-15.300
G0 X2.888 Y-15.464
G1 F1800 X2.888 Y15.664 E60.39972
G0 F7500 X2.888 Y15.500
G0 X8.664 Y15.500
G0 X8.664 Y15.664
G1 F1800 X8.664 Y-15.464 E62.08082
G0 F7500 X8.664 Y-15.300
G0 X14.440 Y-15.300
G0 X14.440 Y-15.464
G1 F1800 X14.440 Y15.664 E63.76192
G0 F7500 X14.440 Y15.500
G0 X20.216 Y15.500
G0 X20.216 Y15.664
G1 F1800 X20.216 Y-15.464 E65.44303
G0 F7500 X20.216 Y-15.300
G0 X25.992 Y-15.300
G0 X25.992 Y-15.464
G1 F1800 X25.992 Y15.664 E67.12413
;LAYER:1
M106 S63
G1 F2400 E66.12413
G0 F7500 X0.284 Y0.284 Z0.500
;TYPE:WALL-OUTER
G1 F2400 E67.12413
G1 F1980 X0.216 Y0.284 E67.12658
G1 X0.216 Y0.216 E67.12903
G1 X0.284 Y0.216 E67.13147
G1 X0.284 Y0.284 E67.13392
G0 F7500 X1.200 Y1.200
;TYPE:SUPPORT
G1 F1920 X1.200 Y-0.700 E67.20233
G1 X-0.700 Y-0.700 E67.27074
G1 X-0.700 Y1.200 E67.33915
G1 X1.200 Y1.200 E67.40755
G0 F7500 X1.190 Y1.300
G0 X35.500 Y15.590
G0 X35.600 Y15.600
G1 F1920 X-35.500 Y15.600 E69.96744
G1 X-35.500 Y-15.400 E71.08357
G1 X35.600 Y-15.400 E73.64346
G1 X35.600 Y15.600 E74.75959
G0 F7500 X35.663 Y14.440
G1 F1920 X-35.564 Y14.439 E77.32405
G0 F7500 X-35.400 Y14.439
G0 X-31.768 Y15.500
G0 X-31.768 Y15.664
G1 F1920 X-31.768 Y-15.464 E78.44479
G0 F7500 X-31.768 Y-15.300
G0 X-35.400 Y-14.440
G0 X-35.563 Y-14.440
G1 F1920 X35.664 Y-14.439 E81.00925
G0 F7500 X35.500 Y-14.439
G0 X31.768 Y-15.300
G0 X31.768 Y-15.464
G1 F1920 X31.768 Y15.664 E82.12999
G0 F7500 X31.768 Y15.500
G0 X25.992 Y15.500
G0 X25.992 Y15.664
G1 F1920 X25.992 Y-15.464 E83.25072
G0 F7500 X25.992 Y-15.300
G0 X20.216 Y-15.300
G0 X20.216 Y-15.464
G1 F1920 X20.216 Y15.664 E84.37146
G0 F7500 X20.216 Y15.500
G0 X35.500 Y8.664
G0 X35.663 Y8.664
G1 F1920 X-35.564 Y8.663 E86.93592
G0 F7500 X-35.400 Y8.663
G0 X-35.400 Y2.887
G0 X-35.564 Y2.887
G1 F1920 X35.663 Y2.888 E89.50039
G0 F7500 X35.500 Y2.888
G0 X35.500 Y-2.887
G0 X35.664 Y-2.887
G1 F1920 X-35.563 Y-2.888 E92.06485
G0 F7500 X-35.400 Y-2.888
G0 X-35.400 Y-8.664
G0 X-35.563 Y-8.664
G1 F1920 X35.664 Y-8.663 E94.62931
G0 F7500 X35.500 Y-8.663
G0 X14.440 Y-15.300
G0 X14.440 Y-15.464
G1 F1920 X14.440 Y15.664 E95.75005
G0 F7500 X14.440 Y15.500
G0 X8.664 Y15.500
G0 X8.664 Y15.664
G1 F1920 X8.664 Y-15.464 E96.87078
G0 F7500 X8.664 Y-15.300
G0 X2.888 Y-15.300
G0 X2.888 Y-15.464
G1 F1920 X2.888 Y15.664 E97.99152
G0 F7500 X2.888 Y15.500
G0 X-2.888 Y15.500
G0 X-2.888 Y15.664
G1 F1920 X-2.888 Y-15.464 E99.11226
G0 F7500 X-2.888 Y-15.300
G0 X-8.664 Y-15.300
G0 X-8.664 Y-15.464
G1 F1920 X-8.664 Y15.664 E100.23299
G0 F7500 X-8.664 Y15.500
G0 X-14.440 Y15.500
G0 X-14.440 Y15.664
G1 F1920 X-14.440 Y-15.464 E101.35373
G0 F7500 X-14.440 Y-15.300
G0 X-20.216 Y-15.300
G0 X-20.216 Y-15.464
G1 F1920 X-20.216 Y15.664 E102.47446
G0 F7500 X-20.216 Y15.500
G0 X-25.992 Y15.500
G0 X-25.992 Y15.664
G1 F1920 X-25.992 Y-15.464 E103.59520
;LAYER:2
M106 S127
G1 F2400 E102.59520
G0 F7500 X0.216 Y0.216 Z0.700
;TYPE:WALL-OUTER
G1 F2400 E103.59520
G1 F2220 X0.284 Y0.216 E103.59765
G1 X0.284 Y0.284 E103.60009
G1 X0.216 Y0.284 E103.60254
G1 X0.216 Y0.216 E103.60499
G0 F7500 X-0.700 Y-0.700
;TYPE:SUPPORT
G1 F2100 X-0.700 Y1.200 E103.67340
G1 X1.200 Y1.200 E103.74181
G1 X1.200 Y-0.700 E103.81021
G1 X-0.700 Y-0.700 E103.87862
G0 F7500 X-0.690 Y-0.800
G0 X-35.500 Y-15.400
G1 F2100 X35.600 Y-15.400 E106.43851
G1 X35.600 Y15.600 E107.55464
G1 X-35.500 Y15.600 E110.11453
G1 X-35.500 Y-15.400 E111.23066
G0 F7500 X-35.563 Y-14.440
G1 F2100 X35.664 Y-14.439 E113.79512
G0 F7500 X35.500 Y-14.439
G0 X31.768 Y-15.300
G0 X31.768 Y-15.464
G1 F2100 X31.768 Y15.664 E114.91586
G0 F7500 X31.768 Y15.500
G0 X35.500 Y14.440
G0 X35.663 Y14.440
G1 F2100 X-35.564 Y14.439 E117.48032
G0 F7500 X-35.400 Y14.439
G0 X-31.768 Y15.500
G0 X-31.768 Y15.664
G1 F2100 X-31.768 Y-15.464 E118.60106
G0 F7500 X-31.768 Y-15.300
G0 X-25.992 Y-15.300
G0 X-25.992 Y-15.464
G1 F2100 X-25.992 Y15.664 E119.72179
G0 F7500 X-25.992 Y15.500
G0 X-20.216 Y15.500
G0 X-20.216 Y15.664
G1 F2100 X-20.216 Y-15.464 E120.84253
G0 F7500 X-20.216 Y-15.300
G0 X-35.400 Y-8.664
G0 X-35.563 Y-8.664
G1 F2100 X35.664 Y-8.663 E123.40699
G0 F7500 X35.500 Y-8.663
G0 X35.500 Y-2.887
G0 X35.664 Y-2.887
G1 F2100 X-35.563 Y-2.888 E125.97146
G0 F7500 X-35.400 Y-2.888
G0 X-35.400 Y2.887
G0 X-35.564 Y2.887
G1 F2100 X35.663 Y2.888 E128.53592
G0 F7500 X35.500 Y2.888
G0 X35.500 Y8.664
G0 X35.663 Y8.664
G1 F2100 X-35.564 Y8.663 E131.10038
G0 F7500 X-35.400 Y8.663
G0 X-14.440 Y15.500
G0 X-14.440 Y15.664
G1 F2100 X-14.440 Y-15.464 E132.22112
G0 F7500 X-14.440 Y-15.300
G0 X-8.664 Y-15.300
G0 X-8.664 Y-15.464
G1 F2100 X-8.664 Y15.664 E133.34185
G0 F7500 X-8.664 Y15.500
G0 X-2.888 Y15.500
G0 X-2.888 Y15.664
G1 F2100 X-2.888 Y-15.464 E134.46259
G0 F7500 X-2.888 Y-15.300
G0 X2.888 Y-15.300
G0 X2.888 Y-15.464
G1 F2100 X2.888 Y15.664 E135.58333
G0 F7500 X2.888 Y15.500
G0 X8.664 Y15.500
G0 X8.664 Y15.664
G1 F2100 X8.664 Y-15.464 E136.70406
G0 F7500 X8.664 Y-15.300
G0 X14.440 Y-15.300
G0 X14.440 Y-15.464
G1 F2100 X14.440 Y15.664 E137.82480
G0 F7500 X14.440 Y15.500
G0 X20.216 Y15.500
G0 X20.216 Y15.664
G1 F2100 X20.216 Y-15.464 E138.94553
G0 F7500 X20.216 Y-15.300
G0 X25.992 Y-15.300
G0 X25.992 Y-15.464
G1 F2100 X25.992 Y15.664 E140.06627
;LAYER:3
G1 F2400 E139.06627
G0 F7500 X0.284 Y0.284 Z0.900
;TYPE:WALL-OUTER
G1 F2400 E140.06627
G1 X0.216 Y0.284 E140.06872
G1 X0.216 Y0.216 E140.07116
G1 X0.284 Y0.216 E140.07361
G1 X0.284 Y0.284 E140.07606
G0 F7500 X1.200 Y1.200
;TYPE:SUPPORT
G1 F2220 X1.200 Y-0.700 E140.14447
G1 X-0.700 Y-0.700 E140.21288
G1 X-0.700 Y1.200 E140.28128
G1 X1.200 Y1.200 E140.34969
G0 F7500 X1.190 Y1.300
G0 X35.500 Y15.590
G0 X35.600 Y15.600
G1 F2220 X-35.500 Y15.600 E142.90958
G1 X-35.500 Y-15.400 E144.02571
G1 X35.600 Y-15.400 E146.58560
G1 X35.600 Y15.600 E147.70173
G0 F7500 X35.663 Y14.440
G1 F2220 X-35.564 Y14.439 E150.26619
G0 F7500 X-35.400 Y14.439
G0 X-31.768 Y15.500
G0 X-31.768 Y15.664
G1 F2220 X-31.768 Y-15.464 E151.38693
G0 F7500 X-31.768 Y-15.300
G0 X-35.400 Y-14.440
G0 X-35.563 Y-14.440
G1 F2220 X35.664 Y-14.439 E153.95139
G0 F7500 X35.500 Y-14.439
G0 X31.768 Y-15.300
G0 X31.768 Y-15.464
G1 F2220 X31.768 Y15.664 E155.07213
G0 F7500 X31.768 Y15.500
G0 X25.992 Y15.500
G0 X25.992 Y15.664
G1 F2220 X25.992 Y-15.464 E156.19286
G0 F7500 X25.992 Y-15.300
G0 X20.216 Y-15.300
G0 X20.216 Y-15.464
G1 F2220 X20.216 Y15.664 E157.31360
G0 F7500 X20.216 Y15.500
G0 X35.500 Y8.664
G0 X35.663 Y8.664
G1 F2220 X-35.564 Y8.663 E159.87806
G0 F7500 X-35.400 Y8.663
G0 X-35.400 Y2.887
G0 X-35.564 Y2.887
G1 F2220 X35.663 Y2.888 E162.44253
G0 F7500 X35.500 Y2.888
G0 X35.500 Y-2.887
G0 X35.664 Y-2.887
G1 F2220 X-35.563 Y-2.888 E165.00699
G0 F7500 X-35.400 Y-2.888
G0 X-35.400 Y-8.664
G0 X-35.563 Y-8.664
G1 F2220 X35.664 Y-8.663 E167.57145
G0 F7500 X35.500 Y-8.663
G0 X14.440 Y-15.300
G0 X14.440 Y-15.464
G1 F2220 X14.440 Y15.664 E168.69219
G0 F7500 X14.440 Y15.500
G0 X8.664 Y15.500
G0 X8.664 Y15.664
G1 F2220 X8.664 Y-15.464 E169.81292
G0 F7500 X8.664 Y-15.300
G0 X2.888 Y-15.300
G0 X2.888 Y-15.464
G1 F2220 X2.888 Y15.664 E170.93366
G0 F7500 X2.888 Y15.500
G0 X-2.888 Y15.500
G0 X-2.888 Y15.664
G1 F2220 X-2.888 Y-15.464 E172.05439
G0 F7500 X-2.888 Y-15.300
G0 X-8.664 Y-15.300
G0 X-8.664 Y-15.464
G1 F2220 X-8.664 Y15.664 E173.17513
G0 F7500 X-8.664 Y15.500
G0 X-14.440 Y15.500
G0 X-14.440 Y15.664
G1 F2220 X-14.440 Y-15.464 E174.29587
G0 F7500 X-14.440 Y-15.300
G0 X-20.216 Y-15.300
G0 X-20.216 Y-15.464
G1 F2220 X-20.216 Y15.664 E175.41660
G0 F7500 X-20.216 Y15.500
G0 X-25.992 Y15.500
G0 X-25.992 Y15.664
G1 F2220 X-25.992 Y-15.464 E176.53734
;LAYER:4
G1 F2400 E175.53734
G0 F7500 X0.216 Y0.216 Z1.100
;TYPE:WALL-OUTER
G1 F2400 E176.53734
G1 F2700 X0.284 Y0.216 E176.53978
G1 X0.284 Y0.284 E176.54223
G1 X0.216 Y0.284 E176.54468
G1 X0.216 Y0.216 E176.54713
G0 F7500 X-0.700 Y-0.700
;TYPE:SUPPORT
G1 F2400 X-0.700 Y1.200 E176.61554
G1 X1.200 Y1.200 E176.68395
G1 X1.200 Y-0.700 E176.75235
G1 X-0.700 Y-0.700 E176.82076
G0 F7500 X-0.690 Y-0.800
G0 X-35.500 Y-15.400
G1 F2400 X35.600 Y-15.400 E179.38065
G1 X35.600 Y15.600 E180.49678
G1 X-35.500 Y15.600 E183.05667
G1 X-35.500 Y-15.400 E184.17280
G0 F7500 X-35.563 Y-14.440
G1 F2400 X35.664 Y-14.439 E186.73726
G0 F7500 X35.500 Y-14.439
G0 X31.768 Y-15.300
G0 X31.768 Y-15.464
G1 F2400 X31.768 Y15.664 E187.85800
G0 F7500 X31.768 Y15.500
G0 X35.500 Y14.440
G0 X35.663 Y14.440
G1 F2400 X-35.564 Y14.439 E190.42246
G0 F7500 X-35.400 Y14.439
G0 X-31.768 Y15.500
G0 X-31.768 Y15.664
G1 F2400 X-31.768 Y-15.464 E191.54320
G0 F7500 X-31.768 Y-15.300
G0 X-25.992 Y-15.300
G0 X-25.992 Y-15.464
G1 F2400 X-25.992 Y15.664 E192.66393
G0 F7500 X-25.992 Y15.500
G0 X-20.216 Y15.500
G0 X-20.216 Y15.664
G1 F2400 X-20.216 Y-15.464 E193.78467
G0 F7500 X-20.216 Y-15.300
G0 X-35.400 Y-8.664
G0 X-35.563 Y-8.664
G1 F2400 X35.664 Y-8.663 E196.34913
G0 F7500 X35.500 Y-8.663
G0 X35.500 Y-2.887
G0 X35.664 Y-2.887
G1 F2400 X-35.563 Y-2.888 E198.91359
G0 F7500 X-35.400 Y-2.888
G0 X-35.400 Y2.887
G0 X-35.564 Y2.887
G1 F2400 X35.663 Y2.888 E201.47806
G0 F7500 X35.500 Y2.888
G0 X35.500 Y8.664
G0 X35.663 Y8.664
G1 F2400 X-35.564 Y8.663 E204.04252
G0 F7500 X-35.400 Y8.663
G0 X-14.440 Y15.500
G0 X-14.440 Y15.664
G1 F2400 X-14.440 Y-15.464 E205.16326
G0 F7500 X-14.440 Y-15.300
G0 X-8.664 Y-15.300
G0 X-8.664 Y-15.464
G1 F2400 X-8.664 Y15.664 E206.28399
G0 F7500 X-8.664 Y15.500
G0 X-2.888 Y15.500
G0 X-2.888 Y15.664
G1 F2400 X-2.888 Y-15.464 E207.40473
G0 F7500 X-2.888 Y-15.300
G0 X2.888 Y-15.300
G0 X2.888 Y-15.464
G1 F2400 X2.888 Y15.664 E208.52546
G0 F7500 X2.888 Y15.500
G0 X8.664 Y15.500
G0 X8.664 Y15.664
G1 F2400 X8.664 Y-15.464 E209.64620
G0 F7500 X8.664 Y-15.300
G0 X14.440 Y-15.300
G0 X14.440 Y-15.464
G1 F2400 X14.440 Y15.664 E210.76693
G0 F7500 X14.440 Y15.500
G0 X20.216 Y15.500
G0 X20.216 Y15.664
G1 F2400 X20.216 Y-15.464 E211.88767
G0 F7500 X20.216 Y-15.300
G0 X25.992 Y-15.300
G0 X25.992 Y-15.464
G1 F2400 X25.992 Y15.664 E213.00841
;LAYER:5
G1 F2400 E212.00841
G0 F7500 X0.284 Y0.284 Z1.300
;TYPE:WALL-OUTER
G1 F2400 E213.00841
G1 F2700 X0.216 Y0.284 E213.01085
G1 X0.216 Y0.216 E213.01330
G1 X0.284 Y0.216 E213.01575
G1 X0.284 Y0.284 E213.01820
G0 F7500 X1.200 Y1.200
;TYPE:SUPPORT
G1 F2400 X1.200 Y-0.700 E213.08661
G1 X-0.700 Y-0.700 E213.15501
G1 X-0.700 Y1.200 E213.22342
G1 X1.200 Y1.200 E213.29183
G0 F7500 X1.190 Y1.300
G0 X35.500 Y15.590
G0 X35.600 Y15.600
G1 F2400 X-35.500 Y15.600 E215.85172
G1 X-35.500 Y-15.400 E216.96785
G1 X35.600 Y-15.400 E219.52774
G1 X35.600 Y15.600 E220.64387
G0 F7500 X35.663 Y14.440
G1 F2400 X-35.564 Y14.439 E223.20833
G0 F7500 X-35.400 Y14.439
G0 X-31.768 Y15.500
G0 X-31.768 Y15.664
G1 F2400 X-31.768 Y-15.464 E224.32907
G0 F7500 X-31.768 Y-15.300
G0 X-35.400 Y-14.440
G0 X-35.563 Y-14.440
G1 F2400 X35.664 Y-14.439 E226.89353
G0 F7500 X35.500 Y-14.439
G0 X31.768 Y-15.300
G0 X31.768 Y-15.464
G1 F2400 X31.768 Y15.664 E228.01427
G0 F7500 X31.768 Y15.500
G0 X25.992 Y15.500
G0 X25.992 Y15.664
G1 F2400 X25.992 Y-15.464 E229.13500
G0 F7500 X25.992 Y-15.300
G0 X20.216 Y-15.300
G0 X20.216 Y-15.464
G1 F2400 X20.216 Y15.664 E230.25574
G0 F7500 X20.216 Y15.500
G0 X35.500 Y8.664
G0 X35.663 Y8.664
G1 F2400 X-35.564 Y8.663 E232.82020
G0 F7500 X-35.400 Y8.663
G0 X-35.400 Y2.887
G0 X-35.564 Y2.887
G1 F2400 X35.663 Y2.888 E235.38466
G0 F7500 X35.500 Y2.888
G0 X35.500 Y-2.887
G0 X35.664 Y-2.887
G1 F2400 X-35.563 Y-2.888 E237.94913
G0 F7500 X-35.400 Y-2.888
G0 X-35.400 Y-8.664
G0 X-35.563 Y-8.664
G1 F2400 X35.664 Y-8.663 E240.51359
G0 F7500 X35.500 Y-8.663
G0 X14.440 Y-15.300
G0 X14.440 Y-15.464
G1 F2400 X14.440 Y15.664 E241.63433
G0 F7500 X14.440 Y15.500
G0 X8.664 Y15.500
G0 X8.664 Y15.664
G1 F2400 X8.664 Y-15.464 E242.75506
G0 F7500 X8.664 Y-15.300
G0 X2.888 Y-15.300
G0 X2.888 Y-15.464
G1 F2400 X2.888 Y15.664 E243.87580
G0 F7500 X2.888 Y15.500
G0 X-2.888 Y15.500
G0 X-2.888 Y15.664
G1 F2400 X-2.888 Y-15.464 E244.99653
G0 F7500 X-2.888 Y-15.300
G0 X-8.664 Y-15.300
G0 X-8.664 Y-15.464
G1 F2400 X-8.664 Y15.664 E246.11727
G0 F7500 X-8.664 Y15.500
G0 X-14.440 Y15.500
G0 X-14.440 Y15.664
G1 F2400 X-14.440 Y-15.464 E247.23800
G0 F7500 X-14.440 Y-15.300
G0 X-20.216 Y-15.300
G0 X-20.216 Y-15.464
G1 F2400 X-20.216 Y15.664 E248.35874
G0 F7500 X-20.216 Y15.500
G0 X-25.992 Y15.500
G0 X-25.992 Y15.664
G1 F2400 X-25.992 Y-15.464 E249.47948
;LAYER:6
G1 F2400 E248.47948
G0 F7500 X0.216 Y0.216 Z1.500
;TYPE:WALL-OUTER
G1 F2400 E249.47948
G1 F2700 X0.284 Y0.216 E249.48192
G1 X0.284 Y0.284 E249.48437
G1 X0.216 Y0.284 E249.48682
G1 X0.216 Y0.216 E249.48927
G0 F7500 X-0.700 Y-0.700
;TYPE:SUPPORT
G1 F2400 X-0.700 Y1.200 E249.55768
G1 X1.200 Y1.200 E249.62608
G1 X1.200 Y-0.700 E249.69449
G1 X-0.700 Y-0.700 E249.76290
G0 F7500 X-0.690 Y-0.800
G0 X-35.500 Y-15.400
G1 F2400 X35.600 Y-15.400 E252.32279
G1 X35.600 Y15.600 E253.43892
G1 X-35.500 Y15.600 E255.99881
G1 X-35.500 Y-15.400 E257.11494
G0 F7500 X-35.563 Y-14.440
G1 F2400 X35.664 Y-14.439 E259.67940
G0 F7500 X35.500 Y-14.439
G0 X31.768 Y-15.300
G0 X31.768 Y-15.464
G1 F2400 X31.768 Y15.664 E260.80014
G0 F7500 X31.768 Y15.500
G0 X35.500 Y14.440
G0 X35.663 Y14.440
G1 F2400 X-35.564 Y14.439 E263.36460
G0 F7500 X-35.400 Y14.439
G0 X-31.768 Y15.500
G0 X-31.768 Y15.664
G1 F2400 X-31.768 Y-15.464 E264.48533
G0 F7500 X-31.768 Y-15.300
G0 X-25.992 Y-15.300
G0 X-25.992 Y-15.464
G1 F2400 X-25.992 Y15.664 E265.60607
G0 F7500 X-25.992 Y15.500
G0 X-20.216 Y15.500
G0 X-20.216 Y15.664
G1 F2400 X-20.216 Y-15.464 E266.72681
G0 F7500 X-20.216 Y-15.300
G0 X-35.400 Y-8.664
G0 X-35.563 Y-8.664
G1 F2400 X35.664 Y-8.663 E269.29127
G0 F7500 X35.500 Y-8.663
G0 X35.500 Y-2.887
G0 X35.664 Y-2.887
G1 F2400 X-35.563 Y-2.888 E271.85573
G0 F7500 X-35.400 Y-2.888
G0 X-35.400 Y2.887
G0 X-35.564 Y2.887
G1 F2400 X35.663 Y2.888 E274.42020
G0 F7500 X35.500 Y2.888
G0 X35.500 Y8.664
G0 X35.663 Y8.664
G1 F2400 X-35.564 Y8.663 E276.98466
G0 F7500 X-35.400 Y8.663
G0 X-14.440 Y15.500
G0 X-14.440 Y15.664
G1 F2400 X-14.440 Y-15.464 E278.10540
G0 F7500 X-14.440 Y-15.300
G0 X-8.664 Y-15.300
G0 X-8.664 Y-15.464
G1 F2400 X-8.664 Y15.664 E279.22613
G0 F7500 X-8.664 Y15.500
G0 X-2.888 Y15.500
