;Generated with Cura_SteamEngine 15.04.6

;Layer count: 16
;LAYER:0
M107
G0 F7500 X-38.716 Y-23.616 Z0.300
;TYPE:SKIRT
G1 F1800 X38.816 Y-23.616 E4.18720
G1 X38.816 Y23.816 E6.74882
G1 X-38.716 Y23.816 E10.93603
G1 X-38.716 Y-23.616 E13.49765
G1 F2400 E12.49765
G0 F7500 X0.216 Y0.216
;TYPE:WALL-OUTER
G1 F2400 E13.49765
G1 F1800 X0.284 Y0.216 E13.50132
G1 X0.284 Y0.284 E13.50499
G1 X0.216 Y0.284 E13.50866
G1 X0.216 Y0.216 E13.51234
G0 F7500 X-0.700 Y-0.700
;TYPE:SUPPORT
G1 F1800 X-0.700 Y1.200 E13.61495
G1 X1.200 Y1.200 E13.71756
G1 X1.200 Y-0.700 E13.82017
G1 X-0.700 Y-0.700 E13.92278
G0 F7500 X-0.690 Y-0.800
G0 X-35.500 Y-20.400
G1 F1800 X35.600 Y-20.400 E17.76262
G1 X35.600 Y20.600 E19.97687
G1 X-35.500 Y20.600 E23.81671
G1 X-35.500 Y-20.400 E26.03096
G0 F7500 X-35.563 Y-20.216
G1 F1800 X35.664 Y-20.215 E29.87766
G0 F7500 X35.500 Y-20.215
G0 X31.768 Y-20.300
G0 X31.768 Y-20.464
G1 F1800 X31.768 Y20.664 E32.09882
G0 F7500 X31.768 Y20.500
G0 X35.500 Y20.216
G0 X35.663 Y20.216
G1 F1800 X-35.564 Y20.215 E35.94552
G0 F7500 X-35.400 Y20.215
G0 X-31.768 Y20.500
G0 X-31.768 Y20.664
G1 F1800 X-31.768 Y-20.464 E38.16668
G0 F7500 X-31.768 Y-20.300
G0 X-25.992 Y-20.300
G0 X-25.992 Y-20.464
G1 F1800 X-25.992 Y20.664 E40.38785
G0 F7500 X-25.992 Y20.500
G0 X-20.216 Y20.500
G0 X-20.216 Y20.664
G1 F1800 X-20.216 Y-20.464 E42.60901
G0 F7500 X-20.216 Y-20.300
G0 X-14.440 Y-20.300
G0 X-14.440 Y-20.464
G1 F1800 X-14.440 Y20.664 E44.83018
G0 F7500 X-14.440 Y20.500
G0 X-8.664 Y20.500
G0 X-8.664 Y20.664
G1 F1800 X-8.664 Y-20.464 E47.05134
G0 F7500 X-8.664 Y-20.300
G0 X-2.888 Y-20.300
G0 X-2.888 Y-20.464
G1 F1800 X-2.888 Y20.664 E49.27251
G0 F7500 X-2.888 Y20.500
G0 X2.888 Y20.500
G0 X2.888 Y20.664
G1 F1800 X2.888 Y-20.464 E51.49367
G0 F7500 X2.888 Y-20.300
G0 X8.664 Y-20.300
G0 X8.664 Y-20.464
G1 F1800 X8.664 Y20.664 E53.71484
G0 F7500 X8.664 Y20.500
G0 X14.440 Y20.500
G0 X14.440 Y20.664
G1 F1800 X14.440 Y-20.464 E55.93600
G0 F7500 X14.440 Y-20.300
G0 X20.216 Y-20.300
G0 X20.216 Y-20.464
G1 F1800 X20.216 Y20.664 E58.15716
G0 F7500 X20.216 Y20.500
G0 X25.992 Y20.500
G0 X25.992 Y20.664
G1 F1800 X25.992 Y-20.464 E60.37833
G0 F7500 X25.992 Y-20.300
G0 X35.500 Y-14.439
G0 X35.664 Y-14.439
G1 F1800 X-35.563 Y-14.440 E64.22502
G0 F7500 X-35.400 Y-14.440
G0 X-35.400 Y-8.664
G0 X-35.563 Y-8.664
G1 F1800 X35.664 Y-8.663 E68.07172
G0 F7500 X35.500 Y-8.663
G0 X35.500 Y-2.887
G0 X35.664 Y-2.887
G1 F1800 X-35.563 Y-2.888 E71.91842
G0 F7500 X-35.400 Y-2.888
G0 X-35.400 Y2.887
G0 X-35.564 Y2.887
G1 F1800 X35.663 Y2.888 E75.76511
G0 F7500 X35.500 Y2.888
G0 X35.500 Y8.664
G0 X35.663 Y8.664
G1 F1800 X-35.564 Y8.663 E79.61181
G0 F7500 X-35.400 Y8.663
G0 X-35.400 Y14.439
G0 X-35.564 Y14.439
G1 F1800 X35.663 Y14.440 E83.45850
;LAYER:1
M106 S63
G1 F2400 E82.45850
G0 F7500 X0.284 Y0.284 Z0.500
;TYPE:WALL-OUTER
G1 F2400 E83.45850
G1 F1980 X0.216 Y0.284 E83.46095
G1 X0.216 Y0.216 E83.46340
G1 X0.284 Y0.216 E83.46585
G1 X0.284 Y0.284 E83.46830
G0 F7500 X1.200 Y1.200
;TYPE:SUPPORT
G1 F1920 X1.200 Y-0.700 E83.53670
G1 X-0.700 Y-0.700 E83.60511
G1 X-0.700 Y1.200 E83.67352
G1 X1.200 Y1.200 E83.74193
G0 F7500 X1.190 Y1.300
G0 X35.500 Y20.590
G0 X35.600 Y20.600
G1 F1920 X-35.500 Y20.600 E86.30182
G1 X-35.500 Y-20.400 E87.77799
G1 X35.600 Y-20.400 E90.33788
G1 X35.600 Y20.600 E91.81405
G0 F7500 X35.663 Y20.216
G1 F1920 X-35.564 Y20.215 E94.37851
G0 F7500 X-35.400 Y20.215
G0 X-31.768 Y20.500
G0 X-31.768 Y20.664
G1 F1920 X-31.768 Y-20.464 E95.85929
G0 F7500 X-31.768 Y-20.300
G0 X-35.400 Y-20.216
G0 X-35.563 Y-20.216
G1 F1920 X35.664 Y-20.215 E98.42375
G0 F7500 X35.500 Y-20.215
G0 X31.768 Y-20.300
G0 X31.768 Y-20.464
G1 F1920 X31.768 Y20.664 E99.90453
G0 F7500 X31.768 Y20.500
G0 X25.992 Y20.500
G0 X25.992 Y20.664
G1 F1920 X25.992 Y-20.464 E101.38530
G0 F7500 X25.992 Y-20.300
G0 X20.216 Y-20.300
G0 X20.216 Y-20.464
G1 F1920 X20.216 Y20.664 E102.86608
G0 F7500 X20.216 Y20.500
G0 X14.440 Y20.500
G0 X14.440 Y20.664
G1 F1920 X14.440 Y-20.464 E104.34686
G0 F7500 X14.440 Y-20.300
G0 X8.664 Y-20.300
G0 X8.664 Y-20.464
G1 F1920 X8.664 Y20.664 E105.82763
G0 F7500 X8.664 Y20.500
G0 X2.888 Y20.500
G0 X2.888 Y20.664
G1 F1920 X2.888 Y-20.464 E107.30841
G0 F7500 X2.888 Y-20.300
G0 X-2.888 Y-20.300
G0 X-2.888 Y-20.464
G1 F1920 X-2.888 Y20.664 E108.78918
G0 F7500 X-2.888 Y20.500
G0 X-8.664 Y20.500
G0 X-8.664 Y20.664
G1 F1920 X-8.664 Y-20.464 E110.26996
G0 F7500 X-8.664 Y-20.300
G0 X-14.440 Y-20.300
G0 X-14.440 Y-20.464
G1 F1920 X-14.440 Y20.664 E111.75074
G0 F7500 X-14.440 Y20.500
G0 X-20.216 Y20.500
G0 X-20.216 Y20.664
G1 F1920 X-20.216 Y-20.464 E113.23151
G0 F7500 X-20.216 Y-20.300
G0 X-25.992 Y-20.300
G0 X-25.992 Y-20.464
G1 F1920 X-25.992 Y20.664 E114.71229
G0 F7500 X-25.992 Y20.500
G0 X-35.400 Y14.439
G0 X-35.564 Y14.439
G1 F1920 X35.663 Y14.440 E117.27675
G0 F7500 X35.500 Y14.440
G0 X35.500 Y8.664
G0 X35.663 Y8.664
G1 F1920 X-35.564 Y8.663 E119.84122
G0 F7500 X-35.400 Y8.663
G0 X-35.400 Y2.887
G0 X-35.564 Y2.887
G1 F1920 X35.663 Y2.888 E122.40568
G0 F7500 X35.500 Y2.888
G0 X35.500 Y-2.887
G0 X35.664 Y-2.887
G1 F1920 X-35.563 Y-2.888 E124.97015
G0 F7500 X-35.400 Y-2.888
G0 X-35.400 Y-8.664
G0 X-35.563 Y-8.664
G1 F1920 X35.664 Y-8.663 E127.53461
G0 F7500 X35.500 Y-8.663
G0 X35.500 Y-14.439
G0 X35.664 Y-14.439
G1 F1920 X-35.563 Y-14.440 E130.09907
;LAYER:2
M106 S127
G1 F2400 E129.09907
G0 F7500 X0.216 Y0.216 Z0.700
;TYPE:WALL-OUTER
G1 F2400 E130.09907
G1 F2220 X0.284 Y0.216 E130.10152
G1 X0.284 Y0.284 E130.10397
G1 X0.216 Y0.284 E130.10642
G1 X0.216 Y0.216 E130.10887
G0 F7500 X-0.700 Y-0.700
;TYPE:SUPPORT
G1 F2100 X-0.700 Y1.200 E130.17727
G1 X1.200 Y1.200 E130.24568
G1 X1.200 Y-0.700 E130.31409
G1 X-0.700 Y-0.700 E130.38250
G0 F7500 X-0.690 Y-0.800
G0 X-35.500 Y-20.400
G1 F2100 X35.600 Y-20.400 E132.94239
G1 X35.600 Y20.600 E134.41856
G1 X-35.500 Y20.600 E136.97845
G1 X-35.500 Y-20.400 E138.45462
G0 F7500 X-35.563 Y-20.216
G1 F2100 X35.664 Y-20.215 E141.01908
G0 F7500 X35.500 Y-20.215
G0 X31.768 Y-20.300
G0 X31.768 Y-20.464
G1 F2100 X31.768 Y20.664 E142.49986
G0 F7500 X31.768 Y20.500
G0 X35.500 Y20.216
G0 X35.663 Y20.216
G1 F2100 X-35.564 Y20.215 E145.06432
G0 F7500 X-35.400 Y20.215
G0 X-31.768 Y20.500
G0 X-31.768 Y20.664
G1 F2100 X-31.768 Y-20.464 E146.54510
G0 F7500 X-31.768 Y-20.300
G0 X-25.992 Y-20.300
G0 X-25.992 Y-20.464
G1 F2100 X-25.992 Y20.664 E148.02587
G0 F7500 X-25.992 Y20.500
G0 X-20.216 Y20.500
G0 X-20.216 Y20.664
G1 F2100 X-20.216 Y-20.464 E149.50665
G0 F7500 X-20.216 Y-20.300
G0 X-14.440 Y-20.300
G0 X-14.440 Y-20.464
G1 F2100 X-14.440 Y20.664 E150.98743
G0 F7500 X-14.440 Y20.500
G0 X-8.664 Y20.500
G0 X-8.664 Y20.664
G1 F2100 X-8.664 Y-20.464 E152.46820
G0 F7500 X-8.664 Y-20.300
G0 X-2.888 Y-20.300
G0 X-2.888 Y-20.464
G1 F2100 X-2.888 Y20.664 E153.94898
G0 F7500 X-2.888 Y20.500
G0 X2.888 Y20.500
G0 X2.888 Y20.664
G1 F2100 X2.888 Y-20.464 E155.42976
G0 F7500 X2.888 Y-20.300
G0 X8.664 Y-20.300
G0 X8.664 Y-20.464
G1 F2100 X8.664 Y20.664 E156.91053
G0 F7500 X8.664 Y20.500
G0 X14.440 Y20.500
G0 X14.440 Y20.664
G1 F2100 X14.440 Y-20.464 E158.39131
G0 F7500 X14.440 Y-20.300
G0 X20.216 Y-20.300
G0 X20.216 Y-20.464
G1 F2100 X20.216 Y20.664 E159.87208
G0 F7500 X20.216 Y20.500
G0 X25.992 Y20.500
G0 X25.992 Y20.664
G1 F2100 X25.992 Y-20.464 E161.35286
G0 F7500 X25.992 Y-20.300
G0 X35.500 Y-14.439
G0 X35.664 Y-14.439
G1 F2100 X-35.563 Y-14.440 E163.91732
G0 F7500 X-35.400 Y-14.440
G0 X-35.400 Y-8.664
G0 X-35.563 Y-8.664
G1 F2100 X35.664 Y-8.663 E166.48179
G0 F7500 X35.500 Y-8.663
G0 X35.500 Y-2.887
G0 X35.664 Y-2.887
G1 F2100 X-35.563 Y-2.888 E169.04625
G0 F7500 X-35.400 Y-2.888
G0 X-35.400 Y2.887
G0 X-35.564 Y2.887
G1 F2100 X35.663 Y2.888 E171.61072
G0 F7500 X35.500 Y2.888
G0 X35.500 Y8.664
G0 X35.663 Y8.664
G1 F2100 X-35.564 Y8.663 E174.17518
G0 F7500 X-35.400 Y8.663
G0 X-35.400 Y14.439
G0 X-35.564 Y14.439
G1 F2100 X35.663 Y14.440 E176.73964
;LAYER:3
G1 F2400 E175.73964
G0 F7500 X0.284 Y0.284 Z0.900
;TYPE:WALL-OUTER
G1 F2400 E176.73964
G1 X0.216 Y0.284 E176.74209
G1 X0.216 Y0.216 E176.74454
G1 X0.284 Y0.216 E176.74699
G1 X0.284 Y0.284 E176.74944
G0 F7500 X1.200 Y1.200
;TYPE:SUPPORT
G1 F2220 X1.200 Y-0.700 E176.81784
G1 X-0.700 Y-0.700 E176.88625
G1 X-0.700 Y1.200 E176.95466
G1 X1.200 Y1.200 E177.02307
G0 F7500 X1.190 Y1.300
G0 X35.500 Y20.590
G0 X35.600 Y20.600
G1 F2220 X-35.500 Y20.600 E179.58296
G1 X-35.500 Y-20.400 E181.05913
G1 X35.600 Y-20.400 E183.61902
G1 X35.600 Y20.600 E185.09519
G0 F7500 X35.663 Y20.216
G1 F2220 X-35.564 Y20.215 E187.65965
G0 F7500 X-35.400 Y20.215
G0 X-31.768 Y20.500
G0 X-31.768 Y20.664
G1 F2220 X-31.768 Y-20.464 E189.14043
G0 F7500 X-31.768 Y-20.300
G0 X-35.400 Y-20.216
G0 X-35.563 Y-20.216
G1 F2220 X35.664 Y-20.215 E191.70489
G0 F7500 X35.500 Y-20.215
G0 X31.768 Y-20.300
G0 X31.768 Y-20.464
G1 F2220 X31.768 Y20.664 E193.18567
G0 F7500 X31.768 Y20.500
G0 X25.992 Y20.500
G0 X25.992 Y20.664
G1 F2220 X25.992 Y-20.464 E194.66644
G0 F7500 X25.992 Y-20.300
G0 X20.216 Y-20.300
G0 X20.216 Y-20.464
G1 F2220 X20.216 Y20.664 E196.14722
G0 F7500 X20.216 Y20.500
G0 X14.440 Y20.500
G0 X14.440 Y20.664
G1 F2220 X14.440 Y-20.464 E197.62800
G0 F7500 X14.440 Y-20.300
G0 X8.664 Y-20.300
G0 X8.664 Y-20.464
G1 F2220 X8.664 Y20.664 E199.10877
G0 F7500 X8.664 Y20.500
G0 X2.888 Y20.500
G0 X2.888 Y20.664
G1 F2220 X2.888 Y-20.464 E200.58955
G0 F7500 X2.888 Y-20.300
G0 X-2.888 Y-20.300
G0 X-2.888 Y-20.464
G1 F2220 X-2.888 Y20.664 E202.07033
G0 F7500 X-2.888 Y20.500
G0 X-8.664 Y20.500
G0 X-8.664 Y20.664
G1 F2220 X-8.664 Y-20.464 E203.55110
G0 F7500 X-8.664 Y-20.300
G0 X-14.440 Y-20.300
G0 X-14.440 Y-20.464
G1 F2220 X-14.440 Y20.664 E205.03188
G0 F7500 X-14.440 Y20.500
G0 X-20.216 Y20.500
G0 X-20.216 Y20.664
G1 F2220 X-20.216 Y-20.464 E206.51265
G0 F7500 X-20.216 Y-20.300
G0 X-25.992 Y-20.300
G0 X-25.992 Y-20.464
G1 F2220 X-25.992 Y20.664 E207.99343
G0 F7500 X-25.992 Y20.500
G0 X-35.400 Y14.439
G0 X-35.564 Y14.439
G1 F2220 X35.663 Y14.440 E210.55790
G0 F7500 X35.500 Y14.440
G0 X35.500 Y8.664
G0 X35.663 Y8.664
G1 F2220 X-35.564 Y8.663 E213.12236
G0 F7500 X-35.400 Y8.663
G0 X-35.400 Y2.887
G0 X-35.564 Y2.887
G1 F2220 X35.663 Y2.888 E215.68682
G0 F7500 X35.500 Y2.888
G0 X35.500 Y-2.887
G0 X35.664 Y-2.887
G1 F2220 X-35.563 Y-2.888 E218.25129
G0 F7500 X-35.400 Y-2.888
G0 X-35.400 Y-8.664
G0 X-35.563 Y-8.664
G1 F2220 X35.664 Y-8.663 E220.81575
G0 F7500 X35.500 Y-8.663
G0 X35.500 Y-14.439
G0 X35.664 Y-14.439
G1 F2220 X-35.563 Y-14.440 E223.38021
;LAYER:4
G1 F2400 E222.38021
G0 F7500 X0.216 Y0.216 Z1.100
;TYPE:WALL-OUTER
G1 F2400 E223.38021
G1 F2700 X0.284 Y0.216 E223.38266
G1 X0.284 Y0.284 E223.38511
G1 X0.216 Y0.284 E223.38756
G1 X0.216 Y0.216 E223.39001
G0 F7500 X-0.700 Y-0.700
;TYPE:SUPPORT
G1 F2400 X-0.700 Y1.200 E223.45841
G1 X1.200 Y1.200 E223.52682
G1 X1.200 Y-0.700 E223.59523
G1 X-0.700 Y-0.700 E223.66364
G0 F7500 X-0.690 Y-0.800
G0 X-35.500 Y-20.400
G1 F2400 X35.600 Y-20.400 E226.22353
G1 X35.600 Y20.600 E227.69970
G1 X-35.500 Y20.600 E230.25959
G1 X-35.500 Y-20.400 E231.73576
G0 F7500 X-35.563 Y-20.216
G1 F2400 X35.664 Y-20.215 E234.30022
G0 F7500 X35.500 Y-20.215
G0 X31.768 Y-20.300
G0 X31.768 Y-20.464
G1 F2400 X31.768 Y20.664 E235.78100
G0 F7500 X31.768 Y20.500
G0 X35.500 Y20.216
G0 X35.663 Y20.216
G1 F2400 X-35.564 Y20.215 E238.34546
G0 F7500 X-35.400 Y20.215
G0 X-31.768 Y20.500
G0 X-31.768 Y20.664
G1 F2400 X-31.768 Y-20.464 E239.82624
G0 F7500 X-31.768 Y-20.300
G0 X-25.992 Y-20.300
G0 X-25.992 Y-20.464
G1 F2400 X-25.992 Y20.664 E241.30701
G0 F7500 X-25.992 Y20.500
G0 X-20.216 Y20.500
G0 X-20.216 Y20.664
G1 F2400 X-20.216 Y-20.464 E242.78779
G0 F7500 X-20.216 Y-20.300
G0 X-14.440 Y-20.300
G0 X-14.440 Y-20.464
G1 F2400 X-14.440 Y20.664 E244.26857
G0 F7500 X-14.440 Y20.500
G0 X-8.664 Y20.500
G0 X-8.664 Y20.664
G1 F2400 X-8.664 Y-20.464 E245.74934
G0 F7500 X-8.664 Y-20.300
G0 X-2.888 Y-20.300
G0 X-2.888 Y-20.464
G1 F2400 X-2.888 Y20.664 E247.23012
G0 F7500 X-2.888 Y20.500
G0 X2.888 Y20.500
G0 X2.888 Y20.664
G1 F2400 X2.888 Y-20.464 E248.71090
G0 F7500 X2.888 Y-20.300
G0 X8.664 Y-20.300
G0 X8.664 Y-20.464
G1 F2400 X8.664 Y20.664 E250.19167
G0 F7500 X8.664 Y20.500
G0 X14.440 Y20.500
G0 X14.440 Y20.664
G1 F2400 X14.440 Y-20.464 E251.67245
G0 F7500 X14.440 Y-20.300
G0 X20.216 Y-20.300
G0 X20.216 Y-20.464
G1 F2400 X20.216 Y20.664 E253.15323
G0 F7500 X20.216 Y20.500
G0 X25.992 Y20.500
G0 X25.992 Y20.664
G1 F2400 X25.992 Y-20.464 E254.63400
G0 F7500 X25.992 Y-20.300
G0 X35.500 Y-14.439
G0 X35.664 Y-14.439
G1 F2400 X-35.563 Y-14.440 E257.19847
G0 F7500 X-35.400 Y-14.440
G0 X-35.400 Y-8.664
G0 X-35.563 Y-8.664
G1 F2400 X35.664 Y-8.663 E259.76293
G0 F7500 X35.500 Y-8.663
G0 X35.500 Y-2.887
G0 X35.664 Y-2.887
G1 F2400 X-35.563 Y-2.888 E262.32739
G0 F7500 X-35.400 Y-2.888
G0 X-35.400 Y2.887
G0 X-35.564 Y2.887
G1 F2400 X35.663 Y2.888 E264.89186
G0 F7500 X35.500 Y2.888
G0 X35.500 Y8.664
G0 X35.663 Y8.664
G1 F2400 X-35.564 Y8.663 E267.45632
G0 F7500 X-35.400 Y8.663
G0 X-35.400 Y14.439
G0 X-35.564 Y14.439
G1 F2400 X35.663 Y14.440 E270.02078
;LAYER:5
G1 F2400 E269.02078
G0 F7500 X0.284 Y0.284 Z1.300
;TYPE:WALL-OUTER
G1 F2400 E270.02078
G1 F2700 X0.216 Y0.284 E270.02323
G1 X0.216 Y0.216 E270.02568
G1 X0.284 Y0.216 E270.02813
G1 X0.284 Y0.284 E270.03058
G0 F7500 X1.200 Y1.200
;TYPE:SUPPORT
G1 F2400 X1.200 Y-0.700 E270.09899
G1 X-0.700 Y-0.700 E270.16739
G1 X-0.700 Y1.200 E270.23580
G1 X1.200 Y1.200 E270.30421
G0 F7500 X1.190 Y1.300
G0 X35.500 Y20.590
G0 X35.600 Y20.600
G1 F2400 X-35.500 Y20.600 E272.86410
G1 X-35.500 Y-20.400 E274.34027
G1 X35.600 Y-20.400 E276.90016
G1 X35.600 Y20.600 E278.37633
G0 F7500 X35.663 Y20.216
G1 F2400 X-35.564 Y20.215 E280.94079
G0 F7500 X-35.400 Y20.215
G0 X-31.768 Y20.500
G0 X-31.768 Y20.664
G1 F2400 X-31.768 Y-20.464 E282.42157
G0 F7500 X-31.768 Y-20.300
G0 X-35.400 Y-20.216
G0 X-35.563 Y-20.216
G1 F2400 X35.664 Y-20.215 E284.98603
G0 F7500 X35.500 Y-20.215
G0 X31.768 Y-20.300
G0 X31.768 Y-20.464
G1 F2400 X31.768 Y20.664 E286.46681
G0 F7500 X31.768 Y20.500
G0 X25.992 Y20.500
G0 X25.992 Y20.664
G1 F2400 X25.992 Y-20.464 E287.94758
G0 F7500 X25.992 Y-20.300
G0 X20.216 Y-20.300
G0 X20.216 Y-20.464
G1 F2400 X20.216 Y20.664 E289.42836
G0 F7500 X20.216 Y20.500
G0 X14.440 Y20.500
G0 X14.440 Y20.664
G1 F2400 X14.440 Y-20.464 E290.90914
G0 F7500 X14.440 Y-20.300
G0 X8.664 Y-20.300
G0 X8.664 Y-20.464
G1 F2400 X8.664 Y20.664 E292.38991
G0 F7500 X8.664 Y20.500
G0 X2.888 Y20.500
G0 X2.888 Y20.664
G1 F2400 X2.888 Y-20.464 E293.87069
G0 F7500 X2.888 Y-20.300
G0 X-2.888 Y-20.300
G0 X-2.888 Y-20.464
G1 F2400 X-2.888 Y20.664 E295.35147
G0 F7500 X-2.888 Y20.500
G0 X-8.664 Y20.500
G0 X-8.664 Y20.664
G1 F2400 X-8.664 Y-20.464 E296.83224
G0 F7500 X-8.664 Y-20.300
G0 X-14.440 Y-20.300
G0 X-14.440 Y-20.464
G1 F2400 X-14.440 Y20.664 E298.31302
G0 F7500 X-14.440 Y20.500
G0 X-20.216 Y20.500
G0 X-20.216 Y20.664
G1 F2400 X-20.216 Y-20.464 E299.79380
G0 F7500 X-20.216 Y-20.300
G0 X-25.992 Y-20.300
G0 X-25.992 Y-20.464
G1 F2400 X-25.992 Y20.664 E301.27457
G0 F7500 X-25.992 Y20.500
G0 X-35.400 Y14.439
G0 X-35.564 Y14.439
G1 F2400 X35.663 Y14.440 E303.83904
G0 F7500 X35.500 Y14.440
G0 X35.500 Y8.664
G0 X35.663 Y8.664
G1 F2400 X-35.564 Y8.663 E306.40350
G0 F7500 X-35.400 Y8.663
G0 X-35.400 Y2.887
G0 X-35.564 Y2.887
G1 F2400 X35.663 Y2.888 E308.96796
G0 F7500 X35.500 Y2.888
G0 X35.500 Y-2.887
G0 X35.664 Y-2.887
G1 F2400 X-35.563 Y-2.888 E311.53243
G0 F7500 X-35.400 Y-2.888
G0 X-35.400 Y-8.664
G0 X-35.563 Y-8.664
G1 F2400 X35.664 Y-8.663 E314.09689
G0 F7500 X35.500 Y-8.663
G0 X35.500 Y-14.439
G0 X35.664 Y-14.439
G1 F2400 X-35.563 Y-14.440 E316.66135
;LAYER:6
G1 F2400 E315.66135
G0 F7500 X0.216 Y0.216 Z1.500
;TYPE:WALL-OUTER
G1 F2400 E316.66135
G1 F2700 X0.284 Y0.216 E316.66380
G1 X0.284 Y0.284 E316.66625
G1 X0.216 Y0.284 E316.66870
G1 X0.216 Y0.216 E316.67115
G0 F7500 X-0.700 Y-0.700
;TYPE:SUPPORT
G1 F2400 X-0.700 Y1.200 E316.73956
G1 X1.200 Y1.200 E316.80796
G1 X1.200 Y-0.700 E316.87637
G1 X-0.700 Y-0.700 E316.94478
G0 F7500 X-0.690 Y-0.800
G0 X-35.500 Y-20.400
G1 F2400 X35.600 Y-20.400 E319.50467
G1 X35.600 Y20.600 E320.98084
G1 X-35.500 Y20.600 E323.54073
