;Generated with Cura_SteamEngine 15.04.6

;Layer count: 16
;LAYER:0
M107
G0 F7500 X-38.716 Y-28.616 Z0.300
;TYPE:SKIRT
G1 F1800 X38.816 Y-28.616 E4.18720
G1 X38.816 Y28.816 E7.28889
G1 X-38.716 Y28.816 E11.47609
G1 X-38.716 Y-28.616 E14.57777
G1 F2400 E13.57777
G0 F7500 X0.216 Y0.216
;TYPE:WALL-OUTER
G1 F2400 E14.57777
G1 F1800 X0.284 Y0.216 E14.58144
G1 X0.284 Y0.284 E14.58512
G1 X0.216 Y0.284 E14.58879
G1 X0.216 Y0.216 E14.59246
G0 F7500 X-0.700 Y-0.700
;TYPE:SUPPORT
G1 F1800 X-0.700 Y1.200 E14.69507
G1 X1.200 Y1.200 E14.79768
G1 X1.200 Y-0.700 E14.90030
G1 X-0.700 Y-0.700 E15.00291
G0 F7500 X-0.690 Y-0.800
G0 X-35.500 Y-25.400
G1 F1800 X35.600 Y-25.400 E18.84274
G1 X35.600 Y25.600 E21.59706
G1 X-35.500 Y25.600 E25.43689
G1 X-35.500 Y-25.400 E28.19121
G0 F7500 X-31.768 Y-25.300
G0 X-31.768 Y-25.464
G1 F1800 X-31.768 Y25.664 E30.95243
G0 F7500 X-31.768 Y25.500
G0 X-25.992 Y25.500
G0 X-25.992 Y25.664
G1 F1800 X-25.992 Y-25.464 E33.71366
G0 F7500 X-25.992 Y-25.300
G0 X-20.216 Y-25.300
G0 X-20.216 Y-25.464
G1 F1800 X-20.216 Y25.664 E36.47489
G0 F7500 X-20.216 Y25.500
G0 X-35.400 Y20.215
G0 X-35.564 Y20.215
G1 F1800 X35.663 Y20.216 E40.32158
G0 F7500 X35.500 Y20.216
G0 X31.768 Y25.500
G0 X31.768 Y25.664
G1 F1800 X31.768 Y-25.464 E43.08281
G0 F7500 X31.768 Y-25.300
G0 X25.992 Y-25.300
G0 X25.992 Y-25.464
G1 F1800 X25.992 Y25.664 E45.84403
G0 F7500 X25.992 Y25.500
G0 X20.216 Y25.500
G0 X20.216 Y25.664
G1 F1800 X20.216 Y-25.464 E48.60526
G0 F7500 X20.216 Y-25.300
G0 X35.500 Y-20.215
G0 X35.664 Y-20.215
G1 F1800 X-35.563 Y-20.216 E52.45196
G0 F7500 X-35.400 Y-20.216
G0 X-35.400 Y-14.440
G0 X-35.563 Y-14.440
G1 F1800 X35.664 Y-14.439 E56.29865
G0 F7500 X35.500 Y-14.439
G0 X35.500 Y-8.663
G0 X35.664 Y-8.663
G1 F1800 X-35.563 Y-8.664 E60.14535
G0 F7500 X-35.400 Y-8.664
G0 X-35.400 Y-2.888
G0 X-35.563 Y-2.888
G1 F1800 X35.664 Y-2.887 E63.99204
G0 F7500 X35.500 Y-2.887
G0 X35.500 Y2.888
G0 X35.663 Y2.888
G1 F1800 X-35.564 Y2.887 E67.83874
G0 F7500 X-35.400 Y2.887
G0 X-35.400 Y8.663
G0 X-35.564 Y8.663
G1 F1800 X35.663 Y8.664 E71.68543
G0 F7500 X35.500 Y8.664
G0 X35.500 Y14.440
G0 X35.663 Y14.440
G1 F1800 X-35.564 Y14.439 E75.53213
G0 F7500 X-35.400 Y14.439
G0 X-14.440 Y25.500
G0 X-14.440 Y25.664
G1 F1800 X-14.440 Y-25.464 E78.29336
G0 F7500 X-14.440 Y-25.300
G0 X-8.664 Y-25.300
G0 X-8.664 Y-25.464
G1 F1800 X-8.664 Y25.664 E81.05458
G0 F7500 X-8.664 Y25.500
G0 X-2.888 Y25.500
G0 X-2.888 Y25.664
G1 F1800 X-2.888 Y-25.464 E83.81581
G0 F7500 X-2.888 Y-25.300
G0 X2.888 Y-25.300
G0 X2.888 Y-25.464
G1 F1800 X2.888 Y25.664 E86.57703
G0 F7500 X2.888 Y25.500
G0 X8.664 Y25.500
G0 X8.664 Y25.664
G1 F1800 X8.664 Y-25.464 E89.33826
G0 F7500 X8.664 Y-25.300
G0 X14.440 Y-25.300
G0 X14.440 Y-25.464
G1 F1800 X14.440 Y25.664 E92.09949
;LAYER:1
M106 S63
G1 F2400 E91.09949
G0 F7500 X0.284 Y0.284 Z0.500
;TYPE:WALL-OUTER
G1 F2400 E92.09949
G1 F1980 X0.216 Y0.284 E92.10193
G1 X0.216 Y0.216 E92.10438
G1 X0.284 Y0.216 E92.10683
G1 X0.284 Y0.284 E92.10928
G0 F7500 X1.200 Y1.200
;TYPE:SUPPORT
G1 F1920 X1.200 Y-0.700 E92.17769
G1 X-0.700 Y-0.700 E92.24609
G1 X-0.700 Y1.200 E92.31450
G1 X1.200 Y1.200 E92.38291
G0 F7500 X1.190 Y1.300
G0 X35.500 Y25.590
G0 X35.600 Y25.600
G1 F1920 X-35.500 Y25.600 E94.94280
G1 X-35.500 Y-25.400 E96.77901
G1 X35.600 Y-25.400 E99.33890
G1 X35.600 Y25.600 E101.17511
G0 F7500 X35.500 Y25.590
G0 X31.768 Y25.500
G0 X31.768 Y25.664
G1 F1920 X31.768 Y-25.464 E103.01593
G0 F7500 X31.768 Y-25.300
G0 X25.992 Y-25.300
G0 X25.992 Y-25.464
G1 F1920 X25.992 Y25.664 E104.85675
G0 F7500 X25.992 Y25.500
G0 X20.216 Y25.500
G0 X20.216 Y25.664
G1 F1920 X20.216 Y-25.464 E106.69756
G0 F7500 X20.216 Y-25.300
G0 X35.500 Y-20.215
G0 X35.664 Y-20.215
G1 F1920 X-35.563 Y-20.216 E109.26203
G0 F7500 X-35.400 Y-20.216
G0 X-31.768 Y-25.300
G0 X-31.768 Y-25.464
G1 F1920 X-31.768 Y25.664 E111.10284
G0 F7500 X-31.768 Y25.500
G0 X-25.992 Y25.500
G0 X-25.992 Y25.664
G1 F1920 X-25.992 Y-25.464 E112.94366
G0 F7500 X-25.992 Y-25.300
G0 X-20.216 Y-25.300
G0 X-20.216 Y-25.464
G1 F1920 X-20.216 Y25.664 E114.78448
G0 F7500 X-20.216 Y25.500
G0 X-35.400 Y20.215
G0 X-35.564 Y20.215
G1 F1920 X35.663 Y20.216 E117.34894
G0 F7500 X35.500 Y20.216
G0 X35.500 Y14.440
G0 X35.663 Y14.440
G1 F1920 X-35.564 Y14.439 E119.91341
G0 F7500 X-35.400 Y14.439
G0 X-35.400 Y8.663
G0 X-35.564 Y8.663
G1 F1920 X35.663 Y8.664 E122.47787
G0 F7500 X35.500 Y8.664
G0 X35.500 Y2.888
G0 X35.663 Y2.888
G1 F1920 X-35.564 Y2.887 E125.04233
G0 F7500 X-35.400 Y2.887
G0 X-35.400 Y-2.888
G0 X-35.563 Y-2.888
G1 F1920 X35.664 Y-2.887 E127.60680
G0 F7500 X35.500 Y-2.887
G0 X35.500 Y-8.663
G0 X35.664 Y-8.663
G1 F1920 X-35.563 Y-8.664 E130.17126
G0 F7500 X-35.400 Y-8.664
G0 X-35.400 Y-14.440
G0 X-35.563 Y-14.440
G1 F1920 X35.664 Y-14.439 E132.73573
G0 F7500 X35.500 Y-14.439
G0 X14.440 Y-25.300
G0 X14.440 Y-25.464
G1 F1920 X14.440 Y25.664 E134.57654
G0 F7500 X14.440 Y25.500
G0 X8.664 Y25.500
G0 X8.664 Y25.664
G1 F1920 X8.664 Y-25.464 E136.41736
G0 F7500 X8.664 Y-25.300
G0 X2.888 Y-25.300
G0 X2.888 Y-25.464
G1 F1920 X2.888 Y25.664 E138.25818
G0 F7500 X2.888 Y25.500
G0 X-2.888 Y25.500
G0 X-2.888 Y25.664
G1 F1920 X-2.888 Y-25.464 E140.09900
G0 F7500 X-2.888 Y-25.300
G0 X-8.664 Y-25.300
G0 X-8.664 Y-25.464
G1 F1920 X-8.664 Y25.664 E141.93981
G0 F7500 X-8.664 Y25.500
G0 X-14.440 Y25.500
G0 X-14.440 Y25.664
G1 F1920 X-14.440 Y-25.464 E143.78063
;LAYER:2
M106 S127
G1 F2400 E142.78063
G0 F7500 X0.216 Y0.216 Z0.700
;TYPE:WALL-OUTER
G1 F2400 E143.78063
G1 F2220 X0.284 Y0.216 E143.78308
G1 X0.284 Y0.284 E143.78553
G1 X0.216 Y0.284 E143.78797
G1 X0.216 Y0.216 E143.79042
G0 F7500 X-0.700 Y-0.700
;TYPE:SUPPORT
G1 F2100 X-0.700 Y1.200 E143.85883
G1 X1.200 Y1.200 E143.92724
G1 X1.200 Y-0.700 E143.99565
G1 X-0.700 Y-0.700 E144.06405
G0 F7500 X-0.690 Y-0.800
G0 X-35.500 Y-25.400
G1 F2100 X35.600 Y-25.400 E146.62395
G1 X35.600 Y25.600 E148.46015
G1 X-35.500 Y25.600 E151.02005
G1 X-35.500 Y-25.400 E152.85625
G0 F7500 X-31.768 Y-25.300
G0 X-31.768 Y-25.464
G1 F2100 X-31.768 Y25.664 E154.69707
G0 F7500 X-31.768 Y25.500
G0 X-25.992 Y25.500
G0 X-25.992 Y25.664
G1 F2100 X-25.992 Y-25.464 E156.53789
G0 F7500 X-25.992 Y-25.300
G0 X-20.216 Y-25.300
G0 X-20.216 Y-25.464
G1 F2100 X-20.216 Y25.664 E158.37871
G0 F7500 X-20.216 Y25.500
G0 X-35.400 Y20.215
G0 X-35.564 Y20.215
G1 F2100 X35.663 Y20.216 E160.94317
G0 F7500 X35.500 Y20.216
G0 X31.768 Y25.500
G0 X31.768 Y25.664
G1 F2100 X31.768 Y-25.464 E162.78399
G0 F7500 X31.768 Y-25.300
G0 X25.992 Y-25.300
G0 X25.992 Y-25.464
G1 F2100 X25.992 Y25.664 E164.62481
G0 F7500 X25.992 Y25.500
G0 X20.216 Y25.500
G0 X20.216 Y25.664
G1 F2100 X20.216 Y-25.464 E166.46562
G0 F7500 X20.216 Y-25.300
G0 X35.500 Y-20.215
G0 X35.664 Y-20.215
G1 F2100 X-35.563 Y-20.216 E169.03009
G0 F7500 X-35.400 Y-20.216
G0 X-35.400 Y-14.440
G0 X-35.563 Y-14.440
G1 F2100 X35.664 Y-14.439 E171.59455
G0 F7500 X35.500 Y-14.439
G0 X35.500 Y-8.663
G0 X35.664 Y-8.663
G1 F2100 X-35.563 Y-8.664 E174.15901
G0 F7500 X-35.400 Y-8.664
G0 X-35.400 Y-2.888
G0 X-35.563 Y-2.888
G1 F2100 X35.664 Y-2.887 E176.72348
G0 F7500 X35.500 Y-2.887
G0 X35.500 Y2.888
G0 X35.663 Y2.888
G1 F2100 X-35.564 Y2.887 E179.28794
G0 F7500 X-35.400 Y2.887
G0 X-35.400 Y8.663
G0 X-35.564 Y8.663
G1 F2100 X35.663 Y8.664 E181.85241
G0 F7500 X35.500 Y8.664
G0 X35.500 Y14.440
G0 X35.663 Y14.440
G1 F2100 X-35.564 Y14.439 E184.41687
G0 F7500 X-35.400 Y14.439
G0 X-14.440 Y25.500
G0 X-14.440 Y25.664
G1 F2100 X-14.440 Y-25.464 E186.25769
G0 F7500 X-14.440 Y-25.300
G0 X-8.664 Y-25.300
G0 X-8.664 Y-25.464
G1 F2100 X-8.664 Y25.664 E188.09850
G0 F7500 X-8.664 Y25.500
G0 X-2.888 Y25.500
G0 X-2.888 Y25.664
G1 F2100 X-2.888 Y-25.464 E189.93932
G0 F7500 X-2.888 Y-25.300
G0 X2.888 Y-25.300
G0 X2.888 Y-25.464
G1 F2100 X2.888 Y25.664 E191.78014
G0 F7500 X2.888 Y25.500
G0 X8.664 Y25.500
G0 X8.664 Y25.664
G1 F2100 X8.664 Y-25.464 E193.62096
G0 F7500 X8.664 Y-25.300
G0 X14.440 Y-25.300
G0 X14.440 Y-25.464
G1 F2100 X14.440 Y25.664 E195.46177
;LAYER:3
G1 F2400 E194.46177
G0 F7500 X0.284 Y0.284 Z0.900
;TYPE:WALL-OUTER
G1 F2400 E195.46177
G1 X0.216 Y0.284 E195.46422
G1 X0.216 Y0.216 E195.46667
G1 X0.284 Y0.216 E195.46912
G1 X0.284 Y0.284 E195.47157
G0 F7500 X1.200 Y1.200
;TYPE:SUPPORT
G1 F2220 X1.200 Y-0.700 E195.53997
G1 X-0.700 Y-0.700 E195.60838
G1 X-0.700 Y1.200 E195.67679
G1 X1.200 Y1.200 E195.74520
G0 F7500 X1.190 Y1.300
G0 X35.500 Y25.590
G0 X35.600 Y25.600
G1 F2220 X-35.500 Y25.600 E198.30509
G1 X-35.500 Y-25.400 E200.14130
G1 X35.600 Y-25.400 E202.70119
G1 X35.600 Y25.600 E204.53740
G0 F7500 X35.500 Y25.590
G0 X31.768 Y25.500
G0 X31.768 Y25.664
G1 F2220 X31.768 Y-25.464 E206.37822
G0 F7500 X31.768 Y-25.300
G0 X25.992 Y-25.300
G0 X25.992 Y-25.464
G1 F2220 X25.992 Y25.664 E208.21903
G0 F7500 X25.992 Y25.500
G0 X20.216 Y25.500
G0 X20.216 Y25.664
G1 F2220 X20.216 Y-25.464 E210.05985
G0 F7500 X20.216 Y-25.300
G0 X35.500 Y-20.215
G0 X35.664 Y-20.215
G1 F2220 X-35.563 Y-20.216 E212.62431
G0 F7500 X-35.400 Y-20.216
G0 X-31.768 Y-25.300
G0 X-31.768 Y-25.464
G1 F2220 X-31.768 Y25.664 E214.46513
G0 F7500 X-31.768 Y25.500
G0 X-25.992 Y25.500
G0 X-25.992 Y25.664
G1 F2220 X-25.992 Y-25.464 E216.30595
G0 F7500 X-25.992 Y-25.300
G0 X-20.216 Y-25.300
G0 X-20.216 Y-25.464
G1 F2220 X-20.216 Y25.664 E218.14677
G0 F7500 X-20.216 Y25.500
G0 X-35.400 Y20.215
G0 X-35.564 Y20.215
G1 F2220 X35.663 Y20.216 E220.71123
G0 F7500 X35.500 Y20.216
G0 X35.500 Y14.440
G0 X35.663 Y14.440
G1 F2220 X-35.564 Y14.439 E223.27569
G0 F7500 X-35.400 Y14.439
G0 X-35.400 Y8.663
G0 X-35.564 Y8.663
G1 F2220 X35.663 Y8.664 E225.84016
G0 F7500 X35.500 Y8.664
G0 X35.500 Y2.888
G0 X35.663 Y2.888
G1 F2220 X-35.564 Y2.887 E228.40462
G0 F7500 X-35.400 Y2.887
G0 X-35.400 Y-2.888
G0 X-35.563 Y-2.888
G1 F2220 X35.664 Y-2.887 E230.96909
G0 F7500 X35.500 Y-2.887
G0 X35.500 Y-8.663
G0 X35.664 Y-8.663
G1 F2220 X-35.563 Y-8.664 E233.53355
G0 F7500 X-35.400 Y-8.664
G0 X-35.400 Y-14.440
G0 X-35.563 Y-14.440
G1 F2220 X35.664 Y-14.439 E236.09801
G0 F7500 X35.500 Y-14.439
G0 X14.440 Y-25.300
G0 X14.440 Y-25.464
G1 F2220 X14.440 Y25.664 E237.93883
G0 F7500 X14.440 Y25.500
G0 X8.664 Y25.500
G0 X8.664 Y25.664
G1 F2220 X8.664 Y-25.464 E239.77965
G0 F7500 X8.664 Y-25.300
G0 X2.888 Y-25.300
G0 X2.888 Y-25.464
G1 F2220 X2.888 Y25.664 E241.62047
G0 F7500 X2.888 Y25.500
G0 X-2.888 Y25.500
G0 X-2.888 Y25.664
G1 F2220 X-2.888 Y-25.464 E243.46128
G0 F7500 X-2.888 Y-25.300
G0 X-8.664 Y-25.300
G0 X-8.664 Y-25.464
G1 F2220 X-8.664 Y25.664 E245.30210
G0 F7500 X-8.664 Y25.500
G0 X-14.440 Y25.500
G0 X-14.440 Y25.664
G1 F2220 X-14.440 Y-25.464 E247.14292
;LAYER:4
G1 F2400 E246.14292
G0 F7500 X0.216 Y0.216 Z1.100
;TYPE:WALL-OUTER
G1 F2400 E247.14292
G1 F2700 X0.284 Y0.216 E247.14537
G1 X0.284 Y0.284 E247.14781
G1 X0.216 Y0.284 E247.15026
G1 X0.216 Y0.216 E247.15271
G0 F7500 X-0.700 Y-0.700
;TYPE:SUPPORT
G1 F2400 X-0.700 Y1.200 E247.22112
G1 X1.200 Y1.200 E247.28953
G1 X1.200 Y-0.700 E247.35793
G1 X-0.700 Y-0.700 E247.42634
G0 F7500 X-0.690 Y-0.800
G0 X-35.500 Y-25.400
G1 F2400 X35.600 Y-25.400 E249.98623
G1 X35.600 Y25.600 E251.82244
G1 X-35.500 Y25.600 E254.38233
G1 X-35.500 Y-25.400 E256.21854
G0 F7500 X-31.768 Y-25.300
G0 X-31.768 Y-25.464
G1 F2400 X-31.768 Y25.664 E258.05936
G0 F7500 X-31.768 Y25.500
G0 X-25.992 Y25.500
G0 X-25.992 Y25.664
G1 F2400 X-25.992 Y-25.464 E259.90018
G0 F7500 X-25.992 Y-25.300
G0 X-20.216 Y-25.300
G0 X-20.216 Y-25.464
G1 F2400 X-20.216 Y25.664 E261.74099
G0 F7500 X-20.216 Y25.500
G0 X-35.400 Y20.215
G0 X-35.564 Y20.215
G1 F2400 X35.663 Y20.216 E264.30546
G0 F7500 X35.500 Y20.216
G0 X31.768 Y25.500
G0 X31.768 Y25.664
G1 F2400 X31.768 Y-25.464 E266.14628
G0 F7500 X31.768 Y-25.300
G0 X25.992 Y-25.300
G0 X25.992 Y-25.464
G1 F2400 X25.992 Y25.664 E267.98709
G0 F7500 X25.992 Y25.500
G0 X20.216 Y25.500
G0 X20.216 Y25.664
G1 F2400 X20.216 Y-25.464 E269.82791
G0 F7500 X20.216 Y-25.300
G0 X35.500 Y-20.215
G0 X35.664 Y-20.215
G1 F2400 X-35.563 Y-20.216 E272.39237
G0 F7500 X-35.400 Y-20.216
G0 X-35.400 Y-14.440
G0 X-35.563 Y-14.440
G1 F2400 X35.664 Y-14.439 E274.95684
G0 F7500 X35.500 Y-14.439
G0 X35.500 Y-8.663
G0 X35.664 Y-8.663
G1 F2400 X-35.563 Y-8.664 E277.52130
G0 F7500 X-35.400 Y-8.664
G0 X-35.400 Y-2.888
G0 X-35.563 Y-2.888
G1 F2400 X35.664 Y-2.887 E280.08577
G0 F7500 X35.500 Y-2.887
G0 X35.500 Y2.888
G0 X35.663 Y2.888
G1 F2400 X-35.564 Y2.887 E282.65023
G0 F7500 X-35.400 Y2.887
G0 X-35.400 Y8.663
G0 X-35.564 Y8.663
G1 F2400 X35.663 Y8.664 E285.21469
G0 F7500 X35.500 Y8.664
G0 X35.500 Y14.440
G0 X35.663 Y14.440
G1 F2400 X-35.564 Y14.439 E287.77916
G0 F7500 X-35.400 Y14.439
G0 X-14.440 Y25.500
G0 X-14.440 Y25.664
G1 F2400 X-14.440 Y-25.464 E289.61997
G0 F7500 X-14.440 Y-25.300
G0 X-8.664 Y-25.300
G0 X-8.664 Y-25.464
G1 F2400 X-8.664 Y25.664 E291.46079
G0 F7500 X-8.664 Y25.500
G0 X-2.888 Y25.500
G0 X-2.888 Y25.664
G1 F2400 X-2.888 Y-25.464 E293.30161
G0 F7500 X-2.888 Y-25.300
G0 X2.888 Y-25.300
G0 X2.888 Y-25.464
G1 F2400 X2.888 Y25.664 E295.14243
G0 F7500 X2.888 Y25.500
G0 X8.664 Y25.500
G0 X8.664 Y25.664
G1 F2400 X8.664 Y-25.464 E296.98324
G0 F7500 X8.664 Y-25.300
G0 X14.440 Y-25.300
G0 X14.440 Y-25.464
G1 F2400 X14.440 Y25.664 E298.82406
;LAYER:5
G1 F2400 E297.82406
G0 F7500 X0.284 Y0.284 Z1.300
;TYPE:WALL-OUTER
G1 F2400 E298.82406
G1 F2700 X0.216 Y0.284 E298.82651
G1 X0.216 Y0.216 E298.82896
G1 X0.284 Y0.216 E298.83141
G1 X0.284 Y0.284 E298.83385
G0 F7500 X1.200 Y1.200
;TYPE:SUPPORT
G1 F2400 X1.200 Y-0.700 E298.90226
G1 X-0.700 Y-0.700 E298.97067
G1 X-0.700 Y1.200 E299.03908
G1 X1.200 Y1.200 E299.10749
G0 F7500 X1.190 Y1.300
G0 X35.500 Y25.590
G0 X35.600 Y25.600
G1 F2400 X-35.500 Y25.600 E301.66738
G1 X-35.500 Y-25.400 E303.50359
G1 X35.600 Y-25.400 E306.06348
G1 X35.600 Y25.600 E307.89969
G0 F7500 X35.500 Y25.590
G0 X31.768 Y25.500
G0 X31.768 Y25.664
G1 F2400 X31.768 Y-25.464 E309.74050
G0 F7500 X31.768 Y-25.300
G0 X25.992 Y-25.300
G0 X25.992 Y-25.464
G1 F2400 X25.992 Y25.664 E311.58132
G0 F7500 X25.992 Y25.500
G0 X20.216 Y25.500
G0 X20.216 Y25.664
G1 F2400 X20.216 Y-25.464 E313.42214
G0 F7500 X20.216 Y-25.300
G0 X35.500 Y-20.215
G0 X35.664 Y-20.215
G1 F2400 X-35.563 Y-20.216 E315.98660
G0 F7500 X-35.400 Y-20.216
G0 X-31.768 Y-25.300
G0 X-31.768 Y-25.464
G1 F2400 X-31.768 Y25.664 E317.82742
G0 F7500 X-31.768 Y25.500
G0 X-25.992 Y25.500
G0 X-25.992 Y25.664
G1 F2400 X-25.992 Y-25.464 E319.66824
G0 F7500 X-25.992 Y-25.300
G0 X-20.216 Y-25.300
G0 X-20.216 Y-25.464
G1 F2400 X-20.216 Y25.664 E321.50905
G0 F7500 X-20.216 Y25.500
G0 X-35.400 Y20.215
G0 X-35.564 Y20.215
G1 F2400 X35.663 Y20.216 E324.07352
G0 F7500 X35.500 Y20.216
G0 X35.500 Y14.440
G0 X35.663 Y14.440
G1 F2400 X-35.564 Y14.439 E326.63798
G0 F7500 X-35.400 Y14.439
G0 X-35.400 Y8.663
G0 X-35.564 Y8.663
G1 F2400 X35.663 Y8.664 E329.20245
G0 F7500 X35.500 Y8.664
G0 X35.500 Y2.888
G0 X35.663 Y2.888
G1 F2400 X-35.564 Y2.887 E331.76691
G0 F7500 X-35.400 Y2.887
G0 X-35.400 Y-2.888
G0 X-35.563 Y-2.888
G1 F2400 X35.664 Y-2.887 E334.33137
G0 F7500 X35.500 Y-2.887
G0 X35.500 Y-8.663
G0 X35.664 Y-8.663
G1 F2400 X-35.563 Y-8.664 E336.89584
G0 F7500 X-35.400 Y-8.664
G0 X-35.400 Y-14.440
G0 X-35.563 Y-14.440
G1 F2400 X35.664 Y-14.439 E339.46030
G0 F7500 X35.500 Y-14.439
G0 X14.440 Y-25.300
G0 X14.440 Y-25.464
G1 F2400 X14.440 Y25.664 E341.30112
G0 F7500 X14.440 Y25.500
G0 X8.664 Y25.500
G0 X8.664 Y25.664
G1 F2400 X8.664 Y-25.464 E343.14194
G0 F7500 X8.664 Y-25.300
G0 X2.888 Y-25.300
G0 X2.888 Y-25.464
G1 F2400 X2.888 Y25.664 E344.98275
G0 F7500 X2.888 Y25.500
G0 X-2.888 Y25.500
G0 X-2.888 Y25.664
G1 F2400 X-2.888 Y-25.464 E346.82357
G0 F7500 X-2.888 Y-25.300
G0 X-8.664 Y-25.300
G0 X-8.664 Y-25.464
G1 F2400 X-8.664 Y25.664 E348.66439
G0 F7500 X-8.664 Y25.500
G0 X-14.440 Y25.500
G0 X-14.440 Y25.664
G1 F2400 X-14.440 Y-25.464 E350.50521
;LAYER:6
G1 F2400 E349.50521
G0 F7500 X0.216 Y0.216 Z1.500
;TYPE:WALL-OUTER
G1 F2400 E350.50521
G1 F2700 X0.284 Y0.216 E350.50765
G1 X0.284 Y0.284 E350.51010
G1 X0.216 Y0.284 E350.51255
G1 X0.216 Y0.216 E350.51500
G0 F7500 X-0.700 Y-0.700
;TYPE:SUPPORT
G1 F2400 X-0.700 Y1.200 E350.58341
G1 X1.200 Y1.200 E350.65181
G1 X1.200 Y-0.700 E350.72022
