;Generated with Cura_SteamEngine 15.04.6

;Layer count: 16
;LAYER:0
M107
G0 F7500 X-38.716 Y-33.616 Z0.300
;TYPE:SKIRT
G1 F1800 X38.816 Y-33.616 E4.18720
G1 X38.816 Y33.816 E7.82895
G1 X-38.716 Y33.816 E12.01615
G1 X-38.716 Y-33.616 E15.65789
G1 F2400 E14.65789
G0 F7500 X0.216 Y0.216
;TYPE:WALL-OUTER
G1 F2400 E15.65789
G1 F1800 X0.284 Y0.216 E15.66157
G1 X0.284 Y0.284 E15.66524
G1 X0.216 Y0.284 E15.66891
G1 X0.216 Y0.216 E15.67258
G0 F7500 X-0.700 Y-0.700
;TYPE:SUPPORT
G1 F1800 X-0.700 Y1.200 E15.77519
G1 X1.200 Y1.200 E15.87781
G1 X1.200 Y-0.700 E15.98042
G1 X-0.700 Y-0.700 E16.08303
G0 F7500 X-0.690 Y-0.800
G0 X-35.500 Y-30.400
G1 F1800 X35.600 Y-30.400 E19.92287
G1 X35.600 Y30.600 E23.21724
G1 X-35.500 Y30.600 E27.05708
G1 X-35.500 Y-30.400 E30.35145
G0 F7500 X-31.768 Y-30.300
G0 X-31.768 Y-30.464
G1 F1800 X-31.768 Y30.664 E33.65274
G0 F7500 X-31.768 Y30.500
G0 X-25.992 Y30.500
G0 X-25.992 Y30.664
G1 F1800 X-25.992 Y-30.464 E36.95403
G0 F7500 X-25.992 Y-30.300
G0 X-20.216 Y-30.300
G0 X-20.216 Y-30.464
G1 F1800 X-20.216 Y30.664 E40.25532
G0 F7500 X-20.216 Y30.500
G0 X-35.400 Y25.991
G0 X-35.564 Y25.991
G1 F1800 X35.663 Y25.992 E44.10201
G0 F7500 X35.500 Y25.992
G0 X35.500 Y20.216
G0 X35.663 Y20.216
G1 F1800 X-35.564 Y20.215 E47.94871
G0 F7500 X-35.400 Y20.215
G0 X-35.400 Y14.439
G0 X-35.564 Y14.439
G1 F1800 X35.663 Y14.440 E51.79540
G0 F7500 X35.500 Y14.440
G0 X35.500 Y8.664
G0 X35.663 Y8.664
G1 F1800 X-35.564 Y8.663 E55.64210
G0 F7500 X-35.400 Y8.663
G0 X-35.400 Y2.887
G0 X-35.564 Y2.887
G1 F1800 X35.663 Y2.888 E59.48879
G0 F7500 X35.500 Y2.888
G0 X35.500 Y-2.887
G0 X35.664 Y-2.887
G1 F1800 X-35.563 Y-2.888 E63.33549
G0 F7500 X-35.400 Y-2.888
G0 X-35.400 Y-8.664
G0 X-35.563 Y-8.664
G1 F1800 X35.664 Y-8.663 E67.18219
G0 F7500 X35.500 Y-8.663
G0 X35.500 Y-14.439
G0 X35.664 Y-14.439
G1 F1800 X-35.563 Y-14.440 E71.02888
G0 F7500 X-35.400 Y-14.440
G0 X-35.400 Y-20.216
G0 X-35.563 Y-20.216
G1 F1800 X35.664 Y-20.215 E74.87558
G0 F7500 X35.500 Y-20.215
G0 X35.500 Y-25.991
G0 X35.664 Y-25.991
G1 F1800 X-35.563 Y-25.992 E78.72227
G0 F7500 X-35.400 Y-25.992
G0 X-14.440 Y-30.300
G0 X-14.440 Y-30.464
G1 F1800 X-14.440 Y30.664 E82.02356
G0 F7500 X-14.440 Y30.500
G0 X-8.664 Y30.500
G0 X-8.664 Y30.664
G1 F1800 X-8.664 Y-30.464 E85.32485
G0 F7500 X-8.664 Y-30.300
G0 X-2.888 Y-30.300
G0 X-2.888 Y-30.464
G1 F1800 X-2.888 Y30.664 E88.62614
G0 F7500 X-2.888 Y30.500
G0 X2.888 Y30.500
G0 X2.888 Y30.664
G1 F1800 X2.888 Y-30.464 E91.92742
G0 F7500 X2.888 Y-30.300
G0 X8.664 Y-30.300
G0 X8.664 Y-30.464
G1 F1800 X8.664 Y30.664 E95.22871
G0 F7500 X8.664 Y30.500
G0 X14.440 Y30.500
G0 X14.440 Y30.664
G1 F1800 X14.440 Y-30.464 E98.53000
G0 F7500 X14.440 Y-30.300
G0 X20.216 Y-30.300
G0 X20.216 Y-30.464
G1 F1800 X20.216 Y30.664 E101.83129
G0 F7500 X20.216 Y30.500
G0 X25.992 Y30.500
G0 X25.992 Y30.664
G1 F1800 X25.992 Y-30.464 E105.13257
G0 F7500 X25.992 Y-30.300
G0 X31.768 Y-30.300
G0 X31.768 Y-30.464
G1 F1800 X31.768 Y30.664 E108.43386
;LAYER:1
M106 S63
G1 F2400 E107.43386
G0 F7500 X0.284 Y0.284 Z0.500
;TYPE:WALL-OUTER
G1 F2400 E108.43386
G1 F1980 X0.216 Y0.284 E108.43631
G1 X0.216 Y0.216 E108.43876
G1 X0.284 Y0.216 E108.44121
G1 X0.284 Y0.284 E108.44365
G0 F7500 X1.200 Y1.200
;TYPE:SUPPORT
G1 F1920 X1.200 Y-0.700 E108.51206
G1 X-0.700 Y-0.700 E108.58047
G1 X-0.700 Y1.200 E108.64888
G1 X1.200 Y1.200 E108.71728
G0 F7500 X1.190 Y1.300
G0 X35.500 Y30.590
G0 X35.600 Y30.600
G1 F1920 X-35.500 Y30.600 E111.27718
G1 X-35.500 Y-30.400 E113.47343
G1 X35.600 Y-30.400 E116.03332
G1 X35.600 Y30.600 E118.22957
G0 F7500 X35.500 Y30.590
G0 X31.768 Y30.500
G0 X31.768 Y30.664
G1 F1920 X31.768 Y-30.464 E120.43043
G0 F7500 X31.768 Y-30.300
G0 X25.992 Y-30.300
G0 X25.992 Y-30.464
G1 F1920 X25.992 Y30.664 E122.63128
G0 F7500 X25.992 Y30.500
G0 X20.216 Y30.500
G0 X20.216 Y30.664
G1 F1920 X20.216 Y-30.464 E124.83214
G0 F7500 X20.216 Y-30.300
G0 X35.500 Y-25.991
G0 X35.664 Y-25.991
G1 F1920 X-35.563 Y-25.992 E127.39661
G0 F7500 X-35.400 Y-25.992
G0 X-35.400 Y-20.216
G0 X-35.563 Y-20.216
G1 F1920 X35.664 Y-20.215 E129.96107
G0 F7500 X35.500 Y-20.215
G0 X35.500 Y-14.439
G0 X35.664 Y-14.439
G1 F1920 X-35.563 Y-14.440 E132.52553
G0 F7500 X-35.400 Y-14.440
G0 X-35.400 Y-8.664
G0 X-35.563 Y-8.664
G1 F1920 X35.664 Y-8.663 E135.09000
G0 F7500 X35.500 Y-8.663
G0 X35.500 Y-2.887
G0 X35.664 Y-2.887
G1 F1920 X-35.563 Y-2.888 E137.65446
G0 F7500 X-35.400 Y-2.888
G0 X-35.400 Y2.887
G0 X-35.564 Y2.887
G1 F1920 X35.663 Y2.888 E140.21892
G0 F7500 X35.500 Y2.888
G0 X35.500 Y8.664
G0 X35.663 Y8.664
G1 F1920 X-35.564 Y8.663 E142.78339
G0 F7500 X-35.400 Y8.663
G0 X-35.400 Y14.439
G0 X-35.564 Y14.439
G1 F1920 X35.663 Y14.440 E145.34785
G0 F7500 X35.500 Y14.440
G0 X35.500 Y20.216
G0 X35.663 Y20.216
G1 F1920 X-35.564 Y20.215 E147.91232
G0 F7500 X-35.400 Y20.215
G0 X-35.400 Y25.991
G0 X-35.564 Y25.991
G1 F1920 X35.663 Y25.992 E150.47678
G0 F7500 X35.500 Y25.992
G0 X14.440 Y30.500
G0 X14.440 Y30.664
G1 F1920 X14.440 Y-30.464 E152.67764
G0 F7500 X14.440 Y-30.300
G0 X8.664 Y-30.300
G0 X8.664 Y-30.464
G1 F1920 X8.664 Y30.664 E154.87850
G0 F7500 X8.664 Y30.500
G0 X2.888 Y30.500
G0 X2.888 Y30.664
G1 F1920 X2.888 Y-30.464 E157.07935
G0 F7500 X2.888 Y-30.300
G0 X-2.888 Y-30.300
G0 X-2.888 Y-30.464
G1 F1920 X-2.888 Y30.664 E159.28021
G0 F7500 X-2.888 Y30.500
G0 X-8.664 Y30.500
G0 X-8.664 Y30.664
G1 F1920 X-8.664 Y-30.464 E161.48107
G0 F7500 X-8.664 Y-30.300
G0 X-14.440 Y-30.300
G0 X-14.440 Y-30.464
G1 F1920 X-14.440 Y30.664 E163.68193
G0 F7500 X-14.440 Y30.500
G0 X-20.216 Y30.500
G0 X-20.216 Y30.664
G1 F1920 X-20.216 Y-30.464 E165.88279
G0 F7500 X-20.216 Y-30.300
G0 X-25.992 Y-30.300
G0 X-25.992 Y-30.464
G1 F1920 X-25.992 Y30.664 E168.08365
G0 F7500 X-25.992 Y30.500
G0 X-31.768 Y30.500
G0 X-31.768 Y30.664
G1 F1920 X-31.768 Y-30.464 E170.28451
;LAYER:2
M106 S127
G1 F2400 E169.28451
G0 F7500 X0.216 Y0.216 Z0.700
;TYPE:WALL-OUTER
G1 F2400 E170.28451
G1 F2220 X0.284 Y0.216 E170.28695
G1 X0.284 Y0.284 E170.28940
G1 X0.216 Y0.284 E170.29185
G1 X0.216 Y0.216 E170.29430
G0 F7500 X-0.700 Y-0.700
;TYPE:SUPPORT
G1 F2100 X-0.700 Y1.200 E170.36271
G1 X1.200 Y1.200 E170.43111
G1 X1.200 Y-0.700 E170.49952
G1 X-0.700 Y-0.700 E170.56793
G0 F7500 X-0.690 Y-0.800
G0 X-35.500 Y-30.400
G1 F2100 X35.600 Y-30.400 E173.12782
G1 X35.600 Y30.600 E175.32407
G1 X-35.500 Y30.600 E177.88396
G1 X-35.500 Y-30.400 E180.08021
G0 F7500 X-31.768 Y-30.300
G0 X-31.768 Y-30.464
G1 F2100 X-31.768 Y30.664 E182.28107
G0 F7500 X-31.768 Y30.500
G0 X-25.992 Y30.500
G0 X-25.992 Y30.664
G1 F2100 X-25.992 Y-30.464 E184.48193
G0 F7500 X-25.992 Y-30.300
G0 X-20.216 Y-30.300
G0 X-20.216 Y-30.464
G1 F2100 X-20.216 Y30.664 E186.68279
G0 F7500 X-20.216 Y30.500
G0 X-35.400 Y25.991
G0 X-35.564 Y25.991
G1 F2100 X35.663 Y25.992 E189.24725
G0 F7500 X35.500 Y25.992
G0 X35.500 Y20.216
G0 X35.663 Y20.216
G1 F2100 X-35.564 Y20.215 E191.81171
G0 F7500 X-35.400 Y20.215
G0 X-35.400 Y14.439
G0 X-35.564 Y14.439
G1 F2100 X35.663 Y14.440 E194.37618
G0 F7500 X35.500 Y14.440
G0 X35.500 Y8.664
G0 X35.663 Y8.664
G1 F2100 X-35.564 Y8.663 E196.94064
G0 F7500 X-35.400 Y8.663
G0 X-35.400 Y2.887
G0 X-35.564 Y2.887
G1 F2100 X35.663 Y2.888 E199.50511
G0 F7500 X35.500 Y2.888
G0 X35.500 Y-2.887
G0 X35.664 Y-2.887
G1 F2100 X-35.563 Y-2.888 E202.06957
G0 F7500 X-35.400 Y-2.888
G0 X-35.400 Y-8.664
G0 X-35.563 Y-8.664
G1 F2100 X35.664 Y-8.663 E204.63403
G0 F7500 X35.500 Y-8.663
G0 X35.500 Y-14.439
G0 X35.664 Y-14.439
G1 F2100 X-35.563 Y-14.440 E207.19850
G0 F7500 X-35.400 Y-14.440
G0 X-35.400 Y-20.216
G0 X-35.563 Y-20.216
G1 F2100 X35.664 Y-20.215 E209.76296
G0 F7500 X35.500 Y-20.215
G0 X35.500 Y-25.991
G0 X35.664 Y-25.991
G1 F2100 X-35.563 Y-25.992 E212.32742
G0 F7500 X-35.400 Y-25.992
G0 X-14.440 Y-30.300
G0 X-14.440 Y-30.464
G1 F2100 X-14.440 Y30.664 E214.52828
G0 F7500 X-14.440 Y30.500
G0 X-8.664 Y30.500
G0 X-8.664 Y30.664
G1 F2100 X-8.664 Y-30.464 E216.72914
G0 F7500 X-8.664 Y-30.300
G0 X-2.888 Y-30.300
G0 X-2.888 Y-30.464
G1 F2100 X-2.888 Y30.664 E218.93000
G0 F7500 X-2.888 Y30.500
G0 X2.888 Y30.500
G0 X2.888 Y30.664
G1 F2100 X2.888 Y-30.464 E221.13086
G0 F7500 X2.888 Y-30.300
G0 X8.664 Y-30.300
G0 X8.664 Y-30.464
G1 F2100 X8.664 Y30.664 E223.33172
G0 F7500 X8.664 Y30.500
G0 X14.440 Y30.500
G0 X14.440 Y30.664
G1 F2100 X14.440 Y-30.464 E225.53257
G0 F7500 X14.440 Y-30.300
G0 X20.216 Y-30.300
G0 X20.216 Y-30.464
G1 F2100 X20.216 Y30.664 E227.73343
G0 F7500 X20.216 Y30.500
G0 X25.992 Y30.500
G0 X25.992 Y30.664
G1 F2100 X25.992 Y-30.464 E229.93429
G0 F7500 X25.992 Y-30.300
G0 X31.768 Y-30.300
G0 X31.768 Y-30.464
G1 F2100 X31.768 Y30.664 E232.13515
;LAYER:3
G1 F2400 E231.13515
G0 F7500 X0.284 Y0.284 Z0.900
;TYPE:WALL-OUTER
G1 F2400 E232.13515
G1 X0.216 Y0.284 E232.13760
G1 X0.216 Y0.216 E232.14005
G1 X0.284 Y0.216 E232.14249
G1 X0.284 Y0.284 E232.14494
G0 F7500 X1.200 Y1.200
;TYPE:SUPPORT
G1 F2220 X1.200 Y-0.700 E232.21335
G1 X-0.700 Y-0.700 E232.28176
G1 X-0.700 Y1.200 E232.35017
G1 X1.200 Y1.200 E232.41857
G0 F7500 X1.190 Y1.300
G0 X35.500 Y30.590
G0 X35.600 Y30.600
G1 F2220 X-35.500 Y30.600 E234.97847
G1 X-35.500 Y-30.400 E237.17472
G1 X35.600 Y-30.400 E239.73461
G1 X35.600 Y30.600 E241.93086
G0 F7500 X35.500 Y30.590
G0 X31.768 Y30.500
G0 X31.768 Y30.664
G1 F2220 X31.768 Y-30.464 E244.13171
G0 F7500 X31.768 Y-30.300
G0 X25.992 Y-30.300
G0 X25.992 Y-30.464
G1 F2220 X25.992 Y30.664 E246.33257
G0 F7500 X25.992 Y30.500
G0 X20.216 Y30.500
G0 X20.216 Y30.664
G1 F2220 X20.216 Y-30.464 E248.53343
G0 F7500 X20.216 Y-30.300
G0 X35.500 Y-25.991
G0 X35.664 Y-25.991
G1 F2220 X-35.563 Y-25.992 E251.09790
G0 F7500 X-35.400 Y-25.992
G0 X-35.400 Y-20.216
G0 X-35.563 Y-20.216
G1 F2220 X35.664 Y-20.215 E253.66236
G0 F7500 X35.500 Y-20.215
G0 X35.500 Y-14.439
G0 X35.664 Y-14.439
G1 F2220 X-35.563 Y-14.440 E256.22682
G0 F7500 X-35.400 Y-14.440
G0 X-35.400 Y-8.664
G0 X-35.563 Y-8.664
G1 F2220 X35.664 Y-8.663 E258.79129
G0 F7500 X35.500 Y-8.663
G0 X35.500 Y-2.887
G0 X35.664 Y-2.887
G1 F2220 X-35.563 Y-2.888 E261.35575
G0 F7500 X-35.400 Y-2.888
G0 X-35.400 Y2.887
G0 X-35.564 Y2.887
G1 F2220 X35.663 Y2.888 E263.92021
G0 F7500 X35.500 Y2.888
G0 X35.500 Y8.664
G0 X35.663 Y8.664
G1 F2220 X-35.564 Y8.663 E266.48468
G0 F7500 X-35.400 Y8.663
G0 X-35.400 Y14.439
G0 X-35.564 Y14.439
G1 F2220 X35.663 Y14.440 E269.04914
G0 F7500 X35.500 Y14.440
G0 X35.500 Y20.216
G0 X35.663 Y20.216
G1 F2220 X-35.564 Y20.215 E271.61361
G0 F7500 X-35.400 Y20.215
G0 X-35.400 Y25.991
G0 X-35.564 Y25.991
G1 F2220 X35.663 Y25.992 E274.17807
G0 F7500 X35.500 Y25.992
G0 X14.440 Y30.500
G0 X14.440 Y30.664
G1 F2220 X14.440 Y-30.464 E276.37893
G0 F7500 X14.440 Y-30.300
G0 X8.664 Y-30.300
G0 X8.664 Y-30.464
G1 F2220 X8.664 Y30.664 E278.57979
G0 F7500 X8.664 Y30.500
G0 X2.888 Y30.500
G0 X2.888 Y30.664
G1 F2220 X2.888 Y-30.464 E280.78064
G0 F7500 X2.888 Y-30.300
G0 X-2.888 Y-30.300
G0 X-2.888 Y-30.464
G1 F2220 X-2.888 Y30.664 E282.98150
G0 F7500 X-2.888 Y30.500
G0 X-8.664 Y30.500
G0 X-8.664 Y30.664
G1 F2220 X-8.664 Y-30.464 E285.18236
G0 F7500 X-8.664 Y-30.300
G0 X-14.440 Y-30.300
G0 X-14.440 Y-30.464
G1 F2220 X-14.440 Y30.664 E287.38322
G0 F7500 X-14.440 Y30.500
G0 X-20.216 Y30.500
G0 X-20.216 Y30.664
G1 F2220 X-20.216 Y-30.464 E289.58408
G0 F7500 X-20.216 Y-30.300
G0 X-25.992 Y-30.300
G0 X-25.992 Y-30.464
G1 F2220 X-25.992 Y30.664 E291.78494
G0 F7500 X-25.992 Y30.500
G0 X-31.768 Y30.500
G0 X-31.768 Y30.664
G1 F2220 X-31.768 Y-30.464 E293.98579
;LAYER:4
G1 F2400 E292.98579
G0 F7500 X0.216 Y0.216 Z1.100
;TYPE:WALL-OUTER
G1 F2400 E293.98579
G1 F2700 X0.284 Y0.216 E293.98824
G1 X0.284 Y0.284 E293.99069
G1 X0.216 Y0.284 E293.99314
G1 X0.216 Y0.216 E293.99559
G0 F7500 X-0.700 Y-0.700
;TYPE:SUPPORT
G1 F2400 X-0.700 Y1.200 E294.06400
G1 X1.200 Y1.200 E294.13240
G1 X1.200 Y-0.700 E294.20081
G1 X-0.700 Y-0.700 E294.26922
G0 F7500 X-0.690 Y-0.800
G0 X-35.500 Y-30.400
G1 F2400 X35.600 Y-30.400 E296.82911
G1 X35.600 Y30.600 E299.02536
G1 X-35.500 Y30.600 E301.58525
G1 X-35.500 Y-30.400 E303.78150
G0 F7500 X-31.768 Y-30.300
G0 X-31.768 Y-30.464
G1 F2400 X-31.768 Y30.664 E305.98236
G0 F7500 X-31.768 Y30.500
G0 X-25.992 Y30.500
G0 X-25.992 Y30.664
G1 F2400 X-25.992 Y-30.464 E308.18322
G0 F7500 X-25.992 Y-30.300
G0 X-20.216 Y-30.300
G0 X-20.216 Y-30.464
G1 F2400 X-20.216 Y30.664 E310.38408
G0 F7500 X-20.216 Y30.500
G0 X-35.400 Y25.991
G0 X-35.564 Y25.991
G1 F2400 X35.663 Y25.992 E312.94854
G0 F7500 X35.500 Y25.992
G0 X35.500 Y20.216
G0 X35.663 Y20.216
G1 F2400 X-35.564 Y20.215 E315.51300
G0 F7500 X-35.400 Y20.215
G0 X-35.400 Y14.439
G0 X-35.564 Y14.439
G1 F2400 X35.663 Y14.440 E318.07747
G0 F7500 X35.500 Y14.440
G0 X35.500 Y8.664
G0 X35.663 Y8.664
G1 F2400 X-35.564 Y8.663 E320.64193
G0 F7500 X-35.400 Y8.663
G0 X-35.400 Y2.887
G0 X-35.564 Y2.887
G1 F2400 X35.663 Y2.888 E323.20640
G0 F7500 X35.500 Y2.888
G0 X35.500 Y-2.887
G0 X35.664 Y-2.887
G1 F2400 X-35.563 Y-2.888 E325.77086
G0 F7500 X-35.400 Y-2.888
G0 X-35.400 Y-8.664
G0 X-35.563 Y-8.664
G1 F2400 X35.664 Y-8.663 E328.33532
G0 F7500 X35.500 Y-8.663
G0 X35.500 Y-14.439
G0 X35.664 Y-14.439
G1 F2400 X-35.563 Y-14.440 E330.89979
G0 F7500 X-35.400 Y-14.440
G0 X-35.400 Y-20.216
G0 X-35.563 Y-20.216
G1 F2400 X35.664 Y-20.215 E333.46425
G0 F7500 X35.500 Y-20.215
G0 X35.500 Y-25.991
G0 X35.664 Y-25.991
G1 F2400 X-35.563 Y-25.992 E336.02871
G0 F7500 X-35.400 Y-25.992
G0 X-14.440 Y-30.300
G0 X-14.440 Y-30.464
G1 F2400 X-14.440 Y30.664 E338.22957
G0 F7500 X-14.440 Y30.500
G0 X-8.664 Y30.500
G0 X-8.664 Y30.664
G1 F2400 X-8.664 Y-30.464 E340.43043
G0 F7500 X-8.664 Y-30.300
G0 X-2.888 Y-30.300
G0 X-2.888 Y-30.464
G1 F2400 X-2.888 Y30.664 E342.63129
G0 F7500 X-2.888 Y30.500
G0 X2.888 Y30.500
G0 X2.888 Y30.664
G1 F2400 X2.888 Y-30.464 E344.83215
G0 F7500 X2.888 Y-30.300
G0 X8.664 Y-30.300
G0 X8.664 Y-30.464
G1 F2400 X8.664 Y30.664 E347.03301
G0 F7500 X8.664 Y30.500
G0 X14.440 Y30.500
G0 X14.440 Y30.664
G1 F2400 X14.440 Y-30.464 E349.23386
G0 F7500 X14.440 Y-30.300
G0 X20.216 Y-30.300
G0 X20.216 Y-30.464
G1 F2400 X20.216 Y30.664 E351.43472
G0 F7500 X20.216 Y30.500
G0 X25.992 Y30.500
G0 X25.992 Y30.664
G1 F2400 X25.992 Y-30.464 E353.63558
G0 F7500 X25.992 Y-30.300
G0 X31.768 Y-30.300
G0 X31.768 Y-30.464
G1 F2400 X31.768 Y30.664 E355.83644
;LAYER:5
G1 F2400 E354.83644
G0 F7500 X0.284 Y0.284 Z1.300
;TYPE:WALL-OUTER
G1 F2400 E355.83644
G1 F2700 X0.216 Y0.284 E355.83889
G1 X0.216 Y0.216 E355.84134
G1 X0.284 Y0.216 E355.84378
G1 X0.284 Y0.284 E355.84623
G0 F7500 X1.200 Y1.200
;TYPE:SUPPORT
G1 F2400 X1.200 Y-0.700 E355.91464
G1 X-0.700 Y-0.700 E355.98305
G1 X-0.700 Y1.200 E356.05146
G1 X1.200 Y1.200 E356.11986
G0 F7500 X1.190 Y1.300
G0 X35.500 Y30.590
G0 X35.600 Y30.600
G1 F2400 X-35.500 Y30.600 E358.67976
G1 X-35.500 Y-30.400 E360.87600
G1 X35.600 Y-30.400 E363.43590
G1 X35.600 Y30.600 E365.63215
G0 F7500 X35.500 Y30.590
G0 X31.768 Y30.500
G0 X31.768 Y30.664
G1 F2400 X31.768 Y-30.464 E367.83300
G0 F7500 X31.768 Y-30.300
G0 X25.992 Y-30.300
G0 X25.992 Y-30.464
G1 F2400 X25.992 Y30.664 E370.03386
G0 F7500 X25.992 Y30.500
G0 X20.216 Y30.500
G0 X20.216 Y30.664
G1 F2400 X20.216 Y-30.464 E372.23472
G0 F7500 X20.216 Y-30.300
G0 X35.500 Y-25.991
G0 X35.664 Y-25.991
G1 F2400 X-35.563 Y-25.992 E374.79918
G0 F7500 X-35.400 Y-25.992
G0 X-35.400 Y-20.216
G0 X-35.563 Y-20.216
G1 F2400 X35.664 Y-20.215 E377.36365
G0 F7500 X35.500 Y-20.215
G0 X35.500 Y-14.439
G0 X35.664 Y-14.439
G1 F2400 X-35.563 Y-14.440 E379.92811
G0 F7500 X-35.400 Y-14.440
G0 X-35.400 Y-8.664
G0 X-35.563 Y-8.664
G1 F2400 X35.664 Y-8.663 E382.49258
G0 F7500 X35.500 Y-8.663
G0 X35.500 Y-2.887
G0 X35.664 Y-2.887
G1 F2400 X-35.563 Y-2.888 E385.05704
G0 F7500 X-35.400 Y-2.888
G0 X-35.400 Y2.887
G0 X-35.564 Y2.887
G1 F2400 X35.663 Y2.888 E387.62150
G0 F7500 X35.500 Y2.888
G0 X35.500 Y8.664
G0 X35.663 Y8.664
G1 F2400 X-35.564 Y8.663 E390.18597
G0 F7500 X-35.400 Y8.663
G0 X-35.400 Y14.439
G0 X-35.564 Y14.439
G1 F2400 X35.663 Y14.440 E392.75043
G0 F7500 X35.500 Y14.440
G0 X35.500 Y20.216
G0 X35.663 Y20.216
G1 F2400 X-35.564 Y20.215 E395.31490
G0 F7500 X-35.400 Y20.215
G0 X-35.400 Y25.991
G0 X-35.564 Y25.991
G1 F2400 X35.663 Y25.992 E397.87936
