;Generated with Cura_SteamEngine 15.04.6

;Layer count: 16
;LAYER:0
M107
G0 F7500 X-38.716 Y-38.616 Z0.300
;TYPE:SKIRT
G1 F1800 X38.816 Y-38.616 E4.18720
G1 X38.816 Y38.816 E8.36901
G1 X-38.716 Y38.816 E12.55621
G1 X-38.716 Y-38.616 E16.73802
G1 F2400 E15.73802
G0 F7500 X0.216 Y0.216
;TYPE:WALL-OUTER
G1 F2400 E16.73802
G1 F1800 X0.284 Y0.216 E16.74169
G1 X0.284 Y0.284 E16.74536
G1 X0.216 Y0.284 E16.74903
G1 X0.216 Y0.216 E16.75271
G0 F7500 X-0.700 Y-0.700
;TYPE:SUPPORT
G1 F1800 X-0.700 Y1.200 E16.85532
G1 X1.200 Y1.200 E16.95793
G1 X1.200 Y-0.700 E17.06054
G1 X-0.700 Y-0.700 E17.16315
G0 F7500 X-0.690 Y-0.800
G0 X-35.500 Y-35.400
G1 F1800 X35.600 Y-35.400 E21.00299
G1 X35.600 Y35.600 E24.83743
G1 X-35.500 Y35.600 E28.67726
G1 X-35.500 Y-35.400 E32.51170
G0 F7500 X-35.400 Y-31.768
G0 X-35.563 Y-31.768
G1 F1800 X35.664 Y-31.767 E36.35839
G0 F7500 X35.500 Y-31.767
G0 X31.768 Y-35.300
G0 X31.768 Y-35.464
G1 F1800 X31.768 Y35.664 E40.19974
G0 F7500 X31.768 Y35.500
G0 X35.500 Y31.768
G0 X35.663 Y31.768
G1 F1800 X-35.564 Y31.767 E44.04644
G0 F7500 X-35.400 Y31.767
G0 X-31.768 Y35.500
G0 X-31.768 Y35.664
G1 F1800 X-31.768 Y-35.464 E47.88779
G0 F7500 X-31.768 Y-35.300
G0 X-25.992 Y-35.300
G0 X-25.992 Y-35.464
G1 F1800 X-25.992 Y35.664 E51.72914
G0 F7500 X-25.992 Y35.500
G0 X-20.216 Y35.500
G0 X-20.216 Y35.664
G1 F1800 X-20.216 Y-35.464 E55.57049
G0 F7500 X-20.216 Y-35.300
G0 X-35.400 Y-25.992
G0 X-35.563 Y-25.992
G1 F1800 X35.664 Y-25.991 E59.41718
G0 F7500 X35.500 Y-25.991
G0 X35.500 Y-20.215
G0 X35.664 Y-20.215
G1 F1800 X-35.563 Y-20.216 E63.26388
G0 F7500 X-35.400 Y-20.216
G0 X-35.400 Y-14.440
G0 X-35.563 Y-14.440
G1 F1800 X35.664 Y-14.439 E67.11057
G0 F7500 X35.500 Y-14.439
G0 X35.500 Y-8.663
G0 X35.664 Y-8.663
G1 F1800 X-35.563 Y-8.664 E70.95727
G0 F7500 X-35.400 Y-8.664
G0 X-35.400 Y-2.888
G0 X-35.563 Y-2.888
G1 F1800 X35.664 Y-2.887 E74.80396
G0 F7500 X35.500 Y-2.887
G0 X35.500 Y2.888
G0 X35.663 Y2.888
G1 F1800 X-35.564 Y2.887 E78.65066
G0 F7500 X-35.400 Y2.887
G0 X-35.400 Y8.663
G0 X-35.564 Y8.663
G1 F1800 X35.663 Y8.664 E82.49736
G0 F7500 X35.500 Y8.664
G0 X35.500 Y14.440
G0 X35.663 Y14.440
G1 F1800 X-35.564 Y14.439 E86.34405
G0 F7500 X-35.400 Y14.439
G0 X-35.400 Y20.215
G0 X-35.564 Y20.215
G1 F1800 X35.663 Y20.216 E90.19075
G0 F7500 X35.500 Y20.216
G0 X35.500 Y25.992
G0 X35.663 Y25.992
G1 F1800 X-35.564 Y25.991 E94.03744
G0 F7500 X-35.400 Y25.991
G0 X-14.440 Y35.500
G0 X-14.440 Y35.664
G1 F1800 X-14.440 Y-35.464 E97.87879
G0 F7500 X-14.440 Y-35.300
G0 X-8.664 Y-35.300
G0 X-8.664 Y-35.464
G1 F1800 X-8.664 Y35.664 E101.72014
G0 F7500 X-8.664 Y35.500
G0 X-2.888 Y35.500
G0 X-2.888 Y35.664
G1 F1800 X-2.888 Y-35.464 E105.56149
G0 F7500 X-2.888 Y-35.300
G0 X2.888 Y-35.300
G0 X2.888 Y-35.464
G1 F1800 X2.888 Y35.664 E109.40284
G0 F7500 X2.888 Y35.500
G0 X8.664 Y35.500
G0 X8.664 Y35.664
G1 F1800 X8.664 Y-35.464 E113.24419
G0 F7500 X8.664 Y-35.300
G0 X14.440 Y-35.300
G0 X14.440 Y-35.464
G1 F1800 X14.440 Y35.664 E117.08554
G0 F7500 X14.440 Y35.500
G0 X20.216 Y35.500
G0 X20.216 Y35.664
G1 F1800 X20.216 Y-35.464 E120.92689
G0 F7500 X20.216 Y-35.300
G0 X25.992 Y-35.300
G0 X25.992 Y-35.464
G1 F1800 X25.992 Y35.664 E124.76823
;LAYER:1
M106 S63
G1 F2400 E123.76823
G0 F7500 X0.284 Y0.284 Z0.500
;TYPE:WALL-OUTER
G1 F2400 E124.76823
G1 F1980 X0.216 Y0.284 E124.77068
G1 X0.216 Y0.216 E124.77313
G1 X0.284 Y0.216 E124.77558
G1 X0.284 Y0.284 E124.77803
G0 F7500 X1.200 Y1.200
;TYPE:SUPPORT
G1 F1920 X1.200 Y-0.700 E124.84644
G1 X-0.700 Y-0.700 E124.91484
G1 X-0.700 Y1.200 E124.98325
G1 X1.200 Y1.200 E125.05166
G0 F7500 X1.190 Y1.300
G0 X35.500 Y35.590
G0 X35.600 Y35.600
G1 F1920 X-35.500 Y35.600 E127.61155
G1 X-35.500 Y-35.400 E130.16784
G1 X35.600 Y-35.400 E132.72773
G1 X35.600 Y35.600 E135.28402
G0 F7500 X35.500 Y35.590
G0 X35.500 Y31.768
G0 X35.663 Y31.768
G1 F1920 X-35.564 Y31.767 E137.84849
G0 F7500 X-35.400 Y31.767
G0 X-31.768 Y35.500
G0 X-31.768 Y35.664
G1 F1920 X-31.768 Y-35.464 E140.40939
G0 F7500 X-31.768 Y-35.300
G0 X-35.400 Y-31.768
G0 X-35.563 Y-31.768
G1 F1920 X35.664 Y-31.767 E142.97385
G0 F7500 X35.500 Y-31.767
G0 X31.768 Y-35.300
G0 X31.768 Y-35.464
G1 F1920 X31.768 Y35.664 E145.53475
G0 F7500 X31.768 Y35.500
G0 X25.992 Y35.500
G0 X25.992 Y35.664
G1 F1920 X25.992 Y-35.464 E148.09565
G0 F7500 X25.992 Y-35.300
G0 X20.216 Y-35.300
G0 X20.216 Y-35.464
G1 F1920 X20.216 Y35.664 E150.65655
G0 F7500 X20.216 Y35.500
G0 X35.500 Y25.992
G0 X35.663 Y25.992
G1 F1920 X-35.564 Y25.991 E153.22101
G0 F7500 X-35.400 Y25.991
G0 X-35.400 Y20.215
G0 X-35.564 Y20.215
G1 F1920 X35.663 Y20.216 E155.78548
G0 F7500 X35.500 Y20.216
G0 X35.500 Y14.440
G0 X35.663 Y14.440
G1 F1920 X-35.564 Y14.439 E158.34994
G0 F7500 X-35.400 Y14.439
G0 X-35.400 Y8.663
G0 X-35.564 Y8.663
G1 F1920 X35.663 Y8.664 E160.91440
G0 F7500 X35.500 Y8.664
G0 X35.500 Y2.888
G0 X35.663 Y2.888
G1 F1920 X-35.564 Y2.887 E163.47887
G0 F7500 X-35.400 Y2.887
G0 X-35.400 Y-2.888
G0 X-35.563 Y-2.888
G1 F1920 X35.664 Y-2.887 E166.04333
G0 F7500 X35.500 Y-2.887
G0 X35.500 Y-8.663
G0 X35.664 Y-8.663
G1 F1920 X-35.563 Y-8.664 E168.60779
G0 F7500 X-35.400 Y-8.664
G0 X-35.400 Y-14.440
G0 X-35.563 Y-14.440
G1 F1920 X35.664 Y-14.439 E171.17226
G0 F7500 X35.500 Y-14.439
G0 X35.500 Y-20.215
G0 X35.664 Y-20.215
G1 F1920 X-35.563 Y-20.216 E173.73672
G0 F7500 X-35.400 Y-20.216
G0 X-35.400 Y-25.992
G0 X-35.563 Y-25.992
G1 F1920 X35.664 Y-25.991 E176.30119
G0 F7500 X35.500 Y-25.991
G0 X14.440 Y-35.300
G0 X14.440 Y-35.464
G1 F1920 X14.440 Y35.664 E178.86209
G0 F7500 X14.440 Y35.500
G0 X8.664 Y35.500
G0 X8.664 Y35.664
G1 F1920 X8.664 Y-35.464 E181.42298
G0 F7500 X8.664 Y-35.300
G0 X2.888 Y-35.300
G0 X2.888 Y-35.464
G1 F1920 X2.888 Y35.664 E183.98388
G0 F7500 X2.888 Y35.500
G0 X-2.888 Y35.500
G0 X-2.888 Y35.664
G1 F1920 X-2.888 Y-35.464 E186.54478
G0 F7500 X-2.888 Y-35.300
G0 X-8.664 Y-35.300
G0 X-8.664 Y-35.464
G1 F1920 X-8.664 Y35.664 E189.10568
G0 F7500 X-8.664 Y35.500
G0 X-14.440 Y35.500
G0 X-14.440 Y35.664
G1 F1920 X-14.440 Y-35.464 E191.66658
G0 F7500 X-14.440 Y-35.300
G0 X-20.216 Y-35.300
G0 X-20.216 Y-35.464
G1 F1920 X-20.216 Y35.664 E194.22748
G0 F7500 X-20.216 Y35.500
G0 X-25.992 Y35.500
G0 X-25.992 Y35.664
G1 F1920 X-25.992 Y-35.464 E196.78838
;LAYER:2
M106 S127
G1 F2400 E195.78838
G0 F7500 X0.216 Y0.216 Z0.700
;TYPE:WALL-OUTER
G1 F2400 E196.78838
G1 F2220 X0.284 Y0.216 E196.79083
G1 X0.284 Y0.284 E196.79328
G1 X0.216 Y0.284 E196.79573
G1 X0.216 Y0.216 E196.79817
G0 F7500 X-0.700 Y-0.700
;TYPE:SUPPORT
G1 F2100 X-0.700 Y1.200 E196.86658
G1 X1.200 Y1.200 E196.93499
G1 X1.200 Y-0.700 E197.00340
G1 X-0.700 Y-0.700 E197.07180
G0 F7500 X-0.690 Y-0.800
G0 X-35.500 Y-35.400
G1 F2100 X35.600 Y-35.400 E199.63170
G1 X35.600 Y35.600 E202.18799
G1 X-35.500 Y35.600 E204.74788
G1 X-35.500 Y-35.400 E207.30417
G0 F7500 X-35.400 Y-31.768
G0 X-35.563 Y-31.768
G1 F2100 X35.664 Y-31.767 E209.86863
G0 F7500 X35.500 Y-31.767
G0 X31.768 Y-35.300
G0 X31.768 Y-35.464
G1 F2100 X31.768 Y35.664 E212.42953
G0 F7500 X31.768 Y35.500
G0 X35.500 Y31.768
G0 X35.663 Y31.768
G1 F2100 X-35.564 Y31.767 E214.99400
G0 F7500 X-35.400 Y31.767
G0 X-31.768 Y35.500
G0 X-31.768 Y35.664
G1 F2100 X-31.768 Y-35.464 E217.55490
G0 F7500 X-31.768 Y-35.300
G0 X-25.992 Y-35.300
G0 X-25.992 Y-35.464
G1 F2100 X-25.992 Y35.664 E220.11579
G0 F7500 X-25.992 Y35.500
G0 X-20.216 Y35.500
G0 X-20.216 Y35.664
G1 F2100 X-20.216 Y-35.464 E222.67669
G0 F7500 X-20.216 Y-35.300
G0 X-35.400 Y-25.992
G0 X-35.563 Y-25.992
G1 F2100 X35.664 Y-25.991 E225.24116
G0 F7500 X35.500 Y-25.991
G0 X35.500 Y-20.215
G0 X35.664 Y-20.215
G1 F2100 X-35.563 Y-20.216 E227.80562
G0 F7500 X-35.400 Y-20.216
G0 X-35.400 Y-14.440
G0 X-35.563 Y-14.440
G1 F2100 X35.664 Y-14.439 E230.37009
G0 F7500 X35.500 Y-14.439
G0 X35.500 Y-8.663
G0 X35.664 Y-8.663
G1 F2100 X-35.563 Y-8.664 E232.93455
G0 F7500 X-35.400 Y-8.664
G0 X-35.400 Y-2.888
G0 X-35.563 Y-2.888
G1 F2100 X35.664 Y-2.887 E235.49901
G0 F7500 X35.500 Y-2.887
G0 X35.500 Y2.888
G0 X35.663 Y2.888
G1 F2100 X-35.564 Y2.887 E238.06348
G0 F7500 X-35.400 Y2.887
G0 X-35.400 Y8.663
G0 X-35.564 Y8.663
G1 F2100 X35.663 Y8.664 E240.62794
G0 F7500 X35.500 Y8.664
G0 X35.500 Y14.440
G0 X35.663 Y14.440
G1 F2100 X-35.564 Y14.439 E243.19240
G0 F7500 X-35.400 Y14.439
G0 X-35.400 Y20.215
G0 X-35.564 Y20.215
G1 F2100 X35.663 Y20.216 E245.75687
G0 F7500 X35.500 Y20.216
G0 X35.500 Y25.992
G0 X35.663 Y25.992
G1 F2100 X-35.564 Y25.991 E248.32133
G0 F7500 X-35.400 Y25.991
G0 X-14.440 Y35.500
G0 X-14.440 Y35.664
G1 F2100 X-14.440 Y-35.464 E250.88223
G0 F7500 X-14.440 Y-35.300
G0 X-8.664 Y-35.300
G0 X-8.664 Y-35.464
G1 F2100 X-8.664 Y35.664 E253.44313
G0 F7500 X-8.664 Y35.500
G0 X-2.888 Y35.500
G0 X-2.888 Y35.664
G1 F2100 X-2.888 Y-35.464 E256.00403
G0 F7500 X-2.888 Y-35.300
G0 X2.888 Y-35.300
G0 X2.888 Y-35.464
G1 F2100 X2.888 Y35.664 E258.56493
G0 F7500 X2.888 Y35.500
G0 X8.664 Y35.500
G0 X8.664 Y35.664
G1 F2100 X8.664 Y-35.464 E261.12583
G0 F7500 X8.664 Y-35.300
G0 X14.440 Y-35.300
G0 X14.440 Y-35.464
G1 F2100 X14.440 Y35.664 E263.68673
G0 F7500 X14.440 Y35.500
G0 X20.216 Y35.500
G0 X20.216 Y35.664
G1 F2100 X20.216 Y-35.464 E266.24763
G0 F7500 X20.216 Y-35.300
G0 X25.992 Y-35.300
G0 X25.992 Y-35.464
G1 F2100 X25.992 Y35.664 E268.80853
;LAYER:3
G1 F2400 E267.80853
G0 F7500 X0.284 Y0.284 Z0.900
;TYPE:WALL-OUTER
G1 F2400 E268.80853
G1 X0.216 Y0.284 E268.81097
G1 X0.216 Y0.216 E268.81342
G1 X0.284 Y0.216 E268.81587
G1 X0.284 Y0.284 E268.81832
G0 F7500 X1.200 Y1.200
;TYPE:SUPPORT
G1 F2220 X1.200 Y-0.700 E268.88673
G1 X-0.700 Y-0.700 E268.95514
G1 X-0.700 Y1.200 E269.02354
G1 X1.200 Y1.200 E269.09195
G0 F7500 X1.190 Y1.300
G0 X35.500 Y35.590
G0 X35.600 Y35.600
G1 F2220 X-35.500 Y35.600 E271.65184
G1 X-35.500 Y-35.400 E274.20813
G1 X35.600 Y-35.400 E276.76802
G1 X35.600 Y35.600 E279.32431
G0 F7500 X35.500 Y35.590
G0 X35.500 Y31.768
G0 X35.663 Y31.768
G1 F2220 X-35.564 Y31.767 E281.88878
G0 F7500 X-35.400 Y31.767
G0 X-31.768 Y35.500
G0 X-31.768 Y35.664
G1 F2220 X-31.768 Y-35.464 E284.44968
G0 F7500 X-31.768 Y-35.300
G0 X-35.400 Y-31.768
G0 X-35.563 Y-31.768
G1 F2220 X35.664 Y-31.767 E287.01414
G0 F7500 X35.500 Y-31.767
G0 X31.768 Y-35.300
G0 X31.768 Y-35.464
G1 F2220 X31.768 Y35.664 E289.57504
G0 F7500 X31.768 Y35.500
G0 X25.992 Y35.500
G0 X25.992 Y35.664
G1 F2220 X25.992 Y-35.464 E292.13594
G0 F7500 X25.992 Y-35.300
G0 X20.216 Y-35.300
G0 X20.216 Y-35.464
G1 F2220 X20.216 Y35.664 E294.69684
G0 F7500 X20.216 Y35.500
G0 X35.500 Y25.992
G0 X35.663 Y25.992
G1 F2220 X-35.564 Y25.991 E297.26130
G0 F7500 X-35.400 Y25.991
G0 X-35.400 Y20.215
G0 X-35.564 Y20.215
G1 F2220 X35.663 Y20.216 E299.82577
G0 F7500 X35.500 Y20.216
G0 X35.500 Y14.440
G0 X35.663 Y14.440
G1 F2220 X-35.564 Y14.439 E302.39023
G0 F7500 X-35.400 Y14.439
G0 X-35.400 Y8.663
G0 X-35.564 Y8.663
G1 F2220 X35.663 Y8.664 E304.95469
G0 F7500 X35.500 Y8.664
G0 X35.500 Y2.888
G0 X35.663 Y2.888
G1 F2220 X-35.564 Y2.887 E307.51916
G0 F7500 X-35.400 Y2.887
G0 X-35.400 Y-2.888
G0 X-35.563 Y-2.888
G1 F2220 X35.664 Y-2.887 E310.08362
G0 F7500 X35.500 Y-2.887
G0 X35.500 Y-8.663
G0 X35.664 Y-8.663
G1 F2220 X-35.563 Y-8.664 E312.64809
G0 F7500 X-35.400 Y-8.664
G0 X-35.400 Y-14.440
G0 X-35.563 Y-14.440
G1 F2220 X35.664 Y-14.439 E315.21255
G0 F7500 X35.500 Y-14.439
G0 X35.500 Y-20.215
G0 X35.664 Y-20.215
G1 F2220 X-35.563 Y-20.216 E317.77701
G0 F7500 X-35.400 Y-20.216
G0 X-35.400 Y-25.992
G0 X-35.563 Y-25.992
G1 F2220 X35.664 Y-25.991 E320.34148
G0 F7500 X35.500 Y-25.991
G0 X14.440 Y-35.300
G0 X14.440 Y-35.464
G1 F2220 X14.440 Y35.664 E322.90238
G0 F7500 X14.440 Y35.500
G0 X8.664 Y35.500
G0 X8.664 Y35.664
G1 F2220 X8.664 Y-35.464 E325.46328
G0 F7500 X8.664 Y-35.300
G0 X2.888 Y-35.300
G0 X2.888 Y-35.464
G1 F2220 X2.888 Y35.664 E328.02418
G0 F7500 X2.888 Y35.500
G0 X-2.888 Y35.500
G0 X-2.888 Y35.664
G1 F2220 X-2.888 Y-35.464 E330.58507
G0 F7500 X-2.888 Y-35.300
G0 X-8.664 Y-35.300
G0 X-8.664 Y-35.464
G1 F2220 X-8.664 Y35.664 E333.14597
G0 F7500 X-8.664 Y35.500
G0 X-14.440 Y35.500
G0 X-14.440 Y35.664
G1 F2220 X-14.440 Y-35.464 E335.70687
G0 F7500 X-14.440 Y-35.300
G0 X-20.216 Y-35.300
G0 X-20.216 Y-35.464
G1 F2220 X-20.216 Y35.664 E338.26777
G0 F7500 X-20.216 Y35.500
G0 X-25.992 Y35.500
G0 X-25.992 Y35.664
G1 F2220 X-25.992 Y-35.464 E340.82867
;LAYER:4
G1 F2400 E339.82867
G0 F7500 X0.216 Y0.216 Z1.100
;TYPE:WALL-OUTER
G1 F2400 E340.82867
G1 F2700 X0.284 Y0.216 E340.83112
G1 X0.284 Y0.284 E340.83357
G1 X0.216 Y0.284 E340.83602
G1 X0.216 Y0.216 E340.83847
G0 F7500 X-0.700 Y-0.700
;TYPE:SUPPORT
G1 F2400 X-0.700 Y1.200 E340.90687
G1 X1.200 Y1.200 E340.97528
G1 X1.200 Y-0.700 E341.04369
G1 X-0.700 Y-0.700 E341.11210
G0 F7500 X-0.690 Y-0.800
G0 X-35.500 Y-35.400
G1 F2400 X35.600 Y-35.400 E343.67199
G1 X35.600 Y35.600 E346.22828
G1 X-35.500 Y35.600 E348.78817
G1 X-35.500 Y-35.400 E351.34446
G0 F7500 X-35.400 Y-31.768
G0 X-35.563 Y-31.768
G1 F2400 X35.664 Y-31.767 E353.90892
G0 F7500 X35.500 Y-31.767
G0 X31.768 Y-35.300
G0 X31.768 Y-35.464
G1 F2400 X31.768 Y35.664 E356.46982
G0 F7500 X31.768 Y35.500
G0 X35.500 Y31.768
G0 X35.663 Y31.768
G1 F2400 X-35.564 Y31.767 E359.03429
G0 F7500 X-35.400 Y31.767
G0 X-31.768 Y35.500
G0 X-31.768 Y35.664
G1 F2400 X-31.768 Y-35.464 E361.59519
G0 F7500 X-31.768 Y-35.300
G0 X-25.992 Y-35.300
G0 X-25.992 Y-35.464
G1 F2400 X-25.992 Y35.664 E364.15609
G0 F7500 X-25.992 Y35.500
G0 X-20.216 Y35.500
G0 X-20.216 Y35.664
G1 F2400 X-20.216 Y-35.464 E366.71699
G0 F7500 X-20.216 Y-35.300
G0 X-35.400 Y-25.992
G0 X-35.563 Y-25.992
G1 F2400 X35.664 Y-25.991 E369.28145
G0 F7500 X35.500 Y-25.991
G0 X35.500 Y-20.215
G0 X35.664 Y-20.215
G1 F2400 X-35.563 Y-20.216 E371.84591
G0 F7500 X-35.400 Y-20.216
G0 X-35.400 Y-14.440
G0 X-35.563 Y-14.440
G1 F2400 X35.664 Y-14.439 E374.41038
G0 F7500 X35.500 Y-14.439
G0 X35.500 Y-8.663
G0 X35.664 Y-8.663
G1 F2400 X-35.563 Y-8.664 E376.97484
G0 F7500 X-35.400 Y-8.664
G0 X-35.400 Y-2.888
G0 X-35.563 Y-2.888
G1 F2400 X35.664 Y-2.887 E379.53930
G0 F7500 X35.500 Y-2.887
G0 X35.500 Y2.888
G0 X35.663 Y2.888
G1 F2400 X-35.564 Y2.887 E382.10377
G0 F7500 X-35.400 Y2.887
G0 X-35.400 Y8.663
G0 X-35.564 Y8.663
G1 F2400 X35.663 Y8.664 E384.66823
G0 F7500 X35.500 Y8.664
G0 X35.500 Y14.440
G0 X35.663 Y14.440
G1 F2400 X-35.564 Y14.439 E387.23270
G0 F7500 X-35.400 Y14.439
G0 X-35.400 Y20.215
G0 X-35.564 Y20.215
G1 F2400 X35.663 Y20.216 E389.79716
G0 F7500 X35.500 Y20.216
G0 X35.500 Y25.992
G0 X35.663 Y25.992
G1 F2400 X-35.564 Y25.991 E392.36162
G0 F7500 X-35.400 Y25.991
G0 X-14.440 Y35.500
G0 X-14.440 Y35.664
G1 F2400 X-14.440 Y-35.464 E394.92252
G0 F7500 X-14.440 Y-35.300
G0 X-8.664 Y-35.300
G0 X-8.664 Y-35.464
G1 F2400 X-8.664 Y35.664 E397.48342
G0 F7500 X-8.664 Y35.500
G0 X-2.888 Y35.500
G0 X-2.888 Y35.664
G1 F2400 X-2.888 Y-35.464 E400.04432
G0 F7500 X-2.888 Y-35.300
G0 X2.888 Y-35.300
G0 X2.888 Y-35.464
G1 F2400 X2.888 Y35.664 E402.60522
G0 F7500 X2.888 Y35.500
G0 X8.664 Y35.500
G0 X8.664 Y35.664
G1 F2400 X8.664 Y-35.464 E405.16612
G0 F7500 X8.664 Y-35.300
G0 X14.440 Y-35.300
G0 X14.440 Y-35.464
G1 F2400 X14.440 Y35.664 E407.72702
G0 F7500 X14.440 Y35.500
G0 X20.216 Y35.500
G0 X20.216 Y35.664
G1 F2400 X20.216 Y-35.464 E410.28792
G0 F7500 X20.216 Y-35.300
G0 X25.992 Y-35.300
G0 X25.992 Y-35.464
G1 F2400 X25.992 Y35.664 E412.84882
;LAYER:5
G1 F2400 E411.84882
G0 F7500 X0.284 Y0.284 Z1.300
;TYPE:WALL-OUTER
G1 F2400 E412.84882
G1 F2700 X0.216 Y0.284 E412.85127
G1 X0.216 Y0.216 E412.85371
G1 X0.284 Y0.216 E412.85616
G1 X0.284 Y0.284 E412.85861
G0 F7500 X1.200 Y1.200
;TYPE:SUPPORT
G1 F2400 X1.200 Y-0.700 E412.92702
G1 X-0.700 Y-0.700 E412.99543
G1 X-0.700 Y1.200 E413.06383
G1 X1.200 Y1.200 E413.13224
G0 F7500 X1.190 Y1.300
G0 X35.500 Y35.590
G0 X35.600 Y35.600
G1 F2400 X-35.500 Y35.600 E415.69213
G1 X-35.500 Y-35.400 E418.24842
G1 X35.600 Y-35.400 E420.80832
G1 X35.600 Y35.600 E423.36461
G0 F7500 X35.500 Y35.590
G0 X35.500 Y31.768
G0 X35.663 Y31.768
G1 F2400 X-35.564 Y31.767 E425.92907
G0 F7500 X-35.400 Y31.767
G0 X-31.768 Y35.500
G0 X-31.768 Y35.664
G1 F2400 X-31.768 Y-35.464 E428.48997
G0 F7500 X-31.768 Y-35.300
G0 X-35.400 Y-31.768
G0 X-35.563 Y-31.768
