;Generated with Cura_SteamEngine 15.04.6

;Layer count: 16
;LAYER:0
M107
G0 F7500 X-38.716 Y-43.616 Z0.300
;TYPE:SKIRT
G1 F1800 X38.816 Y-43.616 E4.18720
G1 X38.816 Y43.816 E8.90907
G1 X-38.716 Y43.816 E13.09627
G1 X-38.716 Y-43.616 E17.81814
G1 F2400 E16.81814
G0 F7500 X0.216 Y0.216
;TYPE:WALL-OUTER
G1 F2400 E17.81814
G1 F1800 X0.284 Y0.216 E17.82181
G1 X0.284 Y0.284 E17.82548
G1 X0.216 Y0.284 E17.82916
G1 X0.216 Y0.216 E17.83283
G0 F7500 X-0.700 Y-0.700
;TYPE:SUPPORT
G1 F1800 X-0.700 Y1.200 E17.93544
G1 X1.200 Y1.200 E18.03805
G1 X1.200 Y-0.700 E18.14066
G1 X-0.700 Y-0.700 E18.24328
G0 F7500 X-0.690 Y-0.800
G0 X-35.500 Y-40.400
G1 F1800 X35.600 Y-40.400 E22.08311
G1 X35.600 Y40.600 E26.45761
G1 X-35.500 Y40.600 E30.29745
G1 X-35.500 Y-40.400 E34.67194
G0 F7500 X-31.768 Y-40.300
G0 X-31.768 Y-40.464
G1 F1800 X-31.768 Y40.664 E39.05336
G0 F7500 X-31.768 Y40.500
G0 X-25.992 Y40.500
G0 X-25.992 Y40.664
G1 F1800 X-25.992 Y-40.464 E43.43477
G0 F7500 X-25.992 Y-40.300
G0 X-20.216 Y-40.300
G0 X-20.216 Y-40.464
G1 F1800 X-20.216 Y40.664 E47.81618
G0 F7500 X-20.216 Y40.500
G0 X-14.440 Y40.500
G0 X-14.440 Y40.664
G1 F1800 X-14.440 Y-40.464 E52.19759
G0 F7500 X-14.440 Y-40.300
G0 X-8.664 Y-40.300
G0 X-8.664 Y-40.464
G1 F1800 X-8.664 Y40.664 E56.57900
G0 F7500 X-8.664 Y40.500
G0 X-2.888 Y40.500
G0 X-2.888 Y40.664
G1 F1800 X-2.888 Y-40.464 E60.96041
G0 F7500 X-2.888 Y-40.300
G0 X2.888 Y-40.300
G0 X2.888 Y-40.464
G1 F1800 X2.888 Y40.664 E65.34182
G0 F7500 X2.888 Y40.500
G0 X8.664 Y40.500
G0 X8.664 Y40.664
G1 F1800 X8.664 Y-40.464 E69.72323
G0 F7500 X8.664 Y-40.300
G0 X14.440 Y-40.300
G0 X14.440 Y-40.464
G1 F1800 X14.440 Y40.664 E74.10464
G0 F7500 X14.440 Y40.500
G0 X20.216 Y40.500
G0 X20.216 Y40.664
G1 F1800 X20.216 Y-40.464 E78.48605
G0 F7500 X20.216 Y-40.300
G0 X25.992 Y-40.300
G0 X25.992 Y-40.464
G1 F1800 X25.992 Y40.664 E82.86746
G0 F7500 X25.992 Y40.500
G0 X31.768 Y40.500
G0 X31.768 Y40.664
G1 F1800 X31.768 Y-40.464 E87.24887
G0 F7500 X31.768 Y-40.300
G0 X35.500 Y-37.543
G0 X35.664 Y-37.543
G1 F1800 X-35.563 Y-37.544 E91.09557
G0 F7500 X-35.400 Y-37.544
G0 X-35.400 Y-31.768
G0 X-35.563 Y-31.768
G1 F1800 X35.664 Y-31.767 E94.94226
G0 F7500 X35.500 Y-31.767
G0 X35.500 Y-25.991
G0 X35.664 Y-25.991
G1 F1800 X-35.563 Y-25.992 E98.78896
G0 F7500 X-35.400 Y-25.992
G0 X-35.400 Y-20.216
G0 X-35.563 Y-20.216
G1 F1800 X35.664 Y-20.215 E102.63565
G0 F7500 X35.500 Y-20.215
G0 X35.500 Y-14.439
G0 X35.664 Y-14.439
G1 F1800 X-35.563 Y-14.440 E106.48235
G0 F7500 X-35.400 Y-14.440
G0 X-35.400 Y-8.664
G0 X-35.563 Y-8.664
G1 F1800 X35.664 Y-8.663 E110.32904
G0 F7500 X35.500 Y-8.663
G0 X35.500 Y-2.887
G0 X35.664 Y-2.887
G1 F1800 X-35.563 Y-2.888 E114.17574
G0 F7500 X-35.400 Y-2.888
G0 X-35.400 Y2.887
G0 X-35.564 Y2.887
G1 F1800 X35.663 Y2.888 E118.02244
G0 F7500 X35.500 Y2.888
G0 X35.500 Y8.664
G0 X35.663 Y8.664
G1 F1800 X-35.564 Y8.663 E121.86913
G0 F7500 X-35.400 Y8.663
G0 X-35.400 Y14.439
G0 X-35.564 Y14.439
G1 F1800 X35.663 Y14.440 E125.71583
G0 F7500 X35.500 Y14.440
G0 X35.500 Y20.216
G0 X35.663 Y20.216
G1 F1800 X-35.564 Y20.215 E129.56252
G0 F7500 X-35.400 Y20.215
G0 X-35.400 Y25.991
G0 X-35.564 Y25.991
G1 F1800 X35.663 Y25.992 E133.40922
G0 F7500 X35.500 Y25.992
G0 X35.500 Y31.768
G0 X35.663 Y31.768
G1 F1800 X-35.564 Y31.767 E137.25591
G0 F7500 X-35.400 Y31.767
G0 X-35.400 Y37.543
G0 X-35.564 Y37.543
G1 F1800 X35.663 Y37.544 E141.10261
;LAYER:1
M106 S63
G1 F2400 E140.10261
G0 F7500 X0.284 Y0.284 Z0.500
;TYPE:WALL-OUTER
G1 F2400 E141.10261
G1 F1980 X0.216 Y0.284 E141.10506
G1 X0.216 Y0.216 E141.10751
G1 X0.284 Y0.216 E141.10995
G1 X0.284 Y0.284 E141.11240
G0 F7500 X1.200 Y1.200
;TYPE:SUPPORT
G1 F1920 X1.200 Y-0.700 E141.18081
G1 X-0.700 Y-0.700 E141.24922
G1 X-0.700 Y1.200 E141.31763
G1 X1.200 Y1.200 E141.38603
G0 F7500 X1.190 Y1.300
G0 X35.500 Y40.590
G0 X35.600 Y40.600
G1 F1920 X-35.500 Y40.600 E143.94592
G1 X-35.500 Y-40.400 E146.86226
G1 X35.600 Y-40.400 E149.42215
G1 X35.600 Y40.600 E152.33848
G0 F7500 X35.500 Y40.590
G0 X31.768 Y40.500
G0 X31.768 Y40.664
G1 F1920 X31.768 Y-40.464 E155.25942
G0 F7500 X31.768 Y-40.300
G0 X25.992 Y-40.300
G0 X25.992 Y-40.464
G1 F1920 X25.992 Y40.664 E158.18036
G0 F7500 X25.992 Y40.500
G0 X20.216 Y40.500
G0 X20.216 Y40.664
G1 F1920 X20.216 Y-40.464 E161.10130
G0 F7500 X20.216 Y-40.300
G0 X14.440 Y-40.300
G0 X14.440 Y-40.464
G1 F1920 X14.440 Y40.664 E164.02224
G0 F7500 X14.440 Y40.500
G0 X8.664 Y40.500
G0 X8.664 Y40.664
G1 F1920 X8.664 Y-40.464 E166.94318
G0 F7500 X8.664 Y-40.300
G0 X2.888 Y-40.300
G0 X2.888 Y-40.464
G1 F1920 X2.888 Y40.664 E169.86412
G0 F7500 X2.888 Y40.500
G0 X-2.888 Y40.500
G0 X-2.888 Y40.664
G1 F1920 X-2.888 Y-40.464 E172.78506
G0 F7500 X-2.888 Y-40.300
G0 X-8.664 Y-40.300
G0 X-8.664 Y-40.464
G1 F1920 X-8.664 Y40.664 E175.70600
G0 F7500 X-8.664 Y40.500
G0 X-14.440 Y40.500
G0 X-14.440 Y40.664
G1 F1920 X-14.440 Y-40.464 E178.62694
G0 F7500 X-14.440 Y-40.300
G0 X-20.216 Y-40.300
G0 X-20.216 Y-40.464
G1 F1920 X-20.216 Y40.664 E181.54788
G0 F7500 X-20.216 Y40.500
G0 X-25.992 Y40.500
G0 X-25.992 Y40.664
G1 F1920 X-25.992 Y-40.464 E184.46882
G0 F7500 X-25.992 Y-40.300
G0 X-31.768 Y-40.300
G0 X-31.768 Y-40.464
G1 F1920 X-31.768 Y40.664 E187.38976
G0 F7500 X-31.768 Y40.500
G0 X-35.400 Y37.543
G0 X-35.564 Y37.543
G1 F1920 X35.663 Y37.544 E189.95423
G0 F7500 X35.500 Y37.544
G0 X35.500 Y31.768
G0 X35.663 Y31.768
G1 F1920 X-35.564 Y31.767 E192.51869
G0 F7500 X-35.400 Y31.767
G0 X-35.400 Y25.991
G0 X-35.564 Y25.991
G1 F1920 X35.663 Y25.992 E195.08315
G0 F7500 X35.500 Y25.992
G0 X35.500 Y20.216
G0 X35.663 Y20.216
G1 F1920 X-35.564 Y20.215 E197.64762
G0 F7500 X-35.400 Y20.215
G0 X-35.400 Y14.439
G0 X-35.564 Y14.439
G1 F1920 X35.663 Y14.440 E200.21208
G0 F7500 X35.500 Y14.440
G0 X35.500 Y8.664
G0 X35.663 Y8.664
G1 F1920 X-35.564 Y8.663 E202.77655
G0 F7500 X-35.400 Y8.663
G0 X-35.400 Y2.887
G0 X-35.564 Y2.887
G1 F1920 X35.663 Y2.888 E205.34101
G0 F7500 X35.500 Y2.888
G0 X35.500 Y-2.887
G0 X35.664 Y-2.887
G1 F1920 X-35.563 Y-2.888 E207.90547
G0 F7500 X-35.400 Y-2.888
G0 X-35.400 Y-8.664
G0 X-35.563 Y-8.664
G1 F1920 X35.664 Y-8.663 E210.46994
G0 F7500 X35.500 Y-8.663
G0 X35.500 Y-14.439
G0 X35.664 Y-14.439
G1 F1920 X-35.563 Y-14.440 E213.03440
G0 F7500 X-35.400 Y-14.440
G0 X-35.400 Y-20.216
G0 X-35.563 Y-20.216
G1 F1920 X35.664 Y-20.215 E215.59886
G0 F7500 X35.500 Y-20.215
G0 X35.500 Y-25.991
G0 X35.664 Y-25.991
G1 F1920 X-35.563 Y-25.992 E218.16333
G0 F7500 X-35.400 Y-25.992
G0 X-35.400 Y-31.768
G0 X-35.563 Y-31.768
G1 F1920 X35.664 Y-31.767 E220.72779
G0 F7500 X35.500 Y-31.767
G0 X35.500 Y-37.543
G0 X35.664 Y-37.543
G1 F1920 X-35.563 Y-37.544 E223.29226
;LAYER:2
M106 S127
G1 F2400 E222.29226
G0 F7500 X0.216 Y0.216 Z0.700
;TYPE:WALL-OUTER
G1 F2400 E223.29226
G1 F2220 X0.284 Y0.216 E223.29470
G1 X0.284 Y0.284 E223.29715
G1 X0.216 Y0.284 E223.29960
G1 X0.216 Y0.216 E223.30205
G0 F7500 X-0.700 Y-0.700
;TYPE:SUPPORT
G1 F2100 X-0.700 Y1.200 E223.37046
G1 X1.200 Y1.200 E223.43886
G1 X1.200 Y-0.700 E223.50727
G1 X-0.700 Y-0.700 E223.57568
G0 F7500 X-0.690 Y-0.800
G0 X-35.500 Y-40.400
G1 F2100 X35.600 Y-40.400 E226.13557
G1 X35.600 Y40.600 E229.05190
G1 X-35.500 Y40.600 E231.61179
G1 X-35.500 Y-40.400 E234.52813
G0 F7500 X-31.768 Y-40.300
G0 X-31.768 Y-40.464
G1 F2100 X-31.768 Y40.664 E237.44907
G0 F7500 X-31.768 Y40.500
G0 X-25.992 Y40.500
G0 X-25.992 Y40.664
G1 F2100 X-25.992 Y-40.464 E240.37001
G0 F7500 X-25.992 Y-40.300
G0 X-20.216 Y-40.300
G0 X-20.216 Y-40.464
G1 F2100 X-20.216 Y40.664 E243.29095
G0 F7500 X-20.216 Y40.500
G0 X-14.440 Y40.500
G0 X-14.440 Y40.664
G1 F2100 X-14.440 Y-40.464 E246.21189
G0 F7500 X-14.440 Y-40.300
G0 X-8.664 Y-40.300
G0 X-8.664 Y-40.464
G1 F2100 X-8.664 Y40.664 E249.13283
G0 F7500 X-8.664 Y40.500
G0 X-2.888 Y40.500
G0 X-2.888 Y40.664
G1 F2100 X-2.888 Y-40.464 E252.05377
G0 F7500 X-2.888 Y-40.300
G0 X2.888 Y-40.300
G0 X2.888 Y-40.464
G1 F2100 X2.888 Y40.664 E254.97471
G0 F7500 X2.888 Y40.500
G0 X8.664 Y40.500
G0 X8.664 Y40.664
G1 F2100 X8.664 Y-40.464 E257.89565
G0 F7500 X8.664 Y-40.300
G0 X14.440 Y-40.300
G0 X14.440 Y-40.464
G1 F2100 X14.440 Y40.664 E260.81659
G0 F7500 X14.440 Y40.500
G0 X20.216 Y40.500
G0 X20.216 Y40.664
G1 F2100 X20.216 Y-40.464 E263.73753
G0 F7500 X20.216 Y-40.300
G0 X25.992 Y-40.300
G0 X25.992 Y-40.464
G1 F2100 X25.992 Y40.664 E266.65847
G0 F7500 X25.992 Y40.500
G0 X31.768 Y40.500
G0 X31.768 Y40.664
G1 F2100 X31.768 Y-40.464 E269.57941
G0 F7500 X31.768 Y-40.300
G0 X35.500 Y-37.543
G0 X35.664 Y-37.543
G1 F2100 X-35.563 Y-37.544 E272.14387
G0 F7500 X-35.400 Y-37.544
G0 X-35.400 Y-31.768
G0 X-35.563 Y-31.768
G1 F2100 X35.664 Y-31.767 E274.70834
G0 F7500 X35.500 Y-31.767
G0 X35.500 Y-25.991
G0 X35.664 Y-25.991
G1 F2100 X-35.563 Y-25.992 E277.27280
G0 F7500 X-35.400 Y-25.992
G0 X-35.400 Y-20.216
G0 X-35.563 Y-20.216
G1 F2100 X35.664 Y-20.215 E279.83727
G0 F7500 X35.500 Y-20.215
G0 X35.500 Y-14.439
G0 X35.664 Y-14.439
G1 F2100 X-35.563 Y-14.440 E282.40173
G0 F7500 X-35.400 Y-14.440
G0 X-35.400 Y-8.664
G0 X-35.563 Y-8.664
G1 F2100 X35.664 Y-8.663 E284.96619
G0 F7500 X35.500 Y-8.663
G0 X35.500 Y-2.887
G0 X35.664 Y-2.887
G1 F2100 X-35.563 Y-2.888 E287.53066
G0 F7500 X-35.400 Y-2.888
G0 X-35.400 Y2.887
G0 X-35.564 Y2.887
G1 F2100 X35.663 Y2.888 E290.09512
G0 F7500 X35.500 Y2.888
G0 X35.500 Y8.664
G0 X35.663 Y8.664
G1 F2100 X-35.564 Y8.663 E292.65958
G0 F7500 X-35.400 Y8.663
G0 X-35.400 Y14.439
G0 X-35.564 Y14.439
G1 F2100 X35.663 Y14.440 E295.22405
G0 F7500 X35.500 Y14.440
G0 X35.500 Y20.216
G0 X35.663 Y20.216
G1 F2100 X-35.564 Y20.215 E297.78851
G0 F7500 X-35.400 Y20.215
G0 X-35.400 Y25.991
G0 X-35.564 Y25.991
G1 F2100 X35.663 Y25.992 E300.35298
G0 F7500 X35.500 Y25.992
G0 X35.500 Y31.768
G0 X35.663 Y31.768
G1 F2100 X-35.564 Y31.767 E302.91744
G0 F7500 X-35.400 Y31.767
G0 X-35.400 Y37.543
G0 X-35.564 Y37.543
G1 F2100 X35.663 Y37.544 E305.48190
;LAYER:3
G1 F2400 E304.48190
G0 F7500 X0.284 Y0.284 Z0.900
;TYPE:WALL-OUTER
G1 F2400 E305.48190
G1 X0.216 Y0.284 E305.48435
G1 X0.216 Y0.216 E305.48680
G1 X0.284 Y0.216 E305.48925
G1 X0.284 Y0.284 E305.49170
G0 F7500 X1.200 Y1.200
;TYPE:SUPPORT
G1 F2220 X1.200 Y-0.700 E305.56010
G1 X-0.700 Y-0.700 E305.62851
G1 X-0.700 Y1.200 E305.69692
G1 X1.200 Y1.200 E305.76533
G0 F7500 X1.190 Y1.300
G0 X35.500 Y40.590
G0 X35.600 Y40.600
G1 F2220 X-35.500 Y40.600 E308.32522
G1 X-35.500 Y-40.400 E311.24155
G1 X35.600 Y-40.400 E313.80144
G1 X35.600 Y40.600 E316.71777
G0 F7500 X35.500 Y40.590
G0 X31.768 Y40.500
G0 X31.768 Y40.664
G1 F2220 X31.768 Y-40.464 E319.63871
G0 F7500 X31.768 Y-40.300
G0 X25.992 Y-40.300
G0 X25.992 Y-40.464
G1 F2220 X25.992 Y40.664 E322.55965
G0 F7500 X25.992 Y40.500
G0 X20.216 Y40.500
G0 X20.216 Y40.664
G1 F2220 X20.216 Y-40.464 E325.48059
G0 F7500 X20.216 Y-40.300
G0 X14.440 Y-40.300
G0 X14.440 Y-40.464
G1 F2220 X14.440 Y40.664 E328.40153
G0 F7500 X14.440 Y40.500
G0 X8.664 Y40.500
G0 X8.664 Y40.664
G1 F2220 X8.664 Y-40.464 E331.32247
G0 F7500 X8.664 Y-40.300
G0 X2.888 Y-40.300
G0 X2.888 Y-40.464
G1 F2220 X2.888 Y40.664 E334.24341
G0 F7500 X2.888 Y40.500
G0 X-2.888 Y40.500
G0 X-2.888 Y40.664
G1 F2220 X-2.888 Y-40.464 E337.16436
G0 F7500 X-2.888 Y-40.300
G0 X-8.664 Y-40.300
G0 X-8.664 Y-40.464
G1 F2220 X-8.664 Y40.664 E340.08530
G0 F7500 X-8.664 Y40.500
G0 X-14.440 Y40.500
G0 X-14.440 Y40.664
G1 F2220 X-14.440 Y-40.464 E343.00624
G0 F7500 X-14.440 Y-40.300
G0 X-20.216 Y-40.300
G0 X-20.216 Y-40.464
G1 F2220 X-20.216 Y40.664 E345.92718
G0 F7500 X-20.216 Y40.500
G0 X-25.992 Y40.500
G0 X-25.992 Y40.664
G1 F2220 X-25.992 Y-40.464 E348.84812
G0 F7500 X-25.992 Y-40.300
G0 X-31.768 Y-40.300
G0 X-31.768 Y-40.464
G1 F2220 X-31.768 Y40.664 E351.76906
G0 F7500 X-31.768 Y40.500
G0 X-35.400 Y37.543
G0 X-35.564 Y37.543
G1 F2220 X35.663 Y37.544 E354.33352
G0 F7500 X35.500 Y37.544
G0 X35.500 Y31.768
G0 X35.663 Y31.768
G1 F2220 X-35.564 Y31.767 E356.89798
G0 F7500 X-35.400 Y31.767
G0 X-35.400 Y25.991
G0 X-35.564 Y25.991
G1 F2220 X35.663 Y25.992 E359.46245
G0 F7500 X35.500 Y25.992
G0 X35.500 Y20.216
G0 X35.663 Y20.216
G1 F2220 X-35.564 Y20.215 E362.02691
G0 F7500 X-35.400 Y20.215
G0 X-35.400 Y14.439
G0 X-35.564 Y14.439
G1 F2220 X35.663 Y14.440 E364.59138
G0 F7500 X35.500 Y14.440
G0 X35.500 Y8.664
G0 X35.663 Y8.664
G1 F2220 X-35.564 Y8.663 E367.15584
G0 F7500 X-35.400 Y8.663
G0 X-35.400 Y2.887
G0 X-35.564 Y2.887
G1 F2220 X35.663 Y2.888 E369.72030
G0 F7500 X35.500 Y2.888
G0 X35.500 Y-2.887
G0 X35.664 Y-2.887
G1 F2220 X-35.563 Y-2.888 E372.28477
G0 F7500 X-35.400 Y-2.888
G0 X-35.400 Y-8.664
G0 X-35.563 Y-8.664
G1 F2220 X35.664 Y-8.663 E374.84923
G0 F7500 X35.500 Y-8.663
G0 X35.500 Y-14.439
G0 X35.664 Y-14.439
G1 F2220 X-35.563 Y-14.440 E377.41369
G0 F7500 X-35.400 Y-14.440
G0 X-35.400 Y-20.216
G0 X-35.563 Y-20.216
G1 F2220 X35.664 Y-20.215 E379.97816
G0 F7500 X35.500 Y-20.215
G0 X35.500 Y-25.991
G0 X35.664 Y-25.991
G1 F2220 X-35.563 Y-25.992 E382.54262
G0 F7500 X-35.400 Y-25.992
G0 X-35.400 Y-31.768
G0 X-35.563 Y-31.768
G1 F2220 X35.664 Y-31.767 E385.10709
G0 F7500 X35.500 Y-31.767
G0 X35.500 Y-37.543
G0 X35.664 Y-37.543
G1 F2220 X-35.563 Y-37.544 E387.67155
;LAYER:4
G1 F2400 E386.67155
G0 F7500 X0.216 Y0.216 Z1.100
;TYPE:WALL-OUTER
G1 F2400 E387.67155
G1 F2700 X0.284 Y0.216 E387.67400
G1 X0.284 Y0.284 E387.67645
G1 X0.216 Y0.284 E387.67889
G1 X0.216 Y0.216 E387.68134
G0 F7500 X-0.700 Y-0.700
;TYPE:SUPPORT
G1 F2400 X-0.700 Y1.200 E387.74975
G1 X1.200 Y1.200 E387.81816
G1 X1.200 Y-0.700 E387.88657
G1 X-0.700 Y-0.700 E387.95497
G0 F7500 X-0.690 Y-0.800
G0 X-35.500 Y-40.400
G1 F2400 X35.600 Y-40.400 E390.51486
G1 X35.600 Y40.600 E393.43120
G1 X-35.500 Y40.600 E395.99109
G1 X-35.500 Y-40.400 E398.90742
G0 F7500 X-31.768 Y-40.300
G0 X-31.768 Y-40.464
G1 F2400 X-31.768 Y40.664 E401.82836
G0 F7500 X-31.768 Y40.500
G0 X-25.992 Y40.500
G0 X-25.992 Y40.664
G1 F2400 X-25.992 Y-40.464 E404.74930
G0 F7500 X-25.992 Y-40.300
G0 X-20.216 Y-40.300
G0 X-20.216 Y-40.464
G1 F2400 X-20.216 Y40.664 E407.67024
G0 F7500 X-20.216 Y40.500
G0 X-14.440 Y40.500
G0 X-14.440 Y40.664
G1 F2400 X-14.440 Y-40.464 E410.59118
G0 F7500 X-14.440 Y-40.300
G0 X-8.664 Y-40.300
G0 X-8.664 Y-40.464
G1 F2400 X-8.664 Y40.664 E413.51212
G0 F7500 X-8.664 Y40.500
G0 X-2.888 Y40.500
G0 X-2.888 Y40.664
G1 F2400 X-2.888 Y-40.464 E416.43306
G0 F7500 X-2.888 Y-40.300
G0 X2.888 Y-40.300
G0 X2.888 Y-40.464
G1 F2400 X2.888 Y40.664 E419.35400
G0 F7500 X2.888 Y40.500
G0 X8.664 Y40.500
G0 X8.664 Y40.664
G1 F2400 X8.664 Y-40.464 E422.27494
G0 F7500 X8.664 Y-40.300
G0 X14.440 Y-40.300
G0 X14.440 Y-40.464
G1 F2400 X14.440 Y40.664 E425.19588
G0 F7500 X14.440 Y40.500
G0 X20.216 Y40.500
G0 X20.216 Y40.664
G1 F2400 X20.216 Y-40.464 E428.11682
G0 F7500 X20.216 Y-40.300
G0 X25.992 Y-40.300
G0 X25.992 Y-40.464
G1 F2400 X25.992 Y40.664 E431.03776
G0 F7500 X25.992 Y40.500
G0 X31.768 Y40.500
G0 X31.768 Y40.664
G1 F2400 X31.768 Y-40.464 E433.95870
G0 F7500 X31.768 Y-40.300
G0 X35.500 Y-37.543
G0 X35.664 Y-37.543
G1 F2400 X-35.563 Y-37.544 E436.52317
G0 F7500 X-35.400 Y-37.544
G0 X-35.400 Y-31.768
G0 X-35.563 Y-31.768
G1 F2400 X35.664 Y-31.767 E439.08763
G0 F7500 X35.500 Y-31.767
G0 X35.500 Y-25.991
G0 X35.664 Y-25.991
G1 F2400 X-35.563 Y-25.992 E441.65209
G0 F7500 X-35.400 Y-25.992
G0 X-35.400 Y-20.216
G0 X-35.563 Y-20.216
G1 F2400 X35.664 Y-20.215 E444.21656
G0 F7500 X35.500 Y-20.215
G0 X35.500 Y-14.439
G0 X35.664 Y-14.439
G1 F2400 X-35.563 Y-14.440 E446.78102
G0 F7500 X-35.400 Y-14.440
G0 X-35.400 Y-8.664
G0 X-35.563 Y-8.664
G1 F2400 X35.664 Y-8.663 E449.34549
G0 F7500 X35.500 Y-8.663
G0 X35.500 Y-2.887
G0 X35.664 Y-2.887
G1 F2400 X-35.563 Y-2.888 E451.90995
G0 F7500 X-35.400 Y-2.888
G0 X-35.400 Y2.887
G0 X-35.564 Y2.887
G1 F2400 X35.663 Y2.888 E454.47441
G0 F7500 X35.500 Y2.888
G0 X35.500 Y8.664
G0 X35.663 Y8.664
G1 F2400 X-35.564 Y8.663 E457.03888
G0 F7500 X-35.400 Y8.663
G0 X-35.400 Y14.439
G0 X-35.564 Y14.439
G1 F2400 X35.663 Y14.440 E459.60334
G0 F7500 X35.500 Y14.440
G0 X35.500 Y20.216
G0 X35.663 Y20.216
G1 F2400 X-35.564 Y20.215 E462.16780
G0 F7500 X-35.400 Y20.215
G0 X-35.400 Y25.991
G0 X-35.564 Y25.991
G1 F2400 X35.663 Y25.992 E464.73227
G0 F7500 X35.500 Y25.992
