;Generated with Cura_SteamEngine 15.04.6

;Layer count: 16
;LAYER:0
M107
G0 F7500 X-38.716 Y-48.616 Z0.300
;TYPE:SKIRT
G1 F1800 X38.816 Y-48.616 E4.18720
G1 X38.816 Y48.816 E9.44913
G1 X-38.716 Y48.816 E13.63634
G1 X-38.716 Y-48.616 E18.89826
G1 F2400 E17.89826
G0 F7500 X0.216 Y0.216
;TYPE:WALL-OUTER
G1 F2400 E18.89826
G1 F1800 X0.284 Y0.216 E18.90193
G1 X0.284 Y0.284 E18.90561
G1 X0.216 Y0.284 E18.90928
G1 X0.216 Y0.216 E18.91295
G0 F7500 X-0.700 Y-0.700
;TYPE:SUPPORT
G1 F1800 X-0.700 Y1.200 E19.01556
G1 X1.200 Y1.200 E19.11818
G1 X1.200 Y-0.700 E19.22079
G1 X-0.700 Y-0.700 E19.32340
G0 F7500 X-0.690 Y-0.800
G0 X-35.500 Y-45.400
G1 F1800 X35.600 Y-45.400 E23.16324
G1 X35.600 Y45.600 E28.07779
G1 X-35.500 Y45.600 E31.91763
G1 X-35.500 Y-45.400 E36.83219
G0 F7500 X-35.400 Y-43.320
G0 X-35.563 Y-43.320
G1 F1800 X35.664 Y-43.319 E40.67889
G0 F7500 X35.500 Y-43.319
G0 X31.768 Y-45.300
G0 X31.768 Y-45.464
G1 F1800 X31.768 Y45.664 E45.60036
G0 F7500 X31.768 Y45.500
G0 X35.500 Y43.320
G0 X35.663 Y43.320
G1 F1800 X-35.564 Y43.319 E49.44705
G0 F7500 X-35.400 Y43.319
G0 X-31.768 Y45.500
G0 X-31.768 Y45.664
G1 F1800 X-31.768 Y-45.464 E54.36853
G0 F7500 X-31.768 Y-45.300
G0 X-25.992 Y-45.300
G0 X-25.992 Y-45.464
G1 F1800 X-25.992 Y45.664 E59.29000
G0 F7500 X-25.992 Y45.500
G0 X-20.216 Y45.500
G0 X-20.216 Y45.664
G1 F1800 X-20.216 Y-45.464 E64.21147
G0 F7500 X-20.216 Y-45.300
G0 X-14.440 Y-45.300
G0 X-14.440 Y-45.464
G1 F1800 X-14.440 Y45.664 E69.13294
G0 F7500 X-14.440 Y45.500
G0 X-8.664 Y45.500
G0 X-8.664 Y45.664
G1 F1800 X-8.664 Y-45.464 E74.05441
G0 F7500 X-8.664 Y-45.300
G0 X-2.888 Y-45.300
G0 X-2.888 Y-45.464
G1 F1800 X-2.888 Y45.664 E78.97589
G0 F7500 X-2.888 Y45.500
G0 X2.888 Y45.500
G0 X2.888 Y45.664
G1 F1800 X2.888 Y-45.464 E83.89736
G0 F7500 X2.888 Y-45.300
G0 X8.664 Y-45.300
G0 X8.664 Y-45.464
G1 F1800 X8.664 Y45.664 E88.81883
G0 F7500 X8.664 Y45.500
G0 X14.440 Y45.500
G0 X14.440 Y45.664
G1 F1800 X14.440 Y-45.464 E93.74030
G0 F7500 X14.440 Y-45.300
G0 X20.216 Y-45.300
G0 X20.216 Y-45.464
G1 F1800 X20.216 Y45.664 E98.66177
G0 F7500 X20.216 Y45.500
G0 X25.992 Y45.500
G0 X25.992 Y45.664
G1 F1800 X25.992 Y-45.464 E103.58324
G0 F7500 X25.992 Y-45.300
G0 X35.500 Y-37.543
G0 X35.664 Y-37.543
G1 F1800 X-35.563 Y-37.544 E107.42994
G0 F7500 X-35.400 Y-37.544
G0 X-35.400 Y-31.768
G0 X-35.563 Y-31.768
G1 F1800 X35.664 Y-31.767 E111.27664
G0 F7500 X35.500 Y-31.767
G0 X35.500 Y-25.991
G0 X35.664 Y-25.991
G1 F1800 X-35.563 Y-25.992 E115.12333
G0 F7500 X-35.400 Y-25.992
G0 X-35.400 Y-20.216
G0 X-35.563 Y-20.216
G1 F1800 X35.664 Y-20.215 E118.97003
G0 F7500 X35.500 Y-20.215
G0 X35.500 Y-14.439
G0 X35.664 Y-14.439
G1 F1800 X-35.563 Y-14.440 E122.81672
G0 F7500 X-35.400 Y-14.440
G0 X-35.400 Y-8.664
G0 X-35.563 Y-8.664
G1 F1800 X35.664 Y-8.663 E126.66342
G0 F7500 X35.500 Y-8.663
G0 X35.500 Y-2.887
G0 X35.664 Y-2.887
G1 F1800 X-35.563 Y-2.888 E130.51011
G0 F7500 X-35.400 Y-2.888
G0 X-35.400 Y2.887
G0 X-35.564 Y2.887
G1 F1800 X35.663 Y2.888 E134.35681
G0 F7500 X35.500 Y2.888
G0 X35.500 Y8.664
G0 X35.663 Y8.664
G1 F1800 X-35.564 Y8.663 E138.20351
G0 F7500 X-35.400 Y8.663
G0 X-35.400 Y14.439
G0 X-35.564 Y14.439
G1 F1800 X35.663 Y14.440 E142.05020
G0 F7500 X35.500 Y14.440
G0 X35.500 Y20.216
G0 X35.663 Y20.216
G1 F1800 X-35.564 Y20.215 E145.89690
G0 F7500 X-35.400 Y20.215
G0 X-35.400 Y25.991
G0 X-35.564 Y25.991
G1 F1800 X35.663 Y25.992 E149.74359
G0 F7500 X35.500 Y25.992
G0 X35.500 Y31.768
G0 X35.663 Y31.768
G1 F1800 X-35.564 Y31.767 E153.59029
G0 F7500 X-35.400 Y31.767
G0 X-35.400 Y37.543
G0 X-35.564 Y37.543
G1 F1800 X35.663 Y37.544 E157.43698
;LAYER:1
M106 S63
G1 F2400 E156.43698
G0 F7500 X0.284 Y0.284 Z0.500
;TYPE:WALL-OUTER
G1 F2400 E157.43698
G1 F1980 X0.216 Y0.284 E157.43943
G1 X0.216 Y0.216 E157.44188
G1 X0.284 Y0.216 E157.44433
G1 X0.284 Y0.284 E157.44678
G0 F7500 X1.200 Y1.200
;TYPE:SUPPORT
G1 F1920 X1.200 Y-0.700 E157.51518
G1 X-0.700 Y-0.700 E157.58359
G1 X-0.700 Y1.200 E157.65200
G1 X1.200 Y1.200 E157.72041
G0 F7500 X1.190 Y1.300
G0 X35.500 Y45.590
G0 X35.600 Y45.600
G1 F1920 X-35.500 Y45.600 E160.28030
G1 X-35.500 Y-45.400 E163.55667
G1 X35.600 Y-45.400 E166.11656
G1 X35.600 Y45.600 E169.39294
G0 F7500 X35.500 Y45.590
G0 X35.500 Y43.320
G0 X35.663 Y43.320
G1 F1920 X-35.564 Y43.319 E171.95740
G0 F7500 X-35.400 Y43.319
G0 X-31.768 Y45.500
G0 X-31.768 Y45.664
G1 F1920 X-31.768 Y-45.464 E175.23838
G0 F7500 X-31.768 Y-45.300
G0 X-35.400 Y-43.320
G0 X-35.563 Y-43.320
G1 F1920 X35.664 Y-43.319 E177.80284
G0 F7500 X35.500 Y-43.319
G0 X31.768 Y-45.300
G0 X31.768 Y-45.464
G1 F1920 X31.768 Y45.664 E181.08383
G0 F7500 X31.768 Y45.500
G0 X25.992 Y45.500
G0 X25.992 Y45.664
G1 F1920 X25.992 Y-45.464 E184.36481
G0 F7500 X25.992 Y-45.300
G0 X20.216 Y-45.300
G0 X20.216 Y-45.464
G1 F1920 X20.216 Y45.664 E187.64579
G0 F7500 X20.216 Y45.500
G0 X14.440 Y45.500
G0 X14.440 Y45.664
G1 F1920 X14.440 Y-45.464 E190.92677
G0 F7500 X14.440 Y-45.300
G0 X8.664 Y-45.300
G0 X8.664 Y-45.464
G1 F1920 X8.664 Y45.664 E194.20775
G0 F7500 X8.664 Y45.500
G0 X2.888 Y45.500
G0 X2.888 Y45.664
G1 F1920 X2.888 Y-45.464 E197.48873
G0 F7500 X2.888 Y-45.300
G0 X-2.888 Y-45.300
G0 X-2.888 Y-45.464
G1 F1920 X-2.888 Y45.664 E200.76971
G0 F7500 X-2.888 Y45.500
G0 X-8.664 Y45.500
G0 X-8.664 Y45.664
G1 F1920 X-8.664 Y-45.464 E204.05069
G0 F7500 X-8.664 Y-45.300
G0 X-14.440 Y-45.300
G0 X-14.440 Y-45.464
G1 F1920 X-14.440 Y45.664 E207.33168
G0 F7500 X-14.440 Y45.500
G0 X-20.216 Y45.500
G0 X-20.216 Y45.664
G1 F1920 X-20.216 Y-45.464 E210.61266
G0 F7500 X-20.216 Y-45.300
G0 X-25.992 Y-45.300
G0 X-25.992 Y-45.464
G1 F1920 X-25.992 Y45.664 E213.89364
G0 F7500 X-25.992 Y45.500
G0 X-35.400 Y37.543
G0 X-35.564 Y37.543
G1 F1920 X35.663 Y37.544 E216.45810
G0 F7500 X35.500 Y37.544
G0 X35.500 Y31.768
G0 X35.663 Y31.768
G1 F1920 X-35.564 Y31.767 E219.02257
G0 F7500 X-35.400 Y31.767
G0 X-35.400 Y25.991
G0 X-35.564 Y25.991
G1 F1920 X35.663 Y25.992 E221.58703
G0 F7500 X35.500 Y25.992
G0 X35.500 Y20.216
G0 X35.663 Y20.216
G1 F1920 X-35.564 Y20.215 E224.15149
G0 F7500 X-35.400 Y20.215
G0 X-35.400 Y14.439
G0 X-35.564 Y14.439
G1 F1920 X35.663 Y14.440 E226.71596
G0 F7500 X35.500 Y14.440
G0 X35.500 Y8.664
G0 X35.663 Y8.664
G1 F1920 X-35.564 Y8.663 E229.28042
G0 F7500 X-35.400 Y8.663
G0 X-35.400 Y2.887
G0 X-35.564 Y2.887
G1 F1920 X35.663 Y2.888 E231.84489
G0 F7500 X35.500 Y2.888
G0 X35.500 Y-2.887
G0 X35.664 Y-2.887
G1 F1920 X-35.563 Y-2.888 E234.40935
G0 F7500 X-35.400 Y-2.888
G0 X-35.400 Y-8.664
G0 X-35.563 Y-8.664
G1 F1920 X35.664 Y-8.663 E236.97381
G0 F7500 X35.500 Y-8.663
G0 X35.500 Y-14.439
G0 X35.664 Y-14.439
G1 F1920 X-35.563 Y-14.440 E239.53828
G0 F7500 X-35.400 Y-14.440
G0 X-35.400 Y-20.216
G0 X-35.563 Y-20.216
G1 F1920 X35.664 Y-20.215 E242.10274
G0 F7500 X35.500 Y-20.215
G0 X35.500 Y-25.991
G0 X35.664 Y-25.991
G1 F1920 X-35.563 Y-25.992 E244.66720
G0 F7500 X-35.400 Y-25.992
G0 X-35.400 Y-31.768
G0 X-35.563 Y-31.768
G1 F1920 X35.664 Y-31.767 E247.23167
G0 F7500 X35.500 Y-31.767
G0 X35.500 Y-37.543
G0 X35.664 Y-37.543
G1 F1920 X-35.563 Y-37.544 E249.79613
;LAYER:2
M106 S127
G1 F2400 E248.79613
G0 F7500 X0.216 Y0.216 Z0.700
;TYPE:WALL-OUTER
G1 F2400 E249.79613
G1 F2220 X0.284 Y0.216 E249.79858
G1 X0.284 Y0.284 E249.80103
G1 X0.216 Y0.284 E249.80348
G1 X0.216 Y0.216 E249.80592
G0 F7500 X-0.700 Y-0.700
;TYPE:SUPPORT
G1 F2100 X-0.700 Y1.200 E249.87433
G1 X1.200 Y1.200 E249.94274
G1 X1.200 Y-0.700 E250.01115
G1 X-0.700 Y-0.700 E250.07956
G0 F7500 X-0.690 Y-0.800
G0 X-35.500 Y-45.400
G1 F2100 X35.600 Y-45.400 E252.63945
G1 X35.600 Y45.600 E255.91582
G1 X-35.500 Y45.600 E258.47571
G1 X-35.500 Y-45.400 E261.75208
G0 F7500 X-35.400 Y-43.320
G0 X-35.563 Y-43.320
G1 F2100 X35.664 Y-43.319 E264.31655
G0 F7500 X35.500 Y-43.319
G0 X31.768 Y-45.300
G0 X31.768 Y-45.464
G1 F2100 X31.768 Y45.664 E267.59753
G0 F7500 X31.768 Y45.500
G0 X35.500 Y43.320
G0 X35.663 Y43.320
G1 F2100 X-35.564 Y43.319 E270.16199
G0 F7500 X-35.400 Y43.319
G0 X-31.768 Y45.500
G0 X-31.768 Y45.664
G1 F2100 X-31.768 Y-45.464 E273.44297
G0 F7500 X-31.768 Y-45.300
G0 X-25.992 Y-45.300
G0 X-25.992 Y-45.464
G1 F2100 X-25.992 Y45.664 E276.72395
G0 F7500 X-25.992 Y45.500
G0 X-20.216 Y45.500
G0 X-20.216 Y45.664
G1 F2100 X-20.216 Y-45.464 E280.00494
G0 F7500 X-20.216 Y-45.300
G0 X-14.440 Y-45.300
G0 X-14.440 Y-45.464
G1 F2100 X-14.440 Y45.664 E283.28592
G0 F7500 X-14.440 Y45.500
G0 X-8.664 Y45.500
G0 X-8.664 Y45.664
G1 F2100 X-8.664 Y-45.464 E286.56690
G0 F7500 X-8.664 Y-45.300
G0 X-2.888 Y-45.300
G0 X-2.888 Y-45.464
G1 F2100 X-2.888 Y45.664 E289.84788
G0 F7500 X-2.888 Y45.500
G0 X2.888 Y45.500
G0 X2.888 Y45.664
G1 F2100 X2.888 Y-45.464 E293.12886
G0 F7500 X2.888 Y-45.300
G0 X8.664 Y-45.300
G0 X8.664 Y-45.464
G1 F2100 X8.664 Y45.664 E296.40984
G0 F7500 X8.664 Y45.500
G0 X14.440 Y45.500
G0 X14.440 Y45.664
G1 F2100 X14.440 Y-45.464 E299.69082
G0 F7500 X14.440 Y-45.300
G0 X20.216 Y-45.300
G0 X20.216 Y-45.464
G1 F2100 X20.216 Y45.664 E302.97181
G0 F7500 X20.216 Y45.500
G0 X25.992 Y45.500
G0 X25.992 Y45.664
G1 F2100 X25.992 Y-45.464 E306.25279
G0 F7500 X25.992 Y-45.300
G0 X35.500 Y-37.543
G0 X35.664 Y-37.543
G1 F2100 X-35.563 Y-37.544 E308.81725
G0 F7500 X-35.400 Y-37.544
G0 X-35.400 Y-31.768
G0 X-35.563 Y-31.768
G1 F2100 X35.664 Y-31.767 E311.38171
G0 F7500 X35.500 Y-31.767
G0 X35.500 Y-25.991
G0 X35.664 Y-25.991
G1 F2100 X-35.563 Y-25.992 E313.94618
G0 F7500 X-35.400 Y-25.992
G0 X-35.400 Y-20.216
G0 X-35.563 Y-20.216
G1 F2100 X35.664 Y-20.215 E316.51064
G0 F7500 X35.500 Y-20.215
G0 X35.500 Y-14.439
G0 X35.664 Y-14.439
G1 F2100 X-35.563 Y-14.440 E319.07511
G0 F7500 X-35.400 Y-14.440
G0 X-35.400 Y-8.664
G0 X-35.563 Y-8.664
G1 F2100 X35.664 Y-8.663 E321.63957
G0 F7500 X35.500 Y-8.663
G0 X35.500 Y-2.887
G0 X35.664 Y-2.887
G1 F2100 X-35.563 Y-2.888 E324.20403
G0 F7500 X-35.400 Y-2.888
G0 X-35.400 Y2.887
G0 X-35.564 Y2.887
G1 F2100 X35.663 Y2.888 E326.76850
G0 F7500 X35.500 Y2.888
G0 X35.500 Y8.664
G0 X35.663 Y8.664
G1 F2100 X-35.564 Y8.663 E329.33296
G0 F7500 X-35.400 Y8.663
G0 X-35.400 Y14.439
G0 X-35.564 Y14.439
G1 F2100 X35.663 Y14.440 E331.89742
G0 F7500 X35.500 Y14.440
G0 X35.500 Y20.216
G0 X35.663 Y20.216
G1 F2100 X-35.564 Y20.215 E334.46189
G0 F7500 X-35.400 Y20.215
G0 X-35.400 Y25.991
G0 X-35.564 Y25.991
G1 F2100 X35.663 Y25.992 E337.02635
G0 F7500 X35.500 Y25.992
G0 X35.500 Y31.768
G0 X35.663 Y31.768
G1 F2100 X-35.564 Y31.767 E339.59082
G0 F7500 X-35.400 Y31.767
G0 X-35.400 Y37.543
G0 X-35.564 Y37.543
G1 F2100 X35.663 Y37.544 E342.15528
;LAYER:3
G1 F2400 E341.15528
G0 F7500 X0.284 Y0.284 Z0.900
;TYPE:WALL-OUTER
G1 F2400 E342.15528
G1 X0.216 Y0.284 E342.15773
G1 X0.216 Y0.216 E342.16018
G1 X0.284 Y0.216 E342.16262
G1 X0.284 Y0.284 E342.16507
G0 F7500 X1.200 Y1.200
;TYPE:SUPPORT
G1 F2220 X1.200 Y-0.700 E342.23348
G1 X-0.700 Y-0.700 E342.30189
G1 X-0.700 Y1.200 E342.37030
G1 X1.200 Y1.200 E342.43870
G0 F7500 X1.190 Y1.300
G0 X35.500 Y45.590
G0 X35.600 Y45.600
G1 F2220 X-35.500 Y45.600 E344.99859
G1 X-35.500 Y-45.400 E348.27497
G1 X35.600 Y-45.400 E350.83486
G1 X35.600 Y45.600 E354.11123
G0 F7500 X35.500 Y45.590
G0 X35.500 Y43.320
G0 X35.663 Y43.320
G1 F2220 X-35.564 Y43.319 E356.67570
G0 F7500 X-35.400 Y43.319
G0 X-31.768 Y45.500
G0 X-31.768 Y45.664
G1 F2220 X-31.768 Y-45.464 E359.95668
G0 F7500 X-31.768 Y-45.300
G0 X-35.400 Y-43.320
G0 X-35.563 Y-43.320
G1 F2220 X35.664 Y-43.319 E362.52114
G0 F7500 X35.500 Y-43.319
G0 X31.768 Y-45.300
G0 X31.768 Y-45.464
G1 F2220 X31.768 Y45.664 E365.80212
G0 F7500 X31.768 Y45.500
G0 X25.992 Y45.500
G0 X25.992 Y45.664
G1 F2220 X25.992 Y-45.464 E369.08310
G0 F7500 X25.992 Y-45.300
G0 X20.216 Y-45.300
G0 X20.216 Y-45.464
G1 F2220 X20.216 Y45.664 E372.36408
G0 F7500 X20.216 Y45.500
G0 X14.440 Y45.500
G0 X14.440 Y45.664
G1 F2220 X14.440 Y-45.464 E375.64507
G0 F7500 X14.440 Y-45.300
G0 X8.664 Y-45.300
G0 X8.664 Y-45.464
G1 F2220 X8.664 Y45.664 E378.92605
G0 F7500 X8.664 Y45.500
G0 X2.888 Y45.500
G0 X2.888 Y45.664
G1 F2220 X2.888 Y-45.464 E382.20703
G0 F7500 X2.888 Y-45.300
G0 X-2.888 Y-45.300
G0 X-2.888 Y-45.464
G1 F2220 X-2.888 Y45.664 E385.48801
G0 F7500 X-2.888 Y45.500
G0 X-8.664 Y45.500
G0 X-8.664 Y45.664
G1 F2220 X-8.664 Y-45.464 E388.76899
G0 F7500 X-8.664 Y-45.300
G0 X-14.440 Y-45.300
G0 X-14.440 Y-45.464
G1 F2220 X-14.440 Y45.664 E392.04997
G0 F7500 X-14.440 Y45.500
G0 X-20.216 Y45.500
G0 X-20.216 Y45.664
G1 F2220 X-20.216 Y-45.464 E395.33095
G0 F7500 X-20.216 Y-45.300
G0 X-25.992 Y-45.300
G0 X-25.992 Y-45.464
G1 F2220 X-25.992 Y45.664 E398.61193
G0 F7500 X-25.992 Y45.500
G0 X-35.400 Y37.543
G0 X-35.564 Y37.543
G1 F2220 X35.663 Y37.544 E401.17640
G0 F7500 X35.500 Y37.544
G0 X35.500 Y31.768
G0 X35.663 Y31.768
G1 F2220 X-35.564 Y31.767 E403.74086
G0 F7500 X-35.400 Y31.767
G0 X-35.400 Y25.991
G0 X-35.564 Y25.991
G1 F2220 X35.663 Y25.992 E406.30533
G0 F7500 X35.500 Y25.992
G0 X35.500 Y20.216
G0 X35.663 Y20.216
G1 F2220 X-35.564 Y20.215 E408.86979
G0 F7500 X-35.400 Y20.215
G0 X-35.400 Y14.439
G0 X-35.564 Y14.439
G1 F2220 X35.663 Y14.440 E411.43425
G0 F7500 X35.500 Y14.440
G0 X35.500 Y8.664
G0 X35.663 Y8.664
G1 F2220 X-35.564 Y8.663 E413.99872
G0 F7500 X-35.400 Y8.663
G0 X-35.400 Y2.887
G0 X-35.564 Y2.887
G1 F2220 X35.663 Y2.888 E416.56318
G0 F7500 X35.500 Y2.888
G0 X35.500 Y-2.887
G0 X35.664 Y-2.887
G1 F2220 X-35.563 Y-2.888 E419.12764
G0 F7500 X-35.400 Y-2.888
G0 X-35.400 Y-8.664
G0 X-35.563 Y-8.664
G1 F2220 X35.664 Y-8.663 E421.69211
G0 F7500 X35.500 Y-8.663
G0 X35.500 Y-14.439
G0 X35.664 Y-14.439
G1 F2220 X-35.563 Y-14.440 E424.25657
G0 F7500 X-35.400 Y-14.440
G0 X-35.400 Y-20.216
G0 X-35.563 Y-20.216
G1 F2220 X35.664 Y-20.215 E426.82104
G0 F7500 X35.500 Y-20.215
G0 X35.500 Y-25.991
G0 X35.664 Y-25.991
G1 F2220 X-35.563 Y-25.992 E429.38550
G0 F7500 X-35.400 Y-25.992
G0 X-35.400 Y-31.768
G0 X-35.563 Y-31.768
G1 F2220 X35.664 Y-31.767 E431.94996
G0 F7500 X35.500 Y-31.767
G0 X35.500 Y-37.543
G0 X35.664 Y-37.543
G1 F2220 X-35.563 Y-37.544 E434.51443
;LAYER:4
G1 F2400 E433.51443
G0 F7500 X0.216 Y0.216 Z1.100
;TYPE:WALL-OUTER
G1 F2400 E434.51443
G1 F2700 X0.284 Y0.216 E434.51688
G1 X0.284 Y0.284 E434.51932
G1 X0.216 Y0.284 E434.52177
G1 X0.216 Y0.216 E434.52422
G0 F7500 X-0.700 Y-0.700
;TYPE:SUPPORT
G1 F2400 X-0.700 Y1.200 E434.59263
G1 X1.200 Y1.200 E434.66104
G1 X1.200 Y-0.700 E434.72944
G1 X-0.700 Y-0.700 E434.79785
G0 F7500 X-0.690 Y-0.800
G0 X-35.500 Y-45.400
G1 F2400 X35.600 Y-45.400 E437.35774
G1 X35.600 Y45.600 E440.63411
G1 X-35.500 Y45.600 E443.19401
G1 X-35.500 Y-45.400 E446.47038
G0 F7500 X-35.400 Y-43.320
G0 X-35.563 Y-43.320
G1 F2400 X35.664 Y-43.319 E449.03484
G0 F7500 X35.500 Y-43.319
G0 X31.768 Y-45.300
G0 X31.768 Y-45.464
G1 F2400 X31.768 Y45.664 E452.31582
G0 F7500 X31.768 Y45.500
G0 X35.500 Y43.320
G0 X35.663 Y43.320
G1 F2400 X-35.564 Y43.319 E454.88029
G0 F7500 X-35.400 Y43.319
G0 X-31.768 Y45.500
G0 X-31.768 Y45.664
G1 F2400 X-31.768 Y-45.464 E458.16127
G0 F7500 X-31.768 Y-45.300
G0 X-25.992 Y-45.300
G0 X-25.992 Y-45.464
G1 F2400 X-25.992 Y45.664 E461.44225
G0 F7500 X-25.992 Y45.500
G0 X-20.216 Y45.500
G0 X-20.216 Y45.664
G1 F2400 X-20.216 Y-45.464 E464.72323
G0 F7500 X-20.216 Y-45.300
G0 X-14.440 Y-45.300
G0 X-14.440 Y-45.464
G1 F2400 X-14.440 Y45.664 E468.00421
G0 F7500 X-14.440 Y45.500
G0 X-8.664 Y45.500
G0 X-8.664 Y45.664
G1 F2400 X-8.664 Y-45.464 E471.28519
G0 F7500 X-8.664 Y-45.300
G0 X-2.888 Y-45.300
G0 X-2.888 Y-45.464
G1 F2400 X-2.888 Y45.664 E474.56618
G0 F7500 X-2.888 Y45.500
G0 X2.888 Y45.500
G0 X2.888 Y45.664
G1 F2400 X2.888 Y-45.464 E477.84716
G0 F7500 X2.888 Y-45.300
G0 X8.664 Y-45.300
G0 X8.664 Y-45.464
G1 F2400 X8.664 Y45.664 E481.12814
G0 F7500 X8.664 Y45.500
G0 X14.440 Y45.500
G0 X14.440 Y45.664
G1 F2400 X14.440 Y-45.464 E484.40912
G0 F7500 X14.440 Y-45.300
G0 X20.216 Y-45.300
G0 X20.216 Y-45.464
G1 F2400 X20.216 Y45.664 E487.69010
G0 F7500 X20.216 Y45.500
G0 X25.992 Y45.500
G0 X25.992 Y45.664
G1 F2400 X25.992 Y-45.464 E490.97108
G0 F7500 X25.992 Y-45.300
G0 X35.500 Y-37.543
G0 X35.664 Y-37.543
G1 F2400 X-35.563 Y-37.544 E493.53555
G0 F7500 X-35.400 Y-37.544
G0 X-35.400 Y-31.768
G0 X-35.563 Y-31.768
G1 F2400 X35.664 Y-31.767 E496.10001
