;Generated with Cura_SteamEngine 15.04.6

;Layer count: 16
;LAYER:0
M107
G0 F7500 X-43.716 Y-8.616 Z0.300
;TYPE:SKIRT
G1 F1800 X43.816 Y-8.616 E4.72727
G1 X43.816 Y8.816 E5.66870
G1 X-43.716 Y8.816 E10.39597
G1 X-43.716 Y-8.616 E11.33740
G1 F2400 E10.33740
G0 F7500 X0.216 Y0.216
;TYPE:WALL-OUTER
G1 F2400 E11.33740
G1 F1800 X0.284 Y0.216 E11.34107
G1 X0.284 Y0.284 E11.34475
G1 X0.216 Y0.284 E11.34842
G1 X0.216 Y0.216 E11.35209
G0 F7500 X-0.700 Y-0.700
;TYPE:SUPPORT
G1 F1800 X-0.700 Y1.200 E11.45470
G1 X1.200 Y1.200 E11.55731
G1 X1.200 Y-0.700 E11.65993
G1 X-0.700 Y-0.700 E11.76254
G0 F7500 X-0.690 Y-0.800
G0 X-40.500 Y-5.400
G1 F1800 X40.600 Y-5.400 E16.14244
G1 X40.600 Y5.600 E16.73650
G1 X-40.500 Y5.600 E21.11640
G1 X-40.500 Y-5.400 E21.71047
G0 F7500 X-40.400 Y-2.888
G0 X-40.563 Y-2.888
G1 F1800 X40.664 Y-2.887 E26.09723
G0 F7500 X40.500 Y-2.887
G0 X40.500 Y2.888
G0 X40.663 Y2.888
G1 F1800 X-40.564 Y2.887 E30.48398
G0 F7500 X-40.400 Y2.887
G0 X-37.544 Y5.500
G0 X-37.544 Y5.664
G1 F1800 X-37.544 Y-5.464 E31.08496
G0 F7500 X-37.544 Y-5.300
G0 X-31.768 Y-5.300
G0 X-31.768 Y-5.464
G1 F1800 X-31.768 Y5.664 E31.68594
G0 F7500 X-31.768 Y5.500
G0 X-25.992 Y5.500
G0 X-25.992 Y5.664
G1 F1800 X-25.992 Y-5.464 E32.28693
G0 F7500 X-25.992 Y-5.300
G0 X-20.216 Y-5.300
G0 X-20.216 Y-5.464
G1 F1800 X-20.216 Y5.664 E32.88791
G0 F7500 X-20.216 Y5.500
G0 X-14.440 Y5.500
G0 X-14.440 Y5.664
G1 F1800 X-14.440 Y-5.464 E33.48889
G0 F7500 X-14.440 Y-5.300
G0 X-8.664 Y-5.300
G0 X-8.664 Y-5.464
G1 F1800 X-8.664 Y5.664 E34.08987
G0 F7500 X-8.664 Y5.500
G0 X-2.888 Y5.500
G0 X-2.888 Y5.664
G1 F1800 X-2.888 Y-5.464 E34.69085
G0 F7500 X-2.888 Y-5.300
G0 X2.888 Y-5.300
G0 X2.888 Y-5.464
G1 F1800 X2.888 Y5.664 E35.29183
G0 F7500 X2.888 Y5.500
G0 X8.664 Y5.500
G0 X8.664 Y5.664
G1 F1800 X8.664 Y-5.464 E35.89281
G0 F7500 X8.664 Y-5.300
G0 X14.440 Y-5.300
G0 X14.440 Y-5.464
G1 F1800 X14.440 Y5.664 E36.49379
G0 F7500 X14.440 Y5.500
G0 X20.216 Y5.500
G0 X20.216 Y5.664
G1 F1800 X20.216 Y-5.464 E37.09477
G0 F7500 X20.216 Y-5.300
G0 X25.992 Y-5.300
G0 X25.992 Y-5.464
G1 F1800 X25.992 Y5.664 E37.69575
G0 F7500 X25.992 Y5.500
G0 X31.768 Y5.500
G0 X31.768 Y5.664
G1 F1800 X31.768 Y-5.464 E38.29673
G0 F7500 X31.768 Y-5.300
G0 X37.544 Y-5.300
G0 X37.544 Y-5.464
G1 F1800 X37.544 Y5.664 E38.89771
;LAYER:1
M106 S63
G1 F2400 E37.89771
G0 F7500 X0.284 Y0.284 Z0.500
;TYPE:WALL-OUTER
G1 F2400 E38.89771
G1 F1980 X0.216 Y0.284 E38.90016
G1 X0.216 Y0.216 E38.90261
G1 X0.284 Y0.216 E38.90505
G1 X0.284 Y0.284 E38.90750
G0 F7500 X1.200 Y1.200
;TYPE:SUPPORT
G1 F1920 X1.200 Y-0.700 E38.97591
G1 X-0.700 Y-0.700 E39.04432
G1 X-0.700 Y1.200 E39.11273
G1 X1.200 Y1.200 E39.18113
G0 F7500 X1.190 Y1.300
G0 X40.500 Y5.590
G0 X40.600 Y5.600
G1 F1920 X-40.500 Y5.600 E42.10107
G1 X-40.500 Y-5.400 E42.49711
G1 X40.600 Y-5.400 E45.41704
G1 X40.600 Y5.600 E45.81309
G0 F7500 X40.500 Y5.590
G0 X40.500 Y2.888
G0 X40.663 Y2.888
G1 F1920 X-40.564 Y2.887 E48.73759
G0 F7500 X-40.400 Y2.887
G0 X-40.400 Y-2.888
G0 X-40.563 Y-2.888
G1 F1920 X40.664 Y-2.887 E51.66210
G0 F7500 X40.500 Y-2.887
G0 X37.544 Y-5.300
G0 X37.544 Y-5.464
G1 F1920 X37.544 Y5.664 E52.06275
G0 F7500 X37.544 Y5.500
G0 X31.768 Y5.500
G0 X31.768 Y5.664
G1 F1920 X31.768 Y-5.464 E52.46340
G0 F7500 X31.768 Y-5.300
G0 X25.992 Y-5.300
G0 X25.992 Y-5.464
G1 F1920 X25.992 Y5.664 E52.86406
G0 F7500 X25.992 Y5.500
G0 X20.216 Y5.500
G0 X20.216 Y5.664
G1 F1920 X20.216 Y-5.464 E53.26471
G0 F7500 X20.216 Y-5.300
G0 X14.440 Y-5.300
G0 X14.440 Y-5.464
G1 F1920 X14.440 Y5.664 E53.66537
G0 F7500 X14.440 Y5.500
G0 X8.664 Y5.500
G0 X8.664 Y5.664
G1 F1920 X8.664 Y-5.464 E54.06602
G0 F7500 X8.664 Y-5.300
G0 X2.888 Y-5.300
G0 X2.888 Y-5.464
G1 F1920 X2.888 Y5.664 E54.46667
G0 F7500 X2.888 Y5.500
G0 X-2.888 Y5.500
G0 X-2.888 Y5.664
G1 F1920 X-2.888 Y-5.464 E54.86733
G0 F7500 X-2.888 Y-5.300
G0 X-8.664 Y-5.300
G0 X-8.664 Y-5.464
G1 F1920 X-8.664 Y5.664 E55.26798
G0 F7500 X-8.664 Y5.500
G0 X-14.440 Y5.500
G0 X-14.440 Y5.664
G1 F1920 X-14.440 Y-5.464 E55.66863
G0 F7500 X-14.440 Y-5.300
G0 X-20.216 Y-5.300
G0 X-20.216 Y-5.464
G1 F1920 X-20.216 Y5.664 E56.06929
G0 F7500 X-20.216 Y5.500
G0 X-25.992 Y5.500
G0 X-25.992 Y5.664
G1 F1920 X-25.992 Y-5.464 E56.46994
G0 F7500 X-25.992 Y-5.300
G0 X-31.768 Y-5.300
G0 X-31.768 Y-5.464
G1 F1920 X-31.768 Y5.664 E56.87059
G0 F7500 X-31.768 Y5.500
G0 X-37.544 Y5.500
G0 X-37.544 Y5.664
G1 F1920 X-37.544 Y-5.464 E57.27125
;LAYER:2
M106 S127
G1 F2400 E56.27125
G0 F7500 X0.216 Y0.216 Z0.700
;TYPE:WALL-OUTER
G1 F2400 E57.27125
G1 F2220 X0.284 Y0.216 E57.27370
G1 X0.284 Y0.284 E57.27614
G1 X0.216 Y0.284 E57.27859
G1 X0.216 Y0.216 E57.28104
G0 F7500 X-0.700 Y-0.700
;TYPE:SUPPORT
G1 F2100 X-0.700 Y1.200 E57.34945
G1 X1.200 Y1.200 E57.41786
G1 X1.200 Y-0.700 E57.48626
G1 X-0.700 Y-0.700 E57.55467
G0 F7500 X-0.690 Y-0.800
G0 X-40.500 Y-5.400
G1 F2100 X40.600 Y-5.400 E60.47460
G1 X40.600 Y5.600 E60.87065
G1 X-40.500 Y5.600 E63.79058
G1 X-40.500 Y-5.400 E64.18663
G0 F7500 X-40.400 Y-2.888
G0 X-40.563 Y-2.888
G1 F2100 X40.664 Y-2.887 E67.11113
G0 F7500 X40.500 Y-2.887
G0 X40.500 Y2.888
G0 X40.663 Y2.888
G1 F2100 X-40.564 Y2.887 E70.03564
G0 F7500 X-40.400 Y2.887
G0 X-37.544 Y5.500
G0 X-37.544 Y5.664
G1 F2100 X-37.544 Y-5.464 E70.43629
G0 F7500 X-37.544 Y-5.300
G0 X-31.768 Y-5.300
G0 X-31.768 Y-5.464
G1 F2100 X-31.768 Y5.664 E70.83694
G0 F7500 X-31.768 Y5.500
G0 X-25.992 Y5.500
G0 X-25.992 Y5.664
G1 F2100 X-25.992 Y-5.464 E71.23760
G0 F7500 X-25.992 Y-5.300
G0 X-20.216 Y-5.300
G0 X-20.216 Y-5.464
G1 F2100 X-20.216 Y5.664 E71.63825
G0 F7500 X-20.216 Y5.500
G0 X-14.440 Y5.500
G0 X-14.440 Y5.664
G1 F2100 X-14.440 Y-5.464 E72.03890
G0 F7500 X-14.440 Y-5.300
G0 X-8.664 Y-5.300
G0 X-8.664 Y-5.464
G1 F2100 X-8.664 Y5.664 E72.43956
G0 F7500 X-8.664 Y5.500
G0 X-2.888 Y5.500
G0 X-2.888 Y5.664
G1 F2100 X-2.888 Y-5.464 E72.84021
G0 F7500 X-2.888 Y-5.300
G0 X2.888 Y-5.300
G0 X2.888 Y-5.464
G1 F2100 X2.888 Y5.664 E73.24086
G0 F7500 X2.888 Y5.500
G0 X8.664 Y5.500
G0 X8.664 Y5.664
G1 F2100 X8.664 Y-5.464 E73.64152
G0 F7500 X8.664 Y-5.300
G0 X14.440 Y-5.300
G0 X14.440 Y-5.464
G1 F2100 X14.440 Y5.664 E74.04217
G0 F7500 X14.440 Y5.500
G0 X20.216 Y5.500
G0 X20.216 Y5.664
G1 F2100 X20.216 Y-5.464 E74.44283
G0 F7500 X20.216 Y-5.300
G0 X25.992 Y-5.300
G0 X25.992 Y-5.464
G1 F2100 X25.992 Y5.664 E74.84348
G0 F7500 X25.992 Y5.500
G0 X31.768 Y5.500
G0 X31.768 Y5.664
G1 F2100 X31.768 Y-5.464 E75.24413
G0 F7500 X31.768 Y-5.300
G0 X37.544 Y-5.300
G0 X37.544 Y-5.464
G1 F2100 X37.544 Y5.664 E75.64479
;LAYER:3
G1 F2400 E74.64479
G0 F7500 X0.284 Y0.284 Z0.900
;TYPE:WALL-OUTER
G1 F2400 E75.64479
G1 X0.216 Y0.284 E75.64723
G1 X0.216 Y0.216 E75.64968
G1 X0.284 Y0.216 E75.65213
G1 X0.284 Y0.284 E75.65458
G0 F7500 X1.200 Y1.200
;TYPE:SUPPORT
G1 F2220 X1.200 Y-0.700 E75.72299
G1 X-0.700 Y-0.700 E75.79139
G1 X-0.700 Y1.200 E75.85980
G1 X1.200 Y1.200 E75.92821
G0 F7500 X1.190 Y1.300
G0 X40.500 Y5.590
G0 X40.600 Y5.600
G1 F2220 X-40.500 Y5.600 E78.84814
G1 X-40.500 Y-5.400 E79.24419
G1 X40.600 Y-5.400 E82.16412
G1 X40.600 Y5.600 E82.56016
G0 F7500 X40.500 Y5.590
G0 X40.500 Y2.888
G0 X40.663 Y2.888
G1 F2220 X-40.564 Y2.887 E85.48467
G0 F7500 X-40.400 Y2.887
G0 X-40.400 Y-2.888
G0 X-40.563 Y-2.888
G1 F2220 X40.664 Y-2.887 E88.40917
G0 F7500 X40.500 Y-2.887
G0 X37.544 Y-5.300
G0 X37.544 Y-5.464
G1 F2220 X37.544 Y5.664 E88.80983
G0 F7500 X37.544 Y5.500
G0 X31.768 Y5.500
G0 X31.768 Y5.664
G1 F2220 X31.768 Y-5.464 E89.21048
G0 F7500 X31.768 Y-5.300
G0 X25.992 Y-5.300
G0 X25.992 Y-5.464
G1 F2220 X25.992 Y5.664 E89.61114
G0 F7500 X25.992 Y5.500
G0 X20.216 Y5.500
G0 X20.216 Y5.664
G1 F2220 X20.216 Y-5.464 E90.01179
G0 F7500 X20.216 Y-5.300
G0 X14.440 Y-5.300
G0 X14.440 Y-5.464
G1 F2220 X14.440 Y5.664 E90.41244
G0 F7500 X14.440 Y5.500
G0 X8.664 Y5.500
G0 X8.664 Y5.664
G1 F2220 X8.664 Y-5.464 E90.81310
G0 F7500 X8.664 Y-5.300
G0 X2.888 Y-5.300
G0 X2.888 Y-5.464
G1 F2220 X2.888 Y5.664 E91.21375
G0 F7500 X2.888 Y5.500
G0 X-2.888 Y5.500
G0 X-2.888 Y5.664
G1 F2220 X-2.888 Y-5.464 E91.61440
G0 F7500 X-2.888 Y-5.300
G0 X-8.664 Y-5.300
G0 X-8.664 Y-5.464
G1 F2220 X-8.664 Y5.664 E92.01506
G0 F7500 X-8.664 Y5.500
G0 X-14.440 Y5.500
G0 X-14.440 Y5.664
G1 F2220 X-14.440 Y-5.464 E92.41571
G0 F7500 X-14.440 Y-5.300
G0 X-20.216 Y-5.300
G0 X-20.216 Y-5.464
G1 F2220 X-20.216 Y5.664 E92.81636
G0 F7500 X-20.216 Y5.500
G0 X-25.992 Y5.500
G0 X-25.992 Y5.664
G1 F2220 X-25.992 Y-5.464 E93.21702
G0 F7500 X-25.992 Y-5.300
G0 X-31.768 Y-5.300
G0 X-31.768 Y-5.464
G1 F2220 X-31.768 Y5.664 E93.61767
G0 F7500 X-31.768 Y5.500
G0 X-37.544 Y5.500
G0 X-37.544 Y5.664
G1 F2220 X-37.544 Y-5.464 E94.01832
;LAYER:4
G1 F2400 E93.01832
G0 F7500 X0.216 Y0.216 Z1.100
;TYPE:WALL-OUTER
G1 F2400 E94.01832
G1 F2700 X0.284 Y0.216 E94.02077
G1 X0.284 Y0.284 E94.02322
G1 X0.216 Y0.284 E94.02567
G1 X0.216 Y0.216 E94.02812
G0 F7500 X-0.700 Y-0.700
;TYPE:SUPPORT
G1 F2400 X-0.700 Y1.200 E94.09653
G1 X1.200 Y1.200 E94.16493
G1 X1.200 Y-0.700 E94.23334
G1 X-0.700 Y-0.700 E94.30175
G0 F7500 X-0.690 Y-0.800
G0 X-40.500 Y-5.400
G1 F2400 X40.600 Y-5.400 E97.22168
G1 X40.600 Y5.600 E97.61773
G1 X-40.500 Y5.600 E100.53766
G1 X-40.500 Y-5.400 E100.93370
G0 F7500 X-40.400 Y-2.888
G0 X-40.563 Y-2.888
G1 F2400 X40.664 Y-2.887 E103.85821
G0 F7500 X40.500 Y-2.887
G0 X40.500 Y2.888
G0 X40.663 Y2.888
G1 F2400 X-40.564 Y2.887 E106.78271
G0 F7500 X-40.400 Y2.887
G0 X-37.544 Y5.500
G0 X-37.544 Y5.664
G1 F2400 X-37.544 Y-5.464 E107.18337
G0 F7500 X-37.544 Y-5.300
G0 X-31.768 Y-5.300
G0 X-31.768 Y-5.464
G1 F2400 X-31.768 Y5.664 E107.58402
G0 F7500 X-31.768 Y5.500
G0 X-25.992 Y5.500
G0 X-25.992 Y5.664
G1 F2400 X-25.992 Y-5.464 E107.98467
G0 F7500 X-25.992 Y-5.300
G0 X-20.216 Y-5.300
G0 X-20.216 Y-5.464
G1 F2400 X-20.216 Y5.664 E108.38533
G0 F7500 X-20.216 Y5.500
G0 X-14.440 Y5.500
G0 X-14.440 Y5.664
G1 F2400 X-14.440 Y-5.464 E108.78598
G0 F7500 X-14.440 Y-5.300
G0 X-8.664 Y-5.300
G0 X-8.664 Y-5.464
G1 F2400 X-8.664 Y5.664 E109.18663
G0 F7500 X-8.664 Y5.500
G0 X-2.888 Y5.500
G0 X-2.888 Y5.664
G1 F2400 X-2.888 Y-5.464 E109.58729
G0 F7500 X-2.888 Y-5.300
G0 X2.888 Y-5.300
G0 X2.888 Y-5.464
G1 F2400 X2.888 Y5.664 E109.98794
G0 F7500 X2.888 Y5.500
G0 X8.664 Y5.500
G0 X8.664 Y5.664
G1 F2400 X8.664 Y-5.464 E110.38859
G0 F7500 X8.664 Y-5.300
G0 X14.440 Y-5.300
G0 X14.440 Y-5.464
G1 F2400 X14.440 Y5.664 E110.78925
G0 F7500 X14.440 Y5.500
G0 X20.216 Y5.500
G0 X20.216 Y5.664
G1 F2400 X20.216 Y-5.464 E111.18990
G0 F7500 X20.216 Y-5.300
G0 X25.992 Y-5.300
G0 X25.992 Y-5.464
G1 F2400 X25.992 Y5.664 E111.59056
G0 F7500 X25.992 Y5.500
G0 X31.768 Y5.500
G0 X31.768 Y5.664
G1 F2400 X31.768 Y-5.464 E111.99121
G0 F7500 X31.768 Y-5.300
G0 X37.544 Y-5.300
G0 X37.544 Y-5.464
G1 F2400 X37.544 Y5.664 E112.39186
;LAYER:5
G1 F2400 E111.39186
G0 F7500 X0.284 Y0.284 Z1.300
;TYPE:WALL-OUTER
G1 F2400 E112.39186
G1 F2700 X0.216 Y0.284 E112.39431
G1 X0.216 Y0.216 E112.39676
G1 X0.284 Y0.216 E112.39921
G1 X0.284 Y0.284 E112.40166
G0 F7500 X1.200 Y1.200
;TYPE:SUPPORT
G1 F2400 X1.200 Y-0.700 E112.47006
G1 X-0.700 Y-0.700 E112.53847
G1 X-0.700 Y1.200 E112.60688
G1 X1.200 Y1.200 E112.67529
G0 F7500 X1.190 Y1.300
G0 X40.500 Y5.590
G0 X40.600 Y5.600
G1 F2400 X-40.500 Y5.600 E115.59522
G1 X-40.500 Y-5.400 E115.99126
G1 X40.600 Y-5.400 E118.91120
G1 X40.600 Y5.600 E119.30724
G0 F7500 X40.500 Y5.590
G0 X40.500 Y2.888
G0 X40.663 Y2.888
G1 F2400 X-40.564 Y2.887 E122.23175
G0 F7500 X-40.400 Y2.887
G0 X-40.400 Y-2.888
G0 X-40.563 Y-2.888
G1 F2400 X40.664 Y-2.887 E125.15625
G0 F7500 X40.500 Y-2.887
G0 X37.544 Y-5.300
G0 X37.544 Y-5.464
G1 F2400 X37.544 Y5.664 E125.55690
G0 F7500 X37.544 Y5.500
G0 X31.768 Y5.500
G0 X31.768 Y5.664
G1 F2400 X31.768 Y-5.464 E125.95756
G0 F7500 X31.768 Y-5.300
G0 X25.992 Y-5.300
G0 X25.992 Y-5.464
G1 F2400 X25.992 Y5.664 E126.35821
G0 F7500 X25.992 Y5.500
G0 X20.216 Y5.500
G0 X20.216 Y5.664
G1 F2400 X20.216 Y-5.464 E126.75887
G0 F7500 X20.216 Y-5.300
G0 X14.440 Y-5.300
G0 X14.440 Y-5.464
G1 F2400 X14.440 Y5.664 E127.15952
G0 F7500 X14.440 Y5.500
G0 X8.664 Y5.500
G0 X8.664 Y5.664
G1 F2400 X8.664 Y-5.464 E127.56017
G0 F7500 X8.664 Y-5.300
G0 X2.888 Y-5.300
G0 X2.888 Y-5.464
G1 F2400 X2.888 Y5.664 E127.96083
G0 F7500 X2.888 Y5.500
G0 X-2.888 Y5.500
G0 X-2.888 Y5.664
G1 F2400 X-2.888 Y-5.464 E128.36148
G0 F7500 X-2.888 Y-5.300
G0 X-8.664 Y-5.300
G0 X-8.664 Y-5.464
G1 F2400 X-8.664 Y5.664 E128.76213
G0 F7500 X-8.664 Y5.500
G0 X-14.440 Y5.500
G0 X-14.440 Y5.664
G1 F2400 X-14.440 Y-5.464 E129.16279
G0 F7500 X-14.440 Y-5.300
G0 X-20.216 Y-5.300
G0 X-20.216 Y-5.464
G1 F2400 X-20.216 Y5.664 E129.56344
G0 F7500 X-20.216 Y5.500
G0 X-25.992 Y5.500
G0 X-25.992 Y5.664
G1 F2400 X-25.992 Y-5.464 E129.96409
G0 F7500 X-25.992 Y-5.300
G0 X-31.768 Y-5.300
G0 X-31.768 Y-5.464
G1 F2400 X-31.768 Y5.664 E130.36475
G0 F7500 X-31.768 Y5.500
G0 X-37.544 Y5.500
G0 X-37.544 Y5.664
G1 F2400 X-37.544 Y-5.464 E130.76540
;LAYER:6
G1 F2400 E129.76540
G0 F7500 X0.216 Y0.216 Z1.500
;TYPE:WALL-OUTER
G1 F2400 E130.76540
G1 F2700 X0.284 Y0.216 E130.76785
G1 X0.284 Y0.284 E130.77030
G1 X0.216 Y0.284 E130.77275
G1 X0.216 Y0.216 E130.77519
G0 F7500 X-0.700 Y-0.700
;TYPE:SUPPORT
G1 F2400 X-0.700 Y1.200 E130.84360
G1 X1.200 Y1.200 E130.91201
G1 X1.200 Y-0.700 E130.98042
G1 X-0.700 Y-0.700 E131.04883
G0 F7500 X-0.690 Y-0.800
G0 X-40.500 Y-5.400
G1 F2400 X40.600 Y-5.400 E133.96876
G1 X40.600 Y5.600 E134.36480
G1 X-40.500 Y5.600 E137.28473
G1 X-40.500 Y-5.400 E137.68078
G0 F7500 X-40.400 Y-2.888
G0 X-40.563 Y-2.888
G1 F2400 X40.664 Y-2.887 E140.60528
G0 F7500 X40.500 Y-2.887
G0 X40.500 Y2.888
G0 X40.663 Y2.888
G1 F2400 X-40.564 Y2.887 E143.52979
G0 F7500 X-40.400 Y2.887
G0 X-37.544 Y5.500
G0 X-37.544 Y5.664
G1 F2400 X-37.544 Y-5.464 E143.93044
G0 F7500 X-37.544 Y-5.300
G0 X-31.768 Y-5.300
G0 X-31.768 Y-5.464
G1 F2400 X-31.768 Y5.664 E144.33110
G0 F7500 X-31.768 Y5.500
G0 X-25.992 Y5.500
G0 X-25.992 Y5.664
G1 F2400 X-25.992 Y-5.464 E144.73175
G0 F7500 X-25.992 Y-5.300
G0 X-20.216 Y-5.300
G0 X-20.216 Y-5.464
G1 F2400 X-20.216 Y5.664 E145.13240
G0 F7500 X-20.216 Y5.500
G0 X-14.440 Y5.500
G0 X-14.440 Y5.664
G1 F2400 X-14.440 Y-5.464 E145.53306
G0 F7500 X-14.440 Y-5.300
G0 X-8.664 Y-5.300
G0 X-8.664 Y-5.464
G1 F2400 X-8.664 Y5.664 E145.93371
G0 F7500 X-8.664 Y5.500
G0 X-2.888 Y5.500
G0 X-2.888 Y5.664
G1 F2400 X-2.888 Y-5.464 E146.33436
G0 F7500 X-2.888 Y-5.300
G0 X2.888 Y-5.300
G0 X2.888 Y-5.464
G1 F2400 X2.888 Y5.664 E146.73502
G0 F7500 X2.888 Y5.500
G0 X8.664 Y5.500
G0 X8.664 Y5.664
G1 F2400 X8.664 Y-5.464 E147.13567
G0 F7500 X8.664 Y-5.300
G0 X14.440 Y-5.300
G0 X14.440 Y-5.464
G1 F2400 X14.440 Y5.664 E147.53633
G0 F7500 X14.440 Y5.500
G0 X20.216 Y5.500
G0 X20.216 Y5.664
G1 F2400 X20.216 Y-5.464 E147.93698
G0 F7500 X20.216 Y-5.300
G0 X25.992 Y-5.300
G0 X25.992 Y-5.464
G1 F2400 X25.992 Y5.664 E148.33763
G0 F7500 X25.992 Y5.500
G0 X31.768 Y5.500
G0 X31.768 Y5.664
G1 F2400 X31.768 Y-5.464 E148.73829
G0 F7500 X31.768 Y-5.300
G0 X37.544 Y-5.300
G0 X37.544 Y-5.464
G1 F2400 X37.544 Y5.664 E149.13894
;LAYER:7
G1 F2400 E148.13894
G0 F7500 X0.284 Y0.284 Z1.700
;TYPE:WALL-OUTER
G1 F2400 E149.13894
G1 F2700 X0.216 Y0.284 E149.14139
G1 X0.216 Y0.216 E149.14384
G1 X0.284 Y0.216 E149.14628
G1 X0.284 Y0.284 E149.14873
G0 F7500 X1.200 Y1.200
;TYPE:SUPPORT
G1 F2400 X1.200 Y-0.700 E149.21714
G1 X-0.700 Y-0.700 E149.28555
G1 X-0.700 Y1.200 E149.35396
G1 X1.200 Y1.200 E149.42236
G0 F7500 X1.190 Y1.300
G0 X40.500 Y5.590
G0 X40.600 Y5.600
G1 F2400 X-40.500 Y5.600 E152.34230
G1 X-40.500 Y-5.400 E152.73834
G1 X40.600 Y-5.400 E155.65827
G1 X40.600 Y5.600 E156.05432
G0 F7500 X40.500 Y5.590
G0 X40.500 Y2.888
G0 X40.663 Y2.888
G1 F2400 X-40.564 Y2.887 E158.97882
G0 F7500 X-40.400 Y2.887
G0 X-40.400 Y-2.888
G0 X-40.563 Y-2.888
G1 F2400 X40.664 Y-2.887 E161.90333
G0 F7500 X40.500 Y-2.887
G0 X37.544 Y-5.300
G0 X37.544 Y-5.464
G1 F2400 X37.544 Y5.664 E162.30398
G0 F7500 X37.544 Y5.500
G0 X31.768 Y5.500
G0 X31.768 Y5.664
G1 F2400 X31.768 Y-5.464 E162.70463
G0 F7500 X31.768 Y-5.300
G0 X25.992 Y-5.300
G0 X25.992 Y-5.464
G1 F2400 X25.992 Y5.664 E163.10529
G0 F7500 X25.992 Y5.500
G0 X20.216 Y5.500
G0 X20.216 Y5.664
