;Generated with Cura_SteamEngine 15.04.6

;Layer count: 16
;LAYER:0
M107
G0 F7500 X-43.716 Y-53.616 Z0.300
;TYPE:SKIRT
G1 F1800 X43.816 Y-53.616 E4.72727
G1 X43.816 Y53.816 E10.52925
G1 X-43.716 Y53.816 E15.25652
G1 X-43.716 Y-53.616 E21.05851
G1 F2400 E20.05851
G0 F7500 X0.216 Y0.216
;TYPE:WALL-OUTER
G1 F2400 E21.05851
G1 F1800 X0.284 Y0.216 E21.06218
G1 X0.284 Y0.284 E21.06585
G1 X0.216 Y0.284 E21.06953
G1 X0.216 Y0.216 E21.07320
G0 F7500 X-0.700 Y-0.700
;TYPE:SUPPORT
G1 F1800 X-0.700 Y1.200 E21.17581
G1 X1.200 Y1.200 E21.27842
G1 X1.200 Y-0.700 E21.38103
G1 X-0.700 Y-0.700 E21.48364
G0 F7500 X-0.690 Y-0.800
G0 X-40.500 Y-50.400
G1 F1800 X40.600 Y-50.400 E25.86354
G1 X40.600 Y50.600 E31.31816
G1 X-40.500 Y50.600 E35.69806
G1 X-40.500 Y-50.400 E41.15268
G0 F7500 X-40.563 Y-49.096
G1 F1800 X40.664 Y-49.095 E45.53944
G0 F7500 X40.500 Y-49.095
G0 X40.500 Y-43.319
G0 X40.664 Y-43.319
G1 F1800 X-40.563 Y-43.320 E49.92620
G0 F7500 X-40.400 Y-43.320
G0 X-40.400 Y-37.544
G0 X-40.563 Y-37.544
G1 F1800 X40.664 Y-37.543 E54.31295
G0 F7500 X40.500 Y-37.543
G0 X40.500 Y-31.767
G0 X40.664 Y-31.767
G1 F1800 X-40.563 Y-31.768 E58.69971
G0 F7500 X-40.400 Y-31.768
G0 X-40.400 Y-25.992
G0 X-40.563 Y-25.992
G1 F1800 X40.664 Y-25.991 E63.08647
G0 F7500 X40.500 Y-25.991
G0 X40.500 Y-20.215
G0 X40.664 Y-20.215
G1 F1800 X-40.563 Y-20.216 E67.47322
G0 F7500 X-40.400 Y-20.216
G0 X-40.400 Y-14.440
G0 X-40.563 Y-14.440
G1 F1800 X40.664 Y-14.439 E71.85998
G0 F7500 X40.500 Y-14.439
G0 X40.500 Y-8.663
G0 X40.664 Y-8.663
G1 F1800 X-40.563 Y-8.664 E76.24674
G0 F7500 X-40.400 Y-8.664
G0 X-40.400 Y-2.888
G0 X-40.563 Y-2.888
G1 F1800 X40.664 Y-2.887 E80.63350
G0 F7500 X40.500 Y-2.887
G0 X40.500 Y2.888
G0 X40.663 Y2.888
G1 F1800 X-40.564 Y2.887 E85.02025
G0 F7500 X-40.400 Y2.887
G0 X-40.400 Y8.663
G0 X-40.564 Y8.663
G1 F1800 X40.663 Y8.664 E89.40701
G0 F7500 X40.500 Y8.664
G0 X40.500 Y14.440
G0 X40.663 Y14.440
G1 F1800 X-40.564 Y14.439 E93.79377
G0 F7500 X-40.400 Y14.439
G0 X-40.400 Y20.215
G0 X-40.564 Y20.215
G1 F1800 X40.663 Y20.216 E98.18052
G0 F7500 X40.500 Y20.216
G0 X40.500 Y25.992
G0 X40.663 Y25.992
G1 F1800 X-40.564 Y25.991 E102.56728
G0 F7500 X-40.400 Y25.991
G0 X-40.400 Y31.767
G0 X-40.564 Y31.767
G1 F1800 X40.663 Y31.768 E106.95404
G0 F7500 X40.500 Y31.768
G0 X40.500 Y37.544
G0 X40.663 Y37.544
G1 F1800 X-40.564 Y37.543 E111.34080
G0 F7500 X-40.400 Y37.543
G0 X-40.400 Y43.319
G0 X-40.564 Y43.319
G1 F1800 X40.663 Y43.320 E115.72755
G0 F7500 X40.500 Y43.320
G0 X40.500 Y49.096
G0 X40.663 Y49.096
G1 F1800 X-40.564 Y49.095 E120.11431
G0 F7500 X-40.400 Y49.095
G0 X-37.544 Y50.500
G0 X-37.544 Y50.664
G1 F1800 X-37.544 Y-50.464 E125.57584
G0 F7500 X-37.544 Y-50.300
G0 X-31.768 Y-50.300
G0 X-31.768 Y-50.464
G1 F1800 X-31.768 Y50.664 E131.03738
G0 F7500 X-31.768 Y50.500
G0 X-25.992 Y50.500
G0 X-25.992 Y50.664
G1 F1800 X-25.992 Y-50.464 E136.49891
G0 F7500 X-25.992 Y-50.300
G0 X-20.216 Y-50.300
G0 X-20.216 Y-50.464
G1 F1800 X-20.216 Y50.664 E141.96044
G0 F7500 X-20.216 Y50.500
G0 X-14.440 Y50.500
G0 X-14.440 Y50.664
G1 F1800 X-14.440 Y-50.464 E147.42198
G0 F7500 X-14.440 Y-50.300
G0 X-8.664 Y-50.300
G0 X-8.664 Y-50.464
G1 F1800 X-8.664 Y50.664 E152.88351
G0 F7500 X-8.664 Y50.500
G0 X-2.888 Y50.500
G0 X-2.888 Y50.664
G1 F1800 X-2.888 Y-50.464 E158.34504
G0 F7500 X-2.888 Y-50.300
G0 X2.888 Y-50.300
G0 X2.888 Y-50.464
G1 F1800 X2.888 Y50.664 E163.80658
G0 F7500 X2.888 Y50.500
G0 X8.664 Y50.500
G0 X8.664 Y50.664
G1 F1800 X8.664 Y-50.464 E169.26811
G0 F7500 X8.664 Y-50.300
G0 X14.440 Y-50.300
G0 X14.440 Y-50.464
G1 F1800 X14.440 Y50.664 E174.72964
G0 F7500 X14.440 Y50.500
G0 X20.216 Y50.500
G0 X20.216 Y50.664
G1 F1800 X20.216 Y-50.464 E180.19118
G0 F7500 X20.216 Y-50.300
G0 X25.992 Y-50.300
G0 X25.992 Y-50.464
G1 F1800 X25.992 Y50.664 E185.65271
G0 F7500 X25.992 Y50.500
G0 X31.768 Y50.500
G0 X31.768 Y50.664
G1 F1800 X31.768 Y-50.464 E191.11424
G0 F7500 X31.768 Y-50.300
G0 X37.544 Y-50.300
G0 X37.544 Y-50.464
G1 F1800 X37.544 Y50.664 E196.57578
;LAYER:1
M106 S63
G1 F2400 E195.57578
G0 F7500 X0.284 Y0.284 Z0.500
;TYPE:WALL-OUTER
G1 F2400 E196.57578
G1 F1980 X0.216 Y0.284 E196.57822
G1 X0.216 Y0.216 E196.58067
G1 X0.284 Y0.216 E196.58312
G1 X0.284 Y0.284 E196.58557
G0 F7500 X1.200 Y1.200
;TYPE:SUPPORT
G1 F1920 X1.200 Y-0.700 E196.65398
G1 X-0.700 Y-0.700 E196.72239
G1 X-0.700 Y1.200 E196.79079
G1 X1.200 Y1.200 E196.85920
G0 F7500 X1.190 Y1.300
G0 X40.500 Y50.590
G0 X40.600 Y50.600
G1 F1920 X-40.500 Y50.600 E199.77913
G1 X-40.500 Y-50.400 E203.41555
G1 X40.600 Y-50.400 E206.33548
G1 X40.600 Y50.600 E209.97189
G0 F7500 X40.500 Y50.590
G0 X40.500 Y49.096
G0 X40.663 Y49.096
G1 F1920 X-40.564 Y49.095 E212.89640
G0 F7500 X-40.400 Y49.095
G0 X-40.400 Y43.319
G0 X-40.564 Y43.319
G1 F1920 X40.663 Y43.320 E215.82090
G0 F7500 X40.500 Y43.320
G0 X40.500 Y37.544
G0 X40.663 Y37.544
G1 F1920 X-40.564 Y37.543 E218.74541
G0 F7500 X-40.400 Y37.543
G0 X-40.400 Y31.767
G0 X-40.564 Y31.767
G1 F1920 X40.663 Y31.768 E221.66991
G0 F7500 X40.500 Y31.768
G0 X40.500 Y25.992
G0 X40.663 Y25.992
G1 F1920 X-40.564 Y25.991 E224.59442
G0 F7500 X-40.400 Y25.991
G0 X-40.400 Y20.215
G0 X-40.564 Y20.215
G1 F1920 X40.663 Y20.216 E227.51892
G0 F7500 X40.500 Y20.216
G0 X40.500 Y14.440
G0 X40.663 Y14.440
G1 F1920 X-40.564 Y14.439 E230.44343
G0 F7500 X-40.400 Y14.439
G0 X-40.400 Y8.663
G0 X-40.564 Y8.663
G1 F1920 X40.663 Y8.664 E233.36793
G0 F7500 X40.500 Y8.664
G0 X40.500 Y2.888
G0 X40.663 Y2.888
G1 F1920 X-40.564 Y2.887 E236.29244
G0 F7500 X-40.400 Y2.887
G0 X-40.400 Y-2.888
G0 X-40.563 Y-2.888
G1 F1920 X40.664 Y-2.887 E239.21694
G0 F7500 X40.500 Y-2.887
G0 X40.500 Y-8.663
G0 X40.664 Y-8.663
G1 F1920 X-40.563 Y-8.664 E242.14144
G0 F7500 X-40.400 Y-8.664
G0 X-40.400 Y-14.440
G0 X-40.563 Y-14.440
G1 F1920 X40.664 Y-14.439 E245.06595
G0 F7500 X40.500 Y-14.439
G0 X40.500 Y-20.215
G0 X40.664 Y-20.215
G1 F1920 X-40.563 Y-20.216 E247.99045
G0 F7500 X-40.400 Y-20.216
G0 X-40.400 Y-25.992
G0 X-40.563 Y-25.992
G1 F1920 X40.664 Y-25.991 E250.91496
G0 F7500 X40.500 Y-25.991
G0 X40.500 Y-31.767
G0 X40.664 Y-31.767
G1 F1920 X-40.563 Y-31.768 E253.83946
G0 F7500 X-40.400 Y-31.768
G0 X-40.400 Y-37.544
G0 X-40.563 Y-37.544
G1 F1920 X40.664 Y-37.543 E256.76397
G0 F7500 X40.500 Y-37.543
G0 X40.500 Y-43.319
G0 X40.664 Y-43.319
G1 F1920 X-40.563 Y-43.320 E259.68847
G0 F7500 X-40.400 Y-43.320
G0 X-40.400 Y-49.096
G0 X-40.563 Y-49.096
G1 F1920 X40.664 Y-49.095 E262.61298
G0 F7500 X40.500 Y-49.095
G0 X37.544 Y-50.300
G0 X37.544 Y-50.464
G1 F1920 X37.544 Y50.664 E266.25400
G0 F7500 X37.544 Y50.500
G0 X31.768 Y50.500
G0 X31.768 Y50.664
G1 F1920 X31.768 Y-50.464 E269.89502
G0 F7500 X31.768 Y-50.300
G0 X25.992 Y-50.300
G0 X25.992 Y-50.464
G1 F1920 X25.992 Y50.664 E273.53604
G0 F7500 X25.992 Y50.500
G0 X20.216 Y50.500
G0 X20.216 Y50.664
G1 F1920 X20.216 Y-50.464 E277.17707
G0 F7500 X20.216 Y-50.300
G0 X14.440 Y-50.300
G0 X14.440 Y-50.464
G1 F1920 X14.440 Y50.664 E280.81809
G0 F7500 X14.440 Y50.500
G0 X8.664 Y50.500
G0 X8.664 Y50.664
G1 F1920 X8.664 Y-50.464 E284.45911
G0 F7500 X8.664 Y-50.300
G0 X2.888 Y-50.300
G0 X2.888 Y-50.464
G1 F1920 X2.888 Y50.664 E288.10013
G0 F7500 X2.888 Y50.500
G0 X-2.888 Y50.500
G0 X-2.888 Y50.664
G1 F1920 X-2.888 Y-50.464 E291.74116
G0 F7500 X-2.888 Y-50.300
G0 X-8.664 Y-50.300
G0 X-8.664 Y-50.464
G1 F1920 X-8.664 Y50.664 E295.38218
G0 F7500 X-8.664 Y50.500
G0 X-14.440 Y50.500
G0 X-14.440 Y50.664
G1 F1920 X-14.440 Y-50.464 E299.02320
G0 F7500 X-14.440 Y-50.300
G0 X-20.216 Y-50.300
G0 X-20.216 Y-50.464
G1 F1920 X-20.216 Y50.664 E302.66422
G0 F7500 X-20.216 Y50.500
G0 X-25.992 Y50.500
G0 X-25.992 Y50.664
G1 F1920 X-25.992 Y-50.464 E306.30524
G0 F7500 X-25.992 Y-50.300
G0 X-31.768 Y-50.300
G0 X-31.768 Y-50.464
G1 F1920 X-31.768 Y50.664 E309.94627
G0 F7500 X-31.768 Y50.500
G0 X-37.544 Y50.500
G0 X-37.544 Y50.664
G1 F1920 X-37.544 Y-50.464 E313.58729
;LAYER:2
M106 S127
G1 F2400 E312.58729
G0 F7500 X0.216 Y0.216 Z0.700
;TYPE:WALL-OUTER
G1 F2400 E313.58729
G1 F2220 X0.284 Y0.216 E313.58974
G1 X0.284 Y0.284 E313.59219
G1 X0.216 Y0.284 E313.59463
G1 X0.216 Y0.216 E313.59708
G0 F7500 X-0.700 Y-0.700
;TYPE:SUPPORT
G1 F2100 X-0.700 Y1.200 E313.66549
G1 X1.200 Y1.200 E313.73390
G1 X1.200 Y-0.700 E313.80231
G1 X-0.700 Y-0.700 E313.87071
G0 F7500 X-0.690 Y-0.800
G0 X-40.500 Y-50.400
G1 F2100 X40.600 Y-50.400 E316.79065
G1 X40.600 Y50.600 E320.42706
G1 X-40.500 Y50.600 E323.34699
G1 X-40.500 Y-50.400 E326.98340
G0 F7500 X-40.563 Y-49.096
G1 F2100 X40.664 Y-49.095 E329.90791
G0 F7500 X40.500 Y-49.095
G0 X40.500 Y-43.319
G0 X40.664 Y-43.319
G1 F2100 X-40.563 Y-43.320 E332.83241
G0 F7500 X-40.400 Y-43.320
G0 X-40.400 Y-37.544
G0 X-40.563 Y-37.544
G1 F2100 X40.664 Y-37.543 E335.75692
G0 F7500 X40.500 Y-37.543
G0 X40.500 Y-31.767
G0 X40.664 Y-31.767
G1 F2100 X-40.563 Y-31.768 E338.68142
G0 F7500 X-40.400 Y-31.768
G0 X-40.400 Y-25.992
G0 X-40.563 Y-25.992
G1 F2100 X40.664 Y-25.991 E341.60593
G0 F7500 X40.500 Y-25.991
G0 X40.500 Y-20.215
G0 X40.664 Y-20.215
G1 F2100 X-40.563 Y-20.216 E344.53043
G0 F7500 X-40.400 Y-20.216
G0 X-40.400 Y-14.440
G0 X-40.563 Y-14.440
G1 F2100 X40.664 Y-14.439 E347.45494
G0 F7500 X40.500 Y-14.439
G0 X40.500 Y-8.663
G0 X40.664 Y-8.663
G1 F2100 X-40.563 Y-8.664 E350.37944
G0 F7500 X-40.400 Y-8.664
G0 X-40.400 Y-2.888
G0 X-40.563 Y-2.888
G1 F2100 X40.664 Y-2.887 E353.30395
G0 F7500 X40.500 Y-2.887
G0 X40.500 Y2.888
G0 X40.663 Y2.888
G1 F2100 X-40.564 Y2.887 E356.22845
G0 F7500 X-40.400 Y2.887
G0 X-40.400 Y8.663
G0 X-40.564 Y8.663
G1 F2100 X40.663 Y8.664 E359.15296
G0 F7500 X40.500 Y8.664
G0 X40.500 Y14.440
G0 X40.663 Y14.440
G1 F2100 X-40.564 Y14.439 E362.07746
G0 F7500 X-40.400 Y14.439
G0 X-40.400 Y20.215
G0 X-40.564 Y20.215
G1 F2100 X40.663 Y20.216 E365.00197
G0 F7500 X40.500 Y20.216
G0 X40.500 Y25.992
G0 X40.663 Y25.992
G1 F2100 X-40.564 Y25.991 E367.92647
G0 F7500 X-40.400 Y25.991
G0 X-40.400 Y31.767
G0 X-40.564 Y31.767
G1 F2100 X40.663 Y31.768 E370.85098
G0 F7500 X40.500 Y31.768
G0 X40.500 Y37.544
G0 X40.663 Y37.544
G1 F2100 X-40.564 Y37.543 E373.77548
G0 F7500 X-40.400 Y37.543
G0 X-40.400 Y43.319
G0 X-40.564 Y43.319
G1 F2100 X40.663 Y43.320 E376.69999
G0 F7500 X40.500 Y43.320
G0 X40.500 Y49.096
G0 X40.663 Y49.096
G1 F2100 X-40.564 Y49.095 E379.62449
G0 F7500 X-40.400 Y49.095
G0 X-37.544 Y50.500
G0 X-37.544 Y50.664
G1 F2100 X-37.544 Y-50.464 E383.26551
G0 F7500 X-37.544 Y-50.300
G0 X-31.768 Y-50.300
G0 X-31.768 Y-50.464
G1 F2100 X-31.768 Y50.664 E386.90653
G0 F7500 X-31.768 Y50.500
G0 X-25.992 Y50.500
G0 X-25.992 Y50.664
G1 F2100 X-25.992 Y-50.464 E390.54756
G0 F7500 X-25.992 Y-50.300
G0 X-20.216 Y-50.300
G0 X-20.216 Y-50.464
G1 F2100 X-20.216 Y50.664 E394.18858
G0 F7500 X-20.216 Y50.500
G0 X-14.440 Y50.500
G0 X-14.440 Y50.664
G1 F2100 X-14.440 Y-50.464 E397.82960
G0 F7500 X-14.440 Y-50.300
G0 X-8.664 Y-50.300
G0 X-8.664 Y-50.464
G1 F2100 X-8.664 Y50.664 E401.47062
G0 F7500 X-8.664 Y50.500
G0 X-2.888 Y50.500
G0 X-2.888 Y50.664
G1 F2100 X-2.888 Y-50.464 E405.11165
G0 F7500 X-2.888 Y-50.300
G0 X2.888 Y-50.300
G0 X2.888 Y-50.464
G1 F2100 X2.888 Y50.664 E408.75267
G0 F7500 X2.888 Y50.500
G0 X8.664 Y50.500
G0 X8.664 Y50.664
G1 F2100 X8.664 Y-50.464 E412.39369
G0 F7500 X8.664 Y-50.300
G0 X14.440 Y-50.300
G0 X14.440 Y-50.464
G1 F2100 X14.440 Y50.664 E416.03471
G0 F7500 X14.440 Y50.500
G0 X20.216 Y50.500
G0 X20.216 Y50.664
G1 F2100 X20.216 Y-50.464 E419.67573
G0 F7500 X20.216 Y-50.300
G0 X25.992 Y-50.300
G0 X25.992 Y-50.464
G1 F2100 X25.992 Y50.664 E423.31676
G0 F7500 X25.992 Y50.500
G0 X31.768 Y50.500
G0 X31.768 Y50.664
G1 F2100 X31.768 Y-50.464 E426.95778
G0 F7500 X31.768 Y-50.300
G0 X37.544 Y-50.300
G0 X37.544 Y-50.464
G1 F2100 X37.544 Y50.664 E430.59880
;LAYER:3
G1 F2400 E429.59880
G0 F7500 X0.284 Y0.284 Z0.900
;TYPE:WALL-OUTER
G1 F2400 E430.59880
G1 X0.216 Y0.284 E430.60125
G1 X0.216 Y0.216 E430.60370
G1 X0.284 Y0.216 E430.60615
G1 X0.284 Y0.284 E430.60859
G0 F7500 X1.200 Y1.200
;TYPE:SUPPORT
G1 F2220 X1.200 Y-0.700 E430.67700
G1 X-0.700 Y-0.700 E430.74541
G1 X-0.700 Y1.200 E430.81382
G1 X1.200 Y1.200 E430.88223
G0 F7500 X1.190 Y1.300
G0 X40.500 Y50.590
G0 X40.600 Y50.600
G1 F2220 X-40.500 Y50.600 E433.80216
G1 X-40.500 Y-50.400 E437.43857
G1 X40.600 Y-50.400 E440.35850
G1 X40.600 Y50.600 E443.99492
G0 F7500 X40.500 Y50.590
G0 X40.500 Y49.096
G0 X40.663 Y49.096
G1 F2220 X-40.564 Y49.095 E446.91942
G0 F7500 X-40.400 Y49.095
G0 X-40.400 Y43.319
G0 X-40.564 Y43.319
G1 F2220 X40.663 Y43.320 E449.84393
G0 F7500 X40.500 Y43.320
G0 X40.500 Y37.544
G0 X40.663 Y37.544
G1 F2220 X-40.564 Y37.543 E452.76843
G0 F7500 X-40.400 Y37.543
G0 X-40.400 Y31.767
G0 X-40.564 Y31.767
G1 F2220 X40.663 Y31.768 E455.69294
G0 F7500 X40.500 Y31.768
G0 X40.500 Y25.992
G0 X40.663 Y25.992
G1 F2220 X-40.564 Y25.991 E458.61744
G0 F7500 X-40.400 Y25.991
G0 X-40.400 Y20.215
G0 X-40.564 Y20.215
G1 F2220 X40.663 Y20.216 E461.54195
G0 F7500 X40.500 Y20.216
G0 X40.500 Y14.440
G0 X40.663 Y14.440
G1 F2220 X-40.564 Y14.439 E464.46645
G0 F7500 X-40.400 Y14.439
G0 X-40.400 Y8.663
G0 X-40.564 Y8.663
G1 F2220 X40.663 Y8.664 E467.39096
G0 F7500 X40.500 Y8.664
G0 X40.500 Y2.888
G0 X40.663 Y2.888
G1 F2220 X-40.564 Y2.887 E470.31546
G0 F7500 X-40.400 Y2.887
G0 X-40.400 Y-2.888
G0 X-40.563 Y-2.888
G1 F2220 X40.664 Y-2.887 E473.23996
G0 F7500 X40.500 Y-2.887
G0 X40.500 Y-8.663
G0 X40.664 Y-8.663
G1 F2220 X-40.563 Y-8.664 E476.16447
G0 F7500 X-40.400 Y-8.664
G0 X-40.400 Y-14.440
G0 X-40.563 Y-14.440
G1 F2220 X40.664 Y-14.439 E479.08897
G0 F7500 X40.500 Y-14.439
G0 X40.500 Y-20.215
G0 X40.664 Y-20.215
G1 F2220 X-40.563 Y-20.216 E482.01348
G0 F7500 X-40.400 Y-20.216
G0 X-40.400 Y-25.992
G0 X-40.563 Y-25.992
G1 F2220 X40.664 Y-25.991 E484.93798
G0 F7500 X40.500 Y-25.991
G0 X40.500 Y-31.767
G0 X40.664 Y-31.767
G1 F2220 X-40.563 Y-31.768 E487.86249
G0 F7500 X-40.400 Y-31.768
G0 X-40.400 Y-37.544
G0 X-40.563 Y-37.544
G1 F2220 X40.664 Y-37.543 E490.78699
G0 F7500 X40.500 Y-37.543
G0 X40.500 Y-43.319
G0 X40.664 Y-43.319
G1 F2220 X-40.563 Y-43.320 E493.71150
G0 F7500 X-40.400 Y-43.320
G0 X-40.400 Y-49.096
G0 X-40.563 Y-49.096
G1 F2220 X40.664 Y-49.095 E496.63600
G0 F7500 X40.500 Y-49.095
G0 X37.544 Y-50.300
G0 X37.544 Y-50.464
G1 F2220 X37.544 Y50.664 E500.27702
G0 F7500 X37.544 Y50.500
G0 X31.768 Y50.500
G0 X31.768 Y50.664
G1 F2220 X31.768 Y-50.464 E503.91805
G0 F7500 X31.768 Y-50.300
G0 X25.992 Y-50.300
G0 X25.992 Y-50.464
G1 F2220 X25.992 Y50.664 E507.55907
G0 F7500 X25.992 Y50.500
G0 X20.216 Y50.500
G0 X20.216 Y50.664
G1 F2220 X20.216 Y-50.464 E511.20009
G0 F7500 X20.216 Y-50.300
G0 X14.440 Y-50.300
G0 X14.440 Y-50.464
G1 F2220 X14.440 Y50.664 E514.84111
G0 F7500 X14.440 Y50.500
G0 X8.664 Y50.500
G0 X8.664 Y50.664
G1 F2220 X8.664 Y-50.464 E518.48214
G0 F7500 X8.664 Y-50.300
G0 X2.888 Y-50.300
G0 X2.888 Y-50.464
G1 F2220 X2.888 Y50.664 E522.12316
G0 F7500 X2.888 Y50.500
G0 X-2.888 Y50.500
G0 X-2.888 Y50.664
G1 F2220 X-2.888 Y-50.464 E525.76418
G0 F7500 X-2.888 Y-50.300
G0 X-8.664 Y-50.300
G0 X-8.664 Y-50.464
G1 F2220 X-8.664 Y50.664 E529.40520
G0 F7500 X-8.664 Y50.500
G0 X-14.440 Y50.500
G0 X-14.440 Y50.664
G1 F2220 X-14.440 Y-50.464 E533.04622
G0 F7500 X-14.440 Y-50.300
G0 X-20.216 Y-50.300
G0 X-20.216 Y-50.464
G1 F2220 X-20.216 Y50.664 E536.68725
G0 F7500 X-20.216 Y50.500
G0 X-25.992 Y50.500
G0 X-25.992 Y50.664
G1 F2220 X-25.992 Y-50.464 E540.32827
G0 F7500 X-25.992 Y-50.300
G0 X-31.768 Y-50.300
G0 X-31.768 Y-50.464
G1 F2220 X-31.768 Y50.664 E543.96929
G0 F7500 X-31.768 Y50.500
G0 X-37.544 Y50.500
G0 X-37.544 Y50.664
G1 F2220 X-37.544 Y-50.464 E547.61031
;LAYER:4
G1 F2400 E546.61031
G0 F7500 X0.216 Y0.216 Z1.100
;TYPE:WALL-OUTER
G1 F2400 E547.61031
G1 F2700 X0.284 Y0.216 E547.61276
G1 X0.284 Y0.284 E547.61521
G1 X0.216 Y0.284 E547.61766
G1 X0.216 Y0.216 E547.62011
G0 F7500 X-0.700 Y-0.700
;TYPE:SUPPORT
G1 F2400 X-0.700 Y1.200 E547.68851
G1 X1.200 Y1.200 E547.75692
G1 X1.200 Y-0.700 E547.82533
G1 X-0.700 Y-0.700 E547.89374
G0 F7500 X-0.690 Y-0.800
G0 X-40.500 Y-50.400
G1 F2400 X40.600 Y-50.400 E550.81367
G1 X40.600 Y50.600 E554.45008
G1 X-40.500 Y50.600 E557.37002
G1 X-40.500 Y-50.400 E561.00643
G0 F7500 X-40.563 Y-49.096
