;Generated with Cura_SteamEngine 15.04.6

;Layer count: 16
;LAYER:0
M107
G0 F7500 X-43.716 Y-13.616 Z0.300
;TYPE:SKIRT
G1 F1800 X43.816 Y-13.616 E4.72727
G1 X43.816 Y13.816 E6.20876
G1 X-43.716 Y13.816 E10.93603
G1 X-43.716 Y-13.616 E12.41752
G1 F2400 E11.41752
G0 F7500 X0.216 Y0.216
;TYPE:WALL-OUTER
G1 F2400 E12.41752
G1 F1800 X0.284 Y0.216 E12.42120
G1 X0.284 Y0.284 E12.42487
G1 X0.216 Y0.284 E12.42854
G1 X0.216 Y0.216 E12.43221
G0 F7500 X-0.700 Y-0.700
;TYPE:SUPPORT
G1 F1800 X-0.700 Y1.200 E12.53483
G1 X1.200 Y1.200 E12.63744
G1 X1.200 Y-0.700 E12.74005
G1 X-0.700 Y-0.700 E12.84266
G0 F7500 X-0.690 Y-0.800
G0 X-40.500 Y-10.400
G1 F1800 X40.600 Y-10.400 E17.22256
G1 X40.600 Y10.600 E18.35669
G1 X-40.500 Y10.600 E22.73659
G1 X-40.500 Y-10.400 E23.87072
G0 F7500 X-40.400 Y-8.664
G0 X-40.563 Y-8.664
G1 F1800 X40.664 Y-8.663 E28.25747
G0 F7500 X40.500 Y-8.663
G0 X40.500 Y-2.887
G0 X40.664 Y-2.887
G1 F1800 X-40.563 Y-2.888 E32.64423
G0 F7500 X-40.400 Y-2.888
G0 X-40.400 Y2.887
G0 X-40.564 Y2.887
G1 F1800 X40.663 Y2.888 E37.03099
G0 F7500 X40.500 Y2.888
G0 X40.500 Y8.664
G0 X40.663 Y8.664
G1 F1800 X-40.564 Y8.663 E41.41774
G0 F7500 X-40.400 Y8.663
G0 X-37.544 Y10.500
G0 X-37.544 Y10.664
G1 F1800 X-37.544 Y-10.464 E42.55879
G0 F7500 X-37.544 Y-10.300
G0 X-31.768 Y-10.300
G0 X-31.768 Y-10.464
G1 F1800 X-31.768 Y10.664 E43.69983
G0 F7500 X-31.768 Y10.500
G0 X-25.992 Y10.500
G0 X-25.992 Y10.664
G1 F1800 X-25.992 Y-10.464 E44.84087
G0 F7500 X-25.992 Y-10.300
G0 X-20.216 Y-10.300
G0 X-20.216 Y-10.464
G1 F1800 X-20.216 Y10.664 E45.98191
G0 F7500 X-20.216 Y10.500
G0 X-14.440 Y10.500
G0 X-14.440 Y10.664
G1 F1800 X-14.440 Y-10.464 E47.12295
G0 F7500 X-14.440 Y-10.300
G0 X-8.664 Y-10.300
G0 X-8.664 Y-10.464
G1 F1800 X-8.664 Y10.664 E48.26399
G0 F7500 X-8.664 Y10.500
G0 X-2.888 Y10.500
G0 X-2.888 Y10.664
G1 F1800 X-2.888 Y-10.464 E49.40504
G0 F7500 X-2.888 Y-10.300
G0 X2.888 Y-10.300
G0 X2.888 Y-10.464
G1 F1800 X2.888 Y10.664 E50.54608
G0 F7500 X2.888 Y10.500
G0 X8.664 Y10.500
G0 X8.664 Y10.664
G1 F1800 X8.664 Y-10.464 E51.68712
G0 F7500 X8.664 Y-10.300
G0 X14.440 Y-10.300
G0 X14.440 Y-10.464
G1 F1800 X14.440 Y10.664 E52.82816
G0 F7500 X14.440 Y10.500
G0 X20.216 Y10.500
G0 X20.216 Y10.664
G1 F1800 X20.216 Y-10.464 E53.96920
G0 F7500 X20.216 Y-10.300
G0 X25.992 Y-10.300
G0 X25.992 Y-10.464
G1 F1800 X25.992 Y10.664 E55.11025
G0 F7500 X25.992 Y10.500
G0 X31.768 Y10.500
G0 X31.768 Y10.664
G1 F1800 X31.768 Y-10.464 E56.25129
G0 F7500 X31.768 Y-10.300
G0 X37.544 Y-10.300
G0 X37.544 Y-10.464
G1 F1800 X37.544 Y10.664 E57.39233
;LAYER:1
M106 S63
G1 F2400 E56.39233
G0 F7500 X0.284 Y0.284 Z0.500
;TYPE:WALL-OUTER
G1 F2400 E57.39233
G1 F1980 X0.216 Y0.284 E57.39478
G1 X0.216 Y0.216 E57.39723
G1 X0.284 Y0.216 E57.39967
G1 X0.284 Y0.284 E57.40212
G0 F7500 X1.200 Y1.200
;TYPE:SUPPORT
G1 F1920 X1.200 Y-0.700 E57.47053
G1 X-0.700 Y-0.700 E57.53894
G1 X-0.700 Y1.200 E57.60735
G1 X1.200 Y1.200 E57.67575
G0 F7500 X1.190 Y1.300
G0 X40.500 Y10.590
G0 X40.600 Y10.600
G1 F1920 X-40.500 Y10.600 E60.59569
G1 X-40.500 Y-10.400 E61.35177
G1 X40.600 Y-10.400 E64.27170
G1 X40.600 Y10.600 E65.02779
G0 F7500 X40.500 Y10.590
G0 X40.500 Y8.664
G0 X40.663 Y8.664
G1 F1920 X-40.564 Y8.663 E67.95229
G0 F7500 X-40.400 Y8.663
G0 X-40.400 Y2.887
G0 X-40.564 Y2.887
G1 F1920 X40.663 Y2.888 E70.87680
G0 F7500 X40.500 Y2.888
G0 X40.500 Y-2.887
G0 X40.664 Y-2.887
G1 F1920 X-40.563 Y-2.888 E73.80130
G0 F7500 X-40.400 Y-2.888
G0 X-40.400 Y-8.664
G0 X-40.563 Y-8.664
G1 F1920 X40.664 Y-8.663 E76.72581
G0 F7500 X40.500 Y-8.663
G0 X37.544 Y-10.300
G0 X37.544 Y-10.464
G1 F1920 X37.544 Y10.664 E77.48650
G0 F7500 X37.544 Y10.500
G0 X31.768 Y10.500
G0 X31.768 Y10.664
G1 F1920 X31.768 Y-10.464 E78.24720
G0 F7500 X31.768 Y-10.300
G0 X25.992 Y-10.300
G0 X25.992 Y-10.464
G1 F1920 X25.992 Y10.664 E79.00789
G0 F7500 X25.992 Y10.500
G0 X20.216 Y10.500
G0 X20.216 Y10.664
G1 F1920 X20.216 Y-10.464 E79.76859
G0 F7500 X20.216 Y-10.300
G0 X14.440 Y-10.300
G0 X14.440 Y-10.464
G1 F1920 X14.440 Y10.664 E80.52928
G0 F7500 X14.440 Y10.500
G0 X8.664 Y10.500
G0 X8.664 Y10.664
G1 F1920 X8.664 Y-10.464 E81.28998
G0 F7500 X8.664 Y-10.300
G0 X2.888 Y-10.300
G0 X2.888 Y-10.464
G1 F1920 X2.888 Y10.664 E82.05067
G0 F7500 X2.888 Y10.500
G0 X-2.888 Y10.500
G0 X-2.888 Y10.664
G1 F1920 X-2.888 Y-10.464 E82.81137
G0 F7500 X-2.888 Y-10.300
G0 X-8.664 Y-10.300
G0 X-8.664 Y-10.464
G1 F1920 X-8.664 Y10.664 E83.57206
G0 F7500 X-8.664 Y10.500
G0 X-14.440 Y10.500
G0 X-14.440 Y10.664
G1 F1920 X-14.440 Y-10.464 E84.33275
G0 F7500 X-14.440 Y-10.300
G0 X-20.216 Y-10.300
G0 X-20.216 Y-10.464
G1 F1920 X-20.216 Y10.664 E85.09345
G0 F7500 X-20.216 Y10.500
G0 X-25.992 Y10.500
G0 X-25.992 Y10.664
G1 F1920 X-25.992 Y-10.464 E85.85414
G0 F7500 X-25.992 Y-10.300
G0 X-31.768 Y-10.300
G0 X-31.768 Y-10.464
G1 F1920 X-31.768 Y10.664 E86.61484
G0 F7500 X-31.768 Y10.500
G0 X-37.544 Y10.500
G0 X-37.544 Y10.664
G1 F1920 X-37.544 Y-10.464 E87.37553
;LAYER:2
M106 S127
G1 F2400 E86.37553
G0 F7500 X0.216 Y0.216 Z0.700
;TYPE:WALL-OUTER
G1 F2400 E87.37553
G1 F2220 X0.284 Y0.216 E87.37798
G1 X0.284 Y0.284 E87.38043
G1 X0.216 Y0.284 E87.38288
G1 X0.216 Y0.216 E87.38533
G0 F7500 X-0.700 Y-0.700
;TYPE:SUPPORT
G1 F2100 X-0.700 Y1.200 E87.45373
G1 X1.200 Y1.200 E87.52214
G1 X1.200 Y-0.700 E87.59055
G1 X-0.700 Y-0.700 E87.65896
G0 F7500 X-0.690 Y-0.800
G0 X-40.500 Y-10.400
G1 F2100 X40.600 Y-10.400 E90.57889
G1 X40.600 Y10.600 E91.33498
G1 X-40.500 Y10.600 E94.25491
G1 X-40.500 Y-10.400 E95.01099
G0 F7500 X-40.400 Y-8.664
G0 X-40.563 Y-8.664
G1 F2100 X40.664 Y-8.663 E97.93550
G0 F7500 X40.500 Y-8.663
G0 X40.500 Y-2.887
G0 X40.664 Y-2.887
G1 F2100 X-40.563 Y-2.888 E100.86000
G0 F7500 X-40.400 Y-2.888
G0 X-40.400 Y2.887
G0 X-40.564 Y2.887
G1 F2100 X40.663 Y2.888 E103.78451
G0 F7500 X40.500 Y2.888
G0 X40.500 Y8.664
G0 X40.663 Y8.664
G1 F2100 X-40.564 Y8.663 E106.70901
G0 F7500 X-40.400 Y8.663
G0 X-37.544 Y10.500
G0 X-37.544 Y10.664
G1 F2100 X-37.544 Y-10.464 E107.46971
G0 F7500 X-37.544 Y-10.300
G0 X-31.768 Y-10.300
G0 X-31.768 Y-10.464
G1 F2100 X-31.768 Y10.664 E108.23040
G0 F7500 X-31.768 Y10.500
G0 X-25.992 Y10.500
G0 X-25.992 Y10.664
G1 F2100 X-25.992 Y-10.464 E108.99110
G0 F7500 X-25.992 Y-10.300
G0 X-20.216 Y-10.300
G0 X-20.216 Y-10.464
G1 F2100 X-20.216 Y10.664 E109.75179
G0 F7500 X-20.216 Y10.500
G0 X-14.440 Y10.500
G0 X-14.440 Y10.664
G1 F2100 X-14.440 Y-10.464 E110.51249
G0 F7500 X-14.440 Y-10.300
G0 X-8.664 Y-10.300
G0 X-8.664 Y-10.464
G1 F2100 X-8.664 Y10.664 E111.27318
G0 F7500 X-8.664 Y10.500
G0 X-2.888 Y10.500
G0 X-2.888 Y10.664
G1 F2100 X-2.888 Y-10.464 E112.03387
G0 F7500 X-2.888 Y-10.300
G0 X2.888 Y-10.300
G0 X2.888 Y-10.464
G1 F2100 X2.888 Y10.664 E112.79457
G0 F7500 X2.888 Y10.500
G0 X8.664 Y10.500
G0 X8.664 Y10.664
G1 F2100 X8.664 Y-10.464 E113.55526
G0 F7500 X8.664 Y-10.300
G0 X14.440 Y-10.300
G0 X14.440 Y-10.464
G1 F2100 X14.440 Y10.664 E114.31596
G0 F7500 X14.440 Y10.500
G0 X20.216 Y10.500
G0 X20.216 Y10.664
G1 F2100 X20.216 Y-10.464 E115.07665
G0 F7500 X20.216 Y-10.300
G0 X25.992 Y-10.300
G0 X25.992 Y-10.464
G1 F2100 X25.992 Y10.664 E115.83735
G0 F7500 X25.992 Y10.500
G0 X31.768 Y10.500
G0 X31.768 Y10.664
G1 F2100 X31.768 Y-10.464 E116.59804
G0 F7500 X31.768 Y-10.300
G0 X37.544 Y-10.300
G0 X37.544 Y-10.464
G1 F2100 X37.544 Y10.664 E117.35874
;LAYER:3
G1 F2400 E116.35874
G0 F7500 X0.284 Y0.284 Z0.900
;TYPE:WALL-OUTER
G1 F2400 E117.35874
G1 X0.216 Y0.284 E117.36118
G1 X0.216 Y0.216 E117.36363
G1 X0.284 Y0.216 E117.36608
G1 X0.284 Y0.284 E117.36853
G0 F7500 X1.200 Y1.200
;TYPE:SUPPORT
G1 F2220 X1.200 Y-0.700 E117.43694
G1 X-0.700 Y-0.700 E117.50534
G1 X-0.700 Y1.200 E117.57375
G1 X1.200 Y1.200 E117.64216
G0 F7500 X1.190 Y1.300
G0 X40.500 Y10.590
G0 X40.600 Y10.600
G1 F2220 X-40.500 Y10.600 E120.56209
G1 X-40.500 Y-10.400 E121.31818
G1 X40.600 Y-10.400 E124.23811
G1 X40.600 Y10.600 E124.99420
G0 F7500 X40.500 Y10.590
G0 X40.500 Y8.664
G0 X40.663 Y8.664
G1 F2220 X-40.564 Y8.663 E127.91870
G0 F7500 X-40.400 Y8.663
G0 X-40.400 Y2.887
G0 X-40.564 Y2.887
G1 F2220 X40.663 Y2.888 E130.84321
G0 F7500 X40.500 Y2.888
G0 X40.500 Y-2.887
G0 X40.664 Y-2.887
G1 F2220 X-40.563 Y-2.888 E133.76771
G0 F7500 X-40.400 Y-2.888
G0 X-40.400 Y-8.664
G0 X-40.563 Y-8.664
G1 F2220 X40.664 Y-8.663 E136.69222
G0 F7500 X40.500 Y-8.663
G0 X37.544 Y-10.300
G0 X37.544 Y-10.464
G1 F2220 X37.544 Y10.664 E137.45291
G0 F7500 X37.544 Y10.500
G0 X31.768 Y10.500
G0 X31.768 Y10.664
G1 F2220 X31.768 Y-10.464 E138.21360
G0 F7500 X31.768 Y-10.300
G0 X25.992 Y-10.300
G0 X25.992 Y-10.464
G1 F2220 X25.992 Y10.664 E138.97430
G0 F7500 X25.992 Y10.500
G0 X20.216 Y10.500
G0 X20.216 Y10.664
G1 F2220 X20.216 Y-10.464 E139.73499
G0 F7500 X20.216 Y-10.300
G0 X14.440 Y-10.300
G0 X14.440 Y-10.464
G1 F2220 X14.440 Y10.664 E140.49569
G0 F7500 X14.440 Y10.500
G0 X8.664 Y10.500
G0 X8.664 Y10.664
G1 F2220 X8.664 Y-10.464 E141.25638
G0 F7500 X8.664 Y-10.300
G0 X2.888 Y-10.300
G0 X2.888 Y-10.464
G1 F2220 X2.888 Y10.664 E142.01708
G0 F7500 X2.888 Y10.500
G0 X-2.888 Y10.500
G0 X-2.888 Y10.664
G1 F2220 X-2.888 Y-10.464 E142.77777
G0 F7500 X-2.888 Y-10.300
G0 X-8.664 Y-10.300
G0 X-8.664 Y-10.464
G1 F2220 X-8.664 Y10.664 E143.53847
G0 F7500 X-8.664 Y10.500
G0 X-14.440 Y10.500
G0 X-14.440 Y10.664
G1 F2220 X-14.440 Y-10.464 E144.29916
G0 F7500 X-14.440 Y-10.300
G0 X-20.216 Y-10.300
G0 X-20.216 Y-10.464
G1 F2220 X-20.216 Y10.664 E145.05986
G0 F7500 X-20.216 Y10.500
G0 X-25.992 Y10.500
G0 X-25.992 Y10.664
G1 F2220 X-25.992 Y-10.464 E145.82055
G0 F7500 X-25.992 Y-10.300
G0 X-31.768 Y-10.300
G0 X-31.768 Y-10.464
G1 F2220 X-31.768 Y10.664 E146.58124
G0 F7500 X-31.768 Y10.500
G0 X-37.544 Y10.500
G0 X-37.544 Y10.664
G1 F2220 X-37.544 Y-10.464 E147.34194
;LAYER:4
G1 F2400 E146.34194
G0 F7500 X0.216 Y0.216 Z1.100
;TYPE:WALL-OUTER
G1 F2400 E147.34194
G1 F2700 X0.284 Y0.216 E147.34439
G1 X0.284 Y0.284 E147.34684
G1 X0.216 Y0.284 E147.34928
G1 X0.216 Y0.216 E147.35173
G0 F7500 X-0.700 Y-0.700
;TYPE:SUPPORT
G1 F2400 X-0.700 Y1.200 E147.42014
G1 X1.200 Y1.200 E147.48855
G1 X1.200 Y-0.700 E147.55696
G1 X-0.700 Y-0.700 E147.62536
G0 F7500 X-0.690 Y-0.800
G0 X-40.500 Y-10.400
G1 F2400 X40.600 Y-10.400 E150.54530
G1 X40.600 Y10.600 E151.30138
G1 X-40.500 Y10.600 E154.22131
G1 X-40.500 Y-10.400 E154.97740
G0 F7500 X-40.400 Y-8.664
G0 X-40.563 Y-8.664
G1 F2400 X40.664 Y-8.663 E157.90190
G0 F7500 X40.500 Y-8.663
G0 X40.500 Y-2.887
G0 X40.664 Y-2.887
G1 F2400 X-40.563 Y-2.888 E160.82641
G0 F7500 X-40.400 Y-2.888
G0 X-40.400 Y2.887
G0 X-40.564 Y2.887
G1 F2400 X40.663 Y2.888 E163.75091
G0 F7500 X40.500 Y2.888
G0 X40.500 Y8.664
G0 X40.663 Y8.664
G1 F2400 X-40.564 Y8.663 E166.67542
G0 F7500 X-40.400 Y8.663
G0 X-37.544 Y10.500
G0 X-37.544 Y10.664
G1 F2400 X-37.544 Y-10.464 E167.43611
G0 F7500 X-37.544 Y-10.300
G0 X-31.768 Y-10.300
G0 X-31.768 Y-10.464
G1 F2400 X-31.768 Y10.664 E168.19681
G0 F7500 X-31.768 Y10.500
G0 X-25.992 Y10.500
G0 X-25.992 Y10.664
G1 F2400 X-25.992 Y-10.464 E168.95750
G0 F7500 X-25.992 Y-10.300
G0 X-20.216 Y-10.300
G0 X-20.216 Y-10.464
G1 F2400 X-20.216 Y10.664 E169.71820
G0 F7500 X-20.216 Y10.500
G0 X-14.440 Y10.500
G0 X-14.440 Y10.664
G1 F2400 X-14.440 Y-10.464 E170.47889
G0 F7500 X-14.440 Y-10.300
G0 X-8.664 Y-10.300
G0 X-8.664 Y-10.464
G1 F2400 X-8.664 Y10.664 E171.23959
G0 F7500 X-8.664 Y10.500
G0 X-2.888 Y10.500
G0 X-2.888 Y10.664
G1 F2400 X-2.888 Y-10.464 E172.00028
G0 F7500 X-2.888 Y-10.300
G0 X2.888 Y-10.300
G0 X2.888 Y-10.464
G1 F2400 X2.888 Y10.664 E172.76098
G0 F7500 X2.888 Y10.500
G0 X8.664 Y10.500
G0 X8.664 Y10.664
G1 F2400 X8.664 Y-10.464 E173.52167
G0 F7500 X8.664 Y-10.300
G0 X14.440 Y-10.300
G0 X14.440 Y-10.464
G1 F2400 X14.440 Y10.664 E174.28236
G0 F7500 X14.440 Y10.500
G0 X20.216 Y10.500
G0 X20.216 Y10.664
G1 F2400 X20.216 Y-10.464 E175.04306
G0 F7500 X20.216 Y-10.300
G0 X25.992 Y-10.300
G0 X25.992 Y-10.464
G1 F2400 X25.992 Y10.664 E175.80375
G0 F7500 X25.992 Y10.500
G0 X31.768 Y10.500
G0 X31.768 Y10.664
G1 F2400 X31.768 Y-10.464 E176.56445
G0 F7500 X31.768 Y-10.300
G0 X37.544 Y-10.300
G0 X37.544 Y-10.464
G1 F2400 X37.544 Y10.664 E177.32514
;LAYER:5
G1 F2400 E176.32514
G0 F7500 X0.284 Y0.284 Z1.300
;TYPE:WALL-OUTER
G1 F2400 E177.32514
G1 F2700 X0.216 Y0.284 E177.32759
G1 X0.216 Y0.216 E177.33004
G1 X0.284 Y0.216 E177.33249
G1 X0.284 Y0.284 E177.33494
G0 F7500 X1.200 Y1.200
;TYPE:SUPPORT
G1 F2400 X1.200 Y-0.700 E177.40334
G1 X-0.700 Y-0.700 E177.47175
G1 X-0.700 Y1.200 E177.54016
G1 X1.200 Y1.200 E177.60857
G0 F7500 X1.190 Y1.300
G0 X40.500 Y10.590
G0 X40.600 Y10.600
G1 F2400 X-40.500 Y10.600 E180.52850
G1 X-40.500 Y-10.400 E181.28458
G1 X40.600 Y-10.400 E184.20452
G1 X40.600 Y10.600 E184.96060
G0 F7500 X40.500 Y10.590
G0 X40.500 Y8.664
G0 X40.663 Y8.664
G1 F2400 X-40.564 Y8.663 E187.88511
G0 F7500 X-40.400 Y8.663
G0 X-40.400 Y2.887
G0 X-40.564 Y2.887
G1 F2400 X40.663 Y2.888 E190.80961
G0 F7500 X40.500 Y2.888
G0 X40.500 Y-2.887
G0 X40.664 Y-2.887
G1 F2400 X-40.563 Y-2.888 E193.73412
G0 F7500 X-40.400 Y-2.888
G0 X-40.400 Y-8.664
G0 X-40.563 Y-8.664
G1 F2400 X40.664 Y-8.663 E196.65862
G0 F7500 X40.500 Y-8.663
G0 X37.544 Y-10.300
G0 X37.544 Y-10.464
G1 F2400 X37.544 Y10.664 E197.41932
G0 F7500 X37.544 Y10.500
G0 X31.768 Y10.500
G0 X31.768 Y10.664
G1 F2400 X31.768 Y-10.464 E198.18001
G0 F7500 X31.768 Y-10.300
G0 X25.992 Y-10.300
G0 X25.992 Y-10.464
G1 F2400 X25.992 Y10.664 E198.94071
G0 F7500 X25.992 Y10.500
G0 X20.216 Y10.500
G0 X20.216 Y10.664
G1 F2400 X20.216 Y-10.464 E199.70140
G0 F7500 X20.216 Y-10.300
G0 X14.440 Y-10.300
G0 X14.440 Y-10.464
G1 F2400 X14.440 Y10.664 E200.46209
G0 F7500 X14.440 Y10.500
G0 X8.664 Y10.500
G0 X8.664 Y10.664
G1 F2400 X8.664 Y-10.464 E201.22279
G0 F7500 X8.664 Y-10.300
G0 X2.888 Y-10.300
G0 X2.888 Y-10.464
G1 F2400 X2.888 Y10.664 E201.98348
G0 F7500 X2.888 Y10.500
G0 X-2.888 Y10.500
G0 X-2.888 Y10.664
G1 F2400 X-2.888 Y-10.464 E202.74418
G0 F7500 X-2.888 Y-10.300
G0 X-8.664 Y-10.300
G0 X-8.664 Y-10.464
G1 F2400 X-8.664 Y10.664 E203.50487
G0 F7500 X-8.664 Y10.500
G0 X-14.440 Y10.500
G0 X-14.440 Y10.664
G1 F2400 X-14.440 Y-10.464 E204.26557
G0 F7500 X-14.440 Y-10.300
G0 X-20.216 Y-10.300
G0 X-20.216 Y-10.464
G1 F2400 X-20.216 Y10.664 E205.02626
G0 F7500 X-20.216 Y10.500
G0 X-25.992 Y10.500
G0 X-25.992 Y10.664
G1 F2400 X-25.992 Y-10.464 E205.78696
G0 F7500 X-25.992 Y-10.300
G0 X-31.768 Y-10.300
G0 X-31.768 Y-10.464
G1 F2400 X-31.768 Y10.664 E206.54765
G0 F7500 X-31.768 Y10.500
G0 X-37.544 Y10.500
G0 X-37.544 Y10.664
G1 F2400 X-37.544 Y-10.464 E207.30835
;LAYER:6
G1 F2400 E206.30835
G0 F7500 X0.216 Y0.216 Z1.500
;TYPE:WALL-OUTER
G1 F2400 E207.30835
G1 F2700 X0.284 Y0.216 E207.31079
G1 X0.284 Y0.284 E207.31324
G1 X0.216 Y0.284 E207.31569
G1 X0.216 Y0.216 E207.31814
G0 F7500 X-0.700 Y-0.700
;TYPE:SUPPORT
G1 F2400 X-0.700 Y1.200 E207.38655
G1 X1.200 Y1.200 E207.45495
G1 X1.200 Y-0.700 E207.52336
G1 X-0.700 Y-0.700 E207.59177
G0 F7500 X-0.690 Y-0.800
G0 X-40.500 Y-10.400
G1 F2400 X40.600 Y-10.400 E210.51170
G1 X40.600 Y10.600 E211.26779
G1 X-40.500 Y10.600 E214.18772
G1 X-40.500 Y-10.400 E214.94381
G0 F7500 X-40.400 Y-8.664
G0 X-40.563 Y-8.664
G1 F2400 X40.664 Y-8.663 E217.86831
G0 F7500 X40.500 Y-8.663
G0 X40.500 Y-2.887
G0 X40.664 Y-2.887
G1 F2400 X-40.563 Y-2.888 E220.79282
G0 F7500 X-40.400 Y-2.888
G0 X-40.400 Y2.887
G0 X-40.564 Y2.887
G1 F2400 X40.663 Y2.888 E223.71732
G0 F7500 X40.500 Y2.888
G0 X40.500 Y8.664
G0 X40.663 Y8.664
G1 F2400 X-40.564 Y8.663 E226.64183
G0 F7500 X-40.400 Y8.663
G0 X-37.544 Y10.500
G0 X-37.544 Y10.664
G1 F2400 X-37.544 Y-10.464 E227.40252
G0 F7500 X-37.544 Y-10.300
G0 X-31.768 Y-10.300
G0 X-31.768 Y-10.464
G1 F2400 X-31.768 Y10.664 E228.16321
G0 F7500 X-31.768 Y10.500
G0 X-25.992 Y10.500
G0 X-25.992 Y10.664
G1 F2400 X-25.992 Y-10.464 E228.92391
G0 F7500 X-25.992 Y-10.300
G0 X-20.216 Y-10.300
G0 X-20.216 Y-10.464
G1 F2400 X-20.216 Y10.664 E229.68460
G0 F7500 X-20.216 Y10.500
G0 X-14.440 Y10.500
G0 X-14.440 Y10.664
G1 F2400 X-14.440 Y-10.464 E230.44530
G0 F7500 X-14.440 Y-10.300
G0 X-8.664 Y-10.300
G0 X-8.664 Y-10.464
G1 F2400 X-8.664 Y10.664 E231.20599
G0 F7500 X-8.664 Y10.500
G0 X-2.888 Y10.500
G0 X-2.888 Y10.664
