;Generated with Cura_SteamEngine 15.04.6

;Layer count: 16
;LAYER:0
M107
G0 F7500 X-43.716 Y-18.616 Z0.300
;TYPE:SKIRT
G1 F1800 X43.816 Y-18.616 E4.72727
G1 X43.816 Y18.816 E6.74882
G1 X-43.716 Y18.816 E11.47609
G1 X-43.716 Y-18.616 E13.49765
G1 F2400 E12.49765
G0 F7500 X0.216 Y0.216
;TYPE:WALL-OUTER
G1 F2400 E13.49765
G1 F1800 X0.284 Y0.216 E13.50132
G1 X0.284 Y0.284 E13.50499
G1 X0.216 Y0.284 E13.50866
G1 X0.216 Y0.216 E13.51234
G0 F7500 X-0.700 Y-0.700
;TYPE:SUPPORT
G1 F1800 X-0.700 Y1.200 E13.61495
G1 X1.200 Y1.200 E13.71756
G1 X1.200 Y-0.700 E13.82017
G1 X-0.700 Y-0.700 E13.92278
G0 F7500 X-0.690 Y-0.800
G0 X-40.500 Y-15.400
G1 F1800 X40.600 Y-15.400 E18.30268
G1 X40.600 Y15.600 E19.97687
G1 X-40.500 Y15.600 E24.35677
G1 X-40.500 Y-15.400 E26.03096
G0 F7500 X-40.563 Y-14.440
G1 F1800 X40.664 Y-14.439 E30.41772
G0 F7500 X40.500 Y-14.439
G0 X40.500 Y-8.663
G0 X40.664 Y-8.663
G1 F1800 X-40.563 Y-8.664 E34.80448
G0 F7500 X-40.400 Y-8.664
G0 X-40.400 Y-2.888
G0 X-40.563 Y-2.888
G1 F1800 X40.664 Y-2.887 E39.19123
G0 F7500 X40.500 Y-2.887
G0 X40.500 Y2.888
G0 X40.663 Y2.888
G1 F1800 X-40.564 Y2.887 E43.57799
G0 F7500 X-40.400 Y2.887
G0 X-40.400 Y8.663
G0 X-40.564 Y8.663
G1 F1800 X40.663 Y8.664 E47.96475
G0 F7500 X40.500 Y8.664
G0 X40.500 Y14.440
G0 X40.663 Y14.440
G1 F1800 X-40.564 Y14.439 E52.35150
G0 F7500 X-40.400 Y14.439
G0 X-37.544 Y15.500
G0 X-37.544 Y15.664
G1 F1800 X-37.544 Y-15.464 E54.03261
G0 F7500 X-37.544 Y-15.300
G0 X-31.768 Y-15.300
G0 X-31.768 Y-15.464
G1 F1800 X-31.768 Y15.664 E55.71371
G0 F7500 X-31.768 Y15.500
G0 X-25.992 Y15.500
G0 X-25.992 Y15.664
G1 F1800 X-25.992 Y-15.464 E57.39481
G0 F7500 X-25.992 Y-15.300
G0 X-20.216 Y-15.300
G0 X-20.216 Y-15.464
G1 F1800 X-20.216 Y15.664 E59.07592
G0 F7500 X-20.216 Y15.500
G0 X-14.440 Y15.500
G0 X-14.440 Y15.664
G1 F1800 X-14.440 Y-15.464 E60.75702
G0 F7500 X-14.440 Y-15.300
G0 X-8.664 Y-15.300
G0 X-8.664 Y-15.464
G1 F1800 X-8.664 Y15.664 E62.43812
G0 F7500 X-8.664 Y15.500
G0 X-2.888 Y15.500
G0 X-2.888 Y15.664
G1 F1800 X-2.888 Y-15.464 E64.11923
G0 F7500 X-2.888 Y-15.300
G0 X2.888 Y-15.300
G0 X2.888 Y-15.464
G1 F1800 X2.888 Y15.664 E65.80033
G0 F7500 X2.888 Y15.500
G0 X8.664 Y15.500
G0 X8.664 Y15.664
G1 F1800 X8.664 Y-15.464 E67.48143
G0 F7500 X8.664 Y-15.300
G0 X14.440 Y-15.300
G0 X14.440 Y-15.464
G1 F1800 X14.440 Y15.664 E69.16254
G0 F7500 X14.440 Y15.500
G0 X20.216 Y15.500
G0 X20.216 Y15.664
G1 F1800 X20.216 Y-15.464 E70.84364
G0 F7500 X20.216 Y-15.300
G0 X25.992 Y-15.300
G0 X25.992 Y-15.464
G1 F1800 X25.992 Y15.664 E72.52474
G0 F7500 X25.992 Y15.500
G0 X31.768 Y15.500
G0 X31.768 Y15.664
G1 F1800 X31.768 Y-15.464 E74.20585
G0 F7500 X31.768 Y-15.300
G0 X37.544 Y-15.300
G0 X37.544 Y-15.464
G1 F1800 X37.544 Y15.664 E75.88695
;LAYER:1
M106 S63
G1 F2400 E74.88695
G0 F7500 X0.284 Y0.284 Z0.500
;TYPE:WALL-OUTER
G1 F2400 E75.88695
G1 F1980 X0.216 Y0.284 E75.88940
G1 X0.216 Y0.216 E75.89185
G1 X0.284 Y0.216 E75.89429
G1 X0.284 Y0.284 E75.89674
G0 F7500 X1.200 Y1.200
;TYPE:SUPPORT
G1 F1920 X1.200 Y-0.700 E75.96515
G1 X-0.700 Y-0.700 E76.03356
G1 X-0.700 Y1.200 E76.10197
G1 X1.200 Y1.200 E76.17037
G0 F7500 X1.190 Y1.300
G0 X40.500 Y15.590
G0 X40.600 Y15.600
G1 F1920 X-40.500 Y15.600 E79.09031
G1 X-40.500 Y-15.400 E80.20643
G1 X40.600 Y-15.400 E83.12637
G1 X40.600 Y15.600 E84.24249
G0 F7500 X40.663 Y14.440
G1 F1920 X-40.564 Y14.439 E87.16700
G0 F7500 X-40.400 Y14.439
G0 X-40.400 Y8.663
G0 X-40.564 Y8.663
G1 F1920 X40.663 Y8.664 E90.09150
G0 F7500 X40.500 Y8.664
G0 X40.500 Y2.888
G0 X40.663 Y2.888
G1 F1920 X-40.564 Y2.887 E93.01601
G0 F7500 X-40.400 Y2.887
G0 X-40.400 Y-2.888
G0 X-40.563 Y-2.888
G1 F1920 X40.664 Y-2.887 E95.94051
G0 F7500 X40.500 Y-2.887
G0 X40.500 Y-8.663
G0 X40.664 Y-8.663
G1 F1920 X-40.563 Y-8.664 E98.86502
G0 F7500 X-40.400 Y-8.664
G0 X-40.400 Y-14.440
G0 X-40.563 Y-14.440
G1 F1920 X40.664 Y-14.439 E101.78952
G0 F7500 X40.500 Y-14.439
G0 X37.544 Y-15.300
G0 X37.544 Y-15.464
G1 F1920 X37.544 Y15.664 E102.91026
G0 F7500 X37.544 Y15.500
G0 X31.768 Y15.500
G0 X31.768 Y15.664
G1 F1920 X31.768 Y-15.464 E104.03099
G0 F7500 X31.768 Y-15.300
G0 X25.992 Y-15.300
G0 X25.992 Y-15.464
G1 F1920 X25.992 Y15.664 E105.15173
G0 F7500 X25.992 Y15.500
G0 X20.216 Y15.500
G0 X20.216 Y15.664
G1 F1920 X20.216 Y-15.464 E106.27246
G0 F7500 X20.216 Y-15.300
G0 X14.440 Y-15.300
G0 X14.440 Y-15.464
G1 F1920 X14.440 Y15.664 E107.39320
G0 F7500 X14.440 Y15.500
G0 X8.664 Y15.500
G0 X8.664 Y15.664
G1 F1920 X8.664 Y-15.464 E108.51393
G0 F7500 X8.664 Y-15.300
G0 X2.888 Y-15.300
G0 X2.888 Y-15.464
G1 F1920 X2.888 Y15.664 E109.63467
G0 F7500 X2.888 Y15.500
G0 X-2.888 Y15.500
G0 X-2.888 Y15.664
G1 F1920 X-2.888 Y-15.464 E110.75540
G0 F7500 X-2.888 Y-15.300
G0 X-8.664 Y-15.300
G0 X-8.664 Y-15.464
G1 F1920 X-8.664 Y15.664 E111.87614
G0 F7500 X-8.664 Y15.500
G0 X-14.440 Y15.500
G0 X-14.440 Y15.664
G1 F1920 X-14.440 Y-15.464 E112.99688
G0 F7500 X-14.440 Y-15.300
G0 X-20.216 Y-15.300
G0 X-20.216 Y-15.464
G1 F1920 X-20.216 Y15.664 E114.11761
G0 F7500 X-20.216 Y15.500
G0 X-25.992 Y15.500
G0 X-25.992 Y15.664
G1 F1920 X-25.992 Y-15.464 E115.23835
G0 F7500 X-25.992 Y-15.300
G0 X-31.768 Y-15.300
G0 X-31.768 Y-15.464
G1 F1920 X-31.768 Y15.664 E116.35908
G0 F7500 X-31.768 Y15.500
G0 X-37.544 Y15.500
G0 X-37.544 Y15.664
G1 F1920 X-37.544 Y-15.464 E117.47982
;LAYER:2
M106 S127
G1 F2400 E116.47982
G0 F7500 X0.216 Y0.216 Z0.700
;TYPE:WALL-OUTER
G1 F2400 E117.47982
G1 F2220 X0.284 Y0.216 E117.48227
G1 X0.284 Y0.284 E117.48471
G1 X0.216 Y0.284 E117.48716
G1 X0.216 Y0.216 E117.48961
G0 F7500 X-0.700 Y-0.700
;TYPE:SUPPORT
G1 F2100 X-0.700 Y1.200 E117.55802
G1 X1.200 Y1.200 E117.62643
G1 X1.200 Y-0.700 E117.69483
G1 X-0.700 Y-0.700 E117.76324
G0 F7500 X-0.690 Y-0.800
G0 X-40.500 Y-15.400
G1 F2100 X40.600 Y-15.400 E120.68317
G1 X40.600 Y15.600 E121.79930
G1 X-40.500 Y15.600 E124.71923
G1 X-40.500 Y-15.400 E125.83536
G0 F7500 X-40.563 Y-14.440
G1 F2100 X40.664 Y-14.439 E128.75987
G0 F7500 X40.500 Y-14.439
G0 X40.500 Y-8.663
G0 X40.664 Y-8.663
G1 F2100 X-40.563 Y-8.664 E131.68437
G0 F7500 X-40.400 Y-8.664
G0 X-40.400 Y-2.888
G0 X-40.563 Y-2.888
G1 F2100 X40.664 Y-2.887 E134.60887
G0 F7500 X40.500 Y-2.887
G0 X40.500 Y2.888
G0 X40.663 Y2.888
G1 F2100 X-40.564 Y2.887 E137.53338
G0 F7500 X-40.400 Y2.887
G0 X-40.400 Y8.663
G0 X-40.564 Y8.663
G1 F2100 X40.663 Y8.664 E140.45788
G0 F7500 X40.500 Y8.664
G0 X40.500 Y14.440
G0 X40.663 Y14.440
G1 F2100 X-40.564 Y14.439 E143.38239
G0 F7500 X-40.400 Y14.439
G0 X-37.544 Y15.500
G0 X-37.544 Y15.664
G1 F2100 X-37.544 Y-15.464 E144.50312
G0 F7500 X-37.544 Y-15.300
G0 X-31.768 Y-15.300
G0 X-31.768 Y-15.464
G1 F2100 X-31.768 Y15.664 E145.62386
G0 F7500 X-31.768 Y15.500
G0 X-25.992 Y15.500
G0 X-25.992 Y15.664
G1 F2100 X-25.992 Y-15.464 E146.74460
G0 F7500 X-25.992 Y-15.300
G0 X-20.216 Y-15.300
G0 X-20.216 Y-15.464
G1 F2100 X-20.216 Y15.664 E147.86533
G0 F7500 X-20.216 Y15.500
G0 X-14.440 Y15.500
G0 X-14.440 Y15.664
G1 F2100 X-14.440 Y-15.464 E148.98607
G0 F7500 X-14.440 Y-15.300
G0 X-8.664 Y-15.300
G0 X-8.664 Y-15.464
G1 F2100 X-8.664 Y15.664 E150.10680
G0 F7500 X-8.664 Y15.500
G0 X-2.888 Y15.500
G0 X-2.888 Y15.664
G1 F2100 X-2.888 Y-15.464 E151.22754
G0 F7500 X-2.888 Y-15.300
G0 X2.888 Y-15.300
G0 X2.888 Y-15.464
G1 F2100 X2.888 Y15.664 E152.34827
G0 F7500 X2.888 Y15.500
G0 X8.664 Y15.500
G0 X8.664 Y15.664
G1 F2100 X8.664 Y-15.464 E153.46901
G0 F7500 X8.664 Y-15.300
G0 X14.440 Y-15.300
G0 X14.440 Y-15.464
G1 F2100 X14.440 Y15.664 E154.58974
G0 F7500 X14.440 Y15.500
G0 X20.216 Y15.500
G0 X20.216 Y15.664
G1 F2100 X20.216 Y-15.464 E155.71048
G0 F7500 X20.216 Y-15.300
G0 X25.992 Y-15.300
G0 X25.992 Y-15.464
G1 F2100 X25.992 Y15.664 E156.83121
G0 F7500 X25.992 Y15.500
G0 X31.768 Y15.500
G0 X31.768 Y15.664
G1 F2100 X31.768 Y-15.464 E157.95195
G0 F7500 X31.768 Y-15.300
G0 X37.544 Y-15.300
G0 X37.544 Y-15.464
G1 F2100 X37.544 Y15.664 E159.07269
;LAYER:3
G1 F2400 E158.07269
G0 F7500 X0.284 Y0.284 Z0.900
;TYPE:WALL-OUTER
G1 F2400 E159.07269
G1 X0.216 Y0.284 E159.07513
G1 X0.216 Y0.216 E159.07758
G1 X0.284 Y0.216 E159.08003
G1 X0.284 Y0.284 E159.08248
G0 F7500 X1.200 Y1.200
;TYPE:SUPPORT
G1 F2220 X1.200 Y-0.700 E159.15089
G1 X-0.700 Y-0.700 E159.21929
G1 X-0.700 Y1.200 E159.28770
G1 X1.200 Y1.200 E159.35611
G0 F7500 X1.190 Y1.300
G0 X40.500 Y15.590
G0 X40.600 Y15.600
G1 F2220 X-40.500 Y15.600 E162.27604
G1 X-40.500 Y-15.400 E163.39217
G1 X40.600 Y-15.400 E166.31210
G1 X40.600 Y15.600 E167.42823
G0 F7500 X40.663 Y14.440
G1 F2220 X-40.564 Y14.439 E170.35273
G0 F7500 X-40.400 Y14.439
G0 X-40.400 Y8.663
G0 X-40.564 Y8.663
G1 F2220 X40.663 Y8.664 E173.27724
G0 F7500 X40.500 Y8.664
G0 X40.500 Y2.888
G0 X40.663 Y2.888
G1 F2220 X-40.564 Y2.887 E176.20174
G0 F7500 X-40.400 Y2.887
G0 X-40.400 Y-2.888
G0 X-40.563 Y-2.888
G1 F2220 X40.664 Y-2.887 E179.12625
G0 F7500 X40.500 Y-2.887
G0 X40.500 Y-8.663
G0 X40.664 Y-8.663
G1 F2220 X-40.563 Y-8.664 E182.05075
G0 F7500 X-40.400 Y-8.664
G0 X-40.400 Y-14.440
G0 X-40.563 Y-14.440
G1 F2220 X40.664 Y-14.439 E184.97526
G0 F7500 X40.500 Y-14.439
G0 X37.544 Y-15.300
G0 X37.544 Y-15.464
G1 F2220 X37.544 Y15.664 E186.09599
G0 F7500 X37.544 Y15.500
G0 X31.768 Y15.500
G0 X31.768 Y15.664
G1 F2220 X31.768 Y-15.464 E187.21673
G0 F7500 X31.768 Y-15.300
G0 X25.992 Y-15.300
G0 X25.992 Y-15.464
G1 F2220 X25.992 Y15.664 E188.33746
G0 F7500 X25.992 Y15.500
G0 X20.216 Y15.500
G0 X20.216 Y15.664
G1 F2220 X20.216 Y-15.464 E189.45820
G0 F7500 X20.216 Y-15.300
G0 X14.440 Y-15.300
G0 X14.440 Y-15.464
G1 F2220 X14.440 Y15.664 E190.57893
G0 F7500 X14.440 Y15.500
G0 X8.664 Y15.500
G0 X8.664 Y15.664
G1 F2220 X8.664 Y-15.464 E191.69967
G0 F7500 X8.664 Y-15.300
G0 X2.888 Y-15.300
G0 X2.888 Y-15.464
G1 F2220 X2.888 Y15.664 E192.82041
G0 F7500 X2.888 Y15.500
G0 X-2.888 Y15.500
G0 X-2.888 Y15.664
G1 F2220 X-2.888 Y-15.464 E193.94114
G0 F7500 X-2.888 Y-15.300
G0 X-8.664 Y-15.300
G0 X-8.664 Y-15.464
G1 F2220 X-8.664 Y15.664 E195.06188
G0 F7500 X-8.664 Y15.500
G0 X-14.440 Y15.500
G0 X-14.440 Y15.664
G1 F2220 X-14.440 Y-15.464 E196.18261
G0 F7500 X-14.440 Y-15.300
G0 X-20.216 Y-15.300
G0 X-20.216 Y-15.464
G1 F2220 X-20.216 Y15.664 E197.30335
G0 F7500 X-20.216 Y15.500
G0 X-25.992 Y15.500
G0 X-25.992 Y15.664
G1 F2220 X-25.992 Y-15.464 E198.42408
G0 F7500 X-25.992 Y-15.300
G0 X-31.768 Y-15.300
G0 X-31.768 Y-15.464
G1 F2220 X-31.768 Y15.664 E199.54482
G0 F7500 X-31.768 Y15.500
G0 X-37.544 Y15.500
G0 X-37.544 Y15.664
G1 F2220 X-37.544 Y-15.464 E200.66555
;LAYER:4
G1 F2400 E199.66555
G0 F7500 X0.216 Y0.216 Z1.100
;TYPE:WALL-OUTER
G1 F2400 E200.66555
G1 F2700 X0.284 Y0.216 E200.66800
G1 X0.284 Y0.284 E200.67045
G1 X0.216 Y0.284 E200.67290
G1 X0.216 Y0.216 E200.67535
G0 F7500 X-0.700 Y-0.700
;TYPE:SUPPORT
G1 F2400 X-0.700 Y1.200 E200.74375
G1 X1.200 Y1.200 E200.81216
G1 X1.200 Y-0.700 E200.88057
G1 X-0.700 Y-0.700 E200.94898
G0 F7500 X-0.690 Y-0.800
G0 X-40.500 Y-15.400
G1 F2400 X40.600 Y-15.400 E203.86891
G1 X40.600 Y15.600 E204.98504
G1 X-40.500 Y15.600 E207.90497
G1 X-40.500 Y-15.400 E209.02110
G0 F7500 X-40.563 Y-14.440
G1 F2400 X40.664 Y-14.439 E211.94560
G0 F7500 X40.500 Y-14.439
G0 X40.500 Y-8.663
G0 X40.664 Y-8.663
G1 F2400 X-40.563 Y-8.664 E214.87011
G0 F7500 X-40.400 Y-8.664
G0 X-40.400 Y-2.888
G0 X-40.563 Y-2.888
G1 F2400 X40.664 Y-2.887 E217.79461
G0 F7500 X40.500 Y-2.887
G0 X40.500 Y2.888
G0 X40.663 Y2.888
G1 F2400 X-40.564 Y2.887 E220.71912
G0 F7500 X-40.400 Y2.887
G0 X-40.400 Y8.663
G0 X-40.564 Y8.663
G1 F2400 X40.663 Y8.664 E223.64362
G0 F7500 X40.500 Y8.664
G0 X40.500 Y14.440
G0 X40.663 Y14.440
G1 F2400 X-40.564 Y14.439 E226.56812
G0 F7500 X-40.400 Y14.439
G0 X-37.544 Y15.500
G0 X-37.544 Y15.664
G1 F2400 X-37.544 Y-15.464 E227.68886
G0 F7500 X-37.544 Y-15.300
G0 X-31.768 Y-15.300
G0 X-31.768 Y-15.464
G1 F2400 X-31.768 Y15.664 E228.80960
G0 F7500 X-31.768 Y15.500
G0 X-25.992 Y15.500
G0 X-25.992 Y15.664
G1 F2400 X-25.992 Y-15.464 E229.93033
G0 F7500 X-25.992 Y-15.300
G0 X-20.216 Y-15.300
G0 X-20.216 Y-15.464
G1 F2400 X-20.216 Y15.664 E231.05107
G0 F7500 X-20.216 Y15.500
G0 X-14.440 Y15.500
G0 X-14.440 Y15.664
G1 F2400 X-14.440 Y-15.464 E232.17180
G0 F7500 X-14.440 Y-15.300
G0 X-8.664 Y-15.300
G0 X-8.664 Y-15.464
G1 F2400 X-8.664 Y15.664 E233.29254
G0 F7500 X-8.664 Y15.500
G0 X-2.888 Y15.500
G0 X-2.888 Y15.664
G1 F2400 X-2.888 Y-15.464 E234.41327
G0 F7500 X-2.888 Y-15.300
G0 X2.888 Y-15.300
G0 X2.888 Y-15.464
G1 F2400 X2.888 Y15.664 E235.53401
G0 F7500 X2.888 Y15.500
G0 X8.664 Y15.500
G0 X8.664 Y15.664
G1 F2400 X8.664 Y-15.464 E236.65474
G0 F7500 X8.664 Y-15.300
G0 X14.440 Y-15.300
G0 X14.440 Y-15.464
G1 F2400 X14.440 Y15.664 E237.77548
G0 F7500 X14.440 Y15.500
G0 X20.216 Y15.500
G0 X20.216 Y15.664
G1 F2400 X20.216 Y-15.464 E238.89622
G0 F7500 X20.216 Y-15.300
G0 X25.992 Y-15.300
G0 X25.992 Y-15.464
G1 F2400 X25.992 Y15.664 E240.01695
G0 F7500 X25.992 Y15.500
G0 X31.768 Y15.500
G0 X31.768 Y15.664
G1 F2400 X31.768 Y-15.464 E241.13769
G0 F7500 X31.768 Y-15.300
G0 X37.544 Y-15.300
G0 X37.544 Y-15.464
G1 F2400 X37.544 Y15.664 E242.25842
;LAYER:5
G1 F2400 E241.25842
G0 F7500 X0.284 Y0.284 Z1.300
;TYPE:WALL-OUTER
G1 F2400 E242.25842
G1 F2700 X0.216 Y0.284 E242.26087
G1 X0.216 Y0.216 E242.26332
G1 X0.284 Y0.216 E242.26577
G1 X0.284 Y0.284 E242.26821
G0 F7500 X1.200 Y1.200
;TYPE:SUPPORT
G1 F2400 X1.200 Y-0.700 E242.33662
G1 X-0.700 Y-0.700 E242.40503
G1 X-0.700 Y1.200 E242.47344
G1 X1.200 Y1.200 E242.54185
G0 F7500 X1.190 Y1.300
G0 X40.500 Y15.590
G0 X40.600 Y15.600
G1 F2400 X-40.500 Y15.600 E245.46178
G1 X-40.500 Y-15.400 E246.57791
G1 X40.600 Y-15.400 E249.49784
G1 X40.600 Y15.600 E250.61396
G0 F7500 X40.663 Y14.440
G1 F2400 X-40.564 Y14.439 E253.53847
G0 F7500 X-40.400 Y14.439
G0 X-40.400 Y8.663
G0 X-40.564 Y8.663
G1 F2400 X40.663 Y8.664 E256.46297
G0 F7500 X40.500 Y8.664
G0 X40.500 Y2.888
G0 X40.663 Y2.888
G1 F2400 X-40.564 Y2.887 E259.38748
G0 F7500 X-40.400 Y2.887
G0 X-40.400 Y-2.888
G0 X-40.563 Y-2.888
G1 F2400 X40.664 Y-2.887 E262.31198
G0 F7500 X40.500 Y-2.887
G0 X40.500 Y-8.663
G0 X40.664 Y-8.663
G1 F2400 X-40.563 Y-8.664 E265.23649
G0 F7500 X-40.400 Y-8.664
G0 X-40.400 Y-14.440
G0 X-40.563 Y-14.440
G1 F2400 X40.664 Y-14.439 E268.16099
G0 F7500 X40.500 Y-14.439
G0 X37.544 Y-15.300
G0 X37.544 Y-15.464
G1 F2400 X37.544 Y15.664 E269.28173
G0 F7500 X37.544 Y15.500
G0 X31.768 Y15.500
G0 X31.768 Y15.664
G1 F2400 X31.768 Y-15.464 E270.40246
G0 F7500 X31.768 Y-15.300
G0 X25.992 Y-15.300
G0 X25.992 Y-15.464
G1 F2400 X25.992 Y15.664 E271.52320
G0 F7500 X25.992 Y15.500
G0 X20.216 Y15.500
G0 X20.216 Y15.664
G1 F2400 X20.216 Y-15.464 E272.64393
G0 F7500 X20.216 Y-15.300
G0 X14.440 Y-15.300
G0 X14.440 Y-15.464
G1 F2400 X14.440 Y15.664 E273.76467
G0 F7500 X14.440 Y15.500
G0 X8.664 Y15.500
G0 X8.664 Y15.664
G1 F2400 X8.664 Y-15.464 E274.88541
G0 F7500 X8.664 Y-15.300
G0 X2.888 Y-15.300
G0 X2.888 Y-15.464
G1 F2400 X2.888 Y15.664 E276.00614
G0 F7500 X2.888 Y15.500
G0 X-2.888 Y15.500
G0 X-2.888 Y15.664
G1 F2400 X-2.888 Y-15.464 E277.12688
G0 F7500 X-2.888 Y-15.300
G0 X-8.664 Y-15.300
G0 X-8.664 Y-15.464
G1 F2400 X-8.664 Y15.664 E278.24761
G0 F7500 X-8.664 Y15.500
G0 X-14.440 Y15.500
G0 X-14.440 Y15.664
G1 F2400 X-14.440 Y-15.464 E279.36835
G0 F7500 X-14.440 Y-15.300
G0 X-20.216 Y-15.300
G0 X-20.216 Y-15.464
G1 F2400 X-20.216 Y15.664 E280.48908
G0 F7500 X-20.216 Y15.500
G0 X-25.992 Y15.500
G0 X-25.992 Y15.664
G1 F2400 X-25.992 Y-15.464 E281.60982
G0 F7500 X-25.992 Y-15.300
G0 X-31.768 Y-15.300
G0 X-31.768 Y-15.464
G1 F2400 X-31.768 Y15.664 E282.73055
G0 F7500 X-31.768 Y15.500
G0 X-37.544 Y15.500
G0 X-37.544 Y15.664
G1 F2400 X-37.544 Y-15.464 E283.85129
;LAYER:6
G1 F2400 E282.85129
G0 F7500 X0.216 Y0.216 Z1.500
;TYPE:WALL-OUTER
G1 F2400 E283.85129
G1 F2700 X0.284 Y0.216 E283.85374
G1 X0.284 Y0.284 E283.85619
G1 X0.216 Y0.284 E283.85863
G1 X0.216 Y0.216 E283.86108
G0 F7500 X-0.700 Y-0.700
;TYPE:SUPPORT
G1 F2400 X-0.700 Y1.200 E283.92949
G1 X1.200 Y1.200 E283.99790
G1 X1.200 Y-0.700 E284.06631
G1 X-0.700 Y-0.700 E284.13471
G0 F7500 X-0.690 Y-0.800
G0 X-40.500 Y-15.400
G1 F2400 X40.600 Y-15.400 E287.05465
G1 X40.600 Y15.600 E288.17077
G1 X-40.500 Y15.600 E291.09071
