;Generated with Cura_SteamEngine 15.04.6

;Layer count: 16
;LAYER:0
M107
G0 F7500 X-43.716 Y-23.616 Z0.300
;TYPE:SKIRT
G1 F1800 X43.816 Y-23.616 E4.72727
G1 X43.816 Y23.816 E7.28889
G1 X-43.716 Y23.816 E12.01615
G1 X-43.716 Y-23.616 E14.57777
G1 F2400 E13.57777
G0 F7500 X0.216 Y0.216
;TYPE:WALL-OUTER
G1 F2400 E14.57777
G1 F1800 X0.284 Y0.216 E14.58144
G1 X0.284 Y0.284 E14.58512
G1 X0.216 Y0.284 E14.58879
G1 X0.216 Y0.216 E14.59246
G0 F7500 X-0.700 Y-0.700
;TYPE:SUPPORT
G1 F1800 X-0.700 Y1.200 E14.69507
G1 X1.200 Y1.200 E14.79768
G1 X1.200 Y-0.700 E14.90030
G1 X-0.700 Y-0.700 E15.00291
G0 F7500 X-0.690 Y-0.800
G0 X-40.500 Y-20.400
G1 F1800 X40.600 Y-20.400 E19.38281
G1 X40.600 Y20.600 E21.59706
G1 X-40.500 Y20.600 E25.97696
G1 X-40.500 Y-20.400 E28.19121
G0 F7500 X-40.563 Y-20.216
G1 F1800 X40.664 Y-20.215 E32.57796
G0 F7500 X40.500 Y-20.215
G0 X37.544 Y-20.300
G0 X37.544 Y-20.464
G1 F1800 X37.544 Y20.664 E34.79913
G0 F7500 X37.544 Y20.500
G0 X31.768 Y20.500
G0 X31.768 Y20.664
G1 F1800 X31.768 Y-20.464 E37.02029
G0 F7500 X31.768 Y-20.300
G0 X25.992 Y-20.300
G0 X25.992 Y-20.464
G1 F1800 X25.992 Y20.664 E39.24146
G0 F7500 X25.992 Y20.500
G0 X20.216 Y20.500
G0 X20.216 Y20.664
G1 F1800 X20.216 Y-20.464 E41.46262
G0 F7500 X20.216 Y-20.300
G0 X14.440 Y-20.300
G0 X14.440 Y-20.464
G1 F1800 X14.440 Y20.664 E43.68379
G0 F7500 X14.440 Y20.500
G0 X8.664 Y20.500
G0 X8.664 Y20.664
G1 F1800 X8.664 Y-20.464 E45.90495
G0 F7500 X8.664 Y-20.300
G0 X2.888 Y-20.300
G0 X2.888 Y-20.464
G1 F1800 X2.888 Y20.664 E48.12612
G0 F7500 X2.888 Y20.500
G0 X-2.888 Y20.500
G0 X-2.888 Y20.664
G1 F1800 X-2.888 Y-20.464 E50.34728
G0 F7500 X-2.888 Y-20.300
G0 X-8.664 Y-20.300
G0 X-8.664 Y-20.464
G1 F1800 X-8.664 Y20.664 E52.56845
G0 F7500 X-8.664 Y20.500
G0 X-14.440 Y20.500
G0 X-14.440 Y20.664
G1 F1800 X-14.440 Y-20.464 E54.78961
G0 F7500 X-14.440 Y-20.300
G0 X-20.216 Y-20.300
G0 X-20.216 Y-20.464
G1 F1800 X-20.216 Y20.664 E57.01078
G0 F7500 X-20.216 Y20.500
G0 X-25.992 Y20.500
G0 X-25.992 Y20.664
G1 F1800 X-25.992 Y-20.464 E59.23194
G0 F7500 X-25.992 Y-20.300
G0 X-31.768 Y-20.300
G0 X-31.768 Y-20.464
G1 F1800 X-31.768 Y20.664 E61.45311
G0 F7500 X-31.768 Y20.500
G0 X-37.544 Y20.500
G0 X-37.544 Y20.664
G1 F1800 X-37.544 Y-20.464 E63.67427
G0 F7500 X-37.544 Y-20.300
G0 X-40.400 Y-14.440
G0 X-40.563 Y-14.440
G1 F1800 X40.664 Y-14.439 E68.06103
G0 F7500 X40.500 Y-14.439
G0 X40.500 Y-8.663
G0 X40.664 Y-8.663
G1 F1800 X-40.563 Y-8.664 E72.44778
G0 F7500 X-40.400 Y-8.664
G0 X-40.400 Y-2.888
G0 X-40.563 Y-2.888
G1 F1800 X40.664 Y-2.887 E76.83454
G0 F7500 X40.500 Y-2.887
G0 X40.500 Y2.888
G0 X40.663 Y2.888
G1 F1800 X-40.564 Y2.887 E81.22130
G0 F7500 X-40.400 Y2.887
G0 X-40.400 Y8.663
G0 X-40.564 Y8.663
G1 F1800 X40.663 Y8.664 E85.60806
G0 F7500 X40.500 Y8.664
G0 X40.500 Y14.440
G0 X40.663 Y14.440
G1 F1800 X-40.564 Y14.439 E89.99481
G0 F7500 X-40.400 Y14.439
G0 X-40.400 Y20.215
G0 X-40.564 Y20.215
G1 F1800 X40.663 Y20.216 E94.38157
;LAYER:1
M106 S63
G1 F2400 E93.38157
G0 F7500 X0.284 Y0.284 Z0.500
;TYPE:WALL-OUTER
G1 F2400 E94.38157
G1 F1980 X0.216 Y0.284 E94.38402
G1 X0.216 Y0.216 E94.38647
G1 X0.284 Y0.216 E94.38891
G1 X0.284 Y0.284 E94.39136
G0 F7500 X1.200 Y1.200
;TYPE:SUPPORT
G1 F1920 X1.200 Y-0.700 E94.45977
G1 X-0.700 Y-0.700 E94.52818
G1 X-0.700 Y1.200 E94.59659
G1 X1.200 Y1.200 E94.66499
G0 F7500 X1.190 Y1.300
G0 X40.500 Y20.590
G0 X40.600 Y20.600
G1 F1920 X-40.500 Y20.600 E97.58493
G1 X-40.500 Y-20.400 E99.06109
G1 X40.600 Y-20.400 E101.98103
G1 X40.600 Y20.600 E103.45719
G0 F7500 X40.663 Y20.216
G1 F1920 X-40.564 Y20.215 E106.38170
G0 F7500 X-40.400 Y20.215
G0 X-37.544 Y20.500
G0 X-37.544 Y20.664
G1 F1920 X-37.544 Y-20.464 E107.86248
G0 F7500 X-37.544 Y-20.300
G0 X-31.768 Y-20.300
G0 X-31.768 Y-20.464
G1 F1920 X-31.768 Y20.664 E109.34325
G0 F7500 X-31.768 Y20.500
G0 X-25.992 Y20.500
G0 X-25.992 Y20.664
G1 F1920 X-25.992 Y-20.464 E110.82403
G0 F7500 X-25.992 Y-20.300
G0 X-20.216 Y-20.300
G0 X-20.216 Y-20.464
G1 F1920 X-20.216 Y20.664 E112.30480
G0 F7500 X-20.216 Y20.500
G0 X-14.440 Y20.500
G0 X-14.440 Y20.664
G1 F1920 X-14.440 Y-20.464 E113.78558
G0 F7500 X-14.440 Y-20.300
G0 X-8.664 Y-20.300
G0 X-8.664 Y-20.464
G1 F1920 X-8.664 Y20.664 E115.26636
G0 F7500 X-8.664 Y20.500
G0 X-2.888 Y20.500
G0 X-2.888 Y20.664
G1 F1920 X-2.888 Y-20.464 E116.74713
G0 F7500 X-2.888 Y-20.300
G0 X2.888 Y-20.300
G0 X2.888 Y-20.464
G1 F1920 X2.888 Y20.664 E118.22791
G0 F7500 X2.888 Y20.500
G0 X8.664 Y20.500
G0 X8.664 Y20.664
G1 F1920 X8.664 Y-20.464 E119.70869
G0 F7500 X8.664 Y-20.300
G0 X14.440 Y-20.300
G0 X14.440 Y-20.464
G1 F1920 X14.440 Y20.664 E121.18946
G0 F7500 X14.440 Y20.500
G0 X20.216 Y20.500
G0 X20.216 Y20.664
G1 F1920 X20.216 Y-20.464 E122.67024
G0 F7500 X20.216 Y-20.300
G0 X25.992 Y-20.300
G0 X25.992 Y-20.464
G1 F1920 X25.992 Y20.664 E124.15102
G0 F7500 X25.992 Y20.500
G0 X31.768 Y20.500
G0 X31.768 Y20.664
G1 F1920 X31.768 Y-20.464 E125.63179
G0 F7500 X31.768 Y-20.300
G0 X37.544 Y-20.300
G0 X37.544 Y-20.464
G1 F1920 X37.544 Y20.664 E127.11257
G0 F7500 X37.544 Y20.500
G0 X40.500 Y14.440
G0 X40.663 Y14.440
G1 F1920 X-40.564 Y14.439 E130.03707
G0 F7500 X-40.400 Y14.439
G0 X-40.400 Y8.663
G0 X-40.564 Y8.663
G1 F1920 X40.663 Y8.664 E132.96158
G0 F7500 X40.500 Y8.664
G0 X40.500 Y2.888
G0 X40.663 Y2.888
G1 F1920 X-40.564 Y2.887 E135.88608
G0 F7500 X-40.400 Y2.887
G0 X-40.400 Y-2.888
G0 X-40.563 Y-2.888
G1 F1920 X40.664 Y-2.887 E138.81059
G0 F7500 X40.500 Y-2.887
G0 X40.500 Y-8.663
G0 X40.664 Y-8.663
G1 F1920 X-40.563 Y-8.664 E141.73509
G0 F7500 X-40.400 Y-8.664
G0 X-40.400 Y-14.440
G0 X-40.563 Y-14.440
G1 F1920 X40.664 Y-14.439 E144.65960
G0 F7500 X40.500 Y-14.439
G0 X40.500 Y-20.215
G0 X40.664 Y-20.215
G1 F1920 X-40.563 Y-20.216 E147.58410
;LAYER:2
M106 S127
G1 F2400 E146.58410
G0 F7500 X0.216 Y0.216 Z0.700
;TYPE:WALL-OUTER
G1 F2400 E147.58410
G1 F2220 X0.284 Y0.216 E147.58655
G1 X0.284 Y0.284 E147.58900
G1 X0.216 Y0.284 E147.59145
G1 X0.216 Y0.216 E147.59390
G0 F7500 X-0.700 Y-0.700
;TYPE:SUPPORT
G1 F2100 X-0.700 Y1.200 E147.66230
G1 X1.200 Y1.200 E147.73071
G1 X1.200 Y-0.700 E147.79912
G1 X-0.700 Y-0.700 E147.86753
G0 F7500 X-0.690 Y-0.800
G0 X-40.500 Y-20.400
G1 F2100 X40.600 Y-20.400 E150.78746
G1 X40.600 Y20.600 E152.26363
G1 X-40.500 Y20.600 E155.18356
G1 X-40.500 Y-20.400 E156.65973
G0 F7500 X-40.563 Y-20.216
G1 F2100 X40.664 Y-20.215 E159.58423
G0 F7500 X40.500 Y-20.215
G0 X37.544 Y-20.300
G0 X37.544 Y-20.464
G1 F2100 X37.544 Y20.664 E161.06501
G0 F7500 X37.544 Y20.500
G0 X31.768 Y20.500
G0 X31.768 Y20.664
G1 F2100 X31.768 Y-20.464 E162.54578
G0 F7500 X31.768 Y-20.300
G0 X25.992 Y-20.300
G0 X25.992 Y-20.464
G1 F2100 X25.992 Y20.664 E164.02656
G0 F7500 X25.992 Y20.500
G0 X20.216 Y20.500
G0 X20.216 Y20.664
G1 F2100 X20.216 Y-20.464 E165.50734
G0 F7500 X20.216 Y-20.300
G0 X14.440 Y-20.300
G0 X14.440 Y-20.464
G1 F2100 X14.440 Y20.664 E166.98811
G0 F7500 X14.440 Y20.500
G0 X8.664 Y20.500
G0 X8.664 Y20.664
G1 F2100 X8.664 Y-20.464 E168.46889
G0 F7500 X8.664 Y-20.300
G0 X2.888 Y-20.300
G0 X2.888 Y-20.464
G1 F2100 X2.888 Y20.664 E169.94967
G0 F7500 X2.888 Y20.500
G0 X-2.888 Y20.500
G0 X-2.888 Y20.664
G1 F2100 X-2.888 Y-20.464 E171.43044
G0 F7500 X-2.888 Y-20.300
G0 X-8.664 Y-20.300
G0 X-8.664 Y-20.464
G1 F2100 X-8.664 Y20.664 E172.91122
G0 F7500 X-8.664 Y20.500
G0 X-14.440 Y20.500
G0 X-14.440 Y20.664
G1 F2100 X-14.440 Y-20.464 E174.39200
G0 F7500 X-14.440 Y-20.300
G0 X-20.216 Y-20.300
G0 X-20.216 Y-20.464
G1 F2100 X-20.216 Y20.664 E175.87277
G0 F7500 X-20.216 Y20.500
G0 X-25.992 Y20.500
G0 X-25.992 Y20.664
G1 F2100 X-25.992 Y-20.464 E177.35355
G0 F7500 X-25.992 Y-20.300
G0 X-31.768 Y-20.300
G0 X-31.768 Y-20.464
G1 F2100 X-31.768 Y20.664 E178.83433
G0 F7500 X-31.768 Y20.500
G0 X-37.544 Y20.500
G0 X-37.544 Y20.664
G1 F2100 X-37.544 Y-20.464 E180.31510
G0 F7500 X-37.544 Y-20.300
G0 X-40.400 Y-14.440
G0 X-40.563 Y-14.440
G1 F2100 X40.664 Y-14.439 E183.23961
G0 F7500 X40.500 Y-14.439
G0 X40.500 Y-8.663
G0 X40.664 Y-8.663
G1 F2100 X-40.563 Y-8.664 E186.16411
G0 F7500 X-40.400 Y-8.664
G0 X-40.400 Y-2.888
G0 X-40.563 Y-2.888
G1 F2100 X40.664 Y-2.887 E189.08862
G0 F7500 X40.500 Y-2.887
G0 X40.500 Y2.888
G0 X40.663 Y2.888
G1 F2100 X-40.564 Y2.887 E192.01312
G0 F7500 X-40.400 Y2.887
G0 X-40.400 Y8.663
G0 X-40.564 Y8.663
G1 F2100 X40.663 Y8.664 E194.93763
G0 F7500 X40.500 Y8.664
G0 X40.500 Y14.440
G0 X40.663 Y14.440
G1 F2100 X-40.564 Y14.439 E197.86213
G0 F7500 X-40.400 Y14.439
G0 X-40.400 Y20.215
G0 X-40.564 Y20.215
G1 F2100 X40.663 Y20.216 E200.78664
;LAYER:3
G1 F2400 E199.78664
G0 F7500 X0.284 Y0.284 Z0.900
;TYPE:WALL-OUTER
G1 F2400 E200.78664
G1 X0.216 Y0.284 E200.78908
G1 X0.216 Y0.216 E200.79153
G1 X0.284 Y0.216 E200.79398
G1 X0.284 Y0.284 E200.79643
G0 F7500 X1.200 Y1.200
;TYPE:SUPPORT
G1 F2220 X1.200 Y-0.700 E200.86484
G1 X-0.700 Y-0.700 E200.93324
G1 X-0.700 Y1.200 E201.00165
G1 X1.200 Y1.200 E201.07006
G0 F7500 X1.190 Y1.300
G0 X40.500 Y20.590
G0 X40.600 Y20.600
G1 F2220 X-40.500 Y20.600 E203.98999
G1 X-40.500 Y-20.400 E205.46616
G1 X40.600 Y-20.400 E208.38609
G1 X40.600 Y20.600 E209.86226
G0 F7500 X40.663 Y20.216
G1 F2220 X-40.564 Y20.215 E212.78676
G0 F7500 X-40.400 Y20.215
G0 X-37.544 Y20.500
G0 X-37.544 Y20.664
G1 F2220 X-37.544 Y-20.464 E214.26754
G0 F7500 X-37.544 Y-20.300
G0 X-31.768 Y-20.300
G0 X-31.768 Y-20.464
G1 F2220 X-31.768 Y20.664 E215.74832
G0 F7500 X-31.768 Y20.500
G0 X-25.992 Y20.500
G0 X-25.992 Y20.664
G1 F2220 X-25.992 Y-20.464 E217.22909
G0 F7500 X-25.992 Y-20.300
G0 X-20.216 Y-20.300
G0 X-20.216 Y-20.464
G1 F2220 X-20.216 Y20.664 E218.70987
G0 F7500 X-20.216 Y20.500
G0 X-14.440 Y20.500
G0 X-14.440 Y20.664
G1 F2220 X-14.440 Y-20.464 E220.19065
G0 F7500 X-14.440 Y-20.300
G0 X-8.664 Y-20.300
G0 X-8.664 Y-20.464
G1 F2220 X-8.664 Y20.664 E221.67142
G0 F7500 X-8.664 Y20.500
G0 X-2.888 Y20.500
G0 X-2.888 Y20.664
G1 F2220 X-2.888 Y-20.464 E223.15220
G0 F7500 X-2.888 Y-20.300
G0 X2.888 Y-20.300
G0 X2.888 Y-20.464
G1 F2220 X2.888 Y20.664 E224.63298
G0 F7500 X2.888 Y20.500
G0 X8.664 Y20.500
G0 X8.664 Y20.664
G1 F2220 X8.664 Y-20.464 E226.11375
G0 F7500 X8.664 Y-20.300
G0 X14.440 Y-20.300
G0 X14.440 Y-20.464
G1 F2220 X14.440 Y20.664 E227.59453
G0 F7500 X14.440 Y20.500
G0 X20.216 Y20.500
G0 X20.216 Y20.664
G1 F2220 X20.216 Y-20.464 E229.07531
G0 F7500 X20.216 Y-20.300
G0 X25.992 Y-20.300
G0 X25.992 Y-20.464
G1 F2220 X25.992 Y20.664 E230.55608
G0 F7500 X25.992 Y20.500
G0 X31.768 Y20.500
G0 X31.768 Y20.664
G1 F2220 X31.768 Y-20.464 E232.03686
G0 F7500 X31.768 Y-20.300
G0 X37.544 Y-20.300
G0 X37.544 Y-20.464
G1 F2220 X37.544 Y20.664 E233.51764
G0 F7500 X37.544 Y20.500
G0 X40.500 Y14.440
G0 X40.663 Y14.440
G1 F2220 X-40.564 Y14.439 E236.44214
G0 F7500 X-40.400 Y14.439
G0 X-40.400 Y8.663
G0 X-40.564 Y8.663
G1 F2220 X40.663 Y8.664 E239.36664
G0 F7500 X40.500 Y8.664
G0 X40.500 Y2.888
G0 X40.663 Y2.888
G1 F2220 X-40.564 Y2.887 E242.29115
G0 F7500 X-40.400 Y2.887
G0 X-40.400 Y-2.888
G0 X-40.563 Y-2.888
G1 F2220 X40.664 Y-2.887 E245.21565
G0 F7500 X40.500 Y-2.887
G0 X40.500 Y-8.663
G0 X40.664 Y-8.663
G1 F2220 X-40.563 Y-8.664 E248.14016
G0 F7500 X-40.400 Y-8.664
G0 X-40.400 Y-14.440
G0 X-40.563 Y-14.440
G1 F2220 X40.664 Y-14.439 E251.06466
G0 F7500 X40.500 Y-14.439
G0 X40.500 Y-20.215
G0 X40.664 Y-20.215
G1 F2220 X-40.563 Y-20.216 E253.98917
;LAYER:4
G1 F2400 E252.98917
G0 F7500 X0.216 Y0.216 Z1.100
;TYPE:WALL-OUTER
G1 F2400 E253.98917
G1 F2700 X0.284 Y0.216 E253.99162
G1 X0.284 Y0.284 E253.99406
G1 X0.216 Y0.284 E253.99651
G1 X0.216 Y0.216 E253.99896
G0 F7500 X-0.700 Y-0.700
;TYPE:SUPPORT
G1 F2400 X-0.700 Y1.200 E254.06737
G1 X1.200 Y1.200 E254.13578
G1 X1.200 Y-0.700 E254.20418
G1 X-0.700 Y-0.700 E254.27259
G0 F7500 X-0.690 Y-0.800
G0 X-40.500 Y-20.400
G1 F2400 X40.600 Y-20.400 E257.19252
G1 X40.600 Y20.600 E258.66869
G1 X-40.500 Y20.600 E261.58862
G1 X-40.500 Y-20.400 E263.06479
G0 F7500 X-40.563 Y-20.216
G1 F2400 X40.664 Y-20.215 E265.98930
G0 F7500 X40.500 Y-20.215
G0 X37.544 Y-20.300
G0 X37.544 Y-20.464
G1 F2400 X37.544 Y20.664 E267.47007
G0 F7500 X37.544 Y20.500
G0 X31.768 Y20.500
G0 X31.768 Y20.664
G1 F2400 X31.768 Y-20.464 E268.95085
G0 F7500 X31.768 Y-20.300
G0 X25.992 Y-20.300
G0 X25.992 Y-20.464
G1 F2400 X25.992 Y20.664 E270.43163
G0 F7500 X25.992 Y20.500
G0 X20.216 Y20.500
G0 X20.216 Y20.664
G1 F2400 X20.216 Y-20.464 E271.91240
G0 F7500 X20.216 Y-20.300
G0 X14.440 Y-20.300
G0 X14.440 Y-20.464
G1 F2400 X14.440 Y20.664 E273.39318
G0 F7500 X14.440 Y20.500
G0 X8.664 Y20.500
G0 X8.664 Y20.664
G1 F2400 X8.664 Y-20.464 E274.87396
G0 F7500 X8.664 Y-20.300
G0 X2.888 Y-20.300
G0 X2.888 Y-20.464
G1 F2400 X2.888 Y20.664 E276.35473
G0 F7500 X2.888 Y20.500
G0 X-2.888 Y20.500
G0 X-2.888 Y20.664
G1 F2400 X-2.888 Y-20.464 E277.83551
G0 F7500 X-2.888 Y-20.300
G0 X-8.664 Y-20.300
G0 X-8.664 Y-20.464
G1 F2400 X-8.664 Y20.664 E279.31629
G0 F7500 X-8.664 Y20.500
G0 X-14.440 Y20.500
G0 X-14.440 Y20.664
G1 F2400 X-14.440 Y-20.464 E280.79706
G0 F7500 X-14.440 Y-20.300
G0 X-20.216 Y-20.300
G0 X-20.216 Y-20.464
G1 F2400 X-20.216 Y20.664 E282.27784
G0 F7500 X-20.216 Y20.500
G0 X-25.992 Y20.500
G0 X-25.992 Y20.664
G1 F2400 X-25.992 Y-20.464 E283.75862
G0 F7500 X-25.992 Y-20.300
G0 X-31.768 Y-20.300
G0 X-31.768 Y-20.464
G1 F2400 X-31.768 Y20.664 E285.23939
G0 F7500 X-31.768 Y20.500
G0 X-37.544 Y20.500
G0 X-37.544 Y20.664
G1 F2400 X-37.544 Y-20.464 E286.72017
G0 F7500 X-37.544 Y-20.300
G0 X-40.400 Y-14.440
G0 X-40.563 Y-14.440
G1 F2400 X40.664 Y-14.439 E289.64467
G0 F7500 X40.500 Y-14.439
G0 X40.500 Y-8.663
G0 X40.664 Y-8.663
G1 F2400 X-40.563 Y-8.664 E292.56918
G0 F7500 X-40.400 Y-8.664
G0 X-40.400 Y-2.888
G0 X-40.563 Y-2.888
G1 F2400 X40.664 Y-2.887 E295.49368
G0 F7500 X40.500 Y-2.887
G0 X40.500 Y2.888
G0 X40.663 Y2.888
G1 F2400 X-40.564 Y2.887 E298.41819
G0 F7500 X-40.400 Y2.887
G0 X-40.400 Y8.663
G0 X-40.564 Y8.663
G1 F2400 X40.663 Y8.664 E301.34269
G0 F7500 X40.500 Y8.664
G0 X40.500 Y14.440
G0 X40.663 Y14.440
G1 F2400 X-40.564 Y14.439 E304.26720
G0 F7500 X-40.400 Y14.439
G0 X-40.400 Y20.215
G0 X-40.564 Y20.215
G1 F2400 X40.663 Y20.216 E307.19170
;LAYER:5
G1 F2400 E306.19170
G0 F7500 X0.284 Y0.284 Z1.300
;TYPE:WALL-OUTER
G1 F2400 E307.19170
G1 F2700 X0.216 Y0.284 E307.19415
G1 X0.216 Y0.216 E307.19660
G1 X0.284 Y0.216 E307.19905
G1 X0.284 Y0.284 E307.20149
G0 F7500 X1.200 Y1.200
;TYPE:SUPPORT
G1 F2400 X1.200 Y-0.700 E307.26990
G1 X-0.700 Y-0.700 E307.33831
G1 X-0.700 Y1.200 E307.40672
G1 X1.200 Y1.200 E307.47513
G0 F7500 X1.190 Y1.300
G0 X40.500 Y20.590
G0 X40.600 Y20.600
G1 F2400 X-40.500 Y20.600 E310.39506
G1 X-40.500 Y-20.400 E311.87123
G1 X40.600 Y-20.400 E314.79116
G1 X40.600 Y20.600 E316.26733
G0 F7500 X40.663 Y20.216
G1 F2400 X-40.564 Y20.215 E319.19183
G0 F7500 X-40.400 Y20.215
G0 X-37.544 Y20.500
G0 X-37.544 Y20.664
G1 F2400 X-37.544 Y-20.464 E320.67261
G0 F7500 X-37.544 Y-20.300
G0 X-31.768 Y-20.300
G0 X-31.768 Y-20.464
G1 F2400 X-31.768 Y20.664 E322.15338
G0 F7500 X-31.768 Y20.500
G0 X-25.992 Y20.500
G0 X-25.992 Y20.664
G1 F2400 X-25.992 Y-20.464 E323.63416
G0 F7500 X-25.992 Y-20.300
G0 X-20.216 Y-20.300
G0 X-20.216 Y-20.464
G1 F2400 X-20.216 Y20.664 E325.11494
G0 F7500 X-20.216 Y20.500
G0 X-14.440 Y20.500
G0 X-14.440 Y20.664
G1 F2400 X-14.440 Y-20.464 E326.59571
G0 F7500 X-14.440 Y-20.300
G0 X-8.664 Y-20.300
G0 X-8.664 Y-20.464
G1 F2400 X-8.664 Y20.664 E328.07649
G0 F7500 X-8.664 Y20.500
G0 X-2.888 Y20.500
G0 X-2.888 Y20.664
G1 F2400 X-2.888 Y-20.464 E329.55727
G0 F7500 X-2.888 Y-20.300
G0 X2.888 Y-20.300
G0 X2.888 Y-20.464
G1 F2400 X2.888 Y20.664 E331.03804
G0 F7500 X2.888 Y20.500
G0 X8.664 Y20.500
G0 X8.664 Y20.664
G1 F2400 X8.664 Y-20.464 E332.51882
G0 F7500 X8.664 Y-20.300
G0 X14.440 Y-20.300
G0 X14.440 Y-20.464
G1 F2400 X14.440 Y20.664 E333.99960
G0 F7500 X14.440 Y20.500
G0 X20.216 Y20.500
G0 X20.216 Y20.664
G1 F2400 X20.216 Y-20.464 E335.48037
G0 F7500 X20.216 Y-20.300
G0 X25.992 Y-20.300
G0 X25.992 Y-20.464
G1 F2400 X25.992 Y20.664 E336.96115
G0 F7500 X25.992 Y20.500
G0 X31.768 Y20.500
G0 X31.768 Y20.664
G1 F2400 X31.768 Y-20.464 E338.44192
G0 F7500 X31.768 Y-20.300
G0 X37.544 Y-20.300
G0 X37.544 Y-20.464
G1 F2400 X37.544 Y20.664 E339.92270
