;Generated with Cura_SteamEngine 15.04.6

;Layer count: 16
;LAYER:0
M107
G0 F7500 X-43.716 Y-28.616 Z0.300
;TYPE:SKIRT
G1 F1800 X43.816 Y-28.616 E4.72727
G1 X43.816 Y28.816 E7.82895
G1 X-43.716 Y28.816 E12.55621
G1 X-43.716 Y-28.616 E15.65789
G1 F2400 E14.65789
G0 F7500 X0.216 Y0.216
;TYPE:WALL-OUTER
G1 F2400 E15.65789
G1 F1800 X0.284 Y0.216 E15.66157
G1 X0.284 Y0.284 E15.66524
G1 X0.216 Y0.284 E15.66891
G1 X0.216 Y0.216 E15.67258
G0 F7500 X-0.700 Y-0.700
;TYPE:SUPPORT
G1 F1800 X-0.700 Y1.200 E15.77519
G1 X1.200 Y1.200 E15.87781
G1 X1.200 Y-0.700 E15.98042
G1 X-0.700 Y-0.700 E16.08303
G0 F7500 X-0.690 Y-0.800
G0 X-40.500 Y-25.400
G1 F1800 X40.600 Y-25.400 E20.46293
G1 X40.600 Y25.600 E23.21724
G1 X-40.500 Y25.600 E27.59714
G1 X-40.500 Y-25.400 E30.35145
G0 F7500 X-40.400 Y-20.216
G0 X-40.563 Y-20.216
G1 F1800 X40.664 Y-20.215 E34.73821
G0 F7500 X40.500 Y-20.215
G0 X40.500 Y-14.439
G0 X40.664 Y-14.439
G1 F1800 X-40.563 Y-14.440 E39.12497
G0 F7500 X-40.400 Y-14.440
G0 X-40.400 Y-8.664
G0 X-40.563 Y-8.664
G1 F1800 X40.664 Y-8.663 E43.51172
G0 F7500 X40.500 Y-8.663
G0 X40.500 Y-2.887
G0 X40.664 Y-2.887
G1 F1800 X-40.563 Y-2.888 E47.89848
G0 F7500 X-40.400 Y-2.888
G0 X-40.400 Y2.887
G0 X-40.564 Y2.887
G1 F1800 X40.663 Y2.888 E52.28524
G0 F7500 X40.500 Y2.888
G0 X40.500 Y8.664
G0 X40.663 Y8.664
G1 F1800 X-40.564 Y8.663 E56.67200
G0 F7500 X-40.400 Y8.663
G0 X-40.400 Y14.439
G0 X-40.564 Y14.439
G1 F1800 X40.663 Y14.440 E61.05875
G0 F7500 X40.500 Y14.440
G0 X40.500 Y20.216
G0 X40.663 Y20.216
G1 F1800 X-40.564 Y20.215 E65.44551
G0 F7500 X-40.400 Y20.215
G0 X-37.544 Y25.500
G0 X-37.544 Y25.664
G1 F1800 X-37.544 Y-25.464 E68.20674
G0 F7500 X-37.544 Y-25.300
G0 X-31.768 Y-25.300
G0 X-31.768 Y-25.464
G1 F1800 X-31.768 Y25.664 E70.96796
G0 F7500 X-31.768 Y25.500
G0 X-25.992 Y25.500
G0 X-25.992 Y25.664
G1 F1800 X-25.992 Y-25.464 E73.72919
G0 F7500 X-25.992 Y-25.300
G0 X-20.216 Y-25.300
G0 X-20.216 Y-25.464
G1 F1800 X-20.216 Y25.664 E76.49041
G0 F7500 X-20.216 Y25.500
G0 X-14.440 Y25.500
G0 X-14.440 Y25.664
G1 F1800 X-14.440 Y-25.464 E79.25164
G0 F7500 X-14.440 Y-25.300
G0 X-8.664 Y-25.300
G0 X-8.664 Y-25.464
G1 F1800 X-8.664 Y25.664 E82.01287
G0 F7500 X-8.664 Y25.500
G0 X-2.888 Y25.500
G0 X-2.888 Y25.664
G1 F1800 X-2.888 Y-25.464 E84.77409
G0 F7500 X-2.888 Y-25.300
G0 X2.888 Y-25.300
G0 X2.888 Y-25.464
G1 F1800 X2.888 Y25.664 E87.53532
G0 F7500 X2.888 Y25.500
G0 X8.664 Y25.500
G0 X8.664 Y25.664
G1 F1800 X8.664 Y-25.464 E90.29655
G0 F7500 X8.664 Y-25.300
G0 X14.440 Y-25.300
G0 X14.440 Y-25.464
G1 F1800 X14.440 Y25.664 E93.05777
G0 F7500 X14.440 Y25.500
G0 X20.216 Y25.500
G0 X20.216 Y25.664
G1 F1800 X20.216 Y-25.464 E95.81900
G0 F7500 X20.216 Y-25.300
G0 X25.992 Y-25.300
G0 X25.992 Y-25.464
G1 F1800 X25.992 Y25.664 E98.58022
G0 F7500 X25.992 Y25.500
G0 X31.768 Y25.500
G0 X31.768 Y25.664
G1 F1800 X31.768 Y-25.464 E101.34145
G0 F7500 X31.768 Y-25.300
G0 X37.544 Y-25.300
G0 X37.544 Y-25.464
G1 F1800 X37.544 Y25.664 E104.10268
;LAYER:1
M106 S63
G1 F2400 E103.10268
G0 F7500 X0.284 Y0.284 Z0.500
;TYPE:WALL-OUTER
G1 F2400 E104.10268
G1 F1980 X0.216 Y0.284 E104.10512
G1 X0.216 Y0.216 E104.10757
G1 X0.284 Y0.216 E104.11002
G1 X0.284 Y0.284 E104.11247
G0 F7500 X1.200 Y1.200
;TYPE:SUPPORT
G1 F1920 X1.200 Y-0.700 E104.18088
G1 X-0.700 Y-0.700 E104.24928
G1 X-0.700 Y1.200 E104.31769
G1 X1.200 Y1.200 E104.38610
G0 F7500 X1.190 Y1.300
G0 X40.500 Y25.590
G0 X40.600 Y25.600
G1 F1920 X-40.500 Y25.600 E107.30603
G1 X-40.500 Y-25.400 E109.14224
G1 X40.600 Y-25.400 E112.06217
G1 X40.600 Y25.600 E113.89838
G0 F7500 X40.500 Y25.590
G0 X40.500 Y20.216
G0 X40.663 Y20.216
G1 F1920 X-40.564 Y20.215 E116.82289
G0 F7500 X-40.400 Y20.215
G0 X-40.400 Y14.439
G0 X-40.564 Y14.439
G1 F1920 X40.663 Y14.440 E119.74739
G0 F7500 X40.500 Y14.440
G0 X40.500 Y8.664
G0 X40.663 Y8.664
G1 F1920 X-40.564 Y8.663 E122.67190
G0 F7500 X-40.400 Y8.663
G0 X-40.400 Y2.887
G0 X-40.564 Y2.887
G1 F1920 X40.663 Y2.888 E125.59640
G0 F7500 X40.500 Y2.888
G0 X40.500 Y-2.887
G0 X40.664 Y-2.887
G1 F1920 X-40.563 Y-2.888 E128.52091
G0 F7500 X-40.400 Y-2.888
G0 X-40.400 Y-8.664
G0 X-40.563 Y-8.664
G1 F1920 X40.664 Y-8.663 E131.44541
G0 F7500 X40.500 Y-8.663
G0 X40.500 Y-14.439
G0 X40.664 Y-14.439
G1 F1920 X-40.563 Y-14.440 E134.36992
G0 F7500 X-40.400 Y-14.440
G0 X-40.400 Y-20.216
G0 X-40.563 Y-20.216
G1 F1920 X40.664 Y-20.215 E137.29442
G0 F7500 X40.500 Y-20.215
G0 X37.544 Y-25.300
G0 X37.544 Y-25.464
G1 F1920 X37.544 Y25.664 E139.13524
G0 F7500 X37.544 Y25.500
G0 X31.768 Y25.500
G0 X31.768 Y25.664
G1 F1920 X31.768 Y-25.464 E140.97605
G0 F7500 X31.768 Y-25.300
G0 X25.992 Y-25.300
G0 X25.992 Y-25.464
G1 F1920 X25.992 Y25.664 E142.81687
G0 F7500 X25.992 Y25.500
G0 X20.216 Y25.500
G0 X20.216 Y25.664
G1 F1920 X20.216 Y-25.464 E144.65769
G0 F7500 X20.216 Y-25.300
G0 X14.440 Y-25.300
G0 X14.440 Y-25.464
G1 F1920 X14.440 Y25.664 E146.49851
G0 F7500 X14.440 Y25.500
G0 X8.664 Y25.500
G0 X8.664 Y25.664
G1 F1920 X8.664 Y-25.464 E148.33932
G0 F7500 X8.664 Y-25.300
G0 X2.888 Y-25.300
G0 X2.888 Y-25.464
G1 F1920 X2.888 Y25.664 E150.18014
G0 F7500 X2.888 Y25.500
G0 X-2.888 Y25.500
G0 X-2.888 Y25.664
G1 F1920 X-2.888 Y-25.464 E152.02096
G0 F7500 X-2.888 Y-25.300
G0 X-8.664 Y-25.300
G0 X-8.664 Y-25.464
G1 F1920 X-8.664 Y25.664 E153.86178
G0 F7500 X-8.664 Y25.500
G0 X-14.440 Y25.500
G0 X-14.440 Y25.664
G1 F1920 X-14.440 Y-25.464 E155.70259
G0 F7500 X-14.440 Y-25.300
G0 X-20.216 Y-25.300
G0 X-20.216 Y-25.464
G1 F1920 X-20.216 Y25.664 E157.54341
G0 F7500 X-20.216 Y25.500
G0 X-25.992 Y25.500
G0 X-25.992 Y25.664
G1 F1920 X-25.992 Y-25.464 E159.38423
G0 F7500 X-25.992 Y-25.300
G0 X-31.768 Y-25.300
G0 X-31.768 Y-25.464
G1 F1920 X-31.768 Y25.664 E161.22505
G0 F7500 X-31.768 Y25.500
G0 X-37.544 Y25.500
G0 X-37.544 Y25.664
G1 F1920 X-37.544 Y-25.464 E163.06586
;LAYER:2
M106 S127
G1 F2400 E162.06586
G0 F7500 X0.216 Y0.216 Z0.700
;TYPE:WALL-OUTER
G1 F2400 E163.06586
G1 F2220 X0.284 Y0.216 E163.06831
G1 X0.284 Y0.284 E163.07076
G1 X0.216 Y0.284 E163.07321
G1 X0.216 Y0.216 E163.07566
G0 F7500 X-0.700 Y-0.700
;TYPE:SUPPORT
G1 F2100 X-0.700 Y1.200 E163.14406
G1 X1.200 Y1.200 E163.21247
G1 X1.200 Y-0.700 E163.28088
G1 X-0.700 Y-0.700 E163.34929
G0 F7500 X-0.690 Y-0.800
G0 X-40.500 Y-25.400
G1 F2100 X40.600 Y-25.400 E166.26922
G1 X40.600 Y25.600 E168.10543
G1 X-40.500 Y25.600 E171.02536
G1 X-40.500 Y-25.400 E172.86157
G0 F7500 X-40.400 Y-20.216
G0 X-40.563 Y-20.216
G1 F2100 X40.664 Y-20.215 E175.78608
G0 F7500 X40.500 Y-20.215
G0 X40.500 Y-14.439
G0 X40.664 Y-14.439
G1 F2100 X-40.563 Y-14.440 E178.71058
G0 F7500 X-40.400 Y-14.440
G0 X-40.400 Y-8.664
G0 X-40.563 Y-8.664
G1 F2100 X40.664 Y-8.663 E181.63508
G0 F7500 X40.500 Y-8.663
G0 X40.500 Y-2.887
G0 X40.664 Y-2.887
G1 F2100 X-40.563 Y-2.888 E184.55959
G0 F7500 X-40.400 Y-2.888
G0 X-40.400 Y2.887
G0 X-40.564 Y2.887
G1 F2100 X40.663 Y2.888 E187.48409
G0 F7500 X40.500 Y2.888
G0 X40.500 Y8.664
G0 X40.663 Y8.664
G1 F2100 X-40.564 Y8.663 E190.40860
G0 F7500 X-40.400 Y8.663
G0 X-40.400 Y14.439
G0 X-40.564 Y14.439
G1 F2100 X40.663 Y14.440 E193.33310
G0 F7500 X40.500 Y14.440
G0 X40.500 Y20.216
G0 X40.663 Y20.216
G1 F2100 X-40.564 Y20.215 E196.25761
G0 F7500 X-40.400 Y20.215
G0 X-37.544 Y25.500
G0 X-37.544 Y25.664
G1 F2100 X-37.544 Y-25.464 E198.09843
G0 F7500 X-37.544 Y-25.300
G0 X-31.768 Y-25.300
G0 X-31.768 Y-25.464
G1 F2100 X-31.768 Y25.664 E199.93924
G0 F7500 X-31.768 Y25.500
G0 X-25.992 Y25.500
G0 X-25.992 Y25.664
G1 F2100 X-25.992 Y-25.464 E201.78006
G0 F7500 X-25.992 Y-25.300
G0 X-20.216 Y-25.300
G0 X-20.216 Y-25.464
G1 F2100 X-20.216 Y25.664 E203.62088
G0 F7500 X-20.216 Y25.500
G0 X-14.440 Y25.500
G0 X-14.440 Y25.664
G1 F2100 X-14.440 Y-25.464 E205.46170
G0 F7500 X-14.440 Y-25.300
G0 X-8.664 Y-25.300
G0 X-8.664 Y-25.464
G1 F2100 X-8.664 Y25.664 E207.30251
G0 F7500 X-8.664 Y25.500
G0 X-2.888 Y25.500
G0 X-2.888 Y25.664
G1 F2100 X-2.888 Y-25.464 E209.14333
G0 F7500 X-2.888 Y-25.300
G0 X2.888 Y-25.300
G0 X2.888 Y-25.464
G1 F2100 X2.888 Y25.664 E210.98415
G0 F7500 X2.888 Y25.500
G0 X8.664 Y25.500
G0 X8.664 Y25.664
G1 F2100 X8.664 Y-25.464 E212.82497
G0 F7500 X8.664 Y-25.300
G0 X14.440 Y-25.300
G0 X14.440 Y-25.464
G1 F2100 X14.440 Y25.664 E214.66578
G0 F7500 X14.440 Y25.500
G0 X20.216 Y25.500
G0 X20.216 Y25.664
G1 F2100 X20.216 Y-25.464 E216.50660
G0 F7500 X20.216 Y-25.300
G0 X25.992 Y-25.300
G0 X25.992 Y-25.464
G1 F2100 X25.992 Y25.664 E218.34742
G0 F7500 X25.992 Y25.500
G0 X31.768 Y25.500
G0 X31.768 Y25.664
G1 F2100 X31.768 Y-25.464 E220.18823
G0 F7500 X31.768 Y-25.300
G0 X37.544 Y-25.300
G0 X37.544 Y-25.464
G1 F2100 X37.544 Y25.664 E222.02905
;LAYER:3
G1 F2400 E221.02905
G0 F7500 X0.284 Y0.284 Z0.900
;TYPE:WALL-OUTER
G1 F2400 E222.02905
G1 X0.216 Y0.284 E222.03150
G1 X0.216 Y0.216 E222.03395
G1 X0.284 Y0.216 E222.03640
G1 X0.284 Y0.284 E222.03885
G0 F7500 X1.200 Y1.200
;TYPE:SUPPORT
G1 F2220 X1.200 Y-0.700 E222.10725
G1 X-0.700 Y-0.700 E222.17566
G1 X-0.700 Y1.200 E222.24407
G1 X1.200 Y1.200 E222.31248
G0 F7500 X1.190 Y1.300
G0 X40.500 Y25.590
G0 X40.600 Y25.600
G1 F2220 X-40.500 Y25.600 E225.23241
G1 X-40.500 Y-25.400 E227.06862
G1 X40.600 Y-25.400 E229.98855
G1 X40.600 Y25.600 E231.82476
G0 F7500 X40.500 Y25.590
G0 X40.500 Y20.216
G0 X40.663 Y20.216
G1 F2220 X-40.564 Y20.215 E234.74926
G0 F7500 X-40.400 Y20.215
G0 X-40.400 Y14.439
G0 X-40.564 Y14.439
G1 F2220 X40.663 Y14.440 E237.67377
G0 F7500 X40.500 Y14.440
G0 X40.500 Y8.664
G0 X40.663 Y8.664
G1 F2220 X-40.564 Y8.663 E240.59827
G0 F7500 X-40.400 Y8.663
G0 X-40.400 Y2.887
G0 X-40.564 Y2.887
G1 F2220 X40.663 Y2.888 E243.52278
G0 F7500 X40.500 Y2.888
G0 X40.500 Y-2.887
G0 X40.664 Y-2.887
G1 F2220 X-40.563 Y-2.888 E246.44728
G0 F7500 X-40.400 Y-2.888
G0 X-40.400 Y-8.664
G0 X-40.563 Y-8.664
G1 F2220 X40.664 Y-8.663 E249.37179
G0 F7500 X40.500 Y-8.663
G0 X40.500 Y-14.439
G0 X40.664 Y-14.439
G1 F2220 X-40.563 Y-14.440 E252.29629
G0 F7500 X-40.400 Y-14.440
G0 X-40.400 Y-20.216
G0 X-40.563 Y-20.216
G1 F2220 X40.664 Y-20.215 E255.22080
G0 F7500 X40.500 Y-20.215
G0 X37.544 Y-25.300
G0 X37.544 Y-25.464
G1 F2220 X37.544 Y25.664 E257.06161
G0 F7500 X37.544 Y25.500
G0 X31.768 Y25.500
G0 X31.768 Y25.664
G1 F2220 X31.768 Y-25.464 E258.90243
G0 F7500 X31.768 Y-25.300
G0 X25.992 Y-25.300
G0 X25.992 Y-25.464
G1 F2220 X25.992 Y25.664 E260.74325
G0 F7500 X25.992 Y25.500
G0 X20.216 Y25.500
G0 X20.216 Y25.664
G1 F2220 X20.216 Y-25.464 E262.58407
G0 F7500 X20.216 Y-25.300
G0 X14.440 Y-25.300
G0 X14.440 Y-25.464
G1 F2220 X14.440 Y25.664 E264.42488
G0 F7500 X14.440 Y25.500
G0 X8.664 Y25.500
G0 X8.664 Y25.664
G1 F2220 X8.664 Y-25.464 E266.26570
G0 F7500 X8.664 Y-25.300
G0 X2.888 Y-25.300
G0 X2.888 Y-25.464
G1 F2220 X2.888 Y25.664 E268.10652
G0 F7500 X2.888 Y25.500
G0 X-2.888 Y25.500
G0 X-2.888 Y25.664
G1 F2220 X-2.888 Y-25.464 E269.94734
G0 F7500 X-2.888 Y-25.300
G0 X-8.664 Y-25.300
G0 X-8.664 Y-25.464
G1 F2220 X-8.664 Y25.664 E271.78815
G0 F7500 X-8.664 Y25.500
G0 X-14.440 Y25.500
G0 X-14.440 Y25.664
G1 F2220 X-14.440 Y-25.464 E273.62897
G0 F7500 X-14.440 Y-25.300
G0 X-20.216 Y-25.300
G0 X-20.216 Y-25.464
G1 F2220 X-20.216 Y25.664 E275.46979
G0 F7500 X-20.216 Y25.500
G0 X-25.992 Y25.500
G0 X-25.992 Y25.664
G1 F2220 X-25.992 Y-25.464 E277.31061
G0 F7500 X-25.992 Y-25.300
G0 X-31.768 Y-25.300
G0 X-31.768 Y-25.464
G1 F2220 X-31.768 Y25.664 E279.15142
G0 F7500 X-31.768 Y25.500
G0 X-37.544 Y25.500
G0 X-37.544 Y25.664
G1 F2220 X-37.544 Y-25.464 E280.99224
;LAYER:4
G1 F2400 E279.99224
G0 F7500 X0.216 Y0.216 Z1.100
;TYPE:WALL-OUTER
G1 F2400 E280.99224
G1 F2700 X0.284 Y0.216 E280.99469
G1 X0.284 Y0.284 E280.99714
G1 X0.216 Y0.284 E280.99959
G1 X0.216 Y0.216 E281.00203
G0 F7500 X-0.700 Y-0.700
;TYPE:SUPPORT
G1 F2400 X-0.700 Y1.200 E281.07044
G1 X1.200 Y1.200 E281.13885
G1 X1.200 Y-0.700 E281.20726
G1 X-0.700 Y-0.700 E281.27566
G0 F7500 X-0.690 Y-0.800
G0 X-40.500 Y-25.400
G1 F2400 X40.600 Y-25.400 E284.19560
G1 X40.600 Y25.600 E286.03181
G1 X-40.500 Y25.600 E288.95174
G1 X-40.500 Y-25.400 E290.78795
G0 F7500 X-40.400 Y-20.216
G0 X-40.563 Y-20.216
G1 F2400 X40.664 Y-20.215 E293.71245
G0 F7500 X40.500 Y-20.215
G0 X40.500 Y-14.439
G0 X40.664 Y-14.439
G1 F2400 X-40.563 Y-14.440 E296.63696
G0 F7500 X-40.400 Y-14.440
G0 X-40.400 Y-8.664
G0 X-40.563 Y-8.664
G1 F2400 X40.664 Y-8.663 E299.56146
G0 F7500 X40.500 Y-8.663
G0 X40.500 Y-2.887
G0 X40.664 Y-2.887
G1 F2400 X-40.563 Y-2.888 E302.48597
G0 F7500 X-40.400 Y-2.888
G0 X-40.400 Y2.887
G0 X-40.564 Y2.887
G1 F2400 X40.663 Y2.888 E305.41047
G0 F7500 X40.500 Y2.888
G0 X40.500 Y8.664
G0 X40.663 Y8.664
G1 F2400 X-40.564 Y8.663 E308.33498
G0 F7500 X-40.400 Y8.663
G0 X-40.400 Y14.439
G0 X-40.564 Y14.439
G1 F2400 X40.663 Y14.440 E311.25948
G0 F7500 X40.500 Y14.440
G0 X40.500 Y20.216
G0 X40.663 Y20.216
G1 F2400 X-40.564 Y20.215 E314.18398
G0 F7500 X-40.400 Y20.215
G0 X-37.544 Y25.500
G0 X-37.544 Y25.664
G1 F2400 X-37.544 Y-25.464 E316.02480
G0 F7500 X-37.544 Y-25.300
G0 X-31.768 Y-25.300
G0 X-31.768 Y-25.464
G1 F2400 X-31.768 Y25.664 E317.86562
G0 F7500 X-31.768 Y25.500
G0 X-25.992 Y25.500
G0 X-25.992 Y25.664
G1 F2400 X-25.992 Y-25.464 E319.70644
G0 F7500 X-25.992 Y-25.300
G0 X-20.216 Y-25.300
G0 X-20.216 Y-25.464
G1 F2400 X-20.216 Y25.664 E321.54725
G0 F7500 X-20.216 Y25.500
G0 X-14.440 Y25.500
G0 X-14.440 Y25.664
G1 F2400 X-14.440 Y-25.464 E323.38807
G0 F7500 X-14.440 Y-25.300
G0 X-8.664 Y-25.300
G0 X-8.664 Y-25.464
G1 F2400 X-8.664 Y25.664 E325.22889
G0 F7500 X-8.664 Y25.500
G0 X-2.888 Y25.500
G0 X-2.888 Y25.664
G1 F2400 X-2.888 Y-25.464 E327.06971
G0 F7500 X-2.888 Y-25.300
G0 X2.888 Y-25.300
G0 X2.888 Y-25.464
G1 F2400 X2.888 Y25.664 E328.91052
G0 F7500 X2.888 Y25.500
G0 X8.664 Y25.500
G0 X8.664 Y25.664
G1 F2400 X8.664 Y-25.464 E330.75134
G0 F7500 X8.664 Y-25.300
G0 X14.440 Y-25.300
G0 X14.440 Y-25.464
G1 F2400 X14.440 Y25.664 E332.59216
G0 F7500 X14.440 Y25.500
G0 X20.216 Y25.500
G0 X20.216 Y25.664
G1 F2400 X20.216 Y-25.464 E334.43298
G0 F7500 X20.216 Y-25.300
G0 X25.992 Y-25.300
G0 X25.992 Y-25.464
G1 F2400 X25.992 Y25.664 E336.27379
G0 F7500 X25.992 Y25.500
G0 X31.768 Y25.500
G0 X31.768 Y25.664
G1 F2400 X31.768 Y-25.464 E338.11461
G0 F7500 X31.768 Y-25.300
G0 X37.544 Y-25.300
G0 X37.544 Y-25.464
G1 F2400 X37.544 Y25.664 E339.95543
;LAYER:5
G1 F2400 E338.95543
G0 F7500 X0.284 Y0.284 Z1.300
;TYPE:WALL-OUTER
G1 F2400 E339.95543
G1 F2700 X0.216 Y0.284 E339.95788
G1 X0.216 Y0.216 E339.96033
G1 X0.284 Y0.216 E339.96277
G1 X0.284 Y0.284 E339.96522
G0 F7500 X1.200 Y1.200
;TYPE:SUPPORT
G1 F2400 X1.200 Y-0.700 E340.03363
G1 X-0.700 Y-0.700 E340.10204
G1 X-0.700 Y1.200 E340.17045
G1 X1.200 Y1.200 E340.23885
G0 F7500 X1.190 Y1.300
G0 X40.500 Y25.590
G0 X40.600 Y25.600
G1 F2400 X-40.500 Y25.600 E343.15879
G1 X-40.500 Y-25.400 E344.99499
G1 X40.600 Y-25.400 E347.91493
G1 X40.600 Y25.600 E349.75114
G0 F7500 X40.500 Y25.590
G0 X40.500 Y20.216
G0 X40.663 Y20.216
G1 F2400 X-40.564 Y20.215 E352.67564
G0 F7500 X-40.400 Y20.215
G0 X-40.400 Y14.439
G0 X-40.564 Y14.439
G1 F2400 X40.663 Y14.440 E355.60014
G0 F7500 X40.500 Y14.440
G0 X40.500 Y8.664
G0 X40.663 Y8.664
G1 F2400 X-40.564 Y8.663 E358.52465
G0 F7500 X-40.400 Y8.663
G0 X-40.400 Y2.887
G0 X-40.564 Y2.887
G1 F2400 X40.663 Y2.888 E361.44915
G0 F7500 X40.500 Y2.888
G0 X40.500 Y-2.887
G0 X40.664 Y-2.887
G1 F2400 X-40.563 Y-2.888 E364.37366
G0 F7500 X-40.400 Y-2.888
G0 X-40.400 Y-8.664
G0 X-40.563 Y-8.664
G1 F2400 X40.664 Y-8.663 E367.29816
G0 F7500 X40.500 Y-8.663
G0 X40.500 Y-14.439
G0 X40.664 Y-14.439
G1 F2400 X-40.563 Y-14.440 E370.22267
G0 F7500 X-40.400 Y-14.440
G0 X-40.400 Y-20.216
G0 X-40.563 Y-20.216
G1 F2400 X40.664 Y-20.215 E373.14717
G0 F7500 X40.500 Y-20.215
G0 X37.544 Y-25.300
G0 X37.544 Y-25.464
G1 F2400 X37.544 Y25.664 E374.98799
G0 F7500 X37.544 Y25.500
G0 X31.768 Y25.500
G0 X31.768 Y25.664
G1 F2400 X31.768 Y-25.464 E376.82881
G0 F7500 X31.768 Y-25.300
G0 X25.992 Y-25.300
G0 X25.992 Y-25.464
G1 F2400 X25.992 Y25.664 E378.66963
G0 F7500 X25.992 Y25.500
G0 X20.216 Y25.500
G0 X20.216 Y25.664
G1 F2400 X20.216 Y-25.464 E380.51044
G0 F7500 X20.216 Y-25.300
G0 X14.440 Y-25.300
G0 X14.440 Y-25.464
G1 F2400 X14.440 Y25.664 E382.35126
G0 F7500 X14.440 Y25.500
