;Generated with Cura_SteamEngine 15.04.6

;Layer count: 16
;LAYER:0
M107
G0 F7500 X-43.716 Y-33.616 Z0.300
;TYPE:SKIRT
G1 F1800 X43.816 Y-33.616 E4.72727
G1 X43.816 Y33.816 E8.36901
G1 X-43.716 Y33.816 E13.09627
G1 X-43.716 Y-33.616 E16.73802
G1 F2400 E15.73802
G0 F7500 X0.216 Y0.216
;TYPE:WALL-OUTER
G1 F2400 E16.73802
G1 F1800 X0.284 Y0.216 E16.74169
G1 X0.284 Y0.284 E16.74536
G1 X0.216 Y0.284 E16.74903
G1 X0.216 Y0.216 E16.75271
G0 F7500 X-0.700 Y-0.700
;TYPE:SUPPORT
G1 F1800 X-0.700 Y1.200 E16.85532
G1 X1.200 Y1.200 E16.95793
G1 X1.200 Y-0.700 E17.06054
G1 X-0.700 Y-0.700 E17.16315
G0 F7500 X-0.690 Y-0.800
G0 X-40.500 Y-30.400
G1 F1800 X40.600 Y-30.400 E21.54305
G1 X40.600 Y30.600 E24.83743
G1 X-40.500 Y30.600 E29.21732
G1 X-40.500 Y-30.400 E32.51170
G0 F7500 X-40.400 Y-25.992
G0 X-40.563 Y-25.992
G1 F1800 X40.664 Y-25.991 E36.89846
G0 F7500 X40.500 Y-25.991
G0 X40.500 Y-20.215
G0 X40.664 Y-20.215
G1 F1800 X-40.563 Y-20.216 E41.28521
G0 F7500 X-40.400 Y-20.216
G0 X-40.400 Y-14.440
G0 X-40.563 Y-14.440
G1 F1800 X40.664 Y-14.439 E45.67197
G0 F7500 X40.500 Y-14.439
G0 X40.500 Y-8.663
G0 X40.664 Y-8.663
G1 F1800 X-40.563 Y-8.664 E50.05873
G0 F7500 X-40.400 Y-8.664
G0 X-40.400 Y-2.888
G0 X-40.563 Y-2.888
G1 F1800 X40.664 Y-2.887 E54.44548
G0 F7500 X40.500 Y-2.887
G0 X40.500 Y2.888
G0 X40.663 Y2.888
G1 F1800 X-40.564 Y2.887 E58.83224
G0 F7500 X-40.400 Y2.887
G0 X-40.400 Y8.663
G0 X-40.564 Y8.663
G1 F1800 X40.663 Y8.664 E63.21900
G0 F7500 X40.500 Y8.664
G0 X40.500 Y14.440
G0 X40.663 Y14.440
G1 F1800 X-40.564 Y14.439 E67.60576
G0 F7500 X-40.400 Y14.439
G0 X-40.400 Y20.215
G0 X-40.564 Y20.215
G1 F1800 X40.663 Y20.216 E71.99251
G0 F7500 X40.500 Y20.216
G0 X40.500 Y25.992
G0 X40.663 Y25.992
G1 F1800 X-40.564 Y25.991 E76.37927
G0 F7500 X-40.400 Y25.991
G0 X-37.544 Y30.500
G0 X-37.544 Y30.664
G1 F1800 X-37.544 Y-30.464 E79.68056
G0 F7500 X-37.544 Y-30.300
G0 X-31.768 Y-30.300
G0 X-31.768 Y-30.464
G1 F1800 X-31.768 Y30.664 E82.98184
G0 F7500 X-31.768 Y30.500
G0 X-25.992 Y30.500
G0 X-25.992 Y30.664
G1 F1800 X-25.992 Y-30.464 E86.28313
G0 F7500 X-25.992 Y-30.300
G0 X-20.216 Y-30.300
G0 X-20.216 Y-30.464
G1 F1800 X-20.216 Y30.664 E89.58442
G0 F7500 X-20.216 Y30.500
G0 X-14.440 Y30.500
G0 X-14.440 Y30.664
G1 F1800 X-14.440 Y-30.464 E92.88571
G0 F7500 X-14.440 Y-30.300
G0 X-8.664 Y-30.300
G0 X-8.664 Y-30.464
G1 F1800 X-8.664 Y30.664 E96.18700
G0 F7500 X-8.664 Y30.500
G0 X-2.888 Y30.500
G0 X-2.888 Y30.664
G1 F1800 X-2.888 Y-30.464 E99.48828
G0 F7500 X-2.888 Y-30.300
G0 X2.888 Y-30.300
G0 X2.888 Y-30.464
G1 F1800 X2.888 Y30.664 E102.78957
G0 F7500 X2.888 Y30.500
G0 X8.664 Y30.500
G0 X8.664 Y30.664
G1 F1800 X8.664 Y-30.464 E106.09086
G0 F7500 X8.664 Y-30.300
G0 X14.440 Y-30.300
G0 X14.440 Y-30.464
G1 F1800 X14.440 Y30.664 E109.39215
G0 F7500 X14.440 Y30.500
G0 X20.216 Y30.500
G0 X20.216 Y30.664
G1 F1800 X20.216 Y-30.464 E112.69343
G0 F7500 X20.216 Y-30.300
G0 X25.992 Y-30.300
G0 X25.992 Y-30.464
G1 F1800 X25.992 Y30.664 E115.99472
G0 F7500 X25.992 Y30.500
G0 X31.768 Y30.500
G0 X31.768 Y30.664
G1 F1800 X31.768 Y-30.464 E119.29601
G0 F7500 X31.768 Y-30.300
G0 X37.544 Y-30.300
G0 X37.544 Y-30.464
G1 F1800 X37.544 Y30.664 E122.59730
;LAYER:1
M106 S63
G1 F2400 E121.59730
G0 F7500 X0.284 Y0.284 Z0.500
;TYPE:WALL-OUTER
G1 F2400 E122.59730
G1 F1980 X0.216 Y0.284 E122.59974
G1 X0.216 Y0.216 E122.60219
G1 X0.284 Y0.216 E122.60464
G1 X0.284 Y0.284 E122.60709
G0 F7500 X1.200 Y1.200
;TYPE:SUPPORT
G1 F1920 X1.200 Y-0.700 E122.67550
G1 X-0.700 Y-0.700 E122.74390
G1 X-0.700 Y1.200 E122.81231
G1 X1.200 Y1.200 E122.88072
G0 F7500 X1.190 Y1.300
G0 X40.500 Y30.590
G0 X40.600 Y30.600
G1 F1920 X-40.500 Y30.600 E125.80065
G1 X-40.500 Y-30.400 E127.99690
G1 X40.600 Y-30.400 E130.91683
G1 X40.600 Y30.600 E133.11308
G0 F7500 X40.500 Y30.590
G0 X40.500 Y25.992
G0 X40.663 Y25.992
G1 F1920 X-40.564 Y25.991 E136.03759
G0 F7500 X-40.400 Y25.991
G0 X-40.400 Y20.215
G0 X-40.564 Y20.215
G1 F1920 X40.663 Y20.216 E138.96209
G0 F7500 X40.500 Y20.216
G0 X40.500 Y14.440
G0 X40.663 Y14.440
G1 F1920 X-40.564 Y14.439 E141.88660
G0 F7500 X-40.400 Y14.439
G0 X-40.400 Y8.663
G0 X-40.564 Y8.663
G1 F1920 X40.663 Y8.664 E144.81110
G0 F7500 X40.500 Y8.664
G0 X40.500 Y2.888
G0 X40.663 Y2.888
G1 F1920 X-40.564 Y2.887 E147.73561
G0 F7500 X-40.400 Y2.887
G0 X-40.400 Y-2.888
G0 X-40.563 Y-2.888
G1 F1920 X40.664 Y-2.887 E150.66011
G0 F7500 X40.500 Y-2.887
G0 X40.500 Y-8.663
G0 X40.664 Y-8.663
G1 F1920 X-40.563 Y-8.664 E153.58462
G0 F7500 X-40.400 Y-8.664
G0 X-40.400 Y-14.440
G0 X-40.563 Y-14.440
G1 F1920 X40.664 Y-14.439 E156.50912
G0 F7500 X40.500 Y-14.439
G0 X40.500 Y-20.215
G0 X40.664 Y-20.215
G1 F1920 X-40.563 Y-20.216 E159.43363
G0 F7500 X-40.400 Y-20.216
G0 X-40.400 Y-25.992
G0 X-40.563 Y-25.992
G1 F1920 X40.664 Y-25.991 E162.35813
G0 F7500 X40.500 Y-25.991
G0 X37.544 Y-30.300
G0 X37.544 Y-30.464
G1 F1920 X37.544 Y30.664 E164.55899
G0 F7500 X37.544 Y30.500
G0 X31.768 Y30.500
G0 X31.768 Y30.664
G1 F1920 X31.768 Y-30.464 E166.75985
G0 F7500 X31.768 Y-30.300
G0 X25.992 Y-30.300
G0 X25.992 Y-30.464
G1 F1920 X25.992 Y30.664 E168.96071
G0 F7500 X25.992 Y30.500
G0 X20.216 Y30.500
G0 X20.216 Y30.664
G1 F1920 X20.216 Y-30.464 E171.16157
G0 F7500 X20.216 Y-30.300
G0 X14.440 Y-30.300
G0 X14.440 Y-30.464
G1 F1920 X14.440 Y30.664 E173.36242
G0 F7500 X14.440 Y30.500
G0 X8.664 Y30.500
G0 X8.664 Y30.664
G1 F1920 X8.664 Y-30.464 E175.56328
G0 F7500 X8.664 Y-30.300
G0 X2.888 Y-30.300
G0 X2.888 Y-30.464
G1 F1920 X2.888 Y30.664 E177.76414
G0 F7500 X2.888 Y30.500
G0 X-2.888 Y30.500
G0 X-2.888 Y30.664
G1 F1920 X-2.888 Y-30.464 E179.96500
G0 F7500 X-2.888 Y-30.300
G0 X-8.664 Y-30.300
G0 X-8.664 Y-30.464
G1 F1920 X-8.664 Y30.664 E182.16586
G0 F7500 X-8.664 Y30.500
G0 X-14.440 Y30.500
G0 X-14.440 Y30.664
G1 F1920 X-14.440 Y-30.464 E184.36672
G0 F7500 X-14.440 Y-30.300
G0 X-20.216 Y-30.300
G0 X-20.216 Y-30.464
G1 F1920 X-20.216 Y30.664 E186.56757
G0 F7500 X-20.216 Y30.500
G0 X-25.992 Y30.500
G0 X-25.992 Y30.664
G1 F1920 X-25.992 Y-30.464 E188.76843
G0 F7500 X-25.992 Y-30.300
G0 X-31.768 Y-30.300
G0 X-31.768 Y-30.464
G1 F1920 X-31.768 Y30.664 E190.96929
G0 F7500 X-31.768 Y30.500
G0 X-37.544 Y30.500
G0 X-37.544 Y30.664
G1 F1920 X-37.544 Y-30.464 E193.17015
;LAYER:2
M106 S127
G1 F2400 E192.17015
G0 F7500 X0.216 Y0.216 Z0.700
;TYPE:WALL-OUTER
G1 F2400 E193.17015
G1 F2220 X0.284 Y0.216 E193.17260
G1 X0.284 Y0.284 E193.17505
G1 X0.216 Y0.284 E193.17749
G1 X0.216 Y0.216 E193.17994
G0 F7500 X-0.700 Y-0.700
;TYPE:SUPPORT
G1 F2100 X-0.700 Y1.200 E193.24835
G1 X1.200 Y1.200 E193.31676
G1 X1.200 Y-0.700 E193.38517
G1 X-0.700 Y-0.700 E193.45357
G0 F7500 X-0.690 Y-0.800
G0 X-40.500 Y-30.400
G1 F2100 X40.600 Y-30.400 E196.37351
G1 X40.600 Y30.600 E198.56976
G1 X-40.500 Y30.600 E201.48969
G1 X-40.500 Y-30.400 E203.68594
G0 F7500 X-40.400 Y-25.992
G0 X-40.563 Y-25.992
G1 F2100 X40.664 Y-25.991 E206.61044
G0 F7500 X40.500 Y-25.991
G0 X40.500 Y-20.215
G0 X40.664 Y-20.215
G1 F2100 X-40.563 Y-20.216 E209.53495
G0 F7500 X-40.400 Y-20.216
G0 X-40.400 Y-14.440
G0 X-40.563 Y-14.440
G1 F2100 X40.664 Y-14.439 E212.45945
G0 F7500 X40.500 Y-14.439
G0 X40.500 Y-8.663
G0 X40.664 Y-8.663
G1 F2100 X-40.563 Y-8.664 E215.38396
G0 F7500 X-40.400 Y-8.664
G0 X-40.400 Y-2.888
G0 X-40.563 Y-2.888
G1 F2100 X40.664 Y-2.887 E218.30846
G0 F7500 X40.500 Y-2.887
G0 X40.500 Y2.888
G0 X40.663 Y2.888
G1 F2100 X-40.564 Y2.887 E221.23297
G0 F7500 X-40.400 Y2.887
G0 X-40.400 Y8.663
G0 X-40.564 Y8.663
G1 F2100 X40.663 Y8.664 E224.15747
G0 F7500 X40.500 Y8.664
G0 X40.500 Y14.440
G0 X40.663 Y14.440
G1 F2100 X-40.564 Y14.439 E227.08198
G0 F7500 X-40.400 Y14.439
G0 X-40.400 Y20.215
G0 X-40.564 Y20.215
G1 F2100 X40.663 Y20.216 E230.00648
G0 F7500 X40.500 Y20.216
G0 X40.500 Y25.992
G0 X40.663 Y25.992
G1 F2100 X-40.564 Y25.991 E232.93098
G0 F7500 X-40.400 Y25.991
G0 X-37.544 Y30.500
G0 X-37.544 Y30.664
G1 F2100 X-37.544 Y-30.464 E235.13184
G0 F7500 X-37.544 Y-30.300
G0 X-31.768 Y-30.300
G0 X-31.768 Y-30.464
G1 F2100 X-31.768 Y30.664 E237.33270
G0 F7500 X-31.768 Y30.500
G0 X-25.992 Y30.500
G0 X-25.992 Y30.664
G1 F2100 X-25.992 Y-30.464 E239.53356
G0 F7500 X-25.992 Y-30.300
G0 X-20.216 Y-30.300
G0 X-20.216 Y-30.464
G1 F2100 X-20.216 Y30.664 E241.73442
G0 F7500 X-20.216 Y30.500
G0 X-14.440 Y30.500
G0 X-14.440 Y30.664
G1 F2100 X-14.440 Y-30.464 E243.93528
G0 F7500 X-14.440 Y-30.300
G0 X-8.664 Y-30.300
G0 X-8.664 Y-30.464
G1 F2100 X-8.664 Y30.664 E246.13613
G0 F7500 X-8.664 Y30.500
G0 X-2.888 Y30.500
G0 X-2.888 Y30.664
G1 F2100 X-2.888 Y-30.464 E248.33699
G0 F7500 X-2.888 Y-30.300
G0 X2.888 Y-30.300
G0 X2.888 Y-30.464
G1 F2100 X2.888 Y30.664 E250.53785
G0 F7500 X2.888 Y30.500
G0 X8.664 Y30.500
G0 X8.664 Y30.664
G1 F2100 X8.664 Y-30.464 E252.73871
G0 F7500 X8.664 Y-30.300
G0 X14.440 Y-30.300
G0 X14.440 Y-30.464
G1 F2100 X14.440 Y30.664 E254.93957
G0 F7500 X14.440 Y30.500
G0 X20.216 Y30.500
G0 X20.216 Y30.664
G1 F2100 X20.216 Y-30.464 E257.14043
G0 F7500 X20.216 Y-30.300
G0 X25.992 Y-30.300
G0 X25.992 Y-30.464
G1 F2100 X25.992 Y30.664 E259.34129
G0 F7500 X25.992 Y30.500
G0 X31.768 Y30.500
G0 X31.768 Y30.664
G1 F2100 X31.768 Y-30.464 E261.54214
G0 F7500 X31.768 Y-30.300
G0 X37.544 Y-30.300
G0 X37.544 Y-30.464
G1 F2100 X37.544 Y30.664 E263.74300
;LAYER:3
G1 F2400 E262.74300
G0 F7500 X0.284 Y0.284 Z0.900
;TYPE:WALL-OUTER
G1 F2400 E263.74300
G1 X0.216 Y0.284 E263.74545
G1 X0.216 Y0.216 E263.74790
G1 X0.284 Y0.216 E263.75035
G1 X0.284 Y0.284 E263.75280
G0 F7500 X1.200 Y1.200
;TYPE:SUPPORT
G1 F2220 X1.200 Y-0.700 E263.82120
G1 X-0.700 Y-0.700 E263.88961
G1 X-0.700 Y1.200 E263.95802
G1 X1.200 Y1.200 E264.02643
G0 F7500 X1.190 Y1.300
G0 X40.500 Y30.590
G0 X40.600 Y30.600
G1 F2220 X-40.500 Y30.600 E266.94636
G1 X-40.500 Y-30.400 E269.14261
G1 X40.600 Y-30.400 E272.06254
G1 X40.600 Y30.600 E274.25879
G0 F7500 X40.500 Y30.590
G0 X40.500 Y25.992
G0 X40.663 Y25.992
G1 F2220 X-40.564 Y25.991 E277.18330
G0 F7500 X-40.400 Y25.991
G0 X-40.400 Y20.215
G0 X-40.564 Y20.215
G1 F2220 X40.663 Y20.216 E280.10780
G0 F7500 X40.500 Y20.216
G0 X40.500 Y14.440
G0 X40.663 Y14.440
G1 F2220 X-40.564 Y14.439 E283.03230
G0 F7500 X-40.400 Y14.439
G0 X-40.400 Y8.663
G0 X-40.564 Y8.663
G1 F2220 X40.663 Y8.664 E285.95681
G0 F7500 X40.500 Y8.664
G0 X40.500 Y2.888
G0 X40.663 Y2.888
G1 F2220 X-40.564 Y2.887 E288.88131
G0 F7500 X-40.400 Y2.887
G0 X-40.400 Y-2.888
G0 X-40.563 Y-2.888
G1 F2220 X40.664 Y-2.887 E291.80582
G0 F7500 X40.500 Y-2.887
G0 X40.500 Y-8.663
G0 X40.664 Y-8.663
G1 F2220 X-40.563 Y-8.664 E294.73032
G0 F7500 X-40.400 Y-8.664
G0 X-40.400 Y-14.440
G0 X-40.563 Y-14.440
G1 F2220 X40.664 Y-14.439 E297.65483
G0 F7500 X40.500 Y-14.439
G0 X40.500 Y-20.215
G0 X40.664 Y-20.215
G1 F2220 X-40.563 Y-20.216 E300.57933
G0 F7500 X-40.400 Y-20.216
G0 X-40.400 Y-25.992
G0 X-40.563 Y-25.992
G1 F2220 X40.664 Y-25.991 E303.50384
G0 F7500 X40.500 Y-25.991
G0 X37.544 Y-30.300
G0 X37.544 Y-30.464
G1 F2220 X37.544 Y30.664 E305.70470
G0 F7500 X37.544 Y30.500
G0 X31.768 Y30.500
G0 X31.768 Y30.664
G1 F2220 X31.768 Y-30.464 E307.90555
G0 F7500 X31.768 Y-30.300
G0 X25.992 Y-30.300
G0 X25.992 Y-30.464
G1 F2220 X25.992 Y30.664 E310.10641
G0 F7500 X25.992 Y30.500
G0 X20.216 Y30.500
G0 X20.216 Y30.664
G1 F2220 X20.216 Y-30.464 E312.30727
G0 F7500 X20.216 Y-30.300
G0 X14.440 Y-30.300
G0 X14.440 Y-30.464
G1 F2220 X14.440 Y30.664 E314.50813
G0 F7500 X14.440 Y30.500
G0 X8.664 Y30.500
G0 X8.664 Y30.664
G1 F2220 X8.664 Y-30.464 E316.70899
G0 F7500 X8.664 Y-30.300
G0 X2.888 Y-30.300
G0 X2.888 Y-30.464
G1 F2220 X2.888 Y30.664 E318.90985
G0 F7500 X2.888 Y30.500
G0 X-2.888 Y30.500
G0 X-2.888 Y30.664
G1 F2220 X-2.888 Y-30.464 E321.11070
G0 F7500 X-2.888 Y-30.300
G0 X-8.664 Y-30.300
G0 X-8.664 Y-30.464
G1 F2220 X-8.664 Y30.664 E323.31156
G0 F7500 X-8.664 Y30.500
G0 X-14.440 Y30.500
G0 X-14.440 Y30.664
G1 F2220 X-14.440 Y-30.464 E325.51242
G0 F7500 X-14.440 Y-30.300
G0 X-20.216 Y-30.300
G0 X-20.216 Y-30.464
G1 F2220 X-20.216 Y30.664 E327.71328
G0 F7500 X-20.216 Y30.500
G0 X-25.992 Y30.500
G0 X-25.992 Y30.664
G1 F2220 X-25.992 Y-30.464 E329.91414
G0 F7500 X-25.992 Y-30.300
G0 X-31.768 Y-30.300
G0 X-31.768 Y-30.464
G1 F2220 X-31.768 Y30.664 E332.11500
G0 F7500 X-31.768 Y30.500
G0 X-37.544 Y30.500
G0 X-37.544 Y30.664
G1 F2220 X-37.544 Y-30.464 E334.31586
;LAYER:4
G1 F2400 E333.31586
G0 F7500 X0.216 Y0.216 Z1.100
;TYPE:WALL-OUTER
G1 F2400 E334.31586
G1 F2700 X0.284 Y0.216 E334.31830
G1 X0.284 Y0.284 E334.32075
G1 X0.216 Y0.284 E334.32320
G1 X0.216 Y0.216 E334.32565
G0 F7500 X-0.700 Y-0.700
;TYPE:SUPPORT
G1 F2400 X-0.700 Y1.200 E334.39406
G1 X1.200 Y1.200 E334.46246
G1 X1.200 Y-0.700 E334.53087
G1 X-0.700 Y-0.700 E334.59928
G0 F7500 X-0.690 Y-0.800
G0 X-40.500 Y-30.400
G1 F2400 X40.600 Y-30.400 E337.51921
G1 X40.600 Y30.600 E339.71546
G1 X-40.500 Y30.600 E342.63539
G1 X-40.500 Y-30.400 E344.83164
G0 F7500 X-40.400 Y-25.992
G0 X-40.563 Y-25.992
G1 F2400 X40.664 Y-25.991 E347.75615
G0 F7500 X40.500 Y-25.991
G0 X40.500 Y-20.215
G0 X40.664 Y-20.215
G1 F2400 X-40.563 Y-20.216 E350.68065
G0 F7500 X-40.400 Y-20.216
G0 X-40.400 Y-14.440
G0 X-40.563 Y-14.440
G1 F2400 X40.664 Y-14.439 E353.60516
G0 F7500 X40.500 Y-14.439
G0 X40.500 Y-8.663
G0 X40.664 Y-8.663
G1 F2400 X-40.563 Y-8.664 E356.52966
G0 F7500 X-40.400 Y-8.664
G0 X-40.400 Y-2.888
G0 X-40.563 Y-2.888
G1 F2400 X40.664 Y-2.887 E359.45417
G0 F7500 X40.500 Y-2.887
G0 X40.500 Y2.888
G0 X40.663 Y2.888
G1 F2400 X-40.564 Y2.887 E362.37867
G0 F7500 X-40.400 Y2.887
G0 X-40.400 Y8.663
G0 X-40.564 Y8.663
G1 F2400 X40.663 Y8.664 E365.30318
G0 F7500 X40.500 Y8.664
G0 X40.500 Y14.440
G0 X40.663 Y14.440
G1 F2400 X-40.564 Y14.439 E368.22768
G0 F7500 X-40.400 Y14.439
G0 X-40.400 Y20.215
G0 X-40.564 Y20.215
G1 F2400 X40.663 Y20.216 E371.15219
G0 F7500 X40.500 Y20.216
G0 X40.500 Y25.992
G0 X40.663 Y25.992
G1 F2400 X-40.564 Y25.991 E374.07669
G0 F7500 X-40.400 Y25.991
G0 X-37.544 Y30.500
G0 X-37.544 Y30.664
G1 F2400 X-37.544 Y-30.464 E376.27755
G0 F7500 X-37.544 Y-30.300
G0 X-31.768 Y-30.300
G0 X-31.768 Y-30.464
G1 F2400 X-31.768 Y30.664 E378.47841
G0 F7500 X-31.768 Y30.500
G0 X-25.992 Y30.500
G0 X-25.992 Y30.664
G1 F2400 X-25.992 Y-30.464 E380.67927
G0 F7500 X-25.992 Y-30.300
G0 X-20.216 Y-30.300
G0 X-20.216 Y-30.464
G1 F2400 X-20.216 Y30.664 E382.88012
G0 F7500 X-20.216 Y30.500
G0 X-14.440 Y30.500
G0 X-14.440 Y30.664
G1 F2400 X-14.440 Y-30.464 E385.08098
G0 F7500 X-14.440 Y-30.300
G0 X-8.664 Y-30.300
G0 X-8.664 Y-30.464
G1 F2400 X-8.664 Y30.664 E387.28184
G0 F7500 X-8.664 Y30.500
G0 X-2.888 Y30.500
G0 X-2.888 Y30.664
G1 F2400 X-2.888 Y-30.464 E389.48270
G0 F7500 X-2.888 Y-30.300
G0 X2.888 Y-30.300
G0 X2.888 Y-30.464
G1 F2400 X2.888 Y30.664 E391.68356
G0 F7500 X2.888 Y30.500
G0 X8.664 Y30.500
G0 X8.664 Y30.664
G1 F2400 X8.664 Y-30.464 E393.88442
G0 F7500 X8.664 Y-30.300
G0 X14.440 Y-30.300
G0 X14.440 Y-30.464
G1 F2400 X14.440 Y30.664 E396.08527
G0 F7500 X14.440 Y30.500
G0 X20.216 Y30.500
G0 X20.216 Y30.664
G1 F2400 X20.216 Y-30.464 E398.28613
G0 F7500 X20.216 Y-30.300
G0 X25.992 Y-30.300
G0 X25.992 Y-30.464
G1 F2400 X25.992 Y30.664 E400.48699
G0 F7500 X25.992 Y30.500
G0 X31.768 Y30.500
G0 X31.768 Y30.664
G1 F2400 X31.768 Y-30.464 E402.68785
G0 F7500 X31.768 Y-30.300
G0 X37.544 Y-30.300
G0 X37.544 Y-30.464
G1 F2400 X37.544 Y30.664 E404.88871
;LAYER:5
G1 F2400 E403.88871
G0 F7500 X0.284 Y0.284 Z1.300
;TYPE:WALL-OUTER
G1 F2400 E404.88871
G1 F2700 X0.216 Y0.284 E404.89116
G1 X0.216 Y0.216 E404.89360
G1 X0.284 Y0.216 E404.89605
G1 X0.284 Y0.284 E404.89850
G0 F7500 X1.200 Y1.200
;TYPE:SUPPORT
G1 F2400 X1.200 Y-0.700 E404.96691
G1 X-0.700 Y-0.700 E405.03532
G1 X-0.700 Y1.200 E405.10372
G1 X1.200 Y1.200 E405.17213
G0 F7500 X1.190 Y1.300
G0 X40.500 Y30.590
G0 X40.600 Y30.600
G1 F2400 X-40.500 Y30.600 E408.09206
G1 X-40.500 Y-30.400 E410.28831
G1 X40.600 Y-30.400 E413.20825
G1 X40.600 Y30.600 E415.40450
G0 F7500 X40.500 Y30.590
G0 X40.500 Y25.992
G0 X40.663 Y25.992
G1 F2400 X-40.564 Y25.991 E418.32900
G0 F7500 X-40.400 Y25.991
G0 X-40.400 Y20.215
G0 X-40.564 Y20.215
G1 F2400 X40.663 Y20.216 E421.25351
G0 F7500 X40.500 Y20.216
G0 X40.500 Y14.440
G0 X40.663 Y14.440
G1 F2400 X-40.564 Y14.439 E424.17801
