;Generated with Cura_SteamEngine 15.04.6

;Layer count: 16
;LAYER:0
M107
G0 F7500 X-43.716 Y-38.616 Z0.300
;TYPE:SKIRT
G1 F1800 X43.816 Y-38.616 E4.72727
G1 X43.816 Y38.816 E8.90907
G1 X-43.716 Y38.816 E13.63634
G1 X-43.716 Y-38.616 E17.81814
G1 F2400 E16.81814
G0 F7500 X0.216 Y0.216
;TYPE:WALL-OUTER
G1 F2400 E17.81814
G1 F1800 X0.284 Y0.216 E17.82181
G1 X0.284 Y0.284 E17.82548
G1 X0.216 Y0.284 E17.82916
G1 X0.216 Y0.216 E17.83283
G0 F7500 X-0.700 Y-0.700
;TYPE:SUPPORT
G1 F1800 X-0.700 Y1.200 E17.93544
G1 X1.200 Y1.200 E18.03805
G1 X1.200 Y-0.700 E18.14066
G1 X-0.700 Y-0.700 E18.24328
G0 F7500 X-0.690 Y-0.800
G0 X-40.500 Y-35.400
G1 F1800 X40.600 Y-35.400 E22.62317
G1 X40.600 Y35.600 E26.45761
G1 X-40.500 Y35.600 E30.83751
G1 X-40.500 Y-35.400 E34.67194
G0 F7500 X-40.400 Y-31.768
G0 X-40.563 Y-31.768
G1 F1800 X40.664 Y-31.767 E39.05870
G0 F7500 X40.500 Y-31.767
G0 X40.500 Y-25.991
G0 X40.664 Y-25.991
G1 F1800 X-40.563 Y-25.992 E43.44546
G0 F7500 X-40.400 Y-25.992
G0 X-40.400 Y-20.216
G0 X-40.563 Y-20.216
G1 F1800 X40.664 Y-20.215 E47.83222
G0 F7500 X40.500 Y-20.215
G0 X40.500 Y-14.439
G0 X40.664 Y-14.439
G1 F1800 X-40.563 Y-14.440 E52.21897
G0 F7500 X-40.400 Y-14.440
G0 X-40.400 Y-8.664
G0 X-40.563 Y-8.664
G1 F1800 X40.664 Y-8.663 E56.60573
G0 F7500 X40.500 Y-8.663
G0 X40.500 Y-2.887
G0 X40.664 Y-2.887
G1 F1800 X-40.563 Y-2.888 E60.99249
G0 F7500 X-40.400 Y-2.888
G0 X-40.400 Y2.887
G0 X-40.564 Y2.887
G1 F1800 X40.663 Y2.888 E65.37924
G0 F7500 X40.500 Y2.888
G0 X40.500 Y8.664
G0 X40.663 Y8.664
G1 F1800 X-40.564 Y8.663 E69.76600
G0 F7500 X-40.400 Y8.663
G0 X-40.400 Y14.439
G0 X-40.564 Y14.439
G1 F1800 X40.663 Y14.440 E74.15276
G0 F7500 X40.500 Y14.440
G0 X40.500 Y20.216
G0 X40.663 Y20.216
G1 F1800 X-40.564 Y20.215 E78.53952
G0 F7500 X-40.400 Y20.215
G0 X-40.400 Y25.991
G0 X-40.564 Y25.991
G1 F1800 X40.663 Y25.992 E82.92627
G0 F7500 X40.500 Y25.992
G0 X40.500 Y31.768
G0 X40.663 Y31.768
G1 F1800 X-40.564 Y31.767 E87.31303
G0 F7500 X-40.400 Y31.767
G0 X-37.544 Y35.500
G0 X-37.544 Y35.664
G1 F1800 X-37.544 Y-35.464 E91.15438
G0 F7500 X-37.544 Y-35.300
G0 X-31.768 Y-35.300
G0 X-31.768 Y-35.464
G1 F1800 X-31.768 Y35.664 E94.99573
G0 F7500 X-31.768 Y35.500
G0 X-25.992 Y35.500
G0 X-25.992 Y35.664
G1 F1800 X-25.992 Y-35.464 E98.83708
G0 F7500 X-25.992 Y-35.300
G0 X-20.216 Y-35.300
G0 X-20.216 Y-35.464
G1 F1800 X-20.216 Y35.664 E102.67843
G0 F7500 X-20.216 Y35.500
G0 X-14.440 Y35.500
G0 X-14.440 Y35.664
G1 F1800 X-14.440 Y-35.464 E106.51977
G0 F7500 X-14.440 Y-35.300
G0 X-8.664 Y-35.300
G0 X-8.664 Y-35.464
G1 F1800 X-8.664 Y35.664 E110.36112
G0 F7500 X-8.664 Y35.500
G0 X-2.888 Y35.500
G0 X-2.888 Y35.664
G1 F1800 X-2.888 Y-35.464 E114.20247
G0 F7500 X-2.888 Y-35.300
G0 X2.888 Y-35.300
G0 X2.888 Y-35.464
G1 F1800 X2.888 Y35.664 E118.04382
G0 F7500 X2.888 Y35.500
G0 X8.664 Y35.500
G0 X8.664 Y35.664
G1 F1800 X8.664 Y-35.464 E121.88517
G0 F7500 X8.664 Y-35.300
G0 X14.440 Y-35.300
G0 X14.440 Y-35.464
G1 F1800 X14.440 Y35.664 E125.72652
G0 F7500 X14.440 Y35.500
G0 X20.216 Y35.500
G0 X20.216 Y35.664
G1 F1800 X20.216 Y-35.464 E129.56787
G0 F7500 X20.216 Y-35.300
G0 X25.992 Y-35.300
G0 X25.992 Y-35.464
G1 F1800 X25.992 Y35.664 E133.40922
G0 F7500 X25.992 Y35.500
G0 X31.768 Y35.500
G0 X31.768 Y35.664
G1 F1800 X31.768 Y-35.464 E137.25057
G0 F7500 X31.768 Y-35.300
G0 X37.544 Y-35.300
G0 X37.544 Y-35.464
G1 F1800 X37.544 Y35.664 E141.09192
;LAYER:1
M106 S63
G1 F2400 E140.09192
G0 F7500 X0.284 Y0.284 Z0.500
;TYPE:WALL-OUTER
G1 F2400 E141.09192
G1 F1980 X0.216 Y0.284 E141.09436
G1 X0.216 Y0.216 E141.09681
G1 X0.284 Y0.216 E141.09926
G1 X0.284 Y0.284 E141.10171
G0 F7500 X1.200 Y1.200
;TYPE:SUPPORT
G1 F1920 X1.200 Y-0.700 E141.17012
G1 X-0.700 Y-0.700 E141.23852
G1 X-0.700 Y1.200 E141.30693
G1 X1.200 Y1.200 E141.37534
G0 F7500 X1.190 Y1.300
G0 X40.500 Y35.590
G0 X40.600 Y35.600
G1 F1920 X-40.500 Y35.600 E144.29527
G1 X-40.500 Y-35.400 E146.85156
G1 X40.600 Y-35.400 E149.77150
G1 X40.600 Y35.600 E152.32779
G0 F7500 X40.500 Y35.590
G0 X40.500 Y31.768
G0 X40.663 Y31.768
G1 F1920 X-40.564 Y31.767 E155.25229
G0 F7500 X-40.400 Y31.767
G0 X-40.400 Y25.991
G0 X-40.564 Y25.991
G1 F1920 X40.663 Y25.992 E158.17680
G0 F7500 X40.500 Y25.992
G0 X40.500 Y20.216
G0 X40.663 Y20.216
G1 F1920 X-40.564 Y20.215 E161.10130
G0 F7500 X-40.400 Y20.215
G0 X-40.400 Y14.439
G0 X-40.564 Y14.439
G1 F1920 X40.663 Y14.440 E164.02581
G0 F7500 X40.500 Y14.440
G0 X40.500 Y8.664
G0 X40.663 Y8.664
G1 F1920 X-40.564 Y8.663 E166.95031
G0 F7500 X-40.400 Y8.663
G0 X-40.400 Y2.887
G0 X-40.564 Y2.887
G1 F1920 X40.663 Y2.888 E169.87481
G0 F7500 X40.500 Y2.888
G0 X40.500 Y-2.887
G0 X40.664 Y-2.887
G1 F1920 X-40.563 Y-2.888 E172.79932
G0 F7500 X-40.400 Y-2.888
G0 X-40.400 Y-8.664
G0 X-40.563 Y-8.664
G1 F1920 X40.664 Y-8.663 E175.72382
G0 F7500 X40.500 Y-8.663
G0 X40.500 Y-14.439
G0 X40.664 Y-14.439
G1 F1920 X-40.563 Y-14.440 E178.64833
G0 F7500 X-40.400 Y-14.440
G0 X-40.400 Y-20.216
G0 X-40.563 Y-20.216
G1 F1920 X40.664 Y-20.215 E181.57283
G0 F7500 X40.500 Y-20.215
G0 X40.500 Y-25.991
G0 X40.664 Y-25.991
G1 F1920 X-40.563 Y-25.992 E184.49734
G0 F7500 X-40.400 Y-25.992
G0 X-40.400 Y-31.768
G0 X-40.563 Y-31.768
G1 F1920 X40.664 Y-31.767 E187.42184
G0 F7500 X40.500 Y-31.767
G0 X37.544 Y-35.300
G0 X37.544 Y-35.464
G1 F1920 X37.544 Y35.664 E189.98274
G0 F7500 X37.544 Y35.500
G0 X31.768 Y35.500
G0 X31.768 Y35.664
G1 F1920 X31.768 Y-35.464 E192.54364
G0 F7500 X31.768 Y-35.300
G0 X25.992 Y-35.300
G0 X25.992 Y-35.464
G1 F1920 X25.992 Y35.664 E195.10454
G0 F7500 X25.992 Y35.500
G0 X20.216 Y35.500
G0 X20.216 Y35.664
G1 F1920 X20.216 Y-35.464 E197.66544
G0 F7500 X20.216 Y-35.300
G0 X14.440 Y-35.300
G0 X14.440 Y-35.464
G1 F1920 X14.440 Y35.664 E200.22634
G0 F7500 X14.440 Y35.500
G0 X8.664 Y35.500
G0 X8.664 Y35.664
G1 F1920 X8.664 Y-35.464 E202.78724
G0 F7500 X8.664 Y-35.300
G0 X2.888 Y-35.300
G0 X2.888 Y-35.464
G1 F1920 X2.888 Y35.664 E205.34814
G0 F7500 X2.888 Y35.500
G0 X-2.888 Y35.500
G0 X-2.888 Y35.664
G1 F1920 X-2.888 Y-35.464 E207.90904
G0 F7500 X-2.888 Y-35.300
G0 X-8.664 Y-35.300
G0 X-8.664 Y-35.464
G1 F1920 X-8.664 Y35.664 E210.46994
G0 F7500 X-8.664 Y35.500
G0 X-14.440 Y35.500
G0 X-14.440 Y35.664
G1 F1920 X-14.440 Y-35.464 E213.03084
G0 F7500 X-14.440 Y-35.300
G0 X-20.216 Y-35.300
G0 X-20.216 Y-35.464
G1 F1920 X-20.216 Y35.664 E215.59174
G0 F7500 X-20.216 Y35.500
G0 X-25.992 Y35.500
G0 X-25.992 Y35.664
G1 F1920 X-25.992 Y-35.464 E218.15264
G0 F7500 X-25.992 Y-35.300
G0 X-31.768 Y-35.300
G0 X-31.768 Y-35.464
G1 F1920 X-31.768 Y35.664 E220.71353
G0 F7500 X-31.768 Y35.500
G0 X-37.544 Y35.500
G0 X-37.544 Y35.664
G1 F1920 X-37.544 Y-35.464 E223.27443
;LAYER:2
M106 S127
G1 F2400 E222.27443
G0 F7500 X0.216 Y0.216 Z0.700
;TYPE:WALL-OUTER
G1 F2400 E223.27443
G1 F2220 X0.284 Y0.216 E223.27688
G1 X0.284 Y0.284 E223.27933
G1 X0.216 Y0.284 E223.28178
G1 X0.216 Y0.216 E223.28423
G0 F7500 X-0.700 Y-0.700
;TYPE:SUPPORT
G1 F2100 X-0.700 Y1.200 E223.35263
G1 X1.200 Y1.200 E223.42104
G1 X1.200 Y-0.700 E223.48945
G1 X-0.700 Y-0.700 E223.55786
G0 F7500 X-0.690 Y-0.800
G0 X-40.500 Y-35.400
G1 F2100 X40.600 Y-35.400 E226.47779
G1 X40.600 Y35.600 E229.03408
G1 X-40.500 Y35.600 E231.95401
G1 X-40.500 Y-35.400 E234.51030
G0 F7500 X-40.400 Y-31.768
G0 X-40.563 Y-31.768
G1 F2100 X40.664 Y-31.767 E237.43481
G0 F7500 X40.500 Y-31.767
G0 X40.500 Y-25.991
G0 X40.664 Y-25.991
G1 F2100 X-40.563 Y-25.992 E240.35931
G0 F7500 X-40.400 Y-25.992
G0 X-40.400 Y-20.216
G0 X-40.563 Y-20.216
G1 F2100 X40.664 Y-20.215 E243.28382
G0 F7500 X40.500 Y-20.215
G0 X40.500 Y-14.439
G0 X40.664 Y-14.439
G1 F2100 X-40.563 Y-14.440 E246.20832
G0 F7500 X-40.400 Y-14.440
G0 X-40.400 Y-8.664
G0 X-40.563 Y-8.664
G1 F2100 X40.664 Y-8.663 E249.13283
G0 F7500 X40.500 Y-8.663
G0 X40.500 Y-2.887
G0 X40.664 Y-2.887
G1 F2100 X-40.563 Y-2.888 E252.05733
G0 F7500 X-40.400 Y-2.888
G0 X-40.400 Y2.887
G0 X-40.564 Y2.887
G1 F2100 X40.663 Y2.888 E254.98184
G0 F7500 X40.500 Y2.888
G0 X40.500 Y8.664
G0 X40.663 Y8.664
G1 F2100 X-40.564 Y8.663 E257.90634
G0 F7500 X-40.400 Y8.663
G0 X-40.400 Y14.439
G0 X-40.564 Y14.439
G1 F2100 X40.663 Y14.440 E260.83085
G0 F7500 X40.500 Y14.440
G0 X40.500 Y20.216
G0 X40.663 Y20.216
G1 F2100 X-40.564 Y20.215 E263.75535
G0 F7500 X-40.400 Y20.215
G0 X-40.400 Y25.991
G0 X-40.564 Y25.991
G1 F2100 X40.663 Y25.992 E266.67986
G0 F7500 X40.500 Y25.992
G0 X40.500 Y31.768
G0 X40.663 Y31.768
G1 F2100 X-40.564 Y31.767 E269.60436
G0 F7500 X-40.400 Y31.767
G0 X-37.544 Y35.500
G0 X-37.544 Y35.664
G1 F2100 X-37.544 Y-35.464 E272.16526
G0 F7500 X-37.544 Y-35.300
G0 X-31.768 Y-35.300
G0 X-31.768 Y-35.464
G1 F2100 X-31.768 Y35.664 E274.72616
G0 F7500 X-31.768 Y35.500
G0 X-25.992 Y35.500
G0 X-25.992 Y35.664
G1 F2100 X-25.992 Y-35.464 E277.28706
G0 F7500 X-25.992 Y-35.300
G0 X-20.216 Y-35.300
G0 X-20.216 Y-35.464
G1 F2100 X-20.216 Y35.664 E279.84796
G0 F7500 X-20.216 Y35.500
G0 X-14.440 Y35.500
G0 X-14.440 Y35.664
G1 F2100 X-14.440 Y-35.464 E282.40886
G0 F7500 X-14.440 Y-35.300
G0 X-8.664 Y-35.300
G0 X-8.664 Y-35.464
G1 F2100 X-8.664 Y35.664 E284.96976
G0 F7500 X-8.664 Y35.500
G0 X-2.888 Y35.500
G0 X-2.888 Y35.664
G1 F2100 X-2.888 Y-35.464 E287.53066
G0 F7500 X-2.888 Y-35.300
G0 X2.888 Y-35.300
G0 X2.888 Y-35.464
G1 F2100 X2.888 Y35.664 E290.09156
G0 F7500 X2.888 Y35.500
G0 X8.664 Y35.500
G0 X8.664 Y35.664
G1 F2100 X8.664 Y-35.464 E292.65246
G0 F7500 X8.664 Y-35.300
G0 X14.440 Y-35.300
G0 X14.440 Y-35.464
G1 F2100 X14.440 Y35.664 E295.21335
G0 F7500 X14.440 Y35.500
G0 X20.216 Y35.500
G0 X20.216 Y35.664
G1 F2100 X20.216 Y-35.464 E297.77425
G0 F7500 X20.216 Y-35.300
G0 X25.992 Y-35.300
G0 X25.992 Y-35.464
G1 F2100 X25.992 Y35.664 E300.33515
G0 F7500 X25.992 Y35.500
G0 X31.768 Y35.500
G0 X31.768 Y35.664
G1 F2100 X31.768 Y-35.464 E302.89605
G0 F7500 X31.768 Y-35.300
G0 X37.544 Y-35.300
G0 X37.544 Y-35.464
G1 F2100 X37.544 Y35.664 E305.45695
;LAYER:3
G1 F2400 E304.45695
G0 F7500 X0.284 Y0.284 Z0.900
;TYPE:WALL-OUTER
G1 F2400 E305.45695
G1 X0.216 Y0.284 E305.45940
G1 X0.216 Y0.216 E305.46185
G1 X0.284 Y0.216 E305.46430
G1 X0.284 Y0.284 E305.46674
G0 F7500 X1.200 Y1.200
;TYPE:SUPPORT
G1 F2220 X1.200 Y-0.700 E305.53515
G1 X-0.700 Y-0.700 E305.60356
G1 X-0.700 Y1.200 E305.67197
G1 X1.200 Y1.200 E305.74038
G0 F7500 X1.190 Y1.300
G0 X40.500 Y35.590
G0 X40.600 Y35.600
G1 F2220 X-40.500 Y35.600 E308.66031
G1 X-40.500 Y-35.400 E311.21660
G1 X40.600 Y-35.400 E314.13653
G1 X40.600 Y35.600 E316.69282
G0 F7500 X40.500 Y35.590
G0 X40.500 Y31.768
G0 X40.663 Y31.768
G1 F2220 X-40.564 Y31.767 E319.61733
G0 F7500 X-40.400 Y31.767
G0 X-40.400 Y25.991
G0 X-40.564 Y25.991
G1 F2220 X40.663 Y25.992 E322.54183
G0 F7500 X40.500 Y25.992
G0 X40.500 Y20.216
G0 X40.663 Y20.216
G1 F2220 X-40.564 Y20.215 E325.46634
G0 F7500 X-40.400 Y20.215
G0 X-40.400 Y14.439
G0 X-40.564 Y14.439
G1 F2220 X40.663 Y14.440 E328.39084
G0 F7500 X40.500 Y14.440
G0 X40.500 Y8.664
G0 X40.663 Y8.664
G1 F2220 X-40.564 Y8.663 E331.31535
G0 F7500 X-40.400 Y8.663
G0 X-40.400 Y2.887
G0 X-40.564 Y2.887
G1 F2220 X40.663 Y2.888 E334.23985
G0 F7500 X40.500 Y2.888
G0 X40.500 Y-2.887
G0 X40.664 Y-2.887
G1 F2220 X-40.563 Y-2.888 E337.16436
G0 F7500 X-40.400 Y-2.888
G0 X-40.400 Y-8.664
G0 X-40.563 Y-8.664
G1 F2220 X40.664 Y-8.663 E340.08886
G0 F7500 X40.500 Y-8.663
G0 X40.500 Y-14.439
G0 X40.664 Y-14.439
G1 F2220 X-40.563 Y-14.440 E343.01336
G0 F7500 X-40.400 Y-14.440
G0 X-40.400 Y-20.216
G0 X-40.563 Y-20.216
G1 F2220 X40.664 Y-20.215 E345.93787
G0 F7500 X40.500 Y-20.215
G0 X40.500 Y-25.991
G0 X40.664 Y-25.991
G1 F2220 X-40.563 Y-25.992 E348.86237
G0 F7500 X-40.400 Y-25.992
G0 X-40.400 Y-31.768
G0 X-40.563 Y-31.768
G1 F2220 X40.664 Y-31.767 E351.78688
G0 F7500 X40.500 Y-31.767
G0 X37.544 Y-35.300
G0 X37.544 Y-35.464
G1 F2220 X37.544 Y35.664 E354.34778
G0 F7500 X37.544 Y35.500
G0 X31.768 Y35.500
G0 X31.768 Y35.664
G1 F2220 X31.768 Y-35.464 E356.90868
G0 F7500 X31.768 Y-35.300
G0 X25.992 Y-35.300
G0 X25.992 Y-35.464
G1 F2220 X25.992 Y35.664 E359.46958
G0 F7500 X25.992 Y35.500
G0 X20.216 Y35.500
G0 X20.216 Y35.664
G1 F2220 X20.216 Y-35.464 E362.03048
G0 F7500 X20.216 Y-35.300
G0 X14.440 Y-35.300
G0 X14.440 Y-35.464
G1 F2220 X14.440 Y35.664 E364.59138
G0 F7500 X14.440 Y35.500
G0 X8.664 Y35.500
G0 X8.664 Y35.664
G1 F2220 X8.664 Y-35.464 E367.15227
G0 F7500 X8.664 Y-35.300
G0 X2.888 Y-35.300
G0 X2.888 Y-35.464
G1 F2220 X2.888 Y35.664 E369.71317
G0 F7500 X2.888 Y35.500
G0 X-2.888 Y35.500
G0 X-2.888 Y35.664
G1 F2220 X-2.888 Y-35.464 E372.27407
G0 F7500 X-2.888 Y-35.300
G0 X-8.664 Y-35.300
G0 X-8.664 Y-35.464
G1 F2220 X-8.664 Y35.664 E374.83497
G0 F7500 X-8.664 Y35.500
G0 X-14.440 Y35.500
G0 X-14.440 Y35.664
G1 F2220 X-14.440 Y-35.464 E377.39587
G0 F7500 X-14.440 Y-35.300
G0 X-20.216 Y-35.300
G0 X-20.216 Y-35.464
G1 F2220 X-20.216 Y35.664 E379.95677
G0 F7500 X-20.216 Y35.500
G0 X-25.992 Y35.500
G0 X-25.992 Y35.664
G1 F2220 X-25.992 Y-35.464 E382.51767
G0 F7500 X-25.992 Y-35.300
G0 X-31.768 Y-35.300
G0 X-31.768 Y-35.464
G1 F2220 X-31.768 Y35.664 E385.07857
G0 F7500 X-31.768 Y35.500
G0 X-37.544 Y35.500
G0 X-37.544 Y35.664
G1 F2220 X-37.544 Y-35.464 E387.63947
;LAYER:4
G1 F2400 E386.63947
G0 F7500 X0.216 Y0.216 Z1.100
;TYPE:WALL-OUTER
G1 F2400 E387.63947
G1 F2700 X0.284 Y0.216 E387.64192
G1 X0.284 Y0.284 E387.64437
G1 X0.216 Y0.284 E387.64681
G1 X0.216 Y0.216 E387.64926
G0 F7500 X-0.700 Y-0.700
;TYPE:SUPPORT
G1 F2400 X-0.700 Y1.200 E387.71767
G1 X1.200 Y1.200 E387.78608
G1 X1.200 Y-0.700 E387.85449
G1 X-0.700 Y-0.700 E387.92289
G0 F7500 X-0.690 Y-0.800
G0 X-40.500 Y-35.400
G1 F2400 X40.600 Y-35.400 E390.84283
G1 X40.600 Y35.600 E393.39912
G1 X-40.500 Y35.600 E396.31905
G1 X-40.500 Y-35.400 E398.87534
G0 F7500 X-40.400 Y-31.768
G0 X-40.563 Y-31.768
G1 F2400 X40.664 Y-31.767 E401.79984
G0 F7500 X40.500 Y-31.767
G0 X40.500 Y-25.991
G0 X40.664 Y-25.991
G1 F2400 X-40.563 Y-25.992 E404.72435
G0 F7500 X-40.400 Y-25.992
G0 X-40.400 Y-20.216
G0 X-40.563 Y-20.216
G1 F2400 X40.664 Y-20.215 E407.64885
G0 F7500 X40.500 Y-20.215
G0 X40.500 Y-14.439
G0 X40.664 Y-14.439
G1 F2400 X-40.563 Y-14.440 E410.57336
G0 F7500 X-40.400 Y-14.440
G0 X-40.400 Y-8.664
G0 X-40.563 Y-8.664
G1 F2400 X40.664 Y-8.663 E413.49786
G0 F7500 X40.500 Y-8.663
G0 X40.500 Y-2.887
G0 X40.664 Y-2.887
G1 F2400 X-40.563 Y-2.888 E416.42237
G0 F7500 X-40.400 Y-2.888
G0 X-40.400 Y2.887
G0 X-40.564 Y2.887
G1 F2400 X40.663 Y2.888 E419.34687
G0 F7500 X40.500 Y2.888
G0 X40.500 Y8.664
G0 X40.663 Y8.664
G1 F2400 X-40.564 Y8.663 E422.27138
G0 F7500 X-40.400 Y8.663
G0 X-40.400 Y14.439
G0 X-40.564 Y14.439
G1 F2400 X40.663 Y14.440 E425.19588
G0 F7500 X40.500 Y14.440
G0 X40.500 Y20.216
G0 X40.663 Y20.216
G1 F2400 X-40.564 Y20.215 E428.12039
G0 F7500 X-40.400 Y20.215
G0 X-40.400 Y25.991
G0 X-40.564 Y25.991
G1 F2400 X40.663 Y25.992 E431.04489
G0 F7500 X40.500 Y25.992
G0 X40.500 Y31.768
G0 X40.663 Y31.768
G1 F2400 X-40.564 Y31.767 E433.96940
G0 F7500 X-40.400 Y31.767
G0 X-37.544 Y35.500
G0 X-37.544 Y35.664
G1 F2400 X-37.544 Y-35.464 E436.53030
G0 F7500 X-37.544 Y-35.300
G0 X-31.768 Y-35.300
G0 X-31.768 Y-35.464
G1 F2400 X-31.768 Y35.664 E439.09120
G0 F7500 X-31.768 Y35.500
G0 X-25.992 Y35.500
G0 X-25.992 Y35.664
G1 F2400 X-25.992 Y-35.464 E441.65209
G0 F7500 X-25.992 Y-35.300
G0 X-20.216 Y-35.300
G0 X-20.216 Y-35.464
G1 F2400 X-20.216 Y35.664 E444.21299
G0 F7500 X-20.216 Y35.500
G0 X-14.440 Y35.500
G0 X-14.440 Y35.664
G1 F2400 X-14.440 Y-35.464 E446.77389
G0 F7500 X-14.440 Y-35.300
G0 X-8.664 Y-35.300
G0 X-8.664 Y-35.464
G1 F2400 X-8.664 Y35.664 E449.33479
G0 F7500 X-8.664 Y35.500
G0 X-2.888 Y35.500
G0 X-2.888 Y35.664
G1 F2400 X-2.888 Y-35.464 E451.89569
G0 F7500 X-2.888 Y-35.300
G0 X2.888 Y-35.300
G0 X2.888 Y-35.464
G1 F2400 X2.888 Y35.664 E454.45659
G0 F7500 X2.888 Y35.500
G0 X8.664 Y35.500
G0 X8.664 Y35.664
G1 F2400 X8.664 Y-35.464 E457.01749
G0 F7500 X8.664 Y-35.300
G0 X14.440 Y-35.300
G0 X14.440 Y-35.464
G1 F2400 X14.440 Y35.664 E459.57839
G0 F7500 X14.440 Y35.500
G0 X20.216 Y35.500
G0 X20.216 Y35.664
G1 F2400 X20.216 Y-35.464 E462.13929
G0 F7500 X20.216 Y-35.300
G0 X25.992 Y-35.300
G0 X25.992 Y-35.464
G1 F2400 X25.992 Y35.664 E464.70019
G0 F7500 X25.992 Y35.500
