;Generated with Cura_SteamEngine 15.04.6

;Layer count: 16
;LAYER:0
M107
G0 F7500 X-43.716 Y-43.616 Z0.300
;TYPE:SKIRT
G1 F1800 X43.816 Y-43.616 E4.72727
G1 X43.816 Y43.816 E9.44913
G1 X-43.716 Y43.816 E14.17640
G1 X-43.716 Y-43.616 E18.89826
G1 F2400 E17.89826
G0 F7500 X0.216 Y0.216
;TYPE:WALL-OUTER
G1 F2400 E18.89826
G1 F1800 X0.284 Y0.216 E18.90193
G1 X0.284 Y0.284 E18.90561
G1 X0.216 Y0.284 E18.90928
G1 X0.216 Y0.216 E18.91295
G0 F7500 X-0.700 Y-0.700
;TYPE:SUPPORT
G1 F1800 X-0.700 Y1.200 E19.01556
G1 X1.200 Y1.200 E19.11818
G1 X1.200 Y-0.700 E19.22079
G1 X-0.700 Y-0.700 E19.32340
G0 F7500 X-0.690 Y-0.800
G0 X-40.500 Y-40.400
G1 F1800 X40.600 Y-40.400 E23.70330
G1 X40.600 Y40.600 E28.07779
G1 X-40.500 Y40.600 E32.45769
G1 X-40.500 Y-40.400 E36.83219
G0 F7500 X-40.400 Y-37.544
G0 X-40.563 Y-37.544
G1 F1800 X40.664 Y-37.543 E41.21895
G0 F7500 X40.500 Y-37.543
G0 X40.500 Y-31.767
G0 X40.664 Y-31.767
G1 F1800 X-40.563 Y-31.768 E45.60570
G0 F7500 X-40.400 Y-31.768
G0 X-40.400 Y-25.992
G0 X-40.563 Y-25.992
G1 F1800 X40.664 Y-25.991 E49.99246
G0 F7500 X40.500 Y-25.991
G0 X40.500 Y-20.215
G0 X40.664 Y-20.215
G1 F1800 X-40.563 Y-20.216 E54.37922
G0 F7500 X-40.400 Y-20.216
G0 X-40.400 Y-14.440
G0 X-40.563 Y-14.440
G1 F1800 X40.664 Y-14.439 E58.76598
G0 F7500 X40.500 Y-14.439
G0 X40.500 Y-8.663
G0 X40.664 Y-8.663
G1 F1800 X-40.563 Y-8.664 E63.15273
G0 F7500 X-40.400 Y-8.664
G0 X-40.400 Y-2.888
G0 X-40.563 Y-2.888
G1 F1800 X40.664 Y-2.887 E67.53949
G0 F7500 X40.500 Y-2.887
G0 X40.500 Y2.888
G0 X40.663 Y2.888
G1 F1800 X-40.564 Y2.887 E71.92625
G0 F7500 X-40.400 Y2.887
G0 X-40.400 Y8.663
G0 X-40.564 Y8.663
G1 F1800 X40.663 Y8.664 E76.31300
G0 F7500 X40.500 Y8.664
G0 X40.500 Y14.440
G0 X40.663 Y14.440
G1 F1800 X-40.564 Y14.439 E80.69976
G0 F7500 X-40.400 Y14.439
G0 X-40.400 Y20.215
G0 X-40.564 Y20.215
G1 F1800 X40.663 Y20.216 E85.08652
G0 F7500 X40.500 Y20.216
G0 X40.500 Y25.992
G0 X40.663 Y25.992
G1 F1800 X-40.564 Y25.991 E89.47328
G0 F7500 X-40.400 Y25.991
G0 X-40.400 Y31.767
G0 X-40.564 Y31.767
G1 F1800 X40.663 Y31.768 E93.86003
G0 F7500 X40.500 Y31.768
G0 X40.500 Y37.544
G0 X40.663 Y37.544
G1 F1800 X-40.564 Y37.543 E98.24679
G0 F7500 X-40.400 Y37.543
G0 X-37.544 Y40.500
G0 X-37.544 Y40.664
G1 F1800 X-37.544 Y-40.464 E102.62820
G0 F7500 X-37.544 Y-40.300
G0 X-31.768 Y-40.300
G0 X-31.768 Y-40.464
G1 F1800 X-31.768 Y40.664 E107.00961
G0 F7500 X-31.768 Y40.500
G0 X-25.992 Y40.500
G0 X-25.992 Y40.664
G1 F1800 X-25.992 Y-40.464 E111.39102
G0 F7500 X-25.992 Y-40.300
G0 X-20.216 Y-40.300
G0 X-20.216 Y-40.464
G1 F1800 X-20.216 Y40.664 E115.77243
G0 F7500 X-20.216 Y40.500
G0 X-14.440 Y40.500
G0 X-14.440 Y40.664
G1 F1800 X-14.440 Y-40.464 E120.15384
G0 F7500 X-14.440 Y-40.300
G0 X-8.664 Y-40.300
G0 X-8.664 Y-40.464
G1 F1800 X-8.664 Y40.664 E124.53525
G0 F7500 X-8.664 Y40.500
G0 X-2.888 Y40.500
G0 X-2.888 Y40.664
G1 F1800 X-2.888 Y-40.464 E128.91666
G0 F7500 X-2.888 Y-40.300
G0 X2.888 Y-40.300
G0 X2.888 Y-40.464
G1 F1800 X2.888 Y40.664 E133.29807
G0 F7500 X2.888 Y40.500
G0 X8.664 Y40.500
G0 X8.664 Y40.664
G1 F1800 X8.664 Y-40.464 E137.67948
G0 F7500 X8.664 Y-40.300
G0 X14.440 Y-40.300
G0 X14.440 Y-40.464
G1 F1800 X14.440 Y40.664 E142.06089
G0 F7500 X14.440 Y40.500
G0 X20.216 Y40.500
G0 X20.216 Y40.664
G1 F1800 X20.216 Y-40.464 E146.44230
G0 F7500 X20.216 Y-40.300
G0 X25.992 Y-40.300
G0 X25.992 Y-40.464
G1 F1800 X25.992 Y40.664 E150.82372
G0 F7500 X25.992 Y40.500
G0 X31.768 Y40.500
G0 X31.768 Y40.664
G1 F1800 X31.768 Y-40.464 E155.20513
G0 F7500 X31.768 Y-40.300
G0 X37.544 Y-40.300
G0 X37.544 Y-40.464
G1 F1800 X37.544 Y40.664 E159.58654
;LAYER:1
M106 S63
G1 F2400 E158.58654
G0 F7500 X0.284 Y0.284 Z0.500
;TYPE:WALL-OUTER
G1 F2400 E159.58654
G1 F1980 X0.216 Y0.284 E159.58898
G1 X0.216 Y0.216 E159.59143
G1 X0.284 Y0.216 E159.59388
G1 X0.284 Y0.284 E159.59633
G0 F7500 X1.200 Y1.200
;TYPE:SUPPORT
G1 F1920 X1.200 Y-0.700 E159.66474
G1 X-0.700 Y-0.700 E159.73314
G1 X-0.700 Y1.200 E159.80155
G1 X1.200 Y1.200 E159.86996
G0 F7500 X1.190 Y1.300
G0 X40.500 Y40.590
G0 X40.600 Y40.600
G1 F1920 X-40.500 Y40.600 E162.78989
G1 X-40.500 Y-40.400 E165.70622
G1 X40.600 Y-40.400 E168.62616
G1 X40.600 Y40.600 E171.54249
G0 F7500 X40.500 Y40.590
G0 X40.500 Y37.544
G0 X40.663 Y37.544
G1 F1920 X-40.564 Y37.543 E174.46699
G0 F7500 X-40.400 Y37.543
G0 X-40.400 Y31.767
G0 X-40.564 Y31.767
G1 F1920 X40.663 Y31.768 E177.39150
G0 F7500 X40.500 Y31.768
G0 X40.500 Y25.992
G0 X40.663 Y25.992
G1 F1920 X-40.564 Y25.991 E180.31600
G0 F7500 X-40.400 Y25.991
G0 X-40.400 Y20.215
G0 X-40.564 Y20.215
G1 F1920 X40.663 Y20.216 E183.24051
G0 F7500 X40.500 Y20.216
G0 X40.500 Y14.440
G0 X40.663 Y14.440
G1 F1920 X-40.564 Y14.439 E186.16501
G0 F7500 X-40.400 Y14.439
G0 X-40.400 Y8.663
G0 X-40.564 Y8.663
G1 F1920 X40.663 Y8.664 E189.08952
G0 F7500 X40.500 Y8.664
G0 X40.500 Y2.888
G0 X40.663 Y2.888
G1 F1920 X-40.564 Y2.887 E192.01402
G0 F7500 X-40.400 Y2.887
G0 X-40.400 Y-2.888
G0 X-40.563 Y-2.888
G1 F1920 X40.664 Y-2.887 E194.93853
G0 F7500 X40.500 Y-2.887
G0 X40.500 Y-8.663
G0 X40.664 Y-8.663
G1 F1920 X-40.563 Y-8.664 E197.86303
G0 F7500 X-40.400 Y-8.664
G0 X-40.400 Y-14.440
G0 X-40.563 Y-14.440
G1 F1920 X40.664 Y-14.439 E200.78754
G0 F7500 X40.500 Y-14.439
G0 X40.500 Y-20.215
G0 X40.664 Y-20.215
G1 F1920 X-40.563 Y-20.216 E203.71204
G0 F7500 X-40.400 Y-20.216
G0 X-40.400 Y-25.992
G0 X-40.563 Y-25.992
G1 F1920 X40.664 Y-25.991 E206.63655
G0 F7500 X40.500 Y-25.991
G0 X40.500 Y-31.767
G0 X40.664 Y-31.767
G1 F1920 X-40.563 Y-31.768 E209.56105
G0 F7500 X-40.400 Y-31.768
G0 X-40.400 Y-37.544
G0 X-40.563 Y-37.544
G1 F1920 X40.664 Y-37.543 E212.48555
G0 F7500 X40.500 Y-37.543
G0 X37.544 Y-40.300
G0 X37.544 Y-40.464
G1 F1920 X37.544 Y40.664 E215.40649
G0 F7500 X37.544 Y40.500
G0 X31.768 Y40.500
G0 X31.768 Y40.664
G1 F1920 X31.768 Y-40.464 E218.32744
G0 F7500 X31.768 Y-40.300
G0 X25.992 Y-40.300
G0 X25.992 Y-40.464
G1 F1920 X25.992 Y40.664 E221.24838
G0 F7500 X25.992 Y40.500
G0 X20.216 Y40.500
G0 X20.216 Y40.664
G1 F1920 X20.216 Y-40.464 E224.16932
G0 F7500 X20.216 Y-40.300
G0 X14.440 Y-40.300
G0 X14.440 Y-40.464
G1 F1920 X14.440 Y40.664 E227.09026
G0 F7500 X14.440 Y40.500
G0 X8.664 Y40.500
G0 X8.664 Y40.664
G1 F1920 X8.664 Y-40.464 E230.01120
G0 F7500 X8.664 Y-40.300
G0 X2.888 Y-40.300
G0 X2.888 Y-40.464
G1 F1920 X2.888 Y40.664 E232.93214
G0 F7500 X2.888 Y40.500
G0 X-2.888 Y40.500
G0 X-2.888 Y40.664
G1 F1920 X-2.888 Y-40.464 E235.85308
G0 F7500 X-2.888 Y-40.300
G0 X-8.664 Y-40.300
G0 X-8.664 Y-40.464
G1 F1920 X-8.664 Y40.664 E238.77402
G0 F7500 X-8.664 Y40.500
G0 X-14.440 Y40.500
G0 X-14.440 Y40.664
G1 F1920 X-14.440 Y-40.464 E241.69496
G0 F7500 X-14.440 Y-40.300
G0 X-20.216 Y-40.300
G0 X-20.216 Y-40.464
G1 F1920 X-20.216 Y40.664 E244.61590
G0 F7500 X-20.216 Y40.500
G0 X-25.992 Y40.500
G0 X-25.992 Y40.664
G1 F1920 X-25.992 Y-40.464 E247.53684
G0 F7500 X-25.992 Y-40.300
G0 X-31.768 Y-40.300
G0 X-31.768 Y-40.464
G1 F1920 X-31.768 Y40.664 E250.45778
G0 F7500 X-31.768 Y40.500
G0 X-37.544 Y40.500
G0 X-37.544 Y40.664
G1 F1920 X-37.544 Y-40.464 E253.37872
;LAYER:2
M106 S127
G1 F2400 E252.37872
G0 F7500 X0.216 Y0.216 Z0.700
;TYPE:WALL-OUTER
G1 F2400 E253.37872
G1 F2220 X0.284 Y0.216 E253.38117
G1 X0.284 Y0.284 E253.38362
G1 X0.216 Y0.284 E253.38606
G1 X0.216 Y0.216 E253.38851
G0 F7500 X-0.700 Y-0.700
;TYPE:SUPPORT
G1 F2100 X-0.700 Y1.200 E253.45692
G1 X1.200 Y1.200 E253.52533
G1 X1.200 Y-0.700 E253.59374
G1 X-0.700 Y-0.700 E253.66214
G0 F7500 X-0.690 Y-0.800
G0 X-40.500 Y-40.400
G1 F2100 X40.600 Y-40.400 E256.58208
G1 X40.600 Y40.600 E259.49841
G1 X-40.500 Y40.600 E262.41834
G1 X-40.500 Y-40.400 E265.33467
G0 F7500 X-40.400 Y-37.544
G0 X-40.563 Y-37.544
G1 F2100 X40.664 Y-37.543 E268.25918
G0 F7500 X40.500 Y-37.543
G0 X40.500 Y-31.767
G0 X40.664 Y-31.767
G1 F2100 X-40.563 Y-31.768 E271.18368
G0 F7500 X-40.400 Y-31.768
G0 X-40.400 Y-25.992
G0 X-40.563 Y-25.992
G1 F2100 X40.664 Y-25.991 E274.10819
G0 F7500 X40.500 Y-25.991
G0 X40.500 Y-20.215
G0 X40.664 Y-20.215
G1 F2100 X-40.563 Y-20.216 E277.03269
G0 F7500 X-40.400 Y-20.216
G0 X-40.400 Y-14.440
G0 X-40.563 Y-14.440
G1 F2100 X40.664 Y-14.439 E279.95719
G0 F7500 X40.500 Y-14.439
G0 X40.500 Y-8.663
G0 X40.664 Y-8.663
G1 F2100 X-40.563 Y-8.664 E282.88170
G0 F7500 X-40.400 Y-8.664
G0 X-40.400 Y-2.888
G0 X-40.563 Y-2.888
G1 F2100 X40.664 Y-2.887 E285.80620
G0 F7500 X40.500 Y-2.887
G0 X40.500 Y2.888
G0 X40.663 Y2.888
G1 F2100 X-40.564 Y2.887 E288.73071
G0 F7500 X-40.400 Y2.887
G0 X-40.400 Y8.663
G0 X-40.564 Y8.663
G1 F2100 X40.663 Y8.664 E291.65521
G0 F7500 X40.500 Y8.664
G0 X40.500 Y14.440
G0 X40.663 Y14.440
G1 F2100 X-40.564 Y14.439 E294.57972
G0 F7500 X-40.400 Y14.439
G0 X-40.400 Y20.215
G0 X-40.564 Y20.215
G1 F2100 X40.663 Y20.216 E297.50422
G0 F7500 X40.500 Y20.216
G0 X40.500 Y25.992
G0 X40.663 Y25.992
G1 F2100 X-40.564 Y25.991 E300.42873
G0 F7500 X-40.400 Y25.991
G0 X-40.400 Y31.767
G0 X-40.564 Y31.767
G1 F2100 X40.663 Y31.768 E303.35323
G0 F7500 X40.500 Y31.768
G0 X40.500 Y37.544
G0 X40.663 Y37.544
G1 F2100 X-40.564 Y37.543 E306.27774
G0 F7500 X-40.400 Y37.543
G0 X-37.544 Y40.500
G0 X-37.544 Y40.664
G1 F2100 X-37.544 Y-40.464 E309.19868
G0 F7500 X-37.544 Y-40.300
G0 X-31.768 Y-40.300
G0 X-31.768 Y-40.464
G1 F2100 X-31.768 Y40.664 E312.11962
G0 F7500 X-31.768 Y40.500
G0 X-25.992 Y40.500
G0 X-25.992 Y40.664
G1 F2100 X-25.992 Y-40.464 E315.04056
G0 F7500 X-25.992 Y-40.300
G0 X-20.216 Y-40.300
G0 X-20.216 Y-40.464
G1 F2100 X-20.216 Y40.664 E317.96150
G0 F7500 X-20.216 Y40.500
G0 X-14.440 Y40.500
G0 X-14.440 Y40.664
G1 F2100 X-14.440 Y-40.464 E320.88244
G0 F7500 X-14.440 Y-40.300
G0 X-8.664 Y-40.300
G0 X-8.664 Y-40.464
G1 F2100 X-8.664 Y40.664 E323.80338
G0 F7500 X-8.664 Y40.500
G0 X-2.888 Y40.500
G0 X-2.888 Y40.664
G1 F2100 X-2.888 Y-40.464 E326.72432
G0 F7500 X-2.888 Y-40.300
G0 X2.888 Y-40.300
G0 X2.888 Y-40.464
G1 F2100 X2.888 Y40.664 E329.64526
G0 F7500 X2.888 Y40.500
G0 X8.664 Y40.500
G0 X8.664 Y40.664
G1 F2100 X8.664 Y-40.464 E332.56620
G0 F7500 X8.664 Y-40.300
G0 X14.440 Y-40.300
G0 X14.440 Y-40.464
G1 F2100 X14.440 Y40.664 E335.48714
G0 F7500 X14.440 Y40.500
G0 X20.216 Y40.500
G0 X20.216 Y40.664
G1 F2100 X20.216 Y-40.464 E338.40808
G0 F7500 X20.216 Y-40.300
G0 X25.992 Y-40.300
G0 X25.992 Y-40.464
G1 F2100 X25.992 Y40.664 E341.32902
G0 F7500 X25.992 Y40.500
G0 X31.768 Y40.500
G0 X31.768 Y40.664
G1 F2100 X31.768 Y-40.464 E344.24996
G0 F7500 X31.768 Y-40.300
G0 X37.544 Y-40.300
G0 X37.544 Y-40.464
G1 F2100 X37.544 Y40.664 E347.17090
;LAYER:3
G1 F2400 E346.17090
G0 F7500 X0.284 Y0.284 Z0.900
;TYPE:WALL-OUTER
G1 F2400 E347.17090
G1 X0.216 Y0.284 E347.17335
G1 X0.216 Y0.216 E347.17580
G1 X0.284 Y0.216 E347.17825
G1 X0.284 Y0.284 E347.18069
G0 F7500 X1.200 Y1.200
;TYPE:SUPPORT
G1 F2220 X1.200 Y-0.700 E347.24910
G1 X-0.700 Y-0.700 E347.31751
G1 X-0.700 Y1.200 E347.38592
G1 X1.200 Y1.200 E347.45433
G0 F7500 X1.190 Y1.300
G0 X40.500 Y40.590
G0 X40.600 Y40.600
G1 F2220 X-40.500 Y40.600 E350.37426
G1 X-40.500 Y-40.400 E353.29059
G1 X40.600 Y-40.400 E356.21052
G1 X40.600 Y40.600 E359.12685
G0 F7500 X40.500 Y40.590
G0 X40.500 Y37.544
G0 X40.663 Y37.544
G1 F2220 X-40.564 Y37.543 E362.05136
G0 F7500 X-40.400 Y37.543
G0 X-40.400 Y31.767
G0 X-40.564 Y31.767
G1 F2220 X40.663 Y31.768 E364.97586
G0 F7500 X40.500 Y31.768
G0 X40.500 Y25.992
G0 X40.663 Y25.992
G1 F2220 X-40.564 Y25.991 E367.90037
G0 F7500 X-40.400 Y25.991
G0 X-40.400 Y20.215
G0 X-40.564 Y20.215
G1 F2220 X40.663 Y20.216 E370.82487
G0 F7500 X40.500 Y20.216
G0 X40.500 Y14.440
G0 X40.663 Y14.440
G1 F2220 X-40.564 Y14.439 E373.74938
G0 F7500 X-40.400 Y14.439
G0 X-40.400 Y8.663
G0 X-40.564 Y8.663
G1 F2220 X40.663 Y8.664 E376.67388
G0 F7500 X40.500 Y8.664
G0 X40.500 Y2.888
G0 X40.663 Y2.888
G1 F2220 X-40.564 Y2.887 E379.59839
G0 F7500 X-40.400 Y2.887
G0 X-40.400 Y-2.888
G0 X-40.563 Y-2.888
G1 F2220 X40.664 Y-2.887 E382.52289
G0 F7500 X40.500 Y-2.887
G0 X40.500 Y-8.663
G0 X40.664 Y-8.663
G1 F2220 X-40.563 Y-8.664 E385.44740
G0 F7500 X-40.400 Y-8.664
G0 X-40.400 Y-14.440
G0 X-40.563 Y-14.440
G1 F2220 X40.664 Y-14.439 E388.37190
G0 F7500 X40.500 Y-14.439
G0 X40.500 Y-20.215
G0 X40.664 Y-20.215
G1 F2220 X-40.563 Y-20.216 E391.29641
G0 F7500 X-40.400 Y-20.216
G0 X-40.400 Y-25.992
G0 X-40.563 Y-25.992
G1 F2220 X40.664 Y-25.991 E394.22091
G0 F7500 X40.500 Y-25.991
G0 X40.500 Y-31.767
G0 X40.664 Y-31.767
G1 F2220 X-40.563 Y-31.768 E397.14542
G0 F7500 X-40.400 Y-31.768
G0 X-40.400 Y-37.544
G0 X-40.563 Y-37.544
G1 F2220 X40.664 Y-37.543 E400.06992
G0 F7500 X40.500 Y-37.543
G0 X37.544 Y-40.300
G0 X37.544 Y-40.464
G1 F2220 X37.544 Y40.664 E402.99086
G0 F7500 X37.544 Y40.500
G0 X31.768 Y40.500
G0 X31.768 Y40.664
G1 F2220 X31.768 Y-40.464 E405.91180
G0 F7500 X31.768 Y-40.300
G0 X25.992 Y-40.300
G0 X25.992 Y-40.464
G1 F2220 X25.992 Y40.664 E408.83274
G0 F7500 X25.992 Y40.500
G0 X20.216 Y40.500
G0 X20.216 Y40.664
G1 F2220 X20.216 Y-40.464 E411.75368
G0 F7500 X20.216 Y-40.300
G0 X14.440 Y-40.300
G0 X14.440 Y-40.464
G1 F2220 X14.440 Y40.664 E414.67462
G0 F7500 X14.440 Y40.500
G0 X8.664 Y40.500
G0 X8.664 Y40.664
G1 F2220 X8.664 Y-40.464 E417.59556
G0 F7500 X8.664 Y-40.300
G0 X2.888 Y-40.300
G0 X2.888 Y-40.464
G1 F2220 X2.888 Y40.664 E420.51650
G0 F7500 X2.888 Y40.500
G0 X-2.888 Y40.500
G0 X-2.888 Y40.664
G1 F2220 X-2.888 Y-40.464 E423.43744
G0 F7500 X-2.888 Y-40.300
G0 X-8.664 Y-40.300
G0 X-8.664 Y-40.464
G1 F2220 X-8.664 Y40.664 E426.35838
G0 F7500 X-8.664 Y40.500
G0 X-14.440 Y40.500
G0 X-14.440 Y40.664
G1 F2220 X-14.440 Y-40.464 E429.27932
G0 F7500 X-14.440 Y-40.300
G0 X-20.216 Y-40.300
G0 X-20.216 Y-40.464
G1 F2220 X-20.216 Y40.664 E432.20026
G0 F7500 X-20.216 Y40.500
G0 X-25.992 Y40.500
G0 X-25.992 Y40.664
G1 F2220 X-25.992 Y-40.464 E435.12120
G0 F7500 X-25.992 Y-40.300
G0 X-31.768 Y-40.300
G0 X-31.768 Y-40.464
G1 F2220 X-31.768 Y40.664 E438.04214
G0 F7500 X-31.768 Y40.500
G0 X-37.544 Y40.500
G0 X-37.544 Y40.664
G1 F2220 X-37.544 Y-40.464 E440.96308
;LAYER:4
G1 F2400 E439.96308
G0 F7500 X0.216 Y0.216 Z1.100
;TYPE:WALL-OUTER
G1 F2400 E440.96308
G1 F2700 X0.284 Y0.216 E440.96553
G1 X0.284 Y0.284 E440.96798
G1 X0.216 Y0.284 E440.97043
G1 X0.216 Y0.216 E440.97288
G0 F7500 X-0.700 Y-0.700
;TYPE:SUPPORT
G1 F2400 X-0.700 Y1.200 E441.04129
G1 X1.200 Y1.200 E441.10969
G1 X1.200 Y-0.700 E441.17810
G1 X-0.700 Y-0.700 E441.24651
G0 F7500 X-0.690 Y-0.800
G0 X-40.500 Y-40.400
G1 F2400 X40.600 Y-40.400 E444.16644
G1 X40.600 Y40.600 E447.08277
G1 X-40.500 Y40.600 E450.00270
G1 X-40.500 Y-40.400 E452.91904
G0 F7500 X-40.400 Y-37.544
G0 X-40.563 Y-37.544
G1 F2400 X40.664 Y-37.543 E455.84354
G0 F7500 X40.500 Y-37.543
G0 X40.500 Y-31.767
G0 X40.664 Y-31.767
G1 F2400 X-40.563 Y-31.768 E458.76805
G0 F7500 X-40.400 Y-31.768
G0 X-40.400 Y-25.992
G0 X-40.563 Y-25.992
G1 F2400 X40.664 Y-25.991 E461.69255
G0 F7500 X40.500 Y-25.991
G0 X40.500 Y-20.215
G0 X40.664 Y-20.215
G1 F2400 X-40.563 Y-20.216 E464.61706
G0 F7500 X-40.400 Y-20.216
G0 X-40.400 Y-14.440
G0 X-40.563 Y-14.440
G1 F2400 X40.664 Y-14.439 E467.54156
G0 F7500 X40.500 Y-14.439
G0 X40.500 Y-8.663
G0 X40.664 Y-8.663
G1 F2400 X-40.563 Y-8.664 E470.46606
G0 F7500 X-40.400 Y-8.664
G0 X-40.400 Y-2.888
G0 X-40.563 Y-2.888
G1 F2400 X40.664 Y-2.887 E473.39057
G0 F7500 X40.500 Y-2.887
G0 X40.500 Y2.888
G0 X40.663 Y2.888
G1 F2400 X-40.564 Y2.887 E476.31507
G0 F7500 X-40.400 Y2.887
G0 X-40.400 Y8.663
G0 X-40.564 Y8.663
G1 F2400 X40.663 Y8.664 E479.23958
G0 F7500 X40.500 Y8.664
G0 X40.500 Y14.440
G0 X40.663 Y14.440
G1 F2400 X-40.564 Y14.439 E482.16408
G0 F7500 X-40.400 Y14.439
G0 X-40.400 Y20.215
G0 X-40.564 Y20.215
G1 F2400 X40.663 Y20.216 E485.08859
G0 F7500 X40.500 Y20.216
G0 X40.500 Y25.992
G0 X40.663 Y25.992
G1 F2400 X-40.564 Y25.991 E488.01309
G0 F7500 X-40.400 Y25.991
G0 X-40.400 Y31.767
G0 X-40.564 Y31.767
G1 F2400 X40.663 Y31.768 E490.93760
G0 F7500 X40.500 Y31.768
G0 X40.500 Y37.544
G0 X40.663 Y37.544
G1 F2400 X-40.564 Y37.543 E493.86210
G0 F7500 X-40.400 Y37.543
G0 X-37.544 Y40.500
G0 X-37.544 Y40.664
G1 F2400 X-37.544 Y-40.464 E496.78304
G0 F7500 X-37.544 Y-40.300
G0 X-31.768 Y-40.300
G0 X-31.768 Y-40.464
G1 F2400 X-31.768 Y40.664 E499.70398
