;Generated with Cura_SteamEngine 15.04.6

;Layer count: 16
;LAYER:0
M107
G0 F7500 X-43.716 Y-48.616 Z0.300
;TYPE:SKIRT
G1 F1800 X43.816 Y-48.616 E4.72727
G1 X43.816 Y48.816 E9.98919
G1 X-43.716 Y48.816 E14.71646
G1 X-43.716 Y-48.616 E19.97838
G1 F2400 E18.97838
G0 F7500 X0.216 Y0.216
;TYPE:WALL-OUTER
G1 F2400 E19.97838
G1 F1800 X0.284 Y0.216 E19.98206
G1 X0.284 Y0.284 E19.98573
G1 X0.216 Y0.284 E19.98940
G1 X0.216 Y0.216 E19.99307
G0 F7500 X-0.700 Y-0.700
;TYPE:SUPPORT
G1 F1800 X-0.700 Y1.200 E20.09569
G1 X1.200 Y1.200 E20.19830
G1 X1.200 Y-0.700 E20.30091
G1 X-0.700 Y-0.700 E20.40352
G0 F7500 X-0.690 Y-0.800
G0 X-40.500 Y-45.400
G1 F1800 X40.600 Y-45.400 E24.78342
G1 X40.600 Y45.600 E29.69798
G1 X-40.500 Y45.600 E34.07788
G1 X-40.500 Y-45.400 E38.99244
G0 F7500 X-40.400 Y-43.320
G0 X-40.563 Y-43.320
G1 F1800 X40.664 Y-43.319 E43.37919
G0 F7500 X40.500 Y-43.319
G0 X37.544 Y-45.300
G0 X37.544 Y-45.464
G1 F1800 X37.544 Y45.664 E48.30067
G0 F7500 X37.544 Y45.500
G0 X31.768 Y45.500
G0 X31.768 Y45.664
G1 F1800 X31.768 Y-45.464 E53.22214
G0 F7500 X31.768 Y-45.300
G0 X25.992 Y-45.300
G0 X25.992 Y-45.464
G1 F1800 X25.992 Y45.664 E58.14361
G0 F7500 X25.992 Y45.500
G0 X20.216 Y45.500
G0 X20.216 Y45.664
G1 F1800 X20.216 Y-45.464 E63.06508
G0 F7500 X20.216 Y-45.300
G0 X14.440 Y-45.300
G0 X14.440 Y-45.464
G1 F1800 X14.440 Y45.664 E67.98655
G0 F7500 X14.440 Y45.500
G0 X8.664 Y45.500
G0 X8.664 Y45.664
G1 F1800 X8.664 Y-45.464 E72.90802
G0 F7500 X8.664 Y-45.300
G0 X2.888 Y-45.300
G0 X2.888 Y-45.464
G1 F1800 X2.888 Y45.664 E77.82950
G0 F7500 X2.888 Y45.500
G0 X-2.888 Y45.500
G0 X-2.888 Y45.664
G1 F1800 X-2.888 Y-45.464 E82.75097
G0 F7500 X-2.888 Y-45.300
G0 X-8.664 Y-45.300
G0 X-8.664 Y-45.464
G1 F1800 X-8.664 Y45.664 E87.67244
G0 F7500 X-8.664 Y45.500
G0 X-14.440 Y45.500
G0 X-14.440 Y45.664
G1 F1800 X-14.440 Y-45.464 E92.59391
G0 F7500 X-14.440 Y-45.300
G0 X-20.216 Y-45.300
G0 X-20.216 Y-45.464
G1 F1800 X-20.216 Y45.664 E97.51538
G0 F7500 X-20.216 Y45.500
G0 X-25.992 Y45.500
G0 X-25.992 Y45.664
G1 F1800 X-25.992 Y-45.464 E102.43686
G0 F7500 X-25.992 Y-45.300
G0 X-31.768 Y-45.300
G0 X-31.768 Y-45.464
G1 F1800 X-31.768 Y45.664 E107.35833
G0 F7500 X-31.768 Y45.500
G0 X-37.544 Y45.500
G0 X-37.544 Y45.664
G1 F1800 X-37.544 Y-45.464 E112.27980
G0 F7500 X-37.544 Y-45.300
G0 X-40.400 Y-37.544
G0 X-40.563 Y-37.544
G1 F1800 X40.664 Y-37.543 E116.66656
G0 F7500 X40.500 Y-37.543
G0 X40.500 Y-31.767
G0 X40.664 Y-31.767
G1 F1800 X-40.563 Y-31.768 E121.05331
G0 F7500 X-40.400 Y-31.768
G0 X-40.400 Y-25.992
G0 X-40.563 Y-25.992
G1 F1800 X40.664 Y-25.991 E125.44007
G0 F7500 X40.500 Y-25.991
G0 X40.500 Y-20.215
G0 X40.664 Y-20.215
G1 F1800 X-40.563 Y-20.216 E129.82683
G0 F7500 X-40.400 Y-20.216
G0 X-40.400 Y-14.440
G0 X-40.563 Y-14.440
G1 F1800 X40.664 Y-14.439 E134.21359
G0 F7500 X40.500 Y-14.439
G0 X40.500 Y-8.663
G0 X40.664 Y-8.663
G1 F1800 X-40.563 Y-8.664 E138.60034
G0 F7500 X-40.400 Y-8.664
G0 X-40.400 Y-2.888
G0 X-40.563 Y-2.888
G1 F1800 X40.664 Y-2.887 E142.98710
G0 F7500 X40.500 Y-2.887
G0 X40.500 Y2.888
G0 X40.663 Y2.888
G1 F1800 X-40.564 Y2.887 E147.37386
G0 F7500 X-40.400 Y2.887
G0 X-40.400 Y8.663
G0 X-40.564 Y8.663
G1 F1800 X40.663 Y8.664 E151.76061
G0 F7500 X40.500 Y8.664
G0 X40.500 Y14.440
G0 X40.663 Y14.440
G1 F1800 X-40.564 Y14.439 E156.14737
G0 F7500 X-40.400 Y14.439
G0 X-40.400 Y20.215
G0 X-40.564 Y20.215
G1 F1800 X40.663 Y20.216 E160.53413
G0 F7500 X40.500 Y20.216
G0 X40.500 Y25.992
G0 X40.663 Y25.992
G1 F1800 X-40.564 Y25.991 E164.92089
G0 F7500 X-40.400 Y25.991
G0 X-40.400 Y31.767
G0 X-40.564 Y31.767
G1 F1800 X40.663 Y31.768 E169.30764
G0 F7500 X40.500 Y31.768
G0 X40.500 Y37.544
G0 X40.663 Y37.544
G1 F1800 X-40.564 Y37.543 E173.69440
G0 F7500 X-40.400 Y37.543
G0 X-40.400 Y43.319
G0 X-40.564 Y43.319
G1 F1800 X40.663 Y43.320 E178.08116
;LAYER:1
M106 S63
G1 F2400 E177.08116
G0 F7500 X0.284 Y0.284 Z0.500
;TYPE:WALL-OUTER
G1 F2400 E178.08116
G1 F1980 X0.216 Y0.284 E178.08360
G1 X0.216 Y0.216 E178.08605
G1 X0.284 Y0.216 E178.08850
G1 X0.284 Y0.284 E178.09095
G0 F7500 X1.200 Y1.200
;TYPE:SUPPORT
G1 F1920 X1.200 Y-0.700 E178.15936
G1 X-0.700 Y-0.700 E178.22776
G1 X-0.700 Y1.200 E178.29617
G1 X1.200 Y1.200 E178.36458
G0 F7500 X1.190 Y1.300
G0 X40.500 Y45.590
G0 X40.600 Y45.600
G1 F1920 X-40.500 Y45.600 E181.28451
G1 X-40.500 Y-45.400 E184.56089
G1 X40.600 Y-45.400 E187.48082
G1 X40.600 Y45.600 E190.75719
G0 F7500 X40.500 Y45.590
G0 X40.500 Y43.320
G0 X40.663 Y43.320
G1 F1920 X-40.564 Y43.319 E193.68170
G0 F7500 X-40.400 Y43.319
G0 X-37.544 Y45.500
G0 X-37.544 Y45.664
G1 F1920 X-37.544 Y-45.464 E196.96268
G0 F7500 X-37.544 Y-45.300
G0 X-31.768 Y-45.300
G0 X-31.768 Y-45.464
G1 F1920 X-31.768 Y45.664 E200.24366
G0 F7500 X-31.768 Y45.500
G0 X-25.992 Y45.500
G0 X-25.992 Y45.664
G1 F1920 X-25.992 Y-45.464 E203.52464
G0 F7500 X-25.992 Y-45.300
G0 X-20.216 Y-45.300
G0 X-20.216 Y-45.464
G1 F1920 X-20.216 Y45.664 E206.80562
G0 F7500 X-20.216 Y45.500
G0 X-14.440 Y45.500
G0 X-14.440 Y45.664
G1 F1920 X-14.440 Y-45.464 E210.08660
G0 F7500 X-14.440 Y-45.300
G0 X-8.664 Y-45.300
G0 X-8.664 Y-45.464
G1 F1920 X-8.664 Y45.664 E213.36758
G0 F7500 X-8.664 Y45.500
G0 X-2.888 Y45.500
G0 X-2.888 Y45.664
G1 F1920 X-2.888 Y-45.464 E216.64856
G0 F7500 X-2.888 Y-45.300
G0 X2.888 Y-45.300
G0 X2.888 Y-45.464
G1 F1920 X2.888 Y45.664 E219.92955
G0 F7500 X2.888 Y45.500
G0 X8.664 Y45.500
G0 X8.664 Y45.664
G1 F1920 X8.664 Y-45.464 E223.21053
G0 F7500 X8.664 Y-45.300
G0 X14.440 Y-45.300
G0 X14.440 Y-45.464
G1 F1920 X14.440 Y45.664 E226.49151
G0 F7500 X14.440 Y45.500
G0 X20.216 Y45.500
G0 X20.216 Y45.664
G1 F1920 X20.216 Y-45.464 E229.77249
G0 F7500 X20.216 Y-45.300
G0 X25.992 Y-45.300
G0 X25.992 Y-45.464
G1 F1920 X25.992 Y45.664 E233.05347
G0 F7500 X25.992 Y45.500
G0 X31.768 Y45.500
G0 X31.768 Y45.664
G1 F1920 X31.768 Y-45.464 E236.33445
G0 F7500 X31.768 Y-45.300
G0 X37.544 Y-45.300
G0 X37.544 Y-45.464
G1 F1920 X37.544 Y45.664 E239.61543
G0 F7500 X37.544 Y45.500
G0 X40.500 Y37.544
G0 X40.663 Y37.544
G1 F1920 X-40.564 Y37.543 E242.53994
G0 F7500 X-40.400 Y37.543
G0 X-40.400 Y31.767
G0 X-40.564 Y31.767
G1 F1920 X40.663 Y31.768 E245.46444
G0 F7500 X40.500 Y31.768
G0 X40.500 Y25.992
G0 X40.663 Y25.992
G1 F1920 X-40.564 Y25.991 E248.38895
G0 F7500 X-40.400 Y25.991
G0 X-40.400 Y20.215
G0 X-40.564 Y20.215
G1 F1920 X40.663 Y20.216 E251.31345
G0 F7500 X40.500 Y20.216
G0 X40.500 Y14.440
G0 X40.663 Y14.440
G1 F1920 X-40.564 Y14.439 E254.23796
G0 F7500 X-40.400 Y14.439
G0 X-40.400 Y8.663
G0 X-40.564 Y8.663
G1 F1920 X40.663 Y8.664 E257.16246
G0 F7500 X40.500 Y8.664
G0 X40.500 Y2.888
G0 X40.663 Y2.888
G1 F1920 X-40.564 Y2.887 E260.08697
G0 F7500 X-40.400 Y2.887
G0 X-40.400 Y-2.888
G0 X-40.563 Y-2.888
G1 F1920 X40.664 Y-2.887 E263.01147
G0 F7500 X40.500 Y-2.887
G0 X40.500 Y-8.663
G0 X40.664 Y-8.663
G1 F1920 X-40.563 Y-8.664 E265.93598
G0 F7500 X-40.400 Y-8.664
G0 X-40.400 Y-14.440
G0 X-40.563 Y-14.440
G1 F1920 X40.664 Y-14.439 E268.86048
G0 F7500 X40.500 Y-14.439
G0 X40.500 Y-20.215
G0 X40.664 Y-20.215
G1 F1920 X-40.563 Y-20.216 E271.78498
G0 F7500 X-40.400 Y-20.216
G0 X-40.400 Y-25.992
G0 X-40.563 Y-25.992
G1 F1920 X40.664 Y-25.991 E274.70949
G0 F7500 X40.500 Y-25.991
G0 X40.500 Y-31.767
G0 X40.664 Y-31.767
G1 F1920 X-40.563 Y-31.768 E277.63399
G0 F7500 X-40.400 Y-31.768
G0 X-40.400 Y-37.544
G0 X-40.563 Y-37.544
G1 F1920 X40.664 Y-37.543 E280.55850
G0 F7500 X40.500 Y-37.543
G0 X40.500 Y-43.319
G0 X40.664 Y-43.319
G1 F1920 X-40.563 Y-43.320 E283.48300
;LAYER:2
M106 S127
G1 F2400 E282.48300
G0 F7500 X0.216 Y0.216 Z0.700
;TYPE:WALL-OUTER
G1 F2400 E283.48300
G1 F2220 X0.284 Y0.216 E283.48545
G1 X0.284 Y0.284 E283.48790
G1 X0.216 Y0.284 E283.49035
G1 X0.216 Y0.216 E283.49280
G0 F7500 X-0.700 Y-0.700
;TYPE:SUPPORT
G1 F2100 X-0.700 Y1.200 E283.56120
G1 X1.200 Y1.200 E283.62961
G1 X1.200 Y-0.700 E283.69802
G1 X-0.700 Y-0.700 E283.76643
G0 F7500 X-0.690 Y-0.800
G0 X-40.500 Y-45.400
G1 F2100 X40.600 Y-45.400 E286.68636
G1 X40.600 Y45.600 E289.96273
G1 X-40.500 Y45.600 E292.88267
G1 X-40.500 Y-45.400 E296.15904
G0 F7500 X-40.400 Y-43.320
G0 X-40.563 Y-43.320
G1 F2100 X40.664 Y-43.319 E299.08354
G0 F7500 X40.500 Y-43.319
G0 X37.544 Y-45.300
G0 X37.544 Y-45.464
G1 F2100 X37.544 Y45.664 E302.36452
G0 F7500 X37.544 Y45.500
G0 X31.768 Y45.500
G0 X31.768 Y45.664
G1 F2100 X31.768 Y-45.464 E305.64551
G0 F7500 X31.768 Y-45.300
G0 X25.992 Y-45.300
G0 X25.992 Y-45.464
G1 F2100 X25.992 Y45.664 E308.92649
G0 F7500 X25.992 Y45.500
G0 X20.216 Y45.500
G0 X20.216 Y45.664
G1 F2100 X20.216 Y-45.464 E312.20747
G0 F7500 X20.216 Y-45.300
G0 X14.440 Y-45.300
G0 X14.440 Y-45.464
G1 F2100 X14.440 Y45.664 E315.48845
G0 F7500 X14.440 Y45.500
G0 X8.664 Y45.500
G0 X8.664 Y45.664
G1 F2100 X8.664 Y-45.464 E318.76943
G0 F7500 X8.664 Y-45.300
G0 X2.888 Y-45.300
G0 X2.888 Y-45.464
G1 F2100 X2.888 Y45.664 E322.05041
G0 F7500 X2.888 Y45.500
G0 X-2.888 Y45.500
G0 X-2.888 Y45.664
G1 F2100 X-2.888 Y-45.464 E325.33139
G0 F7500 X-2.888 Y-45.300
G0 X-8.664 Y-45.300
G0 X-8.664 Y-45.464
G1 F2100 X-8.664 Y45.664 E328.61237
G0 F7500 X-8.664 Y45.500
G0 X-14.440 Y45.500
G0 X-14.440 Y45.664
G1 F2100 X-14.440 Y-45.464 E331.89336
G0 F7500 X-14.440 Y-45.300
G0 X-20.216 Y-45.300
G0 X-20.216 Y-45.464
G1 F2100 X-20.216 Y45.664 E335.17434
G0 F7500 X-20.216 Y45.500
G0 X-25.992 Y45.500
G0 X-25.992 Y45.664
G1 F2100 X-25.992 Y-45.464 E338.45532
G0 F7500 X-25.992 Y-45.300
G0 X-31.768 Y-45.300
G0 X-31.768 Y-45.464
G1 F2100 X-31.768 Y45.664 E341.73630
G0 F7500 X-31.768 Y45.500
G0 X-37.544 Y45.500
G0 X-37.544 Y45.664
G1 F2100 X-37.544 Y-45.464 E345.01728
G0 F7500 X-37.544 Y-45.300
G0 X-40.400 Y-37.544
G0 X-40.563 Y-37.544
G1 F2100 X40.664 Y-37.543 E347.94179
G0 F7500 X40.500 Y-37.543
G0 X40.500 Y-31.767
G0 X40.664 Y-31.767
G1 F2100 X-40.563 Y-31.768 E350.86629
G0 F7500 X-40.400 Y-31.768
G0 X-40.400 Y-25.992
G0 X-40.563 Y-25.992
G1 F2100 X40.664 Y-25.991 E353.79079
G0 F7500 X40.500 Y-25.991
G0 X40.500 Y-20.215
G0 X40.664 Y-20.215
G1 F2100 X-40.563 Y-20.216 E356.71530
G0 F7500 X-40.400 Y-20.216
G0 X-40.400 Y-14.440
G0 X-40.563 Y-14.440
G1 F2100 X40.664 Y-14.439 E359.63980
G0 F7500 X40.500 Y-14.439
G0 X40.500 Y-8.663
G0 X40.664 Y-8.663
G1 F2100 X-40.563 Y-8.664 E362.56431
G0 F7500 X-40.400 Y-8.664
G0 X-40.400 Y-2.888
G0 X-40.563 Y-2.888
G1 F2100 X40.664 Y-2.887 E365.48881
G0 F7500 X40.500 Y-2.887
G0 X40.500 Y2.888
G0 X40.663 Y2.888
G1 F2100 X-40.564 Y2.887 E368.41332
G0 F7500 X-40.400 Y2.887
G0 X-40.400 Y8.663
G0 X-40.564 Y8.663
G1 F2100 X40.663 Y8.664 E371.33782
G0 F7500 X40.500 Y8.664
G0 X40.500 Y14.440
G0 X40.663 Y14.440
G1 F2100 X-40.564 Y14.439 E374.26233
G0 F7500 X-40.400 Y14.439
G0 X-40.400 Y20.215
G0 X-40.564 Y20.215
G1 F2100 X40.663 Y20.216 E377.18683
G0 F7500 X40.500 Y20.216
G0 X40.500 Y25.992
G0 X40.663 Y25.992
G1 F2100 X-40.564 Y25.991 E380.11134
G0 F7500 X-40.400 Y25.991
G0 X-40.400 Y31.767
G0 X-40.564 Y31.767
G1 F2100 X40.663 Y31.768 E383.03584
G0 F7500 X40.500 Y31.768
G0 X40.500 Y37.544
G0 X40.663 Y37.544
G1 F2100 X-40.564 Y37.543 E385.96035
G0 F7500 X-40.400 Y37.543
G0 X-40.400 Y43.319
G0 X-40.564 Y43.319
G1 F2100 X40.663 Y43.320 E388.88485
;LAYER:3
G1 F2400 E387.88485
G0 F7500 X0.284 Y0.284 Z0.900
;TYPE:WALL-OUTER
G1 F2400 E388.88485
G1 X0.216 Y0.284 E388.88730
G1 X0.216 Y0.216 E388.88975
G1 X0.284 Y0.216 E388.89220
G1 X0.284 Y0.284 E388.89464
G0 F7500 X1.200 Y1.200
;TYPE:SUPPORT
G1 F2220 X1.200 Y-0.700 E388.96305
G1 X-0.700 Y-0.700 E389.03146
G1 X-0.700 Y1.200 E389.09987
G1 X1.200 Y1.200 E389.16828
G0 F7500 X1.190 Y1.300
G0 X40.500 Y45.590
G0 X40.600 Y45.600
G1 F2220 X-40.500 Y45.600 E392.08821
G1 X-40.500 Y-45.400 E395.36458
G1 X40.600 Y-45.400 E398.28451
G1 X40.600 Y45.600 E401.56089
G0 F7500 X40.500 Y45.590
G0 X40.500 Y43.320
G0 X40.663 Y43.320
G1 F2220 X-40.564 Y43.319 E404.48539
G0 F7500 X-40.400 Y43.319
G0 X-37.544 Y45.500
G0 X-37.544 Y45.664
G1 F2220 X-37.544 Y-45.464 E407.76637
G0 F7500 X-37.544 Y-45.300
G0 X-31.768 Y-45.300
G0 X-31.768 Y-45.464
G1 F2220 X-31.768 Y45.664 E411.04735
G0 F7500 X-31.768 Y45.500
G0 X-25.992 Y45.500
G0 X-25.992 Y45.664
G1 F2220 X-25.992 Y-45.464 E414.32833
G0 F7500 X-25.992 Y-45.300
G0 X-20.216 Y-45.300
G0 X-20.216 Y-45.464
G1 F2220 X-20.216 Y45.664 E417.60932
G0 F7500 X-20.216 Y45.500
G0 X-14.440 Y45.500
G0 X-14.440 Y45.664
G1 F2220 X-14.440 Y-45.464 E420.89030
G0 F7500 X-14.440 Y-45.300
G0 X-8.664 Y-45.300
G0 X-8.664 Y-45.464
G1 F2220 X-8.664 Y45.664 E424.17128
G0 F7500 X-8.664 Y45.500
G0 X-2.888 Y45.500
G0 X-2.888 Y45.664
G1 F2220 X-2.888 Y-45.464 E427.45226
G0 F7500 X-2.888 Y-45.300
G0 X2.888 Y-45.300
G0 X2.888 Y-45.464
G1 F2220 X2.888 Y45.664 E430.73324
G0 F7500 X2.888 Y45.500
G0 X8.664 Y45.500
G0 X8.664 Y45.664
G1 F2220 X8.664 Y-45.464 E434.01422
G0 F7500 X8.664 Y-45.300
G0 X14.440 Y-45.300
G0 X14.440 Y-45.464
G1 F2220 X14.440 Y45.664 E437.29520
G0 F7500 X14.440 Y45.500
G0 X20.216 Y45.500
G0 X20.216 Y45.664
G1 F2220 X20.216 Y-45.464 E440.57618
G0 F7500 X20.216 Y-45.300
G0 X25.992 Y-45.300
G0 X25.992 Y-45.464
G1 F2220 X25.992 Y45.664 E443.85717
G0 F7500 X25.992 Y45.500
G0 X31.768 Y45.500
G0 X31.768 Y45.664
G1 F2220 X31.768 Y-45.464 E447.13815
G0 F7500 X31.768 Y-45.300
G0 X37.544 Y-45.300
G0 X37.544 Y-45.464
G1 F2220 X37.544 Y45.664 E450.41913
G0 F7500 X37.544 Y45.500
G0 X40.500 Y37.544
G0 X40.663 Y37.544
G1 F2220 X-40.564 Y37.543 E453.34363
G0 F7500 X-40.400 Y37.543
G0 X-40.400 Y31.767
G0 X-40.564 Y31.767
G1 F2220 X40.663 Y31.768 E456.26814
G0 F7500 X40.500 Y31.768
G0 X40.500 Y25.992
G0 X40.663 Y25.992
G1 F2220 X-40.564 Y25.991 E459.19264
G0 F7500 X-40.400 Y25.991
G0 X-40.400 Y20.215
G0 X-40.564 Y20.215
G1 F2220 X40.663 Y20.216 E462.11715
G0 F7500 X40.500 Y20.216
G0 X40.500 Y14.440
G0 X40.663 Y14.440
G1 F2220 X-40.564 Y14.439 E465.04165
G0 F7500 X-40.400 Y14.439
G0 X-40.400 Y8.663
G0 X-40.564 Y8.663
G1 F2220 X40.663 Y8.664 E467.96616
G0 F7500 X40.500 Y8.664
G0 X40.500 Y2.888
G0 X40.663 Y2.888
G1 F2220 X-40.564 Y2.887 E470.89066
G0 F7500 X-40.400 Y2.887
G0 X-40.400 Y-2.888
G0 X-40.563 Y-2.888
G1 F2220 X40.664 Y-2.887 E473.81517
G0 F7500 X40.500 Y-2.887
G0 X40.500 Y-8.663
G0 X40.664 Y-8.663
G1 F2220 X-40.563 Y-8.664 E476.73967
G0 F7500 X-40.400 Y-8.664
G0 X-40.400 Y-14.440
G0 X-40.563 Y-14.440
G1 F2220 X40.664 Y-14.439 E479.66418
G0 F7500 X40.500 Y-14.439
G0 X40.500 Y-20.215
G0 X40.664 Y-20.215
G1 F2220 X-40.563 Y-20.216 E482.58868
G0 F7500 X-40.400 Y-20.216
G0 X-40.400 Y-25.992
G0 X-40.563 Y-25.992
G1 F2220 X40.664 Y-25.991 E485.51318
G0 F7500 X40.500 Y-25.991
G0 X40.500 Y-31.767
G0 X40.664 Y-31.767
G1 F2220 X-40.563 Y-31.768 E488.43769
G0 F7500 X-40.400 Y-31.768
G0 X-40.400 Y-37.544
G0 X-40.563 Y-37.544
G1 F2220 X40.664 Y-37.543 E491.36219
G0 F7500 X40.500 Y-37.543
G0 X40.500 Y-43.319
G0 X40.664 Y-43.319
G1 F2220 X-40.563 Y-43.320 E494.28670
;LAYER:4
G1 F2400 E493.28670
G0 F7500 X0.216 Y0.216 Z1.100
;TYPE:WALL-OUTER
G1 F2400 E494.28670
G1 F2700 X0.284 Y0.216 E494.28915
G1 X0.284 Y0.284 E494.29160
G1 X0.216 Y0.284 E494.29404
G1 X0.216 Y0.216 E494.29649
G0 F7500 X-0.700 Y-0.700
;TYPE:SUPPORT
G1 F2400 X-0.700 Y1.200 E494.36490
G1 X1.200 Y1.200 E494.43331
G1 X1.200 Y-0.700 E494.50172
G1 X-0.700 Y-0.700 E494.57012
G0 F7500 X-0.690 Y-0.800
G0 X-40.500 Y-45.400
G1 F2400 X40.600 Y-45.400 E497.49006
G1 X40.600 Y45.600 E500.76643
G1 X-40.500 Y45.600 E503.68636
G1 X-40.500 Y-45.400 E506.96273
G0 F7500 X-40.400 Y-43.320
G0 X-40.563 Y-43.320
G1 F2400 X40.664 Y-43.319 E509.88724
G0 F7500 X40.500 Y-43.319
G0 X37.544 Y-45.300
G0 X37.544 Y-45.464
G1 F2400 X37.544 Y45.664 E513.16822
G0 F7500 X37.544 Y45.500
G0 X31.768 Y45.500
G0 X31.768 Y45.664
G1 F2400 X31.768 Y-45.464 E516.44920
G0 F7500 X31.768 Y-45.300
G0 X25.992 Y-45.300
G0 X25.992 Y-45.464
G1 F2400 X25.992 Y45.664 E519.73018
G0 F7500 X25.992 Y45.500
G0 X20.216 Y45.500
G0 X20.216 Y45.664
G1 F2400 X20.216 Y-45.464 E523.01116
G0 F7500 X20.216 Y-45.300
G0 X14.440 Y-45.300
G0 X14.440 Y-45.464
G1 F2400 X14.440 Y45.664 E526.29214
G0 F7500 X14.440 Y45.500
G0 X8.664 Y45.500
G0 X8.664 Y45.664
G1 F2400 X8.664 Y-45.464 E529.57313
G0 F7500 X8.664 Y-45.300
G0 X2.888 Y-45.300
G0 X2.888 Y-45.464
G1 F2400 X2.888 Y45.664 E532.85411
G0 F7500 X2.888 Y45.500
