;Generated with Cura_SteamEngine 15.04.6

;Layer count: 16
;LAYER:0
M107
G0 F7500 X-48.716 Y-53.616 Z0.300
;TYPE:SKIRT
G1 F1800 X48.816 Y-53.616 E5.26733
G1 X48.816 Y53.816 E11.06932
G1 X-48.716 Y53.816 E16.33664
G1 X-48.716 Y-53.616 E22.13863
G1 F2400 E21.13863
G0 F7500 X0.216 Y0.216
;TYPE:WALL-OUTER
G1 F2400 E22.13863
G1 F1800 X0.284 Y0.216 E22.14230
G1 X0.284 Y0.284 E22.14598
G1 X0.216 Y0.284 E22.14965
G1 X0.216 Y0.216 E22.15332
G0 F7500 X-0.700 Y-0.700
;TYPE:SUPPORT
G1 F1800 X-0.700 Y1.200 E22.25593
G1 X1.200 Y1.200 E22.35854
G1 X1.200 Y-0.700 E22.46116
G1 X-0.700 Y-0.700 E22.56377
G0 F7500 X-0.690 Y-0.800
G0 X-45.500 Y-50.400
G1 F1800 X45.600 Y-50.400 E27.48373
G1 X45.600 Y50.600 E32.93835
G1 X-45.500 Y50.600 E37.85831
G1 X-45.500 Y-50.400 E43.31293
G0 F7500 X-45.563 Y-49.096
G1 F1800 X45.664 Y-49.095 E48.23975
G0 F7500 X45.500 Y-49.095
G0 X43.320 Y-50.300
G0 X43.320 Y-50.464
G1 F1800 X43.320 Y50.664 E53.70128
G0 F7500 X43.320 Y50.500
G0 X45.500 Y49.096
G0 X45.663 Y49.096
G1 F1800 X-45.564 Y49.095 E58.62810
G0 F7500 X-45.400 Y49.095
G0 X-43.320 Y50.500
G0 X-43.320 Y50.664
G1 F1800 X-43.320 Y-50.464 E64.08963
G0 F7500 X-43.320 Y-50.300
G0 X-45.400 Y-43.320
G0 X-45.563 Y-43.320
G1 F1800 X45.664 Y-43.319 E69.01645
G0 F7500 X45.500 Y-43.319
G0 X45.500 Y-37.543
G0 X45.664 Y-37.543
G1 F1800 X-45.563 Y-37.544 E73.94327
G0 F7500 X-45.400 Y-37.544
G0 X-45.400 Y-31.768
G0 X-45.563 Y-31.768
G1 F1800 X45.664 Y-31.767 E78.87009
G0 F7500 X45.500 Y-31.767
G0 X45.500 Y-25.991
G0 X45.664 Y-25.991
G1 F1800 X-45.563 Y-25.992 E83.79691
G0 F7500 X-45.400 Y-25.992
G0 X-45.400 Y-20.216
G0 X-45.563 Y-20.216
G1 F1800 X45.664 Y-20.215 E88.72372
G0 F7500 X45.500 Y-20.215
G0 X45.500 Y-14.439
G0 X45.664 Y-14.439
G1 F1800 X-45.563 Y-14.440 E93.65054
G0 F7500 X-45.400 Y-14.440
G0 X-45.400 Y-8.664
G0 X-45.563 Y-8.664
G1 F1800 X45.664 Y-8.663 E98.57736
G0 F7500 X45.500 Y-8.663
G0 X45.500 Y-2.887
G0 X45.664 Y-2.887
G1 F1800 X-45.563 Y-2.888 E103.50418
G0 F7500 X-45.400 Y-2.888
G0 X-45.400 Y2.887
G0 X-45.564 Y2.887
G1 F1800 X45.663 Y2.888 E108.43100
G0 F7500 X45.500 Y2.888
G0 X45.500 Y8.664
G0 X45.663 Y8.664
G1 F1800 X-45.564 Y8.663 E113.35782
G0 F7500 X-45.400 Y8.663
G0 X-45.400 Y14.439
G0 X-45.564 Y14.439
G1 F1800 X45.663 Y14.440 E118.28464
G0 F7500 X45.500 Y14.440
G0 X45.500 Y20.216
G0 X45.663 Y20.216
G1 F1800 X-45.564 Y20.215 E123.21145
G0 F7500 X-45.400 Y20.215
G0 X-45.400 Y25.991
G0 X-45.564 Y25.991
G1 F1800 X45.663 Y25.992 E128.13827
G0 F7500 X45.500 Y25.992
G0 X45.500 Y31.768
G0 X45.663 Y31.768
G1 F1800 X-45.564 Y31.767 E133.06509
G0 F7500 X-45.400 Y31.767
G0 X-45.400 Y37.543
G0 X-45.564 Y37.543
G1 F1800 X45.663 Y37.544 E137.99191
G0 F7500 X45.500 Y37.544
G0 X45.500 Y43.320
G0 X45.663 Y43.320
G1 F1800 X-45.564 Y43.319 E142.91873
G0 F7500 X-45.400 Y43.319
G0 X-37.544 Y50.500
G0 X-37.544 Y50.664
G1 F1800 X-37.544 Y-50.464 E148.38026
G0 F7500 X-37.544 Y-50.300
G0 X-31.768 Y-50.300
G0 X-31.768 Y-50.464
G1 F1800 X-31.768 Y50.664 E153.84179
G0 F7500 X-31.768 Y50.500
G0 X-25.992 Y50.500
G0 X-25.992 Y50.664
G1 F1800 X-25.992 Y-50.464 E159.30333
G0 F7500 X-25.992 Y-50.300
G0 X-20.216 Y-50.300
G0 X-20.216 Y-50.464
G1 F1800 X-20.216 Y50.664 E164.76486
G0 F7500 X-20.216 Y50.500
G0 X-14.440 Y50.500
G0 X-14.440 Y50.664
G1 F1800 X-14.440 Y-50.464 E170.22639
G0 F7500 X-14.440 Y-50.300
G0 X-8.664 Y-50.300
G0 X-8.664 Y-50.464
G1 F1800 X-8.664 Y50.664 E175.68793
G0 F7500 X-8.664 Y50.500
G0 X-2.888 Y50.500
G0 X-2.888 Y50.664
G1 F1800 X-2.888 Y-50.464 E181.14946
G0 F7500 X-2.888 Y-50.300
G0 X2.888 Y-50.300
G0 X2.888 Y-50.464
G1 F1800 X2.888 Y50.664 E186.61099
G0 F7500 X2.888 Y50.500
G0 X8.664 Y50.500
G0 X8.664 Y50.664
G1 F1800 X8.664 Y-50.464 E192.07253
G0 F7500 X8.664 Y-50.300
G0 X14.440 Y-50.300
G0 X14.440 Y-50.464
G1 F1800 X14.440 Y50.664 E197.53406
G0 F7500 X14.440 Y50.500
G0 X20.216 Y50.500
G0 X20.216 Y50.664
G1 F1800 X20.216 Y-50.464 E202.99559
G0 F7500 X20.216 Y-50.300
G0 X25.992 Y-50.300
G0 X25.992 Y-50.464
G1 F1800 X25.992 Y50.664 E208.45713
G0 F7500 X25.992 Y50.500
G0 X31.768 Y50.500
G0 X31.768 Y50.664
G1 F1800 X31.768 Y-50.464 E213.91866
G0 F7500 X31.768 Y-50.300
G0 X37.544 Y-50.300
G0 X37.544 Y-50.464
G1 F1800 X37.544 Y50.664 E219.38019
;LAYER:1
M106 S63
G1 F2400 E218.38019
G0 F7500 X0.284 Y0.284 Z0.500
;TYPE:WALL-OUTER
G1 F2400 E219.38019
G1 F1980 X0.216 Y0.284 E219.38264
G1 X0.216 Y0.216 E219.38509
G1 X0.284 Y0.216 E219.38754
G1 X0.284 Y0.284 E219.38999
G0 F7500 X1.200 Y1.200
;TYPE:SUPPORT
G1 F1920 X1.200 Y-0.700 E219.45840
G1 X-0.700 Y-0.700 E219.52680
G1 X-0.700 Y1.200 E219.59521
G1 X1.200 Y1.200 E219.66362
G0 F7500 X1.190 Y1.300
G0 X45.500 Y50.590
G0 X45.600 Y50.600
G1 F1920 X-45.500 Y50.600 E222.94359
G1 X-45.500 Y-50.400 E226.58001
G1 X45.600 Y-50.400 E229.85998
G1 X45.600 Y50.600 E233.49639
G0 F7500 X45.500 Y50.590
G0 X45.500 Y49.096
G0 X45.663 Y49.096
G1 F1920 X-45.564 Y49.095 E236.78094
G0 F7500 X-45.400 Y49.095
G0 X-43.320 Y50.500
G0 X-43.320 Y50.664
G1 F1920 X-43.320 Y-50.464 E240.42196
G0 F7500 X-43.320 Y-50.300
G0 X-45.400 Y-49.096
G0 X-45.563 Y-49.096
G1 F1920 X45.664 Y-49.095 E243.70651
G0 F7500 X45.500 Y-49.095
G0 X43.320 Y-50.300
G0 X43.320 Y-50.464
G1 F1920 X43.320 Y50.664 E247.34753
G0 F7500 X43.320 Y50.500
G0 X45.500 Y43.320
G0 X45.663 Y43.320
G1 F1920 X-45.564 Y43.319 E250.63207
G0 F7500 X-45.400 Y43.319
G0 X-45.400 Y37.543
G0 X-45.564 Y37.543
G1 F1920 X45.663 Y37.544 E253.91662
G0 F7500 X45.500 Y37.544
G0 X45.500 Y31.768
G0 X45.663 Y31.768
G1 F1920 X-45.564 Y31.767 E257.20117
G0 F7500 X-45.400 Y31.767
G0 X-45.400 Y25.991
G0 X-45.564 Y25.991
G1 F1920 X45.663 Y25.992 E260.48571
G0 F7500 X45.500 Y25.992
G0 X45.500 Y20.216
G0 X45.663 Y20.216
G1 F1920 X-45.564 Y20.215 E263.77026
G0 F7500 X-45.400 Y20.215
G0 X-45.400 Y14.439
G0 X-45.564 Y14.439
G1 F1920 X45.663 Y14.440 E267.05480
G0 F7500 X45.500 Y14.440
G0 X45.500 Y8.664
G0 X45.663 Y8.664
G1 F1920 X-45.564 Y8.663 E270.33935
G0 F7500 X-45.400 Y8.663
G0 X-45.400 Y2.887
G0 X-45.564 Y2.887
G1 F1920 X45.663 Y2.888 E273.62389
G0 F7500 X45.500 Y2.888
G0 X45.500 Y-2.887
G0 X45.664 Y-2.887
G1 F1920 X-45.563 Y-2.888 E276.90844
G0 F7500 X-45.400 Y-2.888
G0 X-45.400 Y-8.664
G0 X-45.563 Y-8.664
G1 F1920 X45.664 Y-8.663 E280.19299
G0 F7500 X45.500 Y-8.663
G0 X45.500 Y-14.439
G0 X45.664 Y-14.439
G1 F1920 X-45.563 Y-14.440 E283.47753
G0 F7500 X-45.400 Y-14.440
G0 X-45.400 Y-20.216
G0 X-45.563 Y-20.216
G1 F1920 X45.664 Y-20.215 E286.76208
G0 F7500 X45.500 Y-20.215
G0 X45.500 Y-25.991
G0 X45.664 Y-25.991
G1 F1920 X-45.563 Y-25.992 E290.04662
G0 F7500 X-45.400 Y-25.992
G0 X-45.400 Y-31.768
G0 X-45.563 Y-31.768
G1 F1920 X45.664 Y-31.767 E293.33117
G0 F7500 X45.500 Y-31.767
G0 X45.500 Y-37.543
G0 X45.664 Y-37.543
G1 F1920 X-45.563 Y-37.544 E296.61571
G0 F7500 X-45.400 Y-37.544
G0 X-45.400 Y-43.320
G0 X-45.563 Y-43.320
G1 F1920 X45.664 Y-43.319 E299.90026
G0 F7500 X45.500 Y-43.319
G0 X37.544 Y-50.300
G0 X37.544 Y-50.464
G1 F1920 X37.544 Y50.664 E303.54128
G0 F7500 X37.544 Y50.500
G0 X31.768 Y50.500
G0 X31.768 Y50.664
G1 F1920 X31.768 Y-50.464 E307.18230
G0 F7500 X31.768 Y-50.300
G0 X25.992 Y-50.300
G0 X25.992 Y-50.464
G1 F1920 X25.992 Y50.664 E310.82333
G0 F7500 X25.992 Y50.500
G0 X20.216 Y50.500
G0 X20.216 Y50.664
G1 F1920 X20.216 Y-50.464 E314.46435
G0 F7500 X20.216 Y-50.300
G0 X14.440 Y-50.300
G0 X14.440 Y-50.464
G1 F1920 X14.440 Y50.664 E318.10537
G0 F7500 X14.440 Y50.500
G0 X8.664 Y50.500
G0 X8.664 Y50.664
G1 F1920 X8.664 Y-50.464 E321.74639
G0 F7500 X8.664 Y-50.300
G0 X2.888 Y-50.300
G0 X2.888 Y-50.464
G1 F1920 X2.888 Y50.664 E325.38742
G0 F7500 X2.888 Y50.500
G0 X-2.888 Y50.500
G0 X-2.888 Y50.664
G1 F1920 X-2.888 Y-50.464 E329.02844
G0 F7500 X-2.888 Y-50.300
G0 X-8.664 Y-50.300
G0 X-8.664 Y-50.464
G1 F1920 X-8.664 Y50.664 E332.66946
G0 F7500 X-8.664 Y50.500
G0 X-14.440 Y50.500
G0 X-14.440 Y50.664
G1 F1920 X-14.440 Y-50.464 E336.31048
G0 F7500 X-14.440 Y-50.300
G0 X-20.216 Y-50.300
G0 X-20.216 Y-50.464
G1 F1920 X-20.216 Y50.664 E339.95150
G0 F7500 X-20.216 Y50.500
G0 X-25.992 Y50.500
G0 X-25.992 Y50.664
G1 F1920 X-25.992 Y-50.464 E343.59253
G0 F7500 X-25.992 Y-50.300
G0 X-31.768 Y-50.300
G0 X-31.768 Y-50.464
G1 F1920 X-31.768 Y50.664 E347.23355
G0 F7500 X-31.768 Y50.500
G0 X-37.544 Y50.500
G0 X-37.544 Y50.664
G1 F1920 X-37.544 Y-50.464 E350.87457
;LAYER:2
M106 S127
G1 F2400 E349.87457
G0 F7500 X0.216 Y0.216 Z0.700
;TYPE:WALL-OUTER
G1 F2400 E350.87457
G1 F2220 X0.284 Y0.216 E350.87702
G1 X0.284 Y0.284 E350.87947
G1 X0.216 Y0.284 E350.88192
G1 X0.216 Y0.216 E350.88436
G0 F7500 X-0.700 Y-0.700
;TYPE:SUPPORT
G1 F2100 X-0.700 Y1.200 E350.95277
G1 X1.200 Y1.200 E351.02118
G1 X1.200 Y-0.700 E351.08959
G1 X-0.700 Y-0.700 E351.15800
G0 F7500 X-0.690 Y-0.800
G0 X-45.500 Y-50.400
G1 F2100 X45.600 Y-50.400 E354.43797
G1 X45.600 Y50.600 E358.07438
G1 X-45.500 Y50.600 E361.35436
G1 X-45.500 Y-50.400 E364.99077
G0 F7500 X-45.563 Y-49.096
G1 F2100 X45.664 Y-49.095 E368.27531
G0 F7500 X45.500 Y-49.095
G0 X43.320 Y-50.300
G0 X43.320 Y-50.464
G1 F2100 X43.320 Y50.664 E371.91634
G0 F7500 X43.320 Y50.500
G0 X45.500 Y49.096
G0 X45.663 Y49.096
G1 F2100 X-45.564 Y49.095 E375.20088
G0 F7500 X-45.400 Y49.095
G0 X-43.320 Y50.500
G0 X-43.320 Y50.664
G1 F2100 X-43.320 Y-50.464 E378.84190
G0 F7500 X-43.320 Y-50.300
G0 X-45.400 Y-43.320
G0 X-45.563 Y-43.320
G1 F2100 X45.664 Y-43.319 E382.12645
G0 F7500 X45.500 Y-43.319
G0 X45.500 Y-37.543
G0 X45.664 Y-37.543
G1 F2100 X-45.563 Y-37.544 E385.41100
G0 F7500 X-45.400 Y-37.544
G0 X-45.400 Y-31.768
G0 X-45.563 Y-31.768
G1 F2100 X45.664 Y-31.767 E388.69554
G0 F7500 X45.500 Y-31.767
G0 X45.500 Y-25.991
G0 X45.664 Y-25.991
G1 F2100 X-45.563 Y-25.992 E391.98009
G0 F7500 X-45.400 Y-25.992
G0 X-45.400 Y-20.216
G0 X-45.563 Y-20.216
G1 F2100 X45.664 Y-20.215 E395.26463
G0 F7500 X45.500 Y-20.215
G0 X45.500 Y-14.439
G0 X45.664 Y-14.439
G1 F2100 X-45.563 Y-14.440 E398.54918
G0 F7500 X-45.400 Y-14.440
G0 X-45.400 Y-8.664
G0 X-45.563 Y-8.664
G1 F2100 X45.664 Y-8.663 E401.83372
G0 F7500 X45.500 Y-8.663
G0 X45.500 Y-2.887
G0 X45.664 Y-2.887
G1 F2100 X-45.563 Y-2.888 E405.11827
G0 F7500 X-45.400 Y-2.888
G0 X-45.400 Y2.887
G0 X-45.564 Y2.887
G1 F2100 X45.663 Y2.888 E408.40282
G0 F7500 X45.500 Y2.888
G0 X45.500 Y8.664
G0 X45.663 Y8.664
G1 F2100 X-45.564 Y8.663 E411.68736
G0 F7500 X-45.400 Y8.663
G0 X-45.400 Y14.439
G0 X-45.564 Y14.439
G1 F2100 X45.663 Y14.440 E414.97191
G0 F7500 X45.500 Y14.440
G0 X45.500 Y20.216
G0 X45.663 Y20.216
G1 F2100 X-45.564 Y20.215 E418.25645
G0 F7500 X-45.400 Y20.215
G0 X-45.400 Y25.991
G0 X-45.564 Y25.991
G1 F2100 X45.663 Y25.992 E421.54100
G0 F7500 X45.500 Y25.992
G0 X45.500 Y31.768
G0 X45.663 Y31.768
G1 F2100 X-45.564 Y31.767 E424.82554
G0 F7500 X-45.400 Y31.767
G0 X-45.400 Y37.543
G0 X-45.564 Y37.543
G1 F2100 X45.663 Y37.544 E428.11009
G0 F7500 X45.500 Y37.544
G0 X45.500 Y43.320
G0 X45.663 Y43.320
G1 F2100 X-45.564 Y43.319 E431.39464
G0 F7500 X-45.400 Y43.319
G0 X-37.544 Y50.500
G0 X-37.544 Y50.664
G1 F2100 X-37.544 Y-50.464 E435.03566
G0 F7500 X-37.544 Y-50.300
G0 X-31.768 Y-50.300
G0 X-31.768 Y-50.464
G1 F2100 X-31.768 Y50.664 E438.67668
G0 F7500 X-31.768 Y50.500
G0 X-25.992 Y50.500
G0 X-25.992 Y50.664
G1 F2100 X-25.992 Y-50.464 E442.31770
G0 F7500 X-25.992 Y-50.300
G0 X-20.216 Y-50.300
G0 X-20.216 Y-50.464
G1 F2100 X-20.216 Y50.664 E445.95872
G0 F7500 X-20.216 Y50.500
G0 X-14.440 Y50.500
G0 X-14.440 Y50.664
G1 F2100 X-14.440 Y-50.464 E449.59975
G0 F7500 X-14.440 Y-50.300
G0 X-8.664 Y-50.300
G0 X-8.664 Y-50.464
G1 F2100 X-8.664 Y50.664 E453.24077
G0 F7500 X-8.664 Y50.500
G0 X-2.888 Y50.500
G0 X-2.888 Y50.664
G1 F2100 X-2.888 Y-50.464 E456.88179
G0 F7500 X-2.888 Y-50.300
G0 X2.888 Y-50.300
G0 X2.888 Y-50.464
G1 F2100 X2.888 Y50.664 E460.52281
G0 F7500 X2.888 Y50.500
G0 X8.664 Y50.500
G0 X8.664 Y50.664
G1 F2100 X8.664 Y-50.464 E464.16384
G0 F7500 X8.664 Y-50.300
G0 X14.440 Y-50.300
G0 X14.440 Y-50.464
G1 F2100 X14.440 Y50.664 E467.80486
G0 F7500 X14.440 Y50.500
G0 X20.216 Y50.500
G0 X20.216 Y50.664
G1 F2100 X20.216 Y-50.464 E471.44588
G0 F7500 X20.216 Y-50.300
G0 X25.992 Y-50.300
G0 X25.992 Y-50.464
G1 F2100 X25.992 Y50.664 E475.08690
G0 F7500 X25.992 Y50.500
G0 X31.768 Y50.500
G0 X31.768 Y50.664
G1 F2100 X31.768 Y-50.464 E478.72792
G0 F7500 X31.768 Y-50.300
G0 X37.544 Y-50.300
G0 X37.544 Y-50.464
G1 F2100 X37.544 Y50.664 E482.36895
;LAYER:3
G1 F2400 E481.36895
G0 F7500 X0.284 Y0.284 Z0.900
;TYPE:WALL-OUTER
G1 F2400 E482.36895
G1 X0.216 Y0.284 E482.37140
G1 X0.216 Y0.216 E482.37384
G1 X0.284 Y0.216 E482.37629
G1 X0.284 Y0.284 E482.37874
G0 F7500 X1.200 Y1.200
;TYPE:SUPPORT
G1 F2220 X1.200 Y-0.700 E482.44715
G1 X-0.700 Y-0.700 E482.51556
G1 X-0.700 Y1.200 E482.58396
G1 X1.200 Y1.200 E482.65237
G0 F7500 X1.190 Y1.300
G0 X45.500 Y50.590
G0 X45.600 Y50.600
G1 F2220 X-45.500 Y50.600 E485.93234
G1 X-45.500 Y-50.400 E489.56876
G1 X45.600 Y-50.400 E492.84873
G1 X45.600 Y50.600 E496.48515
G0 F7500 X45.500 Y50.590
G0 X45.500 Y49.096
G0 X45.663 Y49.096
G1 F2220 X-45.564 Y49.095 E499.76969
G0 F7500 X-45.400 Y49.095
G0 X-43.320 Y50.500
G0 X-43.320 Y50.664
G1 F2220 X-43.320 Y-50.464 E503.41071
G0 F7500 X-43.320 Y-50.300
G0 X-45.400 Y-49.096
G0 X-45.563 Y-49.096
G1 F2220 X45.664 Y-49.095 E506.69526
G0 F7500 X45.500 Y-49.095
G0 X43.320 Y-50.300
G0 X43.320 Y-50.464
G1 F2220 X43.320 Y50.664 E510.33628
G0 F7500 X43.320 Y50.500
G0 X45.500 Y43.320
G0 X45.663 Y43.320
G1 F2220 X-45.564 Y43.319 E513.62083
G0 F7500 X-45.400 Y43.319
G0 X-45.400 Y37.543
G0 X-45.564 Y37.543
G1 F2220 X45.663 Y37.544 E516.90537
G0 F7500 X45.500 Y37.544
G0 X45.500 Y31.768
G0 X45.663 Y31.768
G1 F2220 X-45.564 Y31.767 E520.18992
G0 F7500 X-45.400 Y31.767
G0 X-45.400 Y25.991
G0 X-45.564 Y25.991
G1 F2220 X45.663 Y25.992 E523.47446
G0 F7500 X45.500 Y25.992
G0 X45.500 Y20.216
G0 X45.663 Y20.216
G1 F2220 X-45.564 Y20.215 E526.75901
G0 F7500 X-45.400 Y20.215
G0 X-45.400 Y14.439
G0 X-45.564 Y14.439
G1 F2220 X45.663 Y14.440 E530.04356
G0 F7500 X45.500 Y14.440
G0 X45.500 Y8.664
G0 X45.663 Y8.664
G1 F2220 X-45.564 Y8.663 E533.32810
G0 F7500 X-45.400 Y8.663
G0 X-45.400 Y2.887
G0 X-45.564 Y2.887
G1 F2220 X45.663 Y2.888 E536.61265
G0 F7500 X45.500 Y2.888
G0 X45.500 Y-2.887
G0 X45.664 Y-2.887
G1 F2220 X-45.563 Y-2.888 E539.89719
G0 F7500 X-45.400 Y-2.888
G0 X-45.400 Y-8.664
G0 X-45.563 Y-8.664
G1 F2220 X45.664 Y-8.663 E543.18174
G0 F7500 X45.500 Y-8.663
G0 X45.500 Y-14.439
G0 X45.664 Y-14.439
G1 F2220 X-45.563 Y-14.440 E546.46628
G0 F7500 X-45.400 Y-14.440
G0 X-45.400 Y-20.216
G0 X-45.563 Y-20.216
G1 F2220 X45.664 Y-20.215 E549.75083
G0 F7500 X45.500 Y-20.215
G0 X45.500 Y-25.991
G0 X45.664 Y-25.991
G1 F2220 X-45.563 Y-25.992 E553.03537
G0 F7500 X-45.400 Y-25.992
G0 X-45.400 Y-31.768
G0 X-45.563 Y-31.768
G1 F2220 X45.664 Y-31.767 E556.31992
G0 F7500 X45.500 Y-31.767
G0 X45.500 Y-37.543
G0 X45.664 Y-37.543
G1 F2220 X-45.563 Y-37.544 E559.60447
G0 F7500 X-45.400 Y-37.544
G0 X-45.400 Y-43.320
G0 X-45.563 Y-43.320
G1 F2220 X45.664 Y-43.319 E562.88901
G0 F7500 X45.500 Y-43.319
G0 X37.544 Y-50.300
G0 X37.544 Y-50.464
G1 F2220 X37.544 Y50.664 E566.53003
G0 F7500 X37.544 Y50.500
G0 X31.768 Y50.500
G0 X31.768 Y50.664
G1 F2220 X31.768 Y-50.464 E570.17106
G0 F7500 X31.768 Y-50.300
G0 X25.992 Y-50.300
G0 X25.992 Y-50.464
G1 F2220 X25.992 Y50.664 E573.81208
G0 F7500 X25.992 Y50.500
G0 X20.216 Y50.500
G0 X20.216 Y50.664
G1 F2220 X20.216 Y-50.464 E577.45310
G0 F7500 X20.216 Y-50.300
G0 X14.440 Y-50.300
G0 X14.440 Y-50.464
G1 F2220 X14.440 Y50.664 E581.09412
G0 F7500 X14.440 Y50.500
G0 X8.664 Y50.500
G0 X8.664 Y50.664
G1 F2220 X8.664 Y-50.464 E584.73515
G0 F7500 X8.664 Y-50.300
G0 X2.888 Y-50.300
G0 X2.888 Y-50.464
G1 F2220 X2.888 Y50.664 E588.37617
G0 F7500 X2.888 Y50.500
G0 X-2.888 Y50.500
G0 X-2.888 Y50.664
G1 F2220 X-2.888 Y-50.464 E592.01719
G0 F7500 X-2.888 Y-50.300
G0 X-8.664 Y-50.300
G0 X-8.664 Y-50.464
G1 F2220 X-8.664 Y50.664 E595.65821
G0 F7500 X-8.664 Y50.500
G0 X-14.440 Y50.500
G0 X-14.440 Y50.664
G1 F2220 X-14.440 Y-50.464 E599.29923
G0 F7500 X-14.440 Y-50.300
G0 X-20.216 Y-50.300
G0 X-20.216 Y-50.464
G1 F2220 X-20.216 Y50.664 E602.94026
G0 F7500 X-20.216 Y50.500
G0 X-25.992 Y50.500
G0 X-25.992 Y50.664
