;Generated with Cura_SteamEngine 15.04.6

;Layer count: 16
;LAYER:0
M107
G0 F7500 X-48.716 Y-8.616 Z0.300
;TYPE:SKIRT
G1 F1800 X48.816 Y-8.616 E5.26733
G1 X48.816 Y8.816 E6.20876
G1 X-48.716 Y8.816 E11.47609
G1 X-48.716 Y-8.616 E12.41752
G1 F2400 E11.41752
G0 F7500 X0.216 Y0.216
;TYPE:WALL-OUTER
G1 F2400 E12.41752
G1 F1800 X0.284 Y0.216 E12.42120
G1 X0.284 Y0.284 E12.42487
G1 X0.216 Y0.284 E12.42854
G1 X0.216 Y0.216 E12.43221
G0 F7500 X-0.700 Y-0.700
;TYPE:SUPPORT
G1 F1800 X-0.700 Y1.200 E12.53483
G1 X1.200 Y1.200 E12.63744
G1 X1.200 Y-0.700 E12.74005
G1 X-0.700 Y-0.700 E12.84266
G0 F7500 X-0.690 Y-0.800
G0 X-45.500 Y-5.400
G1 F1800 X45.600 Y-5.400 E17.76262
G1 X45.600 Y5.600 E18.35669
G1 X-45.500 Y5.600 E23.27665
G1 X-45.500 Y-5.400 E23.87072
G0 F7500 X-43.320 Y-5.300
G0 X-43.320 Y-5.464
G1 F1800 X-43.320 Y5.664 E24.47170
G0 F7500 X-43.320 Y5.500
G0 X-45.400 Y2.887
G0 X-45.564 Y2.887
G1 F1800 X45.663 Y2.888 E29.39851
G0 F7500 X45.500 Y2.888
G0 X43.320 Y5.500
G0 X43.320 Y5.664
G1 F1800 X43.320 Y-5.464 E29.99950
G0 F7500 X43.320 Y-5.300
G0 X45.500 Y-2.887
G0 X45.664 Y-2.887
G1 F1800 X-45.563 Y-2.888 E34.92631
G0 F7500 X-45.400 Y-2.888
G0 X-37.544 Y-5.300
G0 X-37.544 Y-5.464
G1 F1800 X-37.544 Y5.664 E35.52729
G0 F7500 X-37.544 Y5.500
G0 X-31.768 Y5.500
G0 X-31.768 Y5.664
G1 F1800 X-31.768 Y-5.464 E36.12827
G0 F7500 X-31.768 Y-5.300
G0 X-25.992 Y-5.300
G0 X-25.992 Y-5.464
G1 F1800 X-25.992 Y5.664 E36.72925
G0 F7500 X-25.992 Y5.500
G0 X-20.216 Y5.500
G0 X-20.216 Y5.664
G1 F1800 X-20.216 Y-5.464 E37.33024
G0 F7500 X-20.216 Y-5.300
G0 X-14.440 Y-5.300
G0 X-14.440 Y-5.464
G1 F1800 X-14.440 Y5.664 E37.93122
G0 F7500 X-14.440 Y5.500
G0 X-8.664 Y5.500
G0 X-8.664 Y5.664
G1 F1800 X-8.664 Y-5.464 E38.53220
G0 F7500 X-8.664 Y-5.300
G0 X-2.888 Y-5.300
G0 X-2.888 Y-5.464
G1 F1800 X-2.888 Y5.664 E39.13318
G0 F7500 X-2.888 Y5.500
G0 X2.888 Y5.500
G0 X2.888 Y5.664
G1 F1800 X2.888 Y-5.464 E39.73416
G0 F7500 X2.888 Y-5.300
G0 X8.664 Y-5.300
G0 X8.664 Y-5.464
G1 F1800 X8.664 Y5.664 E40.33514
G0 F7500 X8.664 Y5.500
G0 X14.440 Y5.500
G0 X14.440 Y5.664
G1 F1800 X14.440 Y-5.464 E40.93612
G0 F7500 X14.440 Y-5.300
G0 X20.216 Y-5.300
G0 X20.216 Y-5.464
G1 F1800 X20.216 Y5.664 E41.53710
G0 F7500 X20.216 Y5.500
G0 X25.992 Y5.500
G0 X25.992 Y5.664
G1 F1800 X25.992 Y-5.464 E42.13808
G0 F7500 X25.992 Y-5.300
G0 X31.768 Y-5.300
G0 X31.768 Y-5.464
G1 F1800 X31.768 Y5.664 E42.73906
G0 F7500 X31.768 Y5.500
G0 X37.544 Y5.500
G0 X37.544 Y5.664
G1 F1800 X37.544 Y-5.464 E43.34004
;LAYER:1
M106 S63
G1 F2400 E42.34004
G0 F7500 X0.284 Y0.216 Z0.500
;TYPE:WALL-OUTER
G1 F2400 E43.34004
G1 F1980 X0.284 Y0.284 E43.34249
G1 X0.216 Y0.284 E43.34494
G1 X0.216 Y0.216 E43.34738
G1 X0.284 Y0.216 E43.34983
G0 F7500 X1.200 Y-0.700
;TYPE:SUPPORT
G1 F1920 X-0.700 Y-0.700 E43.41824
G1 X-0.700 Y1.200 E43.48665
G1 X1.200 Y1.200 E43.55506
G1 X1.200 Y-0.700 E43.62346
G0 F7500 X45.600 Y-5.400
G1 F1920 X45.600 Y5.600 E44.01951
G1 X-45.500 Y5.600 E47.29948
G1 X-45.500 Y-5.400 E47.69553
G1 X45.600 Y-5.400 E50.97550
G0 F7500 X43.320 Y-5.300
G0 X43.320 Y-5.464
G1 F1920 X43.320 Y5.664 E51.37615
G0 F7500 X43.320 Y5.500
G0 X45.500 Y2.888
G0 X45.663 Y2.888
G1 F1920 X-45.564 Y2.887 E54.66070
G0 F7500 X-45.400 Y2.887
G0 X-43.320 Y5.500
G0 X-43.320 Y5.664
G1 F1920 X-43.320 Y-5.464 E55.06135
G0 F7500 X-43.320 Y-5.300
G0 X-45.400 Y-2.888
G0 X-45.563 Y-2.888
G1 F1920 X45.664 Y-2.887 E58.34590
G0 F7500 X45.500 Y-2.887
G0 X37.544 Y-5.300
G0 X37.544 Y-5.464
G1 F1920 X37.544 Y5.664 E58.74655
G0 F7500 X37.544 Y5.500
G0 X31.768 Y5.500
G0 X31.768 Y5.664
G1 F1920 X31.768 Y-5.464 E59.14721
G0 F7500 X31.768 Y-5.300
G0 X25.992 Y-5.300
G0 X25.992 Y-5.464
G1 F1920 X25.992 Y5.664 E59.54786
G0 F7500 X25.992 Y5.500
G0 X20.216 Y5.500
G0 X20.216 Y5.664
G1 F1920 X20.216 Y-5.464 E59.94851
G0 F7500 X20.216 Y-5.300
G0 X14.440 Y-5.300
G0 X14.440 Y-5.464
G1 F1920 X14.440 Y5.664 E60.34917
G0 F7500 X14.440 Y5.500
G0 X8.664 Y5.500
G0 X8.664 Y5.664
G1 F1920 X8.664 Y-5.464 E60.74982
G0 F7500 X8.664 Y-5.300
G0 X2.888 Y-5.300
G0 X2.888 Y-5.464
G1 F1920 X2.888 Y5.664 E61.15047
G0 F7500 X2.888 Y5.500
G0 X-2.888 Y5.500
G0 X-2.888 Y5.664
G1 F1920 X-2.888 Y-5.464 E61.55113
G0 F7500 X-2.888 Y-5.300
G0 X-8.664 Y-5.300
G0 X-8.664 Y-5.464
G1 F1920 X-8.664 Y5.664 E61.95178
G0 F7500 X-8.664 Y5.500
G0 X-14.440 Y5.500
G0 X-14.440 Y5.664
G1 F1920 X-14.440 Y-5.464 E62.35243
G0 F7500 X-14.440 Y-5.300
G0 X-20.216 Y-5.300
G0 X-20.216 Y-5.464
G1 F1920 X-20.216 Y5.664 E62.75309
G0 F7500 X-20.216 Y5.500
G0 X-25.992 Y5.500
G0 X-25.992 Y5.664
G1 F1920 X-25.992 Y-5.464 E63.15374
G0 F7500 X-25.992 Y-5.300
G0 X-31.768 Y-5.300
G0 X-31.768 Y-5.464
G1 F1920 X-31.768 Y5.664 E63.55439
G0 F7500 X-31.768 Y5.500
G0 X-37.544 Y5.500
G0 X-37.544 Y5.664
G1 F1920 X-37.544 Y-5.464 E63.95505
;LAYER:2
M106 S127
G1 F2400 E62.95505
G0 F7500 X0.216 Y0.216 Z0.700
;TYPE:WALL-OUTER
G1 F2400 E63.95505
G1 F2220 X0.284 Y0.216 E63.95750
G1 X0.284 Y0.284 E63.95994
G1 X0.216 Y0.284 E63.96239
G1 X0.216 Y0.216 E63.96484
G0 F7500 X-0.700 Y-0.700
;TYPE:SUPPORT
G1 F2100 X-0.700 Y1.200 E64.03325
G1 X1.200 Y1.200 E64.10166
G1 X1.200 Y-0.700 E64.17006
G1 X-0.700 Y-0.700 E64.23847
G0 F7500 X-0.690 Y-0.800
G0 X-45.500 Y-5.400
G1 F2100 X45.600 Y-5.400 E67.51845
G1 X45.600 Y5.600 E67.91449
G1 X-45.500 Y5.600 E71.19446
G1 X-45.500 Y-5.400 E71.59051
G0 F7500 X-43.320 Y-5.300
G0 X-43.320 Y-5.464
G1 F2100 X-43.320 Y5.664 E71.99116
G0 F7500 X-43.320 Y5.500
G0 X-45.400 Y2.887
G0 X-45.564 Y2.887
G1 F2100 X45.663 Y2.888 E75.27571
G0 F7500 X45.500 Y2.888
G0 X43.320 Y5.500
G0 X43.320 Y5.664
G1 F2100 X43.320 Y-5.464 E75.67636
G0 F7500 X43.320 Y-5.300
G0 X45.500 Y-2.887
G0 X45.664 Y-2.887
G1 F2100 X-45.563 Y-2.888 E78.96091
G0 F7500 X-45.400 Y-2.888
G0 X-37.544 Y-5.300
G0 X-37.544 Y-5.464
G1 F2100 X-37.544 Y5.664 E79.36156
G0 F7500 X-37.544 Y5.500
G0 X-31.768 Y5.500
G0 X-31.768 Y5.664
G1 F2100 X-31.768 Y-5.464 E79.76221
G0 F7500 X-31.768 Y-5.300
G0 X-25.992 Y-5.300
G0 X-25.992 Y-5.464
G1 F2100 X-25.992 Y5.664 E80.16287
G0 F7500 X-25.992 Y5.500
G0 X-20.216 Y5.500
G0 X-20.216 Y5.664
G1 F2100 X-20.216 Y-5.464 E80.56352
G0 F7500 X-20.216 Y-5.300
G0 X-14.440 Y-5.300
G0 X-14.440 Y-5.464
G1 F2100 X-14.440 Y5.664 E80.96418
G0 F7500 X-14.440 Y5.500
G0 X-8.664 Y5.500
G0 X-8.664 Y5.664
G1 F2100 X-8.664 Y-5.464 E81.36483
G0 F7500 X-8.664 Y-5.300
G0 X-2.888 Y-5.300
G0 X-2.888 Y-5.464
G1 F2100 X-2.888 Y5.664 E81.76548
G0 F7500 X-2.888 Y5.500
G0 X2.888 Y5.500
G0 X2.888 Y5.664
G1 F2100 X2.888 Y-5.464 E82.16614
G0 F7500 X2.888 Y-5.300
G0 X8.664 Y-5.300
G0 X8.664 Y-5.464
G1 F2100 X8.664 Y5.664 E82.56679
G0 F7500 X8.664 Y5.500
G0 X14.440 Y5.500
G0 X14.440 Y5.664
G1 F2100 X14.440 Y-5.464 E82.96744
G0 F7500 X14.440 Y-5.300
G0 X20.216 Y-5.300
G0 X20.216 Y-5.464
G1 F2100 X20.216 Y5.664 E83.36810
G0 F7500 X20.216 Y5.500
G0 X25.992 Y5.500
G0 X25.992 Y5.664
G1 F2100 X25.992 Y-5.464 E83.76875
G0 F7500 X25.992 Y-5.300
G0 X31.768 Y-5.300
G0 X31.768 Y-5.464
G1 F2100 X31.768 Y5.664 E84.16940
G0 F7500 X31.768 Y5.500
G0 X37.544 Y5.500
G0 X37.544 Y5.664
G1 F2100 X37.544 Y-5.464 E84.57006
;LAYER:3
G1 F2400 E83.57006
G0 F7500 X0.284 Y0.216 Z0.900
;TYPE:WALL-OUTER
G1 F2400 E84.57006
G1 X0.284 Y0.284 E84.57251
G1 X0.216 Y0.284 E84.57495
G1 X0.216 Y0.216 E84.57740
G1 X0.284 Y0.216 E84.57985
G0 F7500 X1.200 Y-0.700
;TYPE:SUPPORT
G1 F2220 X-0.700 Y-0.700 E84.64826
G1 X-0.700 Y1.200 E84.71667
G1 X1.200 Y1.200 E84.78507
G1 X1.200 Y-0.700 E84.85348
G0 F7500 X45.600 Y-5.400
G1 F2220 X45.600 Y5.600 E85.24953
G1 X-45.500 Y5.600 E88.52950
G1 X-45.500 Y-5.400 E88.92555
G1 X45.600 Y-5.400 E92.20552
G0 F7500 X43.320 Y-5.300
G0 X43.320 Y-5.464
G1 F2220 X43.320 Y5.664 E92.60617
G0 F7500 X43.320 Y5.500
G0 X45.500 Y2.888
G0 X45.663 Y2.888
G1 F2220 X-45.564 Y2.887 E95.89072
G0 F7500 X-45.400 Y2.887
G0 X-43.320 Y5.500
G0 X-43.320 Y5.664
G1 F2220 X-43.320 Y-5.464 E96.29137
G0 F7500 X-43.320 Y-5.300
G0 X-45.400 Y-2.888
G0 X-45.563 Y-2.888
G1 F2220 X45.664 Y-2.887 E99.57592
G0 F7500 X45.500 Y-2.887
G0 X37.544 Y-5.300
G0 X37.544 Y-5.464
G1 F2220 X37.544 Y5.664 E99.97657
G0 F7500 X37.544 Y5.500
G0 X31.768 Y5.500
G0 X31.768 Y5.664
G1 F2220 X31.768 Y-5.464 E100.37722
G0 F7500 X31.768 Y-5.300
G0 X25.992 Y-5.300
G0 X25.992 Y-5.464
G1 F2220 X25.992 Y5.664 E100.77788
G0 F7500 X25.992 Y5.500
G0 X20.216 Y5.500
G0 X20.216 Y5.664
G1 F2220 X20.216 Y-5.464 E101.17853
G0 F7500 X20.216 Y-5.300
G0 X14.440 Y-5.300
G0 X14.440 Y-5.464
G1 F2220 X14.440 Y5.664 E101.57918
G0 F7500 X14.440 Y5.500
G0 X8.664 Y5.500
G0 X8.664 Y5.664
G1 F2220 X8.664 Y-5.464 E101.97984
G0 F7500 X8.664 Y-5.300
G0 X2.888 Y-5.300
G0 X2.888 Y-5.464
G1 F2220 X2.888 Y5.664 E102.38049
G0 F7500 X2.888 Y5.500
G0 X-2.888 Y5.500
G0 X-2.888 Y5.664
G1 F2220 X-2.888 Y-5.464 E102.78115
G0 F7500 X-2.888 Y-5.300
G0 X-8.664 Y-5.300
G0 X-8.664 Y-5.464
G1 F2220 X-8.664 Y5.664 E103.18180
G0 F7500 X-8.664 Y5.500
G0 X-14.440 Y5.500
G0 X-14.440 Y5.664
G1 F2220 X-14.440 Y-5.464 E103.58245
G0 F7500 X-14.440 Y-5.300
G0 X-20.216 Y-5.300
G0 X-20.216 Y-5.464
G1 F2220 X-20.216 Y5.664 E103.98311
G0 F7500 X-20.216 Y5.500
G0 X-25.992 Y5.500
G0 X-25.992 Y5.664
G1 F2220 X-25.992 Y-5.464 E104.38376
G0 F7500 X-25.992 Y-5.300
G0 X-31.768 Y-5.300
G0 X-31.768 Y-5.464
G1 F2220 X-31.768 Y5.664 E104.78441
G0 F7500 X-31.768 Y5.500
G0 X-37.544 Y5.500
G0 X-37.544 Y5.664
G1 F2220 X-37.544 Y-5.464 E105.18507
;LAYER:4
G1 F2400 E104.18507
G0 F7500 X0.216 Y0.216 Z1.100
;TYPE:WALL-OUTER
G1 F2400 E105.18507
G1 F2700 X0.284 Y0.216 E105.18752
G1 X0.284 Y0.284 E105.18996
G1 X0.216 Y0.284 E105.19241
G1 X0.216 Y0.216 E105.19486
G0 F7500 X-0.700 Y-0.700
;TYPE:SUPPORT
G1 F2400 X-0.700 Y1.200 E105.26327
G1 X1.200 Y1.200 E105.33168
G1 X1.200 Y-0.700 E105.40008
G1 X-0.700 Y-0.700 E105.46849
G0 F7500 X-0.690 Y-0.800
G0 X-45.500 Y-5.400
G1 F2400 X45.600 Y-5.400 E108.74846
G1 X45.600 Y5.600 E109.14451
G1 X-45.500 Y5.600 E112.42448
G1 X-45.500 Y-5.400 E112.82053
G0 F7500 X-43.320 Y-5.300
G0 X-43.320 Y-5.464
G1 F2400 X-43.320 Y5.664 E113.22118
G0 F7500 X-43.320 Y5.500
G0 X-45.400 Y2.887
G0 X-45.564 Y2.887
G1 F2400 X45.663 Y2.888 E116.50573
G0 F7500 X45.500 Y2.888
G0 X43.320 Y5.500
G0 X43.320 Y5.664
G1 F2400 X43.320 Y-5.464 E116.90638
G0 F7500 X43.320 Y-5.300
G0 X45.500 Y-2.887
G0 X45.664 Y-2.887
G1 F2400 X-45.563 Y-2.888 E120.19093
G0 F7500 X-45.400 Y-2.888
G0 X-37.544 Y-5.300
G0 X-37.544 Y-5.464
G1 F2400 X-37.544 Y5.664 E120.59158
G0 F7500 X-37.544 Y5.500
G0 X-31.768 Y5.500
G0 X-31.768 Y5.664
G1 F2400 X-31.768 Y-5.464 E120.99223
G0 F7500 X-31.768 Y-5.300
G0 X-25.992 Y-5.300
G0 X-25.992 Y-5.464
G1 F2400 X-25.992 Y5.664 E121.39289
G0 F7500 X-25.992 Y5.500
G0 X-20.216 Y5.500
G0 X-20.216 Y5.664
G1 F2400 X-20.216 Y-5.464 E121.79354
G0 F7500 X-20.216 Y-5.300
G0 X-14.440 Y-5.300
G0 X-14.440 Y-5.464
G1 F2400 X-14.440 Y5.664 E122.19419
G0 F7500 X-14.440 Y5.500
G0 X-8.664 Y5.500
G0 X-8.664 Y5.664
G1 F2400 X-8.664 Y-5.464 E122.59485
G0 F7500 X-8.664 Y-5.300
G0 X-2.888 Y-5.300
G0 X-2.888 Y-5.464
G1 F2400 X-2.888 Y5.664 E122.99550
G0 F7500 X-2.888 Y5.500
G0 X2.888 Y5.500
G0 X2.888 Y5.664
G1 F2400 X2.888 Y-5.464 E123.39615
G0 F7500 X2.888 Y-5.300
G0 X8.664 Y-5.300
G0 X8.664 Y-5.464
G1 F2400 X8.664 Y5.664 E123.79681
G0 F7500 X8.664 Y5.500
G0 X14.440 Y5.500
G0 X14.440 Y5.664
G1 F2400 X14.440 Y-5.464 E124.19746
G0 F7500 X14.440 Y-5.300
G0 X20.216 Y-5.300
G0 X20.216 Y-5.464
G1 F2400 X20.216 Y5.664 E124.59812
G0 F7500 X20.216 Y5.500
G0 X25.992 Y5.500
G0 X25.992 Y5.664
G1 F2400 X25.992 Y-5.464 E124.99877
G0 F7500 X25.992 Y-5.300
G0 X31.768 Y-5.300
G0 X31.768 Y-5.464
G1 F2400 X31.768 Y5.664 E125.39942
G0 F7500 X31.768 Y5.500
G0 X37.544 Y5.500
G0 X37.544 Y5.664
G1 F2400 X37.544 Y-5.464 E125.80008
;LAYER:5
G1 F2400 E124.80008
G0 F7500 X0.284 Y0.216 Z1.300
;TYPE:WALL-OUTER
G1 F2400 E125.80008
G1 F2700 X0.284 Y0.284 E125.80252
G1 X0.216 Y0.284 E125.80497
G1 X0.216 Y0.216 E125.80742
G1 X0.284 Y0.216 E125.80987
G0 F7500 X1.200 Y-0.700
;TYPE:SUPPORT
G1 F2400 X-0.700 Y-0.700 E125.87828
G1 X-0.700 Y1.200 E125.94668
G1 X1.200 Y1.200 E126.01509
G1 X1.200 Y-0.700 E126.08350
G0 F7500 X45.600 Y-5.400
G1 F2400 X45.600 Y5.600 E126.47955
G1 X-45.500 Y5.600 E129.75952
G1 X-45.500 Y-5.400 E130.15556
G1 X45.600 Y-5.400 E133.43554
G0 F7500 X43.320 Y-5.300
G0 X43.320 Y-5.464
G1 F2400 X43.320 Y5.664 E133.83619
G0 F7500 X43.320 Y5.500
G0 X45.500 Y2.888
G0 X45.663 Y2.888
G1 F2400 X-45.564 Y2.887 E137.12074
G0 F7500 X-45.400 Y2.887
G0 X-43.320 Y5.500
G0 X-43.320 Y5.664
G1 F2400 X-43.320 Y-5.464 E137.52139
G0 F7500 X-43.320 Y-5.300
G0 X-45.400 Y-2.888
G0 X-45.563 Y-2.888
G1 F2400 X45.664 Y-2.887 E140.80594
G0 F7500 X45.500 Y-2.887
G0 X37.544 Y-5.300
G0 X37.544 Y-5.464
G1 F2400 X37.544 Y5.664 E141.20659
G0 F7500 X37.544 Y5.500
G0 X31.768 Y5.500
G0 X31.768 Y5.664
G1 F2400 X31.768 Y-5.464 E141.60724
G0 F7500 X31.768 Y-5.300
G0 X25.992 Y-5.300
G0 X25.992 Y-5.464
G1 F2400 X25.992 Y5.664 E142.00790
G0 F7500 X25.992 Y5.500
G0 X20.216 Y5.500
G0 X20.216 Y5.664
G1 F2400 X20.216 Y-5.464 E142.40855
G0 F7500 X20.216 Y-5.300
G0 X14.440 Y-5.300
G0 X14.440 Y-5.464
G1 F2400 X14.440 Y5.664 E142.80920
G0 F7500 X14.440 Y5.500
G0 X8.664 Y5.500
G0 X8.664 Y5.664
G1 F2400 X8.664 Y-5.464 E143.20986
G0 F7500 X8.664 Y-5.300
G0 X2.888 Y-5.300
G0 X2.888 Y-5.464
G1 F2400 X2.888 Y5.664 E143.61051
G0 F7500 X2.888 Y5.500
G0 X-2.888 Y5.500
G0 X-2.888 Y5.664
G1 F2400 X-2.888 Y-5.464 E144.01116
G0 F7500 X-2.888 Y-5.300
G0 X-8.664 Y-5.300
G0 X-8.664 Y-5.464
G1 F2400 X-8.664 Y5.664 E144.41182
G0 F7500 X-8.664 Y5.500
G0 X-14.440 Y5.500
G0 X-14.440 Y5.664
G1 F2400 X-14.440 Y-5.464 E144.81247
G0 F7500 X-14.440 Y-5.300
G0 X-20.216 Y-5.300
G0 X-20.216 Y-5.464
G1 F2400 X-20.216 Y5.664 E145.21312
G0 F7500 X-20.216 Y5.500
G0 X-25.992 Y5.500
G0 X-25.992 Y5.664
G1 F2400 X-25.992 Y-5.464 E145.61378
G0 F7500 X-25.992 Y-5.300
G0 X-31.768 Y-5.300
G0 X-31.768 Y-5.464
G1 F2400 X-31.768 Y5.664 E146.01443
G0 F7500 X-31.768 Y5.500
G0 X-37.544 Y5.500
G0 X-37.544 Y5.664
G1 F2400 X-37.544 Y-5.464 E146.41509
;LAYER:6
G1 F2400 E145.41509
G0 F7500 X0.216 Y0.216 Z1.500
;TYPE:WALL-OUTER
G1 F2400 E146.41509
G1 F2700 X0.284 Y0.216 E146.41753
G1 X0.284 Y0.284 E146.41998
G1 X0.216 Y0.284 E146.42243
G1 X0.216 Y0.216 E146.42488
G0 F7500 X-0.700 Y-0.700
;TYPE:SUPPORT
G1 F2400 X-0.700 Y1.200 E146.49329
G1 X1.200 Y1.200 E146.56169
G1 X1.200 Y-0.700 E146.63010
G1 X-0.700 Y-0.700 E146.69851
G0 F7500 X-0.690 Y-0.800
G0 X-45.500 Y-5.400
G1 F2400 X45.600 Y-5.400 E149.97848
G1 X45.600 Y5.600 E150.37453
G1 X-45.500 Y5.600 E153.65450
G1 X-45.500 Y-5.400 E154.05055
G0 F7500 X-43.320 Y-5.300
G0 X-43.320 Y-5.464
G1 F2400 X-43.320 Y5.664 E154.45120
G0 F7500 X-43.320 Y5.500
G0 X-45.400 Y2.887
G0 X-45.564 Y2.887
G1 F2400 X45.663 Y2.888 E157.73575
G0 F7500 X45.500 Y2.888
G0 X43.320 Y5.500
G0 X43.320 Y5.664
G1 F2400 X43.320 Y-5.464 E158.13640
G0 F7500 X43.320 Y-5.300
G0 X45.500 Y-2.887
G0 X45.664 Y-2.887
G1 F2400 X-45.563 Y-2.888 E161.42094
G0 F7500 X-45.400 Y-2.888
G0 X-37.544 Y-5.300
G0 X-37.544 Y-5.464
G1 F2400 X-37.544 Y5.664 E161.82160
G0 F7500 X-37.544 Y5.500
G0 X-31.768 Y5.500
G0 X-31.768 Y5.664
G1 F2400 X-31.768 Y-5.464 E162.22225
G0 F7500 X-31.768 Y-5.300
G0 X-25.992 Y-5.300
G0 X-25.992 Y-5.464
G1 F2400 X-25.992 Y5.664 E162.62291
G0 F7500 X-25.992 Y5.500
G0 X-20.216 Y5.500
G0 X-20.216 Y5.664
G1 F2400 X-20.216 Y-5.464 E163.02356
G0 F7500 X-20.216 Y-5.300
G0 X-14.440 Y-5.300
G0 X-14.440 Y-5.464
G1 F2400 X-14.440 Y5.664 E163.42421
G0 F7500 X-14.440 Y5.500
G0 X-8.664 Y5.500
G0 X-8.664 Y5.664
G1 F2400 X-8.664 Y-5.464 E163.82487
G0 F7500 X-8.664 Y-5.300
G0 X-2.888 Y-5.300
G0 X-2.888 Y-5.464
G1 F2400 X-2.888 Y5.664 E164.22552
G0 F7500 X-2.888 Y5.500
G0 X2.888 Y5.500
G0 X2.888 Y5.664
G1 F2400 X2.888 Y-5.464 E164.62617
G0 F7500 X2.888 Y-5.300
G0 X8.664 Y-5.300
G0 X8.664 Y-5.464
G1 F2400 X8.664 Y5.664 E165.02683
G0 F7500 X8.664 Y5.500
G0 X14.440 Y5.500
G0 X14.440 Y5.664
G1 F2400 X14.440 Y-5.464 E165.42748
G0 F7500 X14.440 Y-5.300
G0 X20.216 Y-5.300
G0 X20.216 Y-5.464
G1 F2400 X20.216 Y5.664 E165.82813
G0 F7500 X20.216 Y5.500
G0 X25.992 Y5.500
G0 X25.992 Y5.664
G1 F2400 X25.992 Y-5.464 E166.22879
G0 F7500 X25.992 Y-5.300
G0 X31.768 Y-5.300
G0 X31.768 Y-5.464
