;Generated with Cura_SteamEngine 15.04.6

;Layer count: 16
;LAYER:0
M107
G0 F7500 X-48.716 Y-13.616 Z0.300
;TYPE:SKIRT
G1 F1800 X48.816 Y-13.616 E5.26733
G1 X48.816 Y13.816 E6.74882
G1 X-48.716 Y13.816 E12.01615
G1 X-48.716 Y-13.616 E13.49765
G1 F2400 E12.49765
G0 F7500 X0.216 Y0.216
;TYPE:WALL-OUTER
G1 F2400 E13.49765
G1 F1800 X0.284 Y0.216 E13.50132
G1 X0.284 Y0.284 E13.50499
G1 X0.216 Y0.284 E13.50866
G1 X0.216 Y0.216 E13.51234
G0 F7500 X-0.700 Y-0.700
;TYPE:SUPPORT
G1 F1800 X-0.700 Y1.200 E13.61495
G1 X1.200 Y1.200 E13.71756
G1 X1.200 Y-0.700 E13.82017
G1 X-0.700 Y-0.700 E13.92278
G0 F7500 X-0.690 Y-0.800
G0 X-45.500 Y-10.400
G1 F1800 X45.600 Y-10.400 E18.84274
G1 X45.600 Y10.600 E19.97687
G1 X-45.500 Y10.600 E24.89683
G1 X-45.500 Y-10.400 E26.03096
G0 F7500 X-45.400 Y-8.664
G0 X-45.563 Y-8.664
G1 F1800 X45.664 Y-8.663 E30.95778
G0 F7500 X45.500 Y-8.663
G0 X43.320 Y-10.300
G0 X43.320 Y-10.464
G1 F1800 X43.320 Y10.664 E32.09882
G0 F7500 X43.320 Y10.500
G0 X45.500 Y8.664
G0 X45.663 Y8.664
G1 F1800 X-45.564 Y8.663 E37.02564
G0 F7500 X-45.400 Y8.663
G0 X-43.320 Y10.500
G0 X-43.320 Y10.664
G1 F1800 X-43.320 Y-10.464 E38.16668
G0 F7500 X-43.320 Y-10.300
G0 X-45.400 Y-2.888
G0 X-45.563 Y-2.888
G1 F1800 X45.664 Y-2.887 E43.09350
G0 F7500 X45.500 Y-2.887
G0 X45.500 Y2.888
G0 X45.663 Y2.888
G1 F1800 X-45.564 Y2.887 E48.02032
G0 F7500 X-45.400 Y2.887
G0 X-37.544 Y10.500
G0 X-37.544 Y10.664
G1 F1800 X-37.544 Y-10.464 E49.16136
G0 F7500 X-37.544 Y-10.300
G0 X-31.768 Y-10.300
G0 X-31.768 Y-10.464
G1 F1800 X-31.768 Y10.664 E50.30240
G0 F7500 X-31.768 Y10.500
G0 X-25.992 Y10.500
G0 X-25.992 Y10.664
G1 F1800 X-25.992 Y-10.464 E51.44344
G0 F7500 X-25.992 Y-10.300
G0 X-20.216 Y-10.300
G0 X-20.216 Y-10.464
G1 F1800 X-20.216 Y10.664 E52.58449
G0 F7500 X-20.216 Y10.500
G0 X-14.440 Y10.500
G0 X-14.440 Y10.664
G1 F1800 X-14.440 Y-10.464 E53.72553
G0 F7500 X-14.440 Y-10.300
G0 X-8.664 Y-10.300
G0 X-8.664 Y-10.464
G1 F1800 X-8.664 Y10.664 E54.86657
G0 F7500 X-8.664 Y10.500
G0 X-2.888 Y10.500
G0 X-2.888 Y10.664
G1 F1800 X-2.888 Y-10.464 E56.00761
G0 F7500 X-2.888 Y-10.300
G0 X2.888 Y-10.300
G0 X2.888 Y-10.464
G1 F1800 X2.888 Y10.664 E57.14865
G0 F7500 X2.888 Y10.500
G0 X8.664 Y10.500
G0 X8.664 Y10.664
G1 F1800 X8.664 Y-10.464 E58.28970
G0 F7500 X8.664 Y-10.300
G0 X14.440 Y-10.300
G0 X14.440 Y-10.464
G1 F1800 X14.440 Y10.664 E59.43074
G0 F7500 X14.440 Y10.500
G0 X20.216 Y10.500
G0 X20.216 Y10.664
G1 F1800 X20.216 Y-10.464 E60.57178
G0 F7500 X20.216 Y-10.300
G0 X25.992 Y-10.300
G0 X25.992 Y-10.464
G1 F1800 X25.992 Y10.664 E61.71282
G0 F7500 X25.992 Y10.500
G0 X31.768 Y10.500
G0 X31.768 Y10.664
G1 F1800 X31.768 Y-10.464 E62.85386
G0 F7500 X31.768 Y-10.300
G0 X37.544 Y-10.300
G0 X37.544 Y-10.464
G1 F1800 X37.544 Y10.664 E63.99490
;LAYER:1
M106 S63
G1 F2400 E62.99490
G0 F7500 X0.284 Y0.284 Z0.500
;TYPE:WALL-OUTER
G1 F2400 E63.99490
G1 F1980 X0.216 Y0.284 E63.99735
G1 X0.216 Y0.216 E63.99980
G1 X0.284 Y0.216 E64.00225
G1 X0.284 Y0.284 E64.00470
G0 F7500 X1.200 Y1.200
;TYPE:SUPPORT
G1 F1920 X1.200 Y-0.700 E64.07311
G1 X-0.700 Y-0.700 E64.14151
G1 X-0.700 Y1.200 E64.20992
G1 X1.200 Y1.200 E64.27833
G0 F7500 X1.190 Y1.300
G0 X45.500 Y10.590
G0 X45.600 Y10.600
G1 F1920 X-45.500 Y10.600 E67.55830
G1 X-45.500 Y-10.400 E68.31439
G1 X45.600 Y-10.400 E71.59436
G1 X45.600 Y10.600 E72.35045
G0 F7500 X45.500 Y10.590
G0 X45.500 Y8.664
G0 X45.663 Y8.664
G1 F1920 X-45.564 Y8.663 E75.63499
G0 F7500 X-45.400 Y8.663
G0 X-43.320 Y10.500
G0 X-43.320 Y10.664
G1 F1920 X-43.320 Y-10.464 E76.39569
G0 F7500 X-43.320 Y-10.300
G0 X-45.400 Y-8.664
G0 X-45.563 Y-8.664
G1 F1920 X45.664 Y-8.663 E79.68023
G0 F7500 X45.500 Y-8.663
G0 X43.320 Y-10.300
G0 X43.320 Y-10.464
G1 F1920 X43.320 Y10.664 E80.44093
G0 F7500 X43.320 Y10.500
G0 X45.500 Y2.888
G0 X45.663 Y2.888
G1 F1920 X-45.564 Y2.887 E83.72547
G0 F7500 X-45.400 Y2.887
G0 X-45.400 Y-2.888
G0 X-45.563 Y-2.888
G1 F1920 X45.664 Y-2.887 E87.01002
G0 F7500 X45.500 Y-2.887
G0 X37.544 Y-10.300
G0 X37.544 Y-10.464
G1 F1920 X37.544 Y10.664 E87.77071
G0 F7500 X37.544 Y10.500
G0 X31.768 Y10.500
G0 X31.768 Y10.664
G1 F1920 X31.768 Y-10.464 E88.53141
G0 F7500 X31.768 Y-10.300
G0 X25.992 Y-10.300
G0 X25.992 Y-10.464
G1 F1920 X25.992 Y10.664 E89.29210
G0 F7500 X25.992 Y10.500
G0 X20.216 Y10.500
G0 X20.216 Y10.664
G1 F1920 X20.216 Y-10.464 E90.05280
G0 F7500 X20.216 Y-10.300
G0 X14.440 Y-10.300
G0 X14.440 Y-10.464
G1 F1920 X14.440 Y10.664 E90.81349
G0 F7500 X14.440 Y10.500
G0 X8.664 Y10.500
G0 X8.664 Y10.664
G1 F1920 X8.664 Y-10.464 E91.57419
G0 F7500 X8.664 Y-10.300
G0 X2.888 Y-10.300
G0 X2.888 Y-10.464
G1 F1920 X2.888 Y10.664 E92.33488
G0 F7500 X2.888 Y10.500
G0 X-2.888 Y10.500
G0 X-2.888 Y10.664
G1 F1920 X-2.888 Y-10.464 E93.09558
G0 F7500 X-2.888 Y-10.300
G0 X-8.664 Y-10.300
G0 X-8.664 Y-10.464
G1 F1920 X-8.664 Y10.664 E93.85627
G0 F7500 X-8.664 Y10.500
G0 X-14.440 Y10.500
G0 X-14.440 Y10.664
G1 F1920 X-14.440 Y-10.464 E94.61696
G0 F7500 X-14.440 Y-10.300
G0 X-20.216 Y-10.300
G0 X-20.216 Y-10.464
G1 F1920 X-20.216 Y10.664 E95.37766
G0 F7500 X-20.216 Y10.500
G0 X-25.992 Y10.500
G0 X-25.992 Y10.664
G1 F1920 X-25.992 Y-10.464 E96.13835
G0 F7500 X-25.992 Y-10.300
G0 X-31.768 Y-10.300
G0 X-31.768 Y-10.464
G1 F1920 X-31.768 Y10.664 E96.89905
G0 F7500 X-31.768 Y10.500
G0 X-37.544 Y10.500
G0 X-37.544 Y10.664
G1 F1920 X-37.544 Y-10.464 E97.65974
;LAYER:2
M106 S127
G1 F2400 E96.65974
G0 F7500 X0.216 Y0.216 Z0.700
;TYPE:WALL-OUTER
G1 F2400 E97.65974
G1 F2220 X0.284 Y0.216 E97.66219
G1 X0.284 Y0.284 E97.66464
G1 X0.216 Y0.284 E97.66709
G1 X0.216 Y0.216 E97.66954
G0 F7500 X-0.700 Y-0.700
;TYPE:SUPPORT
G1 F2100 X-0.700 Y1.200 E97.73794
G1 X1.200 Y1.200 E97.80635
G1 X1.200 Y-0.700 E97.87476
G1 X-0.700 Y-0.700 E97.94317
G0 F7500 X-0.690 Y-0.800
G0 X-45.500 Y-10.400
G1 F2100 X45.600 Y-10.400 E101.22314
G1 X45.600 Y10.600 E101.97923
G1 X-45.500 Y10.600 E105.25920
G1 X-45.500 Y-10.400 E106.01529
G0 F7500 X-45.400 Y-8.664
G0 X-45.563 Y-8.664
G1 F2100 X45.664 Y-8.663 E109.29983
G0 F7500 X45.500 Y-8.663
G0 X43.320 Y-10.300
G0 X43.320 Y-10.464
G1 F2100 X43.320 Y10.664 E110.06053
G0 F7500 X43.320 Y10.500
G0 X45.500 Y8.664
G0 X45.663 Y8.664
G1 F2100 X-45.564 Y8.663 E113.34507
G0 F7500 X-45.400 Y8.663
G0 X-43.320 Y10.500
G0 X-43.320 Y10.664
G1 F2100 X-43.320 Y-10.464 E114.10577
G0 F7500 X-43.320 Y-10.300
G0 X-45.400 Y-2.888
G0 X-45.563 Y-2.888
G1 F2100 X45.664 Y-2.887 E117.39031
G0 F7500 X45.500 Y-2.887
G0 X45.500 Y2.888
G0 X45.663 Y2.888
G1 F2100 X-45.564 Y2.887 E120.67486
G0 F7500 X-45.400 Y2.887
G0 X-37.544 Y10.500
G0 X-37.544 Y10.664
G1 F2100 X-37.544 Y-10.464 E121.43555
G0 F7500 X-37.544 Y-10.300
G0 X-31.768 Y-10.300
G0 X-31.768 Y-10.464
G1 F2100 X-31.768 Y10.664 E122.19625
G0 F7500 X-31.768 Y10.500
G0 X-25.992 Y10.500
G0 X-25.992 Y10.664
G1 F2100 X-25.992 Y-10.464 E122.95694
G0 F7500 X-25.992 Y-10.300
G0 X-20.216 Y-10.300
G0 X-20.216 Y-10.464
G1 F2100 X-20.216 Y10.664 E123.71764
G0 F7500 X-20.216 Y10.500
G0 X-14.440 Y10.500
G0 X-14.440 Y10.664
G1 F2100 X-14.440 Y-10.464 E124.47833
G0 F7500 X-14.440 Y-10.300
G0 X-8.664 Y-10.300
G0 X-8.664 Y-10.464
G1 F2100 X-8.664 Y10.664 E125.23902
G0 F7500 X-8.664 Y10.500
G0 X-2.888 Y10.500
G0 X-2.888 Y10.664
G1 F2100 X-2.888 Y-10.464 E125.99972
G0 F7500 X-2.888 Y-10.300
G0 X2.888 Y-10.300
G0 X2.888 Y-10.464
G1 F2100 X2.888 Y10.664 E126.76041
G0 F7500 X2.888 Y10.500
G0 X8.664 Y10.500
G0 X8.664 Y10.664
G1 F2100 X8.664 Y-10.464 E127.52111
G0 F7500 X8.664 Y-10.300
G0 X14.440 Y-10.300
G0 X14.440 Y-10.464
G1 F2100 X14.440 Y10.664 E128.28180
G0 F7500 X14.440 Y10.500
G0 X20.216 Y10.500
G0 X20.216 Y10.664
G1 F2100 X20.216 Y-10.464 E129.04250
G0 F7500 X20.216 Y-10.300
G0 X25.992 Y-10.300
G0 X25.992 Y-10.464
G1 F2100 X25.992 Y10.664 E129.80319
G0 F7500 X25.992 Y10.500
G0 X31.768 Y10.500
G0 X31.768 Y10.664
G1 F2100 X31.768 Y-10.464 E130.56389
G0 F7500 X31.768 Y-10.300
G0 X37.544 Y-10.300
G0 X37.544 Y-10.464
G1 F2100 X37.544 Y10.664 E131.32458
;LAYER:3
G1 F2400 E130.32458
G0 F7500 X0.284 Y0.284 Z0.900
;TYPE:WALL-OUTER
G1 F2400 E131.32458
G1 X0.216 Y0.284 E131.32703
G1 X0.216 Y0.216 E131.32948
G1 X0.284 Y0.216 E131.33193
G1 X0.284 Y0.284 E131.33437
G0 F7500 X1.200 Y1.200
;TYPE:SUPPORT
G1 F2220 X1.200 Y-0.700 E131.40278
G1 X-0.700 Y-0.700 E131.47119
G1 X-0.700 Y1.200 E131.53960
G1 X1.200 Y1.200 E131.60801
G0 F7500 X1.190 Y1.300
G0 X45.500 Y10.590
G0 X45.600 Y10.600
G1 F2220 X-45.500 Y10.600 E134.88798
G1 X-45.500 Y-10.400 E135.64406
G1 X45.600 Y-10.400 E138.92404
G1 X45.600 Y10.600 E139.68012
G0 F7500 X45.500 Y10.590
G0 X45.500 Y8.664
G0 X45.663 Y8.664
G1 F2220 X-45.564 Y8.663 E142.96467
G0 F7500 X-45.400 Y8.663
G0 X-43.320 Y10.500
G0 X-43.320 Y10.664
G1 F2220 X-43.320 Y-10.464 E143.72536
G0 F7500 X-43.320 Y-10.300
G0 X-45.400 Y-8.664
G0 X-45.563 Y-8.664
G1 F2220 X45.664 Y-8.663 E147.00991
G0 F7500 X45.500 Y-8.663
G0 X43.320 Y-10.300
G0 X43.320 Y-10.464
G1 F2220 X43.320 Y10.664 E147.77060
G0 F7500 X43.320 Y10.500
G0 X45.500 Y2.888
G0 X45.663 Y2.888
G1 F2220 X-45.564 Y2.887 E151.05515
G0 F7500 X-45.400 Y2.887
G0 X-45.400 Y-2.888
G0 X-45.563 Y-2.888
G1 F2220 X45.664 Y-2.887 E154.33970
G0 F7500 X45.500 Y-2.887
G0 X37.544 Y-10.300
G0 X37.544 Y-10.464
G1 F2220 X37.544 Y10.664 E155.10039
G0 F7500 X37.544 Y10.500
G0 X31.768 Y10.500
G0 X31.768 Y10.664
G1 F2220 X31.768 Y-10.464 E155.86108
G0 F7500 X31.768 Y-10.300
G0 X25.992 Y-10.300
G0 X25.992 Y-10.464
G1 F2220 X25.992 Y10.664 E156.62178
G0 F7500 X25.992 Y10.500
G0 X20.216 Y10.500
G0 X20.216 Y10.664
G1 F2220 X20.216 Y-10.464 E157.38247
G0 F7500 X20.216 Y-10.300
G0 X14.440 Y-10.300
G0 X14.440 Y-10.464
G1 F2220 X14.440 Y10.664 E158.14317
G0 F7500 X14.440 Y10.500
G0 X8.664 Y10.500
G0 X8.664 Y10.664
G1 F2220 X8.664 Y-10.464 E158.90386
G0 F7500 X8.664 Y-10.300
G0 X2.888 Y-10.300
G0 X2.888 Y-10.464
G1 F2220 X2.888 Y10.664 E159.66456
G0 F7500 X2.888 Y10.500
G0 X-2.888 Y10.500
G0 X-2.888 Y10.664
G1 F2220 X-2.888 Y-10.464 E160.42525
G0 F7500 X-2.888 Y-10.300
G0 X-8.664 Y-10.300
G0 X-8.664 Y-10.464
G1 F2220 X-8.664 Y10.664 E161.18595
G0 F7500 X-8.664 Y10.500
G0 X-14.440 Y10.500
G0 X-14.440 Y10.664
G1 F2220 X-14.440 Y-10.464 E161.94664
G0 F7500 X-14.440 Y-10.300
G0 X-20.216 Y-10.300
G0 X-20.216 Y-10.464
G1 F2220 X-20.216 Y10.664 E162.70734
G0 F7500 X-20.216 Y10.500
G0 X-25.992 Y10.500
G0 X-25.992 Y10.664
G1 F2220 X-25.992 Y-10.464 E163.46803
G0 F7500 X-25.992 Y-10.300
G0 X-31.768 Y-10.300
G0 X-31.768 Y-10.464
G1 F2220 X-31.768 Y10.664 E164.22872
G0 F7500 X-31.768 Y10.500
G0 X-37.544 Y10.500
G0 X-37.544 Y10.664
G1 F2220 X-37.544 Y-10.464 E164.98942
;LAYER:4
G1 F2400 E163.98942
G0 F7500 X0.216 Y0.216 Z1.100
;TYPE:WALL-OUTER
G1 F2400 E164.98942
G1 F2700 X0.284 Y0.216 E164.99187
G1 X0.284 Y0.284 E164.99432
G1 X0.216 Y0.284 E164.99676
G1 X0.216 Y0.216 E164.99921
G0 F7500 X-0.700 Y-0.700
;TYPE:SUPPORT
G1 F2400 X-0.700 Y1.200 E165.06762
G1 X1.200 Y1.200 E165.13603
G1 X1.200 Y-0.700 E165.20444
G1 X-0.700 Y-0.700 E165.27284
G0 F7500 X-0.690 Y-0.800
G0 X-45.500 Y-10.400
G1 F2400 X45.600 Y-10.400 E168.55282
G1 X45.600 Y10.600 E169.30890
G1 X-45.500 Y10.600 E172.58888
G1 X-45.500 Y-10.400 E173.34496
G0 F7500 X-45.400 Y-8.664
G0 X-45.563 Y-8.664
G1 F2400 X45.664 Y-8.663 E176.62951
G0 F7500 X45.500 Y-8.663
G0 X43.320 Y-10.300
G0 X43.320 Y-10.464
G1 F2400 X43.320 Y10.664 E177.39020
G0 F7500 X43.320 Y10.500
G0 X45.500 Y8.664
G0 X45.663 Y8.664
G1 F2400 X-45.564 Y8.663 E180.67475
G0 F7500 X-45.400 Y8.663
G0 X-43.320 Y10.500
G0 X-43.320 Y10.664
G1 F2400 X-43.320 Y-10.464 E181.43544
G0 F7500 X-43.320 Y-10.300
G0 X-45.400 Y-2.888
G0 X-45.563 Y-2.888
G1 F2400 X45.664 Y-2.887 E184.71999
G0 F7500 X45.500 Y-2.887
G0 X45.500 Y2.888
G0 X45.663 Y2.888
G1 F2400 X-45.564 Y2.887 E188.00453
G0 F7500 X-45.400 Y2.887
G0 X-37.544 Y10.500
G0 X-37.544 Y10.664
G1 F2400 X-37.544 Y-10.464 E188.76523
G0 F7500 X-37.544 Y-10.300
G0 X-31.768 Y-10.300
G0 X-31.768 Y-10.464
G1 F2400 X-31.768 Y10.664 E189.52592
G0 F7500 X-31.768 Y10.500
G0 X-25.992 Y10.500
G0 X-25.992 Y10.664
G1 F2400 X-25.992 Y-10.464 E190.28662
G0 F7500 X-25.992 Y-10.300
G0 X-20.216 Y-10.300
G0 X-20.216 Y-10.464
G1 F2400 X-20.216 Y10.664 E191.04731
G0 F7500 X-20.216 Y10.500
G0 X-14.440 Y10.500
G0 X-14.440 Y10.664
G1 F2400 X-14.440 Y-10.464 E191.80801
G0 F7500 X-14.440 Y-10.300
G0 X-8.664 Y-10.300
G0 X-8.664 Y-10.464
G1 F2400 X-8.664 Y10.664 E192.56870
G0 F7500 X-8.664 Y10.500
G0 X-2.888 Y10.500
G0 X-2.888 Y10.664
G1 F2400 X-2.888 Y-10.464 E193.32940
G0 F7500 X-2.888 Y-10.300
G0 X2.888 Y-10.300
G0 X2.888 Y-10.464
G1 F2400 X2.888 Y10.664 E194.09009
G0 F7500 X2.888 Y10.500
G0 X8.664 Y10.500
G0 X8.664 Y10.664
G1 F2400 X8.664 Y-10.464 E194.85078
G0 F7500 X8.664 Y-10.300
G0 X14.440 Y-10.300
G0 X14.440 Y-10.464
G1 F2400 X14.440 Y10.664 E195.61148
G0 F7500 X14.440 Y10.500
G0 X20.216 Y10.500
G0 X20.216 Y10.664
G1 F2400 X20.216 Y-10.464 E196.37217
G0 F7500 X20.216 Y-10.300
G0 X25.992 Y-10.300
G0 X25.992 Y-10.464
G1 F2400 X25.992 Y10.664 E197.13287
G0 F7500 X25.992 Y10.500
G0 X31.768 Y10.500
G0 X31.768 Y10.664
G1 F2400 X31.768 Y-10.464 E197.89356
G0 F7500 X31.768 Y-10.300
G0 X37.544 Y-10.300
G0 X37.544 Y-10.464
G1 F2400 X37.544 Y10.664 E198.65426
;LAYER:5
G1 F2400 E197.65426
G0 F7500 X0.284 Y0.284 Z1.300
;TYPE:WALL-OUTER
G1 F2400 E198.65426
G1 F2700 X0.216 Y0.284 E198.65671
G1 X0.216 Y0.216 E198.65915
G1 X0.284 Y0.216 E198.66160
G1 X0.284 Y0.284 E198.66405
G0 F7500 X1.200 Y1.200
;TYPE:SUPPORT
G1 F2400 X1.200 Y-0.700 E198.73246
G1 X-0.700 Y-0.700 E198.80087
G1 X-0.700 Y1.200 E198.86927
G1 X1.200 Y1.200 E198.93768
G0 F7500 X1.190 Y1.300
G0 X45.500 Y10.590
G0 X45.600 Y10.600
G1 F2400 X-45.500 Y10.600 E202.21765
G1 X-45.500 Y-10.400 E202.97374
G1 X45.600 Y-10.400 E206.25371
G1 X45.600 Y10.600 E207.00980
G0 F7500 X45.500 Y10.590
G0 X45.500 Y8.664
G0 X45.663 Y8.664
G1 F2400 X-45.564 Y8.663 E210.29435
G0 F7500 X-45.400 Y8.663
G0 X-43.320 Y10.500
G0 X-43.320 Y10.664
G1 F2400 X-43.320 Y-10.464 E211.05504
G0 F7500 X-43.320 Y-10.300
G0 X-45.400 Y-8.664
G0 X-45.563 Y-8.664
G1 F2400 X45.664 Y-8.663 E214.33959
G0 F7500 X45.500 Y-8.663
G0 X43.320 Y-10.300
G0 X43.320 Y-10.464
G1 F2400 X43.320 Y10.664 E215.10028
G0 F7500 X43.320 Y10.500
G0 X45.500 Y2.888
G0 X45.663 Y2.888
G1 F2400 X-45.564 Y2.887 E218.38483
G0 F7500 X-45.400 Y2.887
G0 X-45.400 Y-2.888
G0 X-45.563 Y-2.888
G1 F2400 X45.664 Y-2.887 E221.66937
G0 F7500 X45.500 Y-2.887
G0 X37.544 Y-10.300
G0 X37.544 Y-10.464
G1 F2400 X37.544 Y10.664 E222.43007
G0 F7500 X37.544 Y10.500
G0 X31.768 Y10.500
G0 X31.768 Y10.664
G1 F2400 X31.768 Y-10.464 E223.19076
G0 F7500 X31.768 Y-10.300
G0 X25.992 Y-10.300
G0 X25.992 Y-10.464
G1 F2400 X25.992 Y10.664 E223.95145
G0 F7500 X25.992 Y10.500
G0 X20.216 Y10.500
G0 X20.216 Y10.664
G1 F2400 X20.216 Y-10.464 E224.71215
G0 F7500 X20.216 Y-10.300
G0 X14.440 Y-10.300
G0 X14.440 Y-10.464
G1 F2400 X14.440 Y10.664 E225.47284
G0 F7500 X14.440 Y10.500
G0 X8.664 Y10.500
G0 X8.664 Y10.664
G1 F2400 X8.664 Y-10.464 E226.23354
G0 F7500 X8.664 Y-10.300
G0 X2.888 Y-10.300
G0 X2.888 Y-10.464
G1 F2400 X2.888 Y10.664 E226.99423
G0 F7500 X2.888 Y10.500
G0 X-2.888 Y10.500
G0 X-2.888 Y10.664
G1 F2400 X-2.888 Y-10.464 E227.75493
G0 F7500 X-2.888 Y-10.300
G0 X-8.664 Y-10.300
G0 X-8.664 Y-10.464
G1 F2400 X-8.664 Y10.664 E228.51562
G0 F7500 X-8.664 Y10.500
G0 X-14.440 Y10.500
G0 X-14.440 Y10.664
G1 F2400 X-14.440 Y-10.464 E229.27632
G0 F7500 X-14.440 Y-10.300
G0 X-20.216 Y-10.300
G0 X-20.216 Y-10.464
G1 F2400 X-20.216 Y10.664 E230.03701
G0 F7500 X-20.216 Y10.500
G0 X-25.992 Y10.500
G0 X-25.992 Y10.664
G1 F2400 X-25.992 Y-10.464 E230.79771
G0 F7500 X-25.992 Y-10.300
G0 X-31.768 Y-10.300
G0 X-31.768 Y-10.464
G1 F2400 X-31.768 Y10.664 E231.55840
G0 F7500 X-31.768 Y10.500
G0 X-37.544 Y10.500
G0 X-37.544 Y10.664
G1 F2400 X-37.544 Y-10.464 E232.31909
;LAYER:6
G1 F2400 E231.31909
G0 F7500 X0.216 Y0.216 Z1.500
;TYPE:WALL-OUTER
G1 F2400 E232.31909
G1 F2700 X0.284 Y0.216 E232.32154
G1 X0.284 Y0.284 E232.32399
G1 X0.216 Y0.284 E232.32644
G1 X0.216 Y0.216 E232.32889
G0 F7500 X-0.700 Y-0.700
;TYPE:SUPPORT
G1 F2400 X-0.700 Y1.200 E232.39730
G1 X1.200 Y1.200 E232.46570
G1 X1.200 Y-0.700 E232.53411
G1 X-0.700 Y-0.700 E232.60252
