;Generated with Cura_SteamEngine 15.04.6

;Layer count: 16
;LAYER:0
M107
G0 F7500 X-48.716 Y-18.616 Z0.300
;TYPE:SKIRT
G1 F1800 X48.816 Y-18.616 E5.26733
G1 X48.816 Y18.816 E7.28889
G1 X-48.716 Y18.816 E12.55621
G1 X-48.716 Y-18.616 E14.57777
G1 F2400 E13.57777
G0 F7500 X0.216 Y0.216
;TYPE:WALL-OUTER
G1 F2400 E14.57777
G1 F1800 X0.284 Y0.216 E14.58144
G1 X0.284 Y0.284 E14.58512
G1 X0.216 Y0.284 E14.58879
G1 X0.216 Y0.216 E14.59246
G0 F7500 X-0.700 Y-0.700
;TYPE:SUPPORT
G1 F1800 X-0.700 Y1.200 E14.69507
G1 X1.200 Y1.200 E14.79768
G1 X1.200 Y-0.700 E14.90030
G1 X-0.700 Y-0.700 E15.00291
G0 F7500 X-0.690 Y-0.800
G0 X-45.500 Y-15.400
G1 F1800 X45.600 Y-15.400 E19.92287
G1 X45.600 Y15.600 E21.59706
G1 X-45.500 Y15.600 E26.51702
G1 X-45.500 Y-15.400 E28.19121
G0 F7500 X-45.563 Y-14.440
G1 F1800 X45.664 Y-14.439 E33.11803
G0 F7500 X45.500 Y-14.439
G0 X43.320 Y-15.300
G0 X43.320 Y-15.464
G1 F1800 X43.320 Y15.664 E34.79913
G0 F7500 X43.320 Y15.500
G0 X45.500 Y14.440
G0 X45.663 Y14.440
G1 F1800 X-45.564 Y14.439 E39.72595
G0 F7500 X-45.400 Y14.439
G0 X-43.320 Y15.500
G0 X-43.320 Y15.664
G1 F1800 X-43.320 Y-15.464 E41.40705
G0 F7500 X-43.320 Y-15.300
G0 X-45.400 Y-8.664
G0 X-45.563 Y-8.664
G1 F1800 X45.664 Y-8.663 E46.33387
G0 F7500 X45.500 Y-8.663
G0 X45.500 Y-2.887
G0 X45.664 Y-2.887
G1 F1800 X-45.563 Y-2.888 E51.26069
G0 F7500 X-45.400 Y-2.888
G0 X-45.400 Y2.887
G0 X-45.564 Y2.887
G1 F1800 X45.663 Y2.888 E56.18751
G0 F7500 X45.500 Y2.888
G0 X45.500 Y8.664
G0 X45.663 Y8.664
G1 F1800 X-45.564 Y8.663 E61.11432
G0 F7500 X-45.400 Y8.663
G0 X-37.544 Y15.500
G0 X-37.544 Y15.664
G1 F1800 X-37.544 Y-15.464 E62.79543
G0 F7500 X-37.544 Y-15.300
G0 X-31.768 Y-15.300
G0 X-31.768 Y-15.464
G1 F1800 X-31.768 Y15.664 E64.47653
G0 F7500 X-31.768 Y15.500
G0 X-25.992 Y15.500
G0 X-25.992 Y15.664
G1 F1800 X-25.992 Y-15.464 E66.15763
G0 F7500 X-25.992 Y-15.300
G0 X-20.216 Y-15.300
G0 X-20.216 Y-15.464
G1 F1800 X-20.216 Y15.664 E67.83874
G0 F7500 X-20.216 Y15.500
G0 X-14.440 Y15.500
G0 X-14.440 Y15.664
G1 F1800 X-14.440 Y-15.464 E69.51984
G0 F7500 X-14.440 Y-15.300
G0 X-8.664 Y-15.300
G0 X-8.664 Y-15.464
G1 F1800 X-8.664 Y15.664 E71.20094
G0 F7500 X-8.664 Y15.500
G0 X-2.888 Y15.500
G0 X-2.888 Y15.664
G1 F1800 X-2.888 Y-15.464 E72.88205
G0 F7500 X-2.888 Y-15.300
G0 X2.888 Y-15.300
G0 X2.888 Y-15.464
G1 F1800 X2.888 Y15.664 E74.56315
G0 F7500 X2.888 Y15.500
G0 X8.664 Y15.500
G0 X8.664 Y15.664
G1 F1800 X8.664 Y-15.464 E76.24425
G0 F7500 X8.664 Y-15.300
G0 X14.440 Y-15.300
G0 X14.440 Y-15.464
G1 F1800 X14.440 Y15.664 E77.92536
G0 F7500 X14.440 Y15.500
G0 X20.216 Y15.500
G0 X20.216 Y15.664
G1 F1800 X20.216 Y-15.464 E79.60646
G0 F7500 X20.216 Y-15.300
G0 X25.992 Y-15.300
G0 X25.992 Y-15.464
G1 F1800 X25.992 Y15.664 E81.28756
G0 F7500 X25.992 Y15.500
G0 X31.768 Y15.500
G0 X31.768 Y15.664
G1 F1800 X31.768 Y-15.464 E82.96867
G0 F7500 X31.768 Y-15.300
G0 X37.544 Y-15.300
G0 X37.544 Y-15.464
G1 F1800 X37.544 Y15.664 E84.64977
;LAYER:1
M106 S63
G1 F2400 E83.64977
G0 F7500 X0.284 Y0.284 Z0.500
;TYPE:WALL-OUTER
G1 F2400 E84.64977
G1 F1980 X0.216 Y0.284 E84.65222
G1 X0.216 Y0.216 E84.65467
G1 X0.284 Y0.216 E84.65712
G1 X0.284 Y0.284 E84.65956
G0 F7500 X1.200 Y1.200
;TYPE:SUPPORT
G1 F1920 X1.200 Y-0.700 E84.72797
G1 X-0.700 Y-0.700 E84.79638
G1 X-0.700 Y1.200 E84.86479
G1 X1.200 Y1.200 E84.93319
G0 F7500 X1.190 Y1.300
G0 X45.500 Y15.590
G0 X45.600 Y15.600
G1 F1920 X-45.500 Y15.600 E88.21317
G1 X-45.500 Y-15.400 E89.32929
G1 X45.600 Y-15.400 E92.60927
G1 X45.600 Y15.600 E93.72540
G0 F7500 X45.663 Y14.440
G1 F1920 X-45.564 Y14.439 E97.00994
G0 F7500 X-45.400 Y14.439
G0 X-43.320 Y15.500
G0 X-43.320 Y15.664
G1 F1920 X-43.320 Y-15.464 E98.13068
G0 F7500 X-43.320 Y-15.300
G0 X-45.400 Y-14.440
G0 X-45.563 Y-14.440
G1 F1920 X45.664 Y-14.439 E101.41522
G0 F7500 X45.500 Y-14.439
G0 X43.320 Y-15.300
G0 X43.320 Y-15.464
G1 F1920 X43.320 Y15.664 E102.53596
G0 F7500 X43.320 Y15.500
G0 X45.500 Y8.664
G0 X45.663 Y8.664
G1 F1920 X-45.564 Y8.663 E105.82050
G0 F7500 X-45.400 Y8.663
G0 X-45.400 Y2.887
G0 X-45.564 Y2.887
G1 F1920 X45.663 Y2.888 E109.10505
G0 F7500 X45.500 Y2.888
G0 X45.500 Y-2.887
G0 X45.664 Y-2.887
G1 F1920 X-45.563 Y-2.888 E112.38959
G0 F7500 X-45.400 Y-2.888
G0 X-45.400 Y-8.664
G0 X-45.563 Y-8.664
G1 F1920 X45.664 Y-8.663 E115.67414
G0 F7500 X45.500 Y-8.663
G0 X37.544 Y-15.300
G0 X37.544 Y-15.464
G1 F1920 X37.544 Y15.664 E116.79488
G0 F7500 X37.544 Y15.500
G0 X31.768 Y15.500
G0 X31.768 Y15.664
G1 F1920 X31.768 Y-15.464 E117.91561
G0 F7500 X31.768 Y-15.300
G0 X25.992 Y-15.300
G0 X25.992 Y-15.464
G1 F1920 X25.992 Y15.664 E119.03635
G0 F7500 X25.992 Y15.500
G0 X20.216 Y15.500
G0 X20.216 Y15.664
G1 F1920 X20.216 Y-15.464 E120.15708
G0 F7500 X20.216 Y-15.300
G0 X14.440 Y-15.300
G0 X14.440 Y-15.464
G1 F1920 X14.440 Y15.664 E121.27782
G0 F7500 X14.440 Y15.500
G0 X8.664 Y15.500
G0 X8.664 Y15.664
G1 F1920 X8.664 Y-15.464 E122.39855
G0 F7500 X8.664 Y-15.300
G0 X2.888 Y-15.300
G0 X2.888 Y-15.464
G1 F1920 X2.888 Y15.664 E123.51929
G0 F7500 X2.888 Y15.500
G0 X-2.888 Y15.500
G0 X-2.888 Y15.664
G1 F1920 X-2.888 Y-15.464 E124.64002
G0 F7500 X-2.888 Y-15.300
G0 X-8.664 Y-15.300
G0 X-8.664 Y-15.464
G1 F1920 X-8.664 Y15.664 E125.76076
G0 F7500 X-8.664 Y15.500
G0 X-14.440 Y15.500
G0 X-14.440 Y15.664
G1 F1920 X-14.440 Y-15.464 E126.88150
G0 F7500 X-14.440 Y-15.300
G0 X-20.216 Y-15.300
G0 X-20.216 Y-15.464
G1 F1920 X-20.216 Y15.664 E128.00223
G0 F7500 X-20.216 Y15.500
G0 X-25.992 Y15.500
G0 X-25.992 Y15.664
G1 F1920 X-25.992 Y-15.464 E129.12297
G0 F7500 X-25.992 Y-15.300
G0 X-31.768 Y-15.300
G0 X-31.768 Y-15.464
G1 F1920 X-31.768 Y15.664 E130.24370
G0 F7500 X-31.768 Y15.500
G0 X-37.544 Y15.500
G0 X-37.544 Y15.664
G1 F1920 X-37.544 Y-15.464 E131.36444
;LAYER:2
M106 S127
G1 F2400 E130.36444
G0 F7500 X0.216 Y0.216 Z0.700
;TYPE:WALL-OUTER
G1 F2400 E131.36444
G1 F2220 X0.284 Y0.216 E131.36689
G1 X0.284 Y0.284 E131.36933
G1 X0.216 Y0.284 E131.37178
G1 X0.216 Y0.216 E131.37423
G0 F7500 X-0.700 Y-0.700
;TYPE:SUPPORT
G1 F2100 X-0.700 Y1.200 E131.44264
G1 X1.200 Y1.200 E131.51105
G1 X1.200 Y-0.700 E131.57945
G1 X-0.700 Y-0.700 E131.64786
G0 F7500 X-0.690 Y-0.800
G0 X-45.500 Y-15.400
G1 F2100 X45.600 Y-15.400 E134.92783
G1 X45.600 Y15.600 E136.04396
G1 X-45.500 Y15.600 E139.32393
G1 X-45.500 Y-15.400 E140.44006
G0 F7500 X-45.563 Y-14.440
G1 F2100 X45.664 Y-14.439 E143.72461
G0 F7500 X45.500 Y-14.439
G0 X43.320 Y-15.300
G0 X43.320 Y-15.464
G1 F2100 X43.320 Y15.664 E144.84534
G0 F7500 X43.320 Y15.500
G0 X45.500 Y14.440
G0 X45.663 Y14.440
G1 F2100 X-45.564 Y14.439 E148.12989
G0 F7500 X-45.400 Y14.439
G0 X-43.320 Y15.500
G0 X-43.320 Y15.664
G1 F2100 X-43.320 Y-15.464 E149.25062
G0 F7500 X-43.320 Y-15.300
G0 X-45.400 Y-8.664
G0 X-45.563 Y-8.664
G1 F2100 X45.664 Y-8.663 E152.53517
G0 F7500 X45.500 Y-8.663
G0 X45.500 Y-2.887
G0 X45.664 Y-2.887
G1 F2100 X-45.563 Y-2.888 E155.81972
G0 F7500 X-45.400 Y-2.888
G0 X-45.400 Y2.887
G0 X-45.564 Y2.887
G1 F2100 X45.663 Y2.888 E159.10426
G0 F7500 X45.500 Y2.888
G0 X45.500 Y8.664
G0 X45.663 Y8.664
G1 F2100 X-45.564 Y8.663 E162.38881
G0 F7500 X-45.400 Y8.663
G0 X-37.544 Y15.500
G0 X-37.544 Y15.664
G1 F2100 X-37.544 Y-15.464 E163.50954
G0 F7500 X-37.544 Y-15.300
G0 X-31.768 Y-15.300
G0 X-31.768 Y-15.464
G1 F2100 X-31.768 Y15.664 E164.63028
G0 F7500 X-31.768 Y15.500
G0 X-25.992 Y15.500
G0 X-25.992 Y15.664
G1 F2100 X-25.992 Y-15.464 E165.75101
G0 F7500 X-25.992 Y-15.300
G0 X-20.216 Y-15.300
G0 X-20.216 Y-15.464
G1 F2100 X-20.216 Y15.664 E166.87175
G0 F7500 X-20.216 Y15.500
G0 X-14.440 Y15.500
G0 X-14.440 Y15.664
G1 F2100 X-14.440 Y-15.464 E167.99248
G0 F7500 X-14.440 Y-15.300
G0 X-8.664 Y-15.300
G0 X-8.664 Y-15.464
G1 F2100 X-8.664 Y15.664 E169.11322
G0 F7500 X-8.664 Y15.500
G0 X-2.888 Y15.500
G0 X-2.888 Y15.664
G1 F2100 X-2.888 Y-15.464 E170.23396
G0 F7500 X-2.888 Y-15.300
G0 X2.888 Y-15.300
G0 X2.888 Y-15.464
G1 F2100 X2.888 Y15.664 E171.35469
G0 F7500 X2.888 Y15.500
G0 X8.664 Y15.500
G0 X8.664 Y15.664
G1 F2100 X8.664 Y-15.464 E172.47543
G0 F7500 X8.664 Y-15.300
G0 X14.440 Y-15.300
G0 X14.440 Y-15.464
G1 F2100 X14.440 Y15.664 E173.59616
G0 F7500 X14.440 Y15.500
G0 X20.216 Y15.500
G0 X20.216 Y15.664
G1 F2100 X20.216 Y-15.464 E174.71690
G0 F7500 X20.216 Y-15.300
G0 X25.992 Y-15.300
G0 X25.992 Y-15.464
G1 F2100 X25.992 Y15.664 E175.83763
G0 F7500 X25.992 Y15.500
G0 X31.768 Y15.500
G0 X31.768 Y15.664
G1 F2100 X31.768 Y-15.464 E176.95837
G0 F7500 X31.768 Y-15.300
G0 X37.544 Y-15.300
G0 X37.544 Y-15.464
G1 F2100 X37.544 Y15.664 E178.07910
;LAYER:3
G1 F2400 E177.07910
G0 F7500 X0.284 Y0.284 Z0.900
;TYPE:WALL-OUTER
G1 F2400 E178.07910
G1 X0.216 Y0.284 E178.08155
G1 X0.216 Y0.216 E178.08400
G1 X0.284 Y0.216 E178.08645
G1 X0.284 Y0.284 E178.08890
G0 F7500 X1.200 Y1.200
;TYPE:SUPPORT
G1 F2220 X1.200 Y-0.700 E178.15730
G1 X-0.700 Y-0.700 E178.22571
G1 X-0.700 Y1.200 E178.29412
G1 X1.200 Y1.200 E178.36253
G0 F7500 X1.190 Y1.300
G0 X45.500 Y15.590
G0 X45.600 Y15.600
G1 F2220 X-45.500 Y15.600 E181.64250
G1 X-45.500 Y-15.400 E182.75863
G1 X45.600 Y-15.400 E186.03860
G1 X45.600 Y15.600 E187.15473
G0 F7500 X45.663 Y14.440
G1 F2220 X-45.564 Y14.439 E190.43927
G0 F7500 X-45.400 Y14.439
G0 X-43.320 Y15.500
G0 X-43.320 Y15.664
G1 F2220 X-43.320 Y-15.464 E191.56001
G0 F7500 X-43.320 Y-15.300
G0 X-45.400 Y-14.440
G0 X-45.563 Y-14.440
G1 F2220 X45.664 Y-14.439 E194.84456
G0 F7500 X45.500 Y-14.439
G0 X43.320 Y-15.300
G0 X43.320 Y-15.464
G1 F2220 X43.320 Y15.664 E195.96529
G0 F7500 X43.320 Y15.500
G0 X45.500 Y8.664
G0 X45.663 Y8.664
G1 F2220 X-45.564 Y8.663 E199.24984
G0 F7500 X-45.400 Y8.663
G0 X-45.400 Y2.887
G0 X-45.564 Y2.887
G1 F2220 X45.663 Y2.888 E202.53438
G0 F7500 X45.500 Y2.888
G0 X45.500 Y-2.887
G0 X45.664 Y-2.887
G1 F2220 X-45.563 Y-2.888 E205.81893
G0 F7500 X-45.400 Y-2.888
G0 X-45.400 Y-8.664
G0 X-45.563 Y-8.664
G1 F2220 X45.664 Y-8.663 E209.10347
G0 F7500 X45.500 Y-8.663
G0 X37.544 Y-15.300
G0 X37.544 Y-15.464
G1 F2220 X37.544 Y15.664 E210.22421
G0 F7500 X37.544 Y15.500
G0 X31.768 Y15.500
G0 X31.768 Y15.664
G1 F2220 X31.768 Y-15.464 E211.34494
G0 F7500 X31.768 Y-15.300
G0 X25.992 Y-15.300
G0 X25.992 Y-15.464
G1 F2220 X25.992 Y15.664 E212.46568
G0 F7500 X25.992 Y15.500
G0 X20.216 Y15.500
G0 X20.216 Y15.664
G1 F2220 X20.216 Y-15.464 E213.58642
G0 F7500 X20.216 Y-15.300
G0 X14.440 Y-15.300
G0 X14.440 Y-15.464
G1 F2220 X14.440 Y15.664 E214.70715
G0 F7500 X14.440 Y15.500
G0 X8.664 Y15.500
G0 X8.664 Y15.664
G1 F2220 X8.664 Y-15.464 E215.82789
G0 F7500 X8.664 Y-15.300
G0 X2.888 Y-15.300
G0 X2.888 Y-15.464
G1 F2220 X2.888 Y15.664 E216.94862
G0 F7500 X2.888 Y15.500
G0 X-2.888 Y15.500
G0 X-2.888 Y15.664
G1 F2220 X-2.888 Y-15.464 E218.06936
G0 F7500 X-2.888 Y-15.300
G0 X-8.664 Y-15.300
G0 X-8.664 Y-15.464
G1 F2220 X-8.664 Y15.664 E219.19009
G0 F7500 X-8.664 Y15.500
G0 X-14.440 Y15.500
G0 X-14.440 Y15.664
G1 F2220 X-14.440 Y-15.464 E220.31083
G0 F7500 X-14.440 Y-15.300
G0 X-20.216 Y-15.300
G0 X-20.216 Y-15.464
G1 F2220 X-20.216 Y15.664 E221.43156
G0 F7500 X-20.216 Y15.500
G0 X-25.992 Y15.500
G0 X-25.992 Y15.664
G1 F2220 X-25.992 Y-15.464 E222.55230
G0 F7500 X-25.992 Y-15.300
G0 X-31.768 Y-15.300
G0 X-31.768 Y-15.464
G1 F2220 X-31.768 Y15.664 E223.67304
G0 F7500 X-31.768 Y15.500
G0 X-37.544 Y15.500
G0 X-37.544 Y15.664
G1 F2220 X-37.544 Y-15.464 E224.79377
;LAYER:4
G1 F2400 E223.79377
G0 F7500 X0.216 Y0.216 Z1.100
;TYPE:WALL-OUTER
G1 F2400 E224.79377
G1 F2700 X0.284 Y0.216 E224.79622
G1 X0.284 Y0.284 E224.79867
G1 X0.216 Y0.284 E224.80112
G1 X0.216 Y0.216 E224.80356
G0 F7500 X-0.700 Y-0.700
;TYPE:SUPPORT
G1 F2400 X-0.700 Y1.200 E224.87197
G1 X1.200 Y1.200 E224.94038
G1 X1.200 Y-0.700 E225.00879
G1 X-0.700 Y-0.700 E225.07720
G0 F7500 X-0.690 Y-0.800
G0 X-45.500 Y-15.400
G1 F2400 X45.600 Y-15.400 E228.35717
G1 X45.600 Y15.600 E229.47330
G1 X-45.500 Y15.600 E232.75327
G1 X-45.500 Y-15.400 E233.86940
G0 F7500 X-45.563 Y-14.440
G1 F2400 X45.664 Y-14.439 E237.15394
G0 F7500 X45.500 Y-14.439
G0 X43.320 Y-15.300
G0 X43.320 Y-15.464
G1 F2400 X43.320 Y15.664 E238.27468
G0 F7500 X43.320 Y15.500
G0 X45.500 Y14.440
G0 X45.663 Y14.440
G1 F2400 X-45.564 Y14.439 E241.55922
G0 F7500 X-45.400 Y14.439
G0 X-43.320 Y15.500
G0 X-43.320 Y15.664
G1 F2400 X-43.320 Y-15.464 E242.67996
G0 F7500 X-43.320 Y-15.300
G0 X-45.400 Y-8.664
G0 X-45.563 Y-8.664
G1 F2400 X45.664 Y-8.663 E245.96450
G0 F7500 X45.500 Y-8.663
G0 X45.500 Y-2.887
G0 X45.664 Y-2.887
G1 F2400 X-45.563 Y-2.888 E249.24905
G0 F7500 X-45.400 Y-2.888
G0 X-45.400 Y2.887
G0 X-45.564 Y2.887
G1 F2400 X45.663 Y2.888 E252.53359
G0 F7500 X45.500 Y2.888
G0 X45.500 Y8.664
G0 X45.663 Y8.664
G1 F2400 X-45.564 Y8.663 E255.81814
G0 F7500 X-45.400 Y8.663
G0 X-37.544 Y15.500
G0 X-37.544 Y15.664
G1 F2400 X-37.544 Y-15.464 E256.93888
G0 F7500 X-37.544 Y-15.300
G0 X-31.768 Y-15.300
G0 X-31.768 Y-15.464
G1 F2400 X-31.768 Y15.664 E258.05961
G0 F7500 X-31.768 Y15.500
G0 X-25.992 Y15.500
G0 X-25.992 Y15.664
G1 F2400 X-25.992 Y-15.464 E259.18035
G0 F7500 X-25.992 Y-15.300
G0 X-20.216 Y-15.300
G0 X-20.216 Y-15.464
G1 F2400 X-20.216 Y15.664 E260.30108
G0 F7500 X-20.216 Y15.500
G0 X-14.440 Y15.500
G0 X-14.440 Y15.664
G1 F2400 X-14.440 Y-15.464 E261.42182
G0 F7500 X-14.440 Y-15.300
G0 X-8.664 Y-15.300
G0 X-8.664 Y-15.464
G1 F2400 X-8.664 Y15.664 E262.54255
G0 F7500 X-8.664 Y15.500
G0 X-2.888 Y15.500
G0 X-2.888 Y15.664
G1 F2400 X-2.888 Y-15.464 E263.66329
G0 F7500 X-2.888 Y-15.300
G0 X2.888 Y-15.300
G0 X2.888 Y-15.464
G1 F2400 X2.888 Y15.664 E264.78402
G0 F7500 X2.888 Y15.500
G0 X8.664 Y15.500
G0 X8.664 Y15.664
G1 F2400 X8.664 Y-15.464 E265.90476
G0 F7500 X8.664 Y-15.300
G0 X14.440 Y-15.300
G0 X14.440 Y-15.464
G1 F2400 X14.440 Y15.664 E267.02550
G0 F7500 X14.440 Y15.500
G0 X20.216 Y15.500
G0 X20.216 Y15.664
G1 F2400 X20.216 Y-15.464 E268.14623
G0 F7500 X20.216 Y-15.300
G0 X25.992 Y-15.300
G0 X25.992 Y-15.464
G1 F2400 X25.992 Y15.664 E269.26697
G0 F7500 X25.992 Y15.500
G0 X31.768 Y15.500
G0 X31.768 Y15.664
G1 F2400 X31.768 Y-15.464 E270.38770
G0 F7500 X31.768 Y-15.300
G0 X37.544 Y-15.300
G0 X37.544 Y-15.464
G1 F2400 X37.544 Y15.664 E271.50844
;LAYER:5
G1 F2400 E270.50844
G0 F7500 X0.284 Y0.284 Z1.300
;TYPE:WALL-OUTER
G1 F2400 E271.50844
G1 F2700 X0.216 Y0.284 E271.51089
G1 X0.216 Y0.216 E271.51333
G1 X0.284 Y0.216 E271.51578
G1 X0.284 Y0.284 E271.51823
G0 F7500 X1.200 Y1.200
;TYPE:SUPPORT
G1 F2400 X1.200 Y-0.700 E271.58664
G1 X-0.700 Y-0.700 E271.65505
G1 X-0.700 Y1.200 E271.72345
G1 X1.200 Y1.200 E271.79186
G0 F7500 X1.190 Y1.300
G0 X45.500 Y15.590
G0 X45.600 Y15.600
G1 F2400 X-45.500 Y15.600 E275.07183
G1 X-45.500 Y-15.400 E276.18796
G1 X45.600 Y-15.400 E279.46794
G1 X45.600 Y15.600 E280.58406
G0 F7500 X45.663 Y14.440
G1 F2400 X-45.564 Y14.439 E283.86861
G0 F7500 X-45.400 Y14.439
G0 X-43.320 Y15.500
G0 X-43.320 Y15.664
G1 F2400 X-43.320 Y-15.464 E284.98934
G0 F7500 X-43.320 Y-15.300
G0 X-45.400 Y-14.440
G0 X-45.563 Y-14.440
G1 F2400 X45.664 Y-14.439 E288.27389
G0 F7500 X45.500 Y-14.439
G0 X43.320 Y-15.300
G0 X43.320 Y-15.464
G1 F2400 X43.320 Y15.664 E289.39462
G0 F7500 X43.320 Y15.500
G0 X45.500 Y8.664
G0 X45.663 Y8.664
G1 F2400 X-45.564 Y8.663 E292.67917
G0 F7500 X-45.400 Y8.663
G0 X-45.400 Y2.887
G0 X-45.564 Y2.887
G1 F2400 X45.663 Y2.888 E295.96372
G0 F7500 X45.500 Y2.888
G0 X45.500 Y-2.887
G0 X45.664 Y-2.887
G1 F2400 X-45.563 Y-2.888 E299.24826
G0 F7500 X-45.400 Y-2.888
G0 X-45.400 Y-8.664
G0 X-45.563 Y-8.664
G1 F2400 X45.664 Y-8.663 E302.53281
G0 F7500 X45.500 Y-8.663
G0 X37.544 Y-15.300
G0 X37.544 Y-15.464
G1 F2400 X37.544 Y15.664 E303.65354
G0 F7500 X37.544 Y15.500
G0 X31.768 Y15.500
G0 X31.768 Y15.664
G1 F2400 X31.768 Y-15.464 E304.77428
G0 F7500 X31.768 Y-15.300
G0 X25.992 Y-15.300
G0 X25.992 Y-15.464
G1 F2400 X25.992 Y15.664 E305.89501
G0 F7500 X25.992 Y15.500
G0 X20.216 Y15.500
G0 X20.216 Y15.664
G1 F2400 X20.216 Y-15.464 E307.01575
G0 F7500 X20.216 Y-15.300
G0 X14.440 Y-15.300
G0 X14.440 Y-15.464
G1 F2400 X14.440 Y15.664 E308.13648
G0 F7500 X14.440 Y15.500
G0 X8.664 Y15.500
G0 X8.664 Y15.664
G1 F2400 X8.664 Y-15.464 E309.25722
G0 F7500 X8.664 Y-15.300
G0 X2.888 Y-15.300
G0 X2.888 Y-15.464
G1 F2400 X2.888 Y15.664 E310.37796
G0 F7500 X2.888 Y15.500
