;Generated with Cura_SteamEngine 15.04.6

;Layer count: 16
;LAYER:0
M107
G0 F7500 X-48.716 Y-23.616 Z0.300
;TYPE:SKIRT
G1 F1800 X48.816 Y-23.616 E5.26733
G1 X48.816 Y23.816 E7.82895
G1 X-48.716 Y23.816 E13.09627
G1 X-48.716 Y-23.616 E15.65789
G1 F2400 E14.65789
G0 F7500 X0.216 Y0.216
;TYPE:WALL-OUTER
G1 F2400 E15.65789
G1 F1800 X0.284 Y0.216 E15.66157
G1 X0.284 Y0.284 E15.66524
G1 X0.216 Y0.284 E15.66891
G1 X0.216 Y0.216 E15.67258
G0 F7500 X-0.700 Y-0.700
;TYPE:SUPPORT
G1 F1800 X-0.700 Y1.200 E15.77519
G1 X1.200 Y1.200 E15.87781
G1 X1.200 Y-0.700 E15.98042
G1 X-0.700 Y-0.700 E16.08303
G0 F7500 X-0.690 Y-0.800
G0 X-45.500 Y-20.400
G1 F1800 X45.600 Y-20.400 E21.00299
G1 X45.600 Y20.600 E23.21724
G1 X-45.500 Y20.600 E28.13720
G1 X-45.500 Y-20.400 E30.35145
G0 F7500 X-45.563 Y-20.216
G1 F1800 X45.664 Y-20.215 E35.27827
G0 F7500 X45.500 Y-20.215
G0 X43.320 Y-20.300
G0 X43.320 Y-20.464
G1 F1800 X43.320 Y20.664 E37.49944
G0 F7500 X43.320 Y20.500
G0 X45.500 Y20.216
G0 X45.663 Y20.216
G1 F1800 X-45.564 Y20.215 E42.42625
G0 F7500 X-45.400 Y20.215
G0 X-43.320 Y20.500
G0 X-43.320 Y20.664
G1 F1800 X-43.320 Y-20.464 E44.64742
G0 F7500 X-43.320 Y-20.300
G0 X-37.544 Y-20.300
G0 X-37.544 Y-20.464
G1 F1800 X-37.544 Y20.664 E46.86858
G0 F7500 X-37.544 Y20.500
G0 X-31.768 Y20.500
G0 X-31.768 Y20.664
G1 F1800 X-31.768 Y-20.464 E49.08975
G0 F7500 X-31.768 Y-20.300
G0 X-25.992 Y-20.300
G0 X-25.992 Y-20.464
G1 F1800 X-25.992 Y20.664 E51.31091
G0 F7500 X-25.992 Y20.500
G0 X-20.216 Y20.500
G0 X-20.216 Y20.664
G1 F1800 X-20.216 Y-20.464 E53.53208
G0 F7500 X-20.216 Y-20.300
G0 X-14.440 Y-20.300
G0 X-14.440 Y-20.464
G1 F1800 X-14.440 Y20.664 E55.75324
G0 F7500 X-14.440 Y20.500
G0 X-8.664 Y20.500
G0 X-8.664 Y20.664
G1 F1800 X-8.664 Y-20.464 E57.97441
G0 F7500 X-8.664 Y-20.300
G0 X-2.888 Y-20.300
G0 X-2.888 Y-20.464
G1 F1800 X-2.888 Y20.664 E60.19557
G0 F7500 X-2.888 Y20.500
G0 X2.888 Y20.500
G0 X2.888 Y20.664
G1 F1800 X2.888 Y-20.464 E62.41674
G0 F7500 X2.888 Y-20.300
G0 X8.664 Y-20.300
G0 X8.664 Y-20.464
G1 F1800 X8.664 Y20.664 E64.63790
G0 F7500 X8.664 Y20.500
G0 X14.440 Y20.500
G0 X14.440 Y20.664
G1 F1800 X14.440 Y-20.464 E66.85907
G0 F7500 X14.440 Y-20.300
G0 X20.216 Y-20.300
G0 X20.216 Y-20.464
G1 F1800 X20.216 Y20.664 E69.08023
G0 F7500 X20.216 Y20.500
G0 X25.992 Y20.500
G0 X25.992 Y20.664
G1 F1800 X25.992 Y-20.464 E71.30140
G0 F7500 X25.992 Y-20.300
G0 X31.768 Y-20.300
G0 X31.768 Y-20.464
G1 F1800 X31.768 Y20.664 E73.52256
G0 F7500 X31.768 Y20.500
G0 X37.544 Y20.500
G0 X37.544 Y20.664
G1 F1800 X37.544 Y-20.464 E75.74373
G0 F7500 X37.544 Y-20.300
G0 X45.500 Y-14.439
G0 X45.664 Y-14.439
G1 F1800 X-45.563 Y-14.440 E80.67054
G0 F7500 X-45.400 Y-14.440
G0 X-45.400 Y-8.664
G0 X-45.563 Y-8.664
G1 F1800 X45.664 Y-8.663 E85.59736
G0 F7500 X45.500 Y-8.663
G0 X45.500 Y-2.887
G0 X45.664 Y-2.887
G1 F1800 X-45.563 Y-2.888 E90.52418
G0 F7500 X-45.400 Y-2.888
G0 X-45.400 Y2.887
G0 X-45.564 Y2.887
G1 F1800 X45.663 Y2.888 E95.45100
G0 F7500 X45.500 Y2.888
G0 X45.500 Y8.664
G0 X45.663 Y8.664
G1 F1800 X-45.564 Y8.663 E100.37782
G0 F7500 X-45.400 Y8.663
G0 X-45.400 Y14.439
G0 X-45.564 Y14.439
G1 F1800 X45.663 Y14.440 E105.30464
;LAYER:1
M106 S63
G1 F2400 E104.30464
G0 F7500 X0.284 Y0.284 Z0.500
;TYPE:WALL-OUTER
G1 F2400 E105.30464
G1 F1980 X0.216 Y0.284 E105.30708
G1 X0.216 Y0.216 E105.30953
G1 X0.284 Y0.216 E105.31198
G1 X0.284 Y0.284 E105.31443
G0 F7500 X1.200 Y1.200
;TYPE:SUPPORT
G1 F1920 X1.200 Y-0.700 E105.38284
G1 X-0.700 Y-0.700 E105.45125
G1 X-0.700 Y1.200 E105.51965
G1 X1.200 Y1.200 E105.58806
G0 F7500 X1.190 Y1.300
G0 X45.500 Y20.590
G0 X45.600 Y20.600
G1 F1920 X-45.500 Y20.600 E108.86803
G1 X-45.500 Y-20.400 E110.34420
G1 X45.600 Y-20.400 E113.62418
G1 X45.600 Y20.600 E115.10034
G0 F7500 X45.663 Y20.216
G1 F1920 X-45.564 Y20.215 E118.38489
G0 F7500 X-45.400 Y20.215
G0 X-43.320 Y20.500
G0 X-43.320 Y20.664
G1 F1920 X-43.320 Y-20.464 E119.86567
G0 F7500 X-43.320 Y-20.300
G0 X-45.400 Y-20.216
G0 X-45.563 Y-20.216
G1 F1920 X45.664 Y-20.215 E123.15021
G0 F7500 X45.500 Y-20.215
G0 X43.320 Y-20.300
G0 X43.320 Y-20.464
G1 F1920 X43.320 Y20.664 E124.63099
G0 F7500 X43.320 Y20.500
G0 X37.544 Y20.500
G0 X37.544 Y20.664
G1 F1920 X37.544 Y-20.464 E126.11176
G0 F7500 X37.544 Y-20.300
G0 X31.768 Y-20.300
G0 X31.768 Y-20.464
G1 F1920 X31.768 Y20.664 E127.59254
G0 F7500 X31.768 Y20.500
G0 X25.992 Y20.500
G0 X25.992 Y20.664
G1 F1920 X25.992 Y-20.464 E129.07332
G0 F7500 X25.992 Y-20.300
G0 X20.216 Y-20.300
G0 X20.216 Y-20.464
G1 F1920 X20.216 Y20.664 E130.55409
G0 F7500 X20.216 Y20.500
G0 X14.440 Y20.500
G0 X14.440 Y20.664
G1 F1920 X14.440 Y-20.464 E132.03487
G0 F7500 X14.440 Y-20.300
G0 X8.664 Y-20.300
G0 X8.664 Y-20.464
G1 F1920 X8.664 Y20.664 E133.51565
G0 F7500 X8.664 Y20.500
G0 X2.888 Y20.500
G0 X2.888 Y20.664
G1 F1920 X2.888 Y-20.464 E134.99642
G0 F7500 X2.888 Y-20.300
G0 X-2.888 Y-20.300
G0 X-2.888 Y-20.464
G1 F1920 X-2.888 Y20.664 E136.47720
G0 F7500 X-2.888 Y20.500
G0 X-8.664 Y20.500
G0 X-8.664 Y20.664
G1 F1920 X-8.664 Y-20.464 E137.95798
G0 F7500 X-8.664 Y-20.300
G0 X-14.440 Y-20.300
G0 X-14.440 Y-20.464
G1 F1920 X-14.440 Y20.664 E139.43875
G0 F7500 X-14.440 Y20.500
G0 X-20.216 Y20.500
G0 X-20.216 Y20.664
G1 F1920 X-20.216 Y-20.464 E140.91953
G0 F7500 X-20.216 Y-20.300
G0 X-25.992 Y-20.300
G0 X-25.992 Y-20.464
G1 F1920 X-25.992 Y20.664 E142.40030
G0 F7500 X-25.992 Y20.500
G0 X-31.768 Y20.500
G0 X-31.768 Y20.664
G1 F1920 X-31.768 Y-20.464 E143.88108
G0 F7500 X-31.768 Y-20.300
G0 X-37.544 Y-20.300
G0 X-37.544 Y-20.464
G1 F1920 X-37.544 Y20.664 E145.36186
G0 F7500 X-37.544 Y20.500
G0 X-45.400 Y14.439
G0 X-45.564 Y14.439
G1 F1920 X45.663 Y14.440 E148.64640
G0 F7500 X45.500 Y14.440
G0 X45.500 Y8.664
G0 X45.663 Y8.664
G1 F1920 X-45.564 Y8.663 E151.93095
G0 F7500 X-45.400 Y8.663
G0 X-45.400 Y2.887
G0 X-45.564 Y2.887
G1 F1920 X45.663 Y2.888 E155.21549
G0 F7500 X45.500 Y2.888
G0 X45.500 Y-2.887
G0 X45.664 Y-2.887
G1 F1920 X-45.563 Y-2.888 E158.50004
G0 F7500 X-45.400 Y-2.888
G0 X-45.400 Y-8.664
G0 X-45.563 Y-8.664
G1 F1920 X45.664 Y-8.663 E161.78459
G0 F7500 X45.500 Y-8.663
G0 X45.500 Y-14.439
G0 X45.664 Y-14.439
G1 F1920 X-45.563 Y-14.440 E165.06913
;LAYER:2
M106 S127
G1 F2400 E164.06913
G0 F7500 X0.216 Y0.216 Z0.700
;TYPE:WALL-OUTER
G1 F2400 E165.06913
G1 F2220 X0.284 Y0.216 E165.07158
G1 X0.284 Y0.284 E165.07403
G1 X0.216 Y0.284 E165.07648
G1 X0.216 Y0.216 E165.07893
G0 F7500 X-0.700 Y-0.700
;TYPE:SUPPORT
G1 F2100 X-0.700 Y1.200 E165.14733
G1 X1.200 Y1.200 E165.21574
G1 X1.200 Y-0.700 E165.28415
G1 X-0.700 Y-0.700 E165.35256
G0 F7500 X-0.690 Y-0.800
G0 X-45.500 Y-20.400
G1 F2100 X45.600 Y-20.400 E168.63253
G1 X45.600 Y20.600 E170.10870
G1 X-45.500 Y20.600 E173.38867
G1 X-45.500 Y-20.400 E174.86484
G0 F7500 X-45.563 Y-20.216
G1 F2100 X45.664 Y-20.215 E178.14938
G0 F7500 X45.500 Y-20.215
G0 X43.320 Y-20.300
G0 X43.320 Y-20.464
G1 F2100 X43.320 Y20.664 E179.63016
G0 F7500 X43.320 Y20.500
G0 X45.500 Y20.216
G0 X45.663 Y20.216
G1 F2100 X-45.564 Y20.215 E182.91471
G0 F7500 X-45.400 Y20.215
G0 X-43.320 Y20.500
G0 X-43.320 Y20.664
G1 F2100 X-43.320 Y-20.464 E184.39548
G0 F7500 X-43.320 Y-20.300
G0 X-37.544 Y-20.300
G0 X-37.544 Y-20.464
G1 F2100 X-37.544 Y20.664 E185.87626
G0 F7500 X-37.544 Y20.500
G0 X-31.768 Y20.500
G0 X-31.768 Y20.664
G1 F2100 X-31.768 Y-20.464 E187.35704
G0 F7500 X-31.768 Y-20.300
G0 X-25.992 Y-20.300
G0 X-25.992 Y-20.464
G1 F2100 X-25.992 Y20.664 E188.83781
G0 F7500 X-25.992 Y20.500
G0 X-20.216 Y20.500
G0 X-20.216 Y20.664
G1 F2100 X-20.216 Y-20.464 E190.31859
G0 F7500 X-20.216 Y-20.300
G0 X-14.440 Y-20.300
G0 X-14.440 Y-20.464
G1 F2100 X-14.440 Y20.664 E191.79937
G0 F7500 X-14.440 Y20.500
G0 X-8.664 Y20.500
G0 X-8.664 Y20.664
G1 F2100 X-8.664 Y-20.464 E193.28014
G0 F7500 X-8.664 Y-20.300
G0 X-2.888 Y-20.300
G0 X-2.888 Y-20.464
G1 F2100 X-2.888 Y20.664 E194.76092
G0 F7500 X-2.888 Y20.500
G0 X2.888 Y20.500
G0 X2.888 Y20.664
G1 F2100 X2.888 Y-20.464 E196.24169
G0 F7500 X2.888 Y-20.300
G0 X8.664 Y-20.300
G0 X8.664 Y-20.464
G1 F2100 X8.664 Y20.664 E197.72247
G0 F7500 X8.664 Y20.500
G0 X14.440 Y20.500
G0 X14.440 Y20.664
G1 F2100 X14.440 Y-20.464 E199.20325
G0 F7500 X14.440 Y-20.300
G0 X20.216 Y-20.300
G0 X20.216 Y-20.464
G1 F2100 X20.216 Y20.664 E200.68402
G0 F7500 X20.216 Y20.500
G0 X25.992 Y20.500
G0 X25.992 Y20.664
G1 F2100 X25.992 Y-20.464 E202.16480
G0 F7500 X25.992 Y-20.300
G0 X31.768 Y-20.300
G0 X31.768 Y-20.464
G1 F2100 X31.768 Y20.664 E203.64558
G0 F7500 X31.768 Y20.500
G0 X37.544 Y20.500
G0 X37.544 Y20.664
G1 F2100 X37.544 Y-20.464 E205.12635
G0 F7500 X37.544 Y-20.300
G0 X45.500 Y-14.439
G0 X45.664 Y-14.439
G1 F2100 X-45.563 Y-14.440 E208.41090
G0 F7500 X-45.400 Y-14.440
G0 X-45.400 Y-8.664
G0 X-45.563 Y-8.664
G1 F2100 X45.664 Y-8.663 E211.69544
G0 F7500 X45.500 Y-8.663
G0 X45.500 Y-2.887
G0 X45.664 Y-2.887
G1 F2100 X-45.563 Y-2.888 E214.97999
G0 F7500 X-45.400 Y-2.888
G0 X-45.400 Y2.887
G0 X-45.564 Y2.887
G1 F2100 X45.663 Y2.888 E218.26454
G0 F7500 X45.500 Y2.888
G0 X45.500 Y8.664
G0 X45.663 Y8.664
G1 F2100 X-45.564 Y8.663 E221.54908
G0 F7500 X-45.400 Y8.663
G0 X-45.400 Y14.439
G0 X-45.564 Y14.439
G1 F2100 X45.663 Y14.440 E224.83363
;LAYER:3
G1 F2400 E223.83363
G0 F7500 X0.284 Y0.284 Z0.900
;TYPE:WALL-OUTER
G1 F2400 E224.83363
G1 X0.216 Y0.284 E224.83608
G1 X0.216 Y0.216 E224.83852
G1 X0.284 Y0.216 E224.84097
G1 X0.284 Y0.284 E224.84342
G0 F7500 X1.200 Y1.200
;TYPE:SUPPORT
G1 F2220 X1.200 Y-0.700 E224.91183
G1 X-0.700 Y-0.700 E224.98024
G1 X-0.700 Y1.200 E225.04864
G1 X1.200 Y1.200 E225.11705
G0 F7500 X1.190 Y1.300
G0 X45.500 Y20.590
G0 X45.600 Y20.600
G1 F2220 X-45.500 Y20.600 E228.39702
G1 X-45.500 Y-20.400 E229.87319
G1 X45.600 Y-20.400 E233.15317
G1 X45.600 Y20.600 E234.62933
G0 F7500 X45.663 Y20.216
G1 F2220 X-45.564 Y20.215 E237.91388
G0 F7500 X-45.400 Y20.215
G0 X-43.320 Y20.500
G0 X-43.320 Y20.664
G1 F2220 X-43.320 Y-20.464 E239.39466
G0 F7500 X-43.320 Y-20.300
G0 X-45.400 Y-20.216
G0 X-45.563 Y-20.216
G1 F2220 X45.664 Y-20.215 E242.67920
G0 F7500 X45.500 Y-20.215
G0 X43.320 Y-20.300
G0 X43.320 Y-20.464
G1 F2220 X43.320 Y20.664 E244.15998
G0 F7500 X43.320 Y20.500
G0 X37.544 Y20.500
G0 X37.544 Y20.664
G1 F2220 X37.544 Y-20.464 E245.64075
G0 F7500 X37.544 Y-20.300
G0 X31.768 Y-20.300
G0 X31.768 Y-20.464
G1 F2220 X31.768 Y20.664 E247.12153
G0 F7500 X31.768 Y20.500
G0 X25.992 Y20.500
G0 X25.992 Y20.664
G1 F2220 X25.992 Y-20.464 E248.60231
G0 F7500 X25.992 Y-20.300
G0 X20.216 Y-20.300
G0 X20.216 Y-20.464
G1 F2220 X20.216 Y20.664 E250.08308
G0 F7500 X20.216 Y20.500
G0 X14.440 Y20.500
G0 X14.440 Y20.664
G1 F2220 X14.440 Y-20.464 E251.56386
G0 F7500 X14.440 Y-20.300
G0 X8.664 Y-20.300
G0 X8.664 Y-20.464
G1 F2220 X8.664 Y20.664 E253.04464
G0 F7500 X8.664 Y20.500
G0 X2.888 Y20.500
G0 X2.888 Y20.664
G1 F2220 X2.888 Y-20.464 E254.52541
G0 F7500 X2.888 Y-20.300
G0 X-2.888 Y-20.300
G0 X-2.888 Y-20.464
G1 F2220 X-2.888 Y20.664 E256.00619
G0 F7500 X-2.888 Y20.500
G0 X-8.664 Y20.500
G0 X-8.664 Y20.664
G1 F2220 X-8.664 Y-20.464 E257.48697
G0 F7500 X-8.664 Y-20.300
G0 X-14.440 Y-20.300
G0 X-14.440 Y-20.464
G1 F2220 X-14.440 Y20.664 E258.96774
G0 F7500 X-14.440 Y20.500
G0 X-20.216 Y20.500
G0 X-20.216 Y20.664
G1 F2220 X-20.216 Y-20.464 E260.44852
G0 F7500 X-20.216 Y-20.300
G0 X-25.992 Y-20.300
G0 X-25.992 Y-20.464
G1 F2220 X-25.992 Y20.664 E261.92930
G0 F7500 X-25.992 Y20.500
G0 X-31.768 Y20.500
G0 X-31.768 Y20.664
G1 F2220 X-31.768 Y-20.464 E263.41007
G0 F7500 X-31.768 Y-20.300
G0 X-37.544 Y-20.300
G0 X-37.544 Y-20.464
G1 F2220 X-37.544 Y20.664 E264.89085
G0 F7500 X-37.544 Y20.500
G0 X-45.400 Y14.439
G0 X-45.564 Y14.439
G1 F2220 X45.663 Y14.440 E268.17539
G0 F7500 X45.500 Y14.440
G0 X45.500 Y8.664
G0 X45.663 Y8.664
G1 F2220 X-45.564 Y8.663 E271.45994
G0 F7500 X-45.400 Y8.663
G0 X-45.400 Y2.887
G0 X-45.564 Y2.887
G1 F2220 X45.663 Y2.888 E274.74449
G0 F7500 X45.500 Y2.888
G0 X45.500 Y-2.887
G0 X45.664 Y-2.887
G1 F2220 X-45.563 Y-2.888 E278.02903
G0 F7500 X-45.400 Y-2.888
G0 X-45.400 Y-8.664
G0 X-45.563 Y-8.664
G1 F2220 X45.664 Y-8.663 E281.31358
G0 F7500 X45.500 Y-8.663
G0 X45.500 Y-14.439
G0 X45.664 Y-14.439
G1 F2220 X-45.563 Y-14.440 E284.59812
;LAYER:4
G1 F2400 E283.59812
G0 F7500 X0.216 Y0.216 Z1.100
;TYPE:WALL-OUTER
G1 F2400 E284.59812
G1 F2700 X0.284 Y0.216 E284.60057
G1 X0.284 Y0.284 E284.60302
G1 X0.216 Y0.284 E284.60547
G1 X0.216 Y0.216 E284.60792
G0 F7500 X-0.700 Y-0.700
;TYPE:SUPPORT
G1 F2400 X-0.700 Y1.200 E284.67632
G1 X1.200 Y1.200 E284.74473
G1 X1.200 Y-0.700 E284.81314
G1 X-0.700 Y-0.700 E284.88155
G0 F7500 X-0.690 Y-0.800
G0 X-45.500 Y-20.400
G1 F2400 X45.600 Y-20.400 E288.16152
G1 X45.600 Y20.600 E289.63769
G1 X-45.500 Y20.600 E292.91766
G1 X-45.500 Y-20.400 E294.39383
G0 F7500 X-45.563 Y-20.216
G1 F2400 X45.664 Y-20.215 E297.67837
G0 F7500 X45.500 Y-20.215
G0 X43.320 Y-20.300
G0 X43.320 Y-20.464
G1 F2400 X43.320 Y20.664 E299.15915
G0 F7500 X43.320 Y20.500
G0 X45.500 Y20.216
G0 X45.663 Y20.216
G1 F2400 X-45.564 Y20.215 E302.44370
G0 F7500 X-45.400 Y20.215
G0 X-43.320 Y20.500
G0 X-43.320 Y20.664
G1 F2400 X-43.320 Y-20.464 E303.92447
G0 F7500 X-43.320 Y-20.300
G0 X-37.544 Y-20.300
G0 X-37.544 Y-20.464
G1 F2400 X-37.544 Y20.664 E305.40525
G0 F7500 X-37.544 Y20.500
G0 X-31.768 Y20.500
G0 X-31.768 Y20.664
G1 F2400 X-31.768 Y-20.464 E306.88603
G0 F7500 X-31.768 Y-20.300
G0 X-25.992 Y-20.300
G0 X-25.992 Y-20.464
G1 F2400 X-25.992 Y20.664 E308.36680
G0 F7500 X-25.992 Y20.500
G0 X-20.216 Y20.500
G0 X-20.216 Y20.664
G1 F2400 X-20.216 Y-20.464 E309.84758
G0 F7500 X-20.216 Y-20.300
G0 X-14.440 Y-20.300
G0 X-14.440 Y-20.464
G1 F2400 X-14.440 Y20.664 E311.32836
G0 F7500 X-14.440 Y20.500
G0 X-8.664 Y20.500
G0 X-8.664 Y20.664
G1 F2400 X-8.664 Y-20.464 E312.80913
G0 F7500 X-8.664 Y-20.300
G0 X-2.888 Y-20.300
G0 X-2.888 Y-20.464
G1 F2400 X-2.888 Y20.664 E314.28991
G0 F7500 X-2.888 Y20.500
G0 X2.888 Y20.500
G0 X2.888 Y20.664
G1 F2400 X2.888 Y-20.464 E315.77069
G0 F7500 X2.888 Y-20.300
G0 X8.664 Y-20.300
G0 X8.664 Y-20.464
G1 F2400 X8.664 Y20.664 E317.25146
G0 F7500 X8.664 Y20.500
G0 X14.440 Y20.500
G0 X14.440 Y20.664
G1 F2400 X14.440 Y-20.464 E318.73224
G0 F7500 X14.440 Y-20.300
G0 X20.216 Y-20.300
G0 X20.216 Y-20.464
G1 F2400 X20.216 Y20.664 E320.21301
G0 F7500 X20.216 Y20.500
G0 X25.992 Y20.500
G0 X25.992 Y20.664
G1 F2400 X25.992 Y-20.464 E321.69379
G0 F7500 X25.992 Y-20.300
G0 X31.768 Y-20.300
G0 X31.768 Y-20.464
G1 F2400 X31.768 Y20.664 E323.17457
G0 F7500 X31.768 Y20.500
G0 X37.544 Y20.500
G0 X37.544 Y20.664
G1 F2400 X37.544 Y-20.464 E324.65534
G0 F7500 X37.544 Y-20.300
G0 X45.500 Y-14.439
G0 X45.664 Y-14.439
G1 F2400 X-45.563 Y-14.440 E327.93989
G0 F7500 X-45.400 Y-14.440
G0 X-45.400 Y-8.664
G0 X-45.563 Y-8.664
G1 F2400 X45.664 Y-8.663 E331.22444
G0 F7500 X45.500 Y-8.663
G0 X45.500 Y-2.887
G0 X45.664 Y-2.887
G1 F2400 X-45.563 Y-2.888 E334.50898
G0 F7500 X-45.400 Y-2.888
G0 X-45.400 Y2.887
G0 X-45.564 Y2.887
G1 F2400 X45.663 Y2.888 E337.79353
G0 F7500 X45.500 Y2.888
G0 X45.500 Y8.664
G0 X45.663 Y8.664
G1 F2400 X-45.564 Y8.663 E341.07807
G0 F7500 X-45.400 Y8.663
G0 X-45.400 Y14.439
G0 X-45.564 Y14.439
G1 F2400 X45.663 Y14.440 E344.36262
;LAYER:5
G1 F2400 E343.36262
G0 F7500 X0.284 Y0.284 Z1.300
;TYPE:WALL-OUTER
G1 F2400 E344.36262
G1 F2700 X0.216 Y0.284 E344.36507
G1 X0.216 Y0.216 E344.36751
G1 X0.284 Y0.216 E344.36996
G1 X0.284 Y0.284 E344.37241
G0 F7500 X1.200 Y1.200
;TYPE:SUPPORT
G1 F2400 X1.200 Y-0.700 E344.44082
G1 X-0.700 Y-0.700 E344.50923
G1 X-0.700 Y1.200 E344.57763
G1 X1.200 Y1.200 E344.64604
G0 F7500 X1.190 Y1.300
G0 X45.500 Y20.590
G0 X45.600 Y20.600
G1 F2400 X-45.500 Y20.600 E347.92602
G1 X-45.500 Y-20.400 E349.40218
G1 X45.600 Y-20.400 E352.68216
G1 X45.600 Y20.600 E354.15832
G0 F7500 X45.663 Y20.216
G1 F2400 X-45.564 Y20.215 E357.44287
G0 F7500 X-45.400 Y20.215
G0 X-43.320 Y20.500
G0 X-43.320 Y20.664
G1 F2400 X-43.320 Y-20.464 E358.92365
G0 F7500 X-43.320 Y-20.300
G0 X-45.400 Y-20.216
G0 X-45.563 Y-20.216
G1 F2400 X45.664 Y-20.215 E362.20819
G0 F7500 X45.500 Y-20.215
G0 X43.320 Y-20.300
G0 X43.320 Y-20.464
G1 F2400 X43.320 Y20.664 E363.68897
G0 F7500 X43.320 Y20.500
G0 X37.544 Y20.500
G0 X37.544 Y20.664
