;Generated with Cura_SteamEngine 15.04.6

;Layer count: 16
;LAYER:0
M107
G0 F7500 X-48.716 Y-28.616 Z0.300
;TYPE:SKIRT
G1 F1800 X48.816 Y-28.616 E5.26733
G1 X48.816 Y28.816 E8.36901
G1 X-48.716 Y28.816 E13.63634
G1 X-48.716 Y-28.616 E16.73802
G1 F2400 E15.73802
G0 F7500 X0.216 Y0.216
;TYPE:WALL-OUTER
G1 F2400 E16.73802
G1 F1800 X0.284 Y0.216 E16.74169
G1 X0.284 Y0.284 E16.74536
G1 X0.216 Y0.284 E16.74903
G1 X0.216 Y0.216 E16.75271
G0 F7500 X-0.700 Y-0.700
;TYPE:SUPPORT
G1 F1800 X-0.700 Y1.200 E16.85532
G1 X1.200 Y1.200 E16.95793
G1 X1.200 Y-0.700 E17.06054
G1 X-0.700 Y-0.700 E17.16315
G0 F7500 X-0.690 Y-0.800
G0 X-45.500 Y-25.400
G1 F1800 X45.600 Y-25.400 E22.08311
G1 X45.600 Y25.600 E24.83743
G1 X-45.500 Y25.600 E29.75739
G1 X-45.500 Y-25.400 E32.51170
G0 F7500 X-43.320 Y-25.300
G0 X-43.320 Y-25.464
G1 F1800 X-43.320 Y25.664 E35.27293
G0 F7500 X-43.320 Y25.500
G0 X-45.400 Y20.215
G0 X-45.564 Y20.215
G1 F1800 X45.663 Y20.216 E40.19974
G0 F7500 X45.500 Y20.216
G0 X43.320 Y25.500
G0 X43.320 Y25.664
G1 F1800 X43.320 Y-25.464 E42.96097
G0 F7500 X43.320 Y-25.300
G0 X45.500 Y-20.215
G0 X45.664 Y-20.215
G1 F1800 X-45.563 Y-20.216 E47.88779
G0 F7500 X-45.400 Y-20.216
G0 X-45.400 Y-14.440
G0 X-45.563 Y-14.440
G1 F1800 X45.664 Y-14.439 E52.81461
G0 F7500 X45.500 Y-14.439
G0 X45.500 Y-8.663
G0 X45.664 Y-8.663
G1 F1800 X-45.563 Y-8.664 E57.74143
G0 F7500 X-45.400 Y-8.664
G0 X-45.400 Y-2.888
G0 X-45.563 Y-2.888
G1 F1800 X45.664 Y-2.887 E62.66824
G0 F7500 X45.500 Y-2.887
G0 X45.500 Y2.888
G0 X45.663 Y2.888
G1 F1800 X-45.564 Y2.887 E67.59506
G0 F7500 X-45.400 Y2.887
G0 X-45.400 Y8.663
G0 X-45.564 Y8.663
G1 F1800 X45.663 Y8.664 E72.52188
G0 F7500 X45.500 Y8.664
G0 X45.500 Y14.440
G0 X45.663 Y14.440
G1 F1800 X-45.564 Y14.439 E77.44870
G0 F7500 X-45.400 Y14.439
G0 X-37.544 Y25.500
G0 X-37.544 Y25.664
G1 F1800 X-37.544 Y-25.464 E80.20993
G0 F7500 X-37.544 Y-25.300
G0 X-31.768 Y-25.300
G0 X-31.768 Y-25.464
G1 F1800 X-31.768 Y25.664 E82.97115
G0 F7500 X-31.768 Y25.500
G0 X-25.992 Y25.500
G0 X-25.992 Y25.664
G1 F1800 X-25.992 Y-25.464 E85.73238
G0 F7500 X-25.992 Y-25.300
G0 X-20.216 Y-25.300
G0 X-20.216 Y-25.464
G1 F1800 X-20.216 Y25.664 E88.49360
G0 F7500 X-20.216 Y25.500
G0 X-14.440 Y25.500
G0 X-14.440 Y25.664
G1 F1800 X-14.440 Y-25.464 E91.25483
G0 F7500 X-14.440 Y-25.300
G0 X-8.664 Y-25.300
G0 X-8.664 Y-25.464
G1 F1800 X-8.664 Y25.664 E94.01606
G0 F7500 X-8.664 Y25.500
G0 X-2.888 Y25.500
G0 X-2.888 Y25.664
G1 F1800 X-2.888 Y-25.464 E96.77728
G0 F7500 X-2.888 Y-25.300
G0 X2.888 Y-25.300
G0 X2.888 Y-25.464
G1 F1800 X2.888 Y25.664 E99.53851
G0 F7500 X2.888 Y25.500
G0 X8.664 Y25.500
G0 X8.664 Y25.664
G1 F1800 X8.664 Y-25.464 E102.29973
G0 F7500 X8.664 Y-25.300
G0 X14.440 Y-25.300
G0 X14.440 Y-25.464
G1 F1800 X14.440 Y25.664 E105.06096
G0 F7500 X14.440 Y25.500
G0 X20.216 Y25.500
G0 X20.216 Y25.664
G1 F1800 X20.216 Y-25.464 E107.82219
G0 F7500 X20.216 Y-25.300
G0 X25.992 Y-25.300
G0 X25.992 Y-25.464
G1 F1800 X25.992 Y25.664 E110.58341
G0 F7500 X25.992 Y25.500
G0 X31.768 Y25.500
G0 X31.768 Y25.664
G1 F1800 X31.768 Y-25.464 E113.34464
G0 F7500 X31.768 Y-25.300
G0 X37.544 Y-25.300
G0 X37.544 Y-25.464
G1 F1800 X37.544 Y25.664 E116.10587
;LAYER:1
M106 S63
G1 F2400 E115.10587
G0 F7500 X0.284 Y0.284 Z0.500
;TYPE:WALL-OUTER
G1 F2400 E116.10587
G1 F1980 X0.216 Y0.284 E116.10831
G1 X0.216 Y0.216 E116.11076
G1 X0.284 Y0.216 E116.11321
G1 X0.284 Y0.284 E116.11566
G0 F7500 X1.200 Y1.200
;TYPE:SUPPORT
G1 F1920 X1.200 Y-0.700 E116.18407
G1 X-0.700 Y-0.700 E116.25247
G1 X-0.700 Y1.200 E116.32088
G1 X1.200 Y1.200 E116.38929
G0 F7500 X1.190 Y1.300
G0 X45.500 Y25.590
G0 X45.600 Y25.600
G1 F1920 X-45.500 Y25.600 E119.66926
G1 X-45.500 Y-25.400 E121.50547
G1 X45.600 Y-25.400 E124.78544
G1 X45.600 Y25.600 E126.62165
G0 F7500 X45.500 Y25.590
G0 X43.320 Y25.500
G0 X43.320 Y25.664
G1 F1920 X43.320 Y-25.464 E128.46247
G0 F7500 X43.320 Y-25.300
G0 X45.500 Y-20.215
G0 X45.664 Y-20.215
G1 F1920 X-45.563 Y-20.216 E131.74702
G0 F7500 X-45.400 Y-20.216
G0 X-43.320 Y-25.300
G0 X-43.320 Y-25.464
G1 F1920 X-43.320 Y25.664 E133.58783
G0 F7500 X-43.320 Y25.500
G0 X-45.400 Y20.215
G0 X-45.564 Y20.215
G1 F1920 X45.663 Y20.216 E136.87238
G0 F7500 X45.500 Y20.216
G0 X45.500 Y14.440
G0 X45.663 Y14.440
G1 F1920 X-45.564 Y14.439 E140.15693
G0 F7500 X-45.400 Y14.439
G0 X-45.400 Y8.663
G0 X-45.564 Y8.663
G1 F1920 X45.663 Y8.664 E143.44147
G0 F7500 X45.500 Y8.664
G0 X45.500 Y2.888
G0 X45.663 Y2.888
G1 F1920 X-45.564 Y2.887 E146.72602
G0 F7500 X-45.400 Y2.887
G0 X-45.400 Y-2.888
G0 X-45.563 Y-2.888
G1 F1920 X45.664 Y-2.887 E150.01056
G0 F7500 X45.500 Y-2.887
G0 X45.500 Y-8.663
G0 X45.664 Y-8.663
G1 F1920 X-45.563 Y-8.664 E153.29511
G0 F7500 X-45.400 Y-8.664
G0 X-45.400 Y-14.440
G0 X-45.563 Y-14.440
G1 F1920 X45.664 Y-14.439 E156.57965
G0 F7500 X45.500 Y-14.439
G0 X37.544 Y-25.300
G0 X37.544 Y-25.464
G1 F1920 X37.544 Y25.664 E158.42047
G0 F7500 X37.544 Y25.500
G0 X31.768 Y25.500
G0 X31.768 Y25.664
G1 F1920 X31.768 Y-25.464 E160.26129
G0 F7500 X31.768 Y-25.300
G0 X25.992 Y-25.300
G0 X25.992 Y-25.464
G1 F1920 X25.992 Y25.664 E162.10211
G0 F7500 X25.992 Y25.500
G0 X20.216 Y25.500
G0 X20.216 Y25.664
G1 F1920 X20.216 Y-25.464 E163.94292
G0 F7500 X20.216 Y-25.300
G0 X14.440 Y-25.300
G0 X14.440 Y-25.464
G1 F1920 X14.440 Y25.664 E165.78374
G0 F7500 X14.440 Y25.500
G0 X8.664 Y25.500
G0 X8.664 Y25.664
G1 F1920 X8.664 Y-25.464 E167.62456
G0 F7500 X8.664 Y-25.300
G0 X2.888 Y-25.300
G0 X2.888 Y-25.464
G1 F1920 X2.888 Y25.664 E169.46538
G0 F7500 X2.888 Y25.500
G0 X-2.888 Y25.500
G0 X-2.888 Y25.664
G1 F1920 X-2.888 Y-25.464 E171.30619
G0 F7500 X-2.888 Y-25.300
G0 X-8.664 Y-25.300
G0 X-8.664 Y-25.464
G1 F1920 X-8.664 Y25.664 E173.14701
G0 F7500 X-8.664 Y25.500
G0 X-14.440 Y25.500
G0 X-14.440 Y25.664
G1 F1920 X-14.440 Y-25.464 E174.98783
G0 F7500 X-14.440 Y-25.300
G0 X-20.216 Y-25.300
G0 X-20.216 Y-25.464
G1 F1920 X-20.216 Y25.664 E176.82865
G0 F7500 X-20.216 Y25.500
G0 X-25.992 Y25.500
G0 X-25.992 Y25.664
G1 F1920 X-25.992 Y-25.464 E178.66946
G0 F7500 X-25.992 Y-25.300
G0 X-31.768 Y-25.300
G0 X-31.768 Y-25.464
G1 F1920 X-31.768 Y25.664 E180.51028
G0 F7500 X-31.768 Y25.500
G0 X-37.544 Y25.500
G0 X-37.544 Y25.664
G1 F1920 X-37.544 Y-25.464 E182.35110
;LAYER:2
M106 S127
G1 F2400 E181.35110
G0 F7500 X0.216 Y0.216 Z0.700
;TYPE:WALL-OUTER
G1 F2400 E182.35110
G1 F2220 X0.284 Y0.216 E182.35355
G1 X0.284 Y0.284 E182.35599
G1 X0.216 Y0.284 E182.35844
G1 X0.216 Y0.216 E182.36089
G0 F7500 X-0.700 Y-0.700
;TYPE:SUPPORT
G1 F2100 X-0.700 Y1.200 E182.42930
G1 X1.200 Y1.200 E182.49771
G1 X1.200 Y-0.700 E182.56611
G1 X-0.700 Y-0.700 E182.63452
G0 F7500 X-0.690 Y-0.800
G0 X-45.500 Y-25.400
G1 F2100 X45.600 Y-25.400 E185.91450
G1 X45.600 Y25.600 E187.75070
G1 X-45.500 Y25.600 E191.03068
G1 X-45.500 Y-25.400 E192.86689
G0 F7500 X-43.320 Y-25.300
G0 X-43.320 Y-25.464
G1 F2100 X-43.320 Y25.664 E194.70770
G0 F7500 X-43.320 Y25.500
G0 X-45.400 Y20.215
G0 X-45.564 Y20.215
G1 F2100 X45.663 Y20.216 E197.99225
G0 F7500 X45.500 Y20.216
G0 X43.320 Y25.500
G0 X43.320 Y25.664
G1 F2100 X43.320 Y-25.464 E199.83307
G0 F7500 X43.320 Y-25.300
G0 X45.500 Y-20.215
G0 X45.664 Y-20.215
G1 F2100 X-45.563 Y-20.216 E203.11761
G0 F7500 X-45.400 Y-20.216
G0 X-45.400 Y-14.440
G0 X-45.563 Y-14.440
G1 F2100 X45.664 Y-14.439 E206.40216
G0 F7500 X45.500 Y-14.439
G0 X45.500 Y-8.663
G0 X45.664 Y-8.663
G1 F2100 X-45.563 Y-8.664 E209.68670
G0 F7500 X-45.400 Y-8.664
G0 X-45.400 Y-2.888
G0 X-45.563 Y-2.888
G1 F2100 X45.664 Y-2.887 E212.97125
G0 F7500 X45.500 Y-2.887
G0 X45.500 Y2.888
G0 X45.663 Y2.888
G1 F2100 X-45.564 Y2.887 E216.25580
G0 F7500 X-45.400 Y2.887
G0 X-45.400 Y8.663
G0 X-45.564 Y8.663
G1 F2100 X45.663 Y8.664 E219.54034
G0 F7500 X45.500 Y8.664
G0 X45.500 Y14.440
G0 X45.663 Y14.440
G1 F2100 X-45.564 Y14.439 E222.82489
G0 F7500 X-45.400 Y14.439
G0 X-37.544 Y25.500
G0 X-37.544 Y25.664
G1 F2100 X-37.544 Y-25.464 E224.66570
G0 F7500 X-37.544 Y-25.300
G0 X-31.768 Y-25.300
G0 X-31.768 Y-25.464
G1 F2100 X-31.768 Y25.664 E226.50652
G0 F7500 X-31.768 Y25.500
G0 X-25.992 Y25.500
G0 X-25.992 Y25.664
G1 F2100 X-25.992 Y-25.464 E228.34734
G0 F7500 X-25.992 Y-25.300
G0 X-20.216 Y-25.300
G0 X-20.216 Y-25.464
G1 F2100 X-20.216 Y25.664 E230.18816
G0 F7500 X-20.216 Y25.500
G0 X-14.440 Y25.500
G0 X-14.440 Y25.664
G1 F2100 X-14.440 Y-25.464 E232.02897
G0 F7500 X-14.440 Y-25.300
G0 X-8.664 Y-25.300
G0 X-8.664 Y-25.464
G1 F2100 X-8.664 Y25.664 E233.86979
G0 F7500 X-8.664 Y25.500
G0 X-2.888 Y25.500
G0 X-2.888 Y25.664
G1 F2100 X-2.888 Y-25.464 E235.71061
G0 F7500 X-2.888 Y-25.300
G0 X2.888 Y-25.300
G0 X2.888 Y-25.464
G1 F2100 X2.888 Y25.664 E237.55143
G0 F7500 X2.888 Y25.500
G0 X8.664 Y25.500
G0 X8.664 Y25.664
G1 F2100 X8.664 Y-25.464 E239.39224
G0 F7500 X8.664 Y-25.300
G0 X14.440 Y-25.300
G0 X14.440 Y-25.464
G1 F2100 X14.440 Y25.664 E241.23306
G0 F7500 X14.440 Y25.500
G0 X20.216 Y25.500
G0 X20.216 Y25.664
G1 F2100 X20.216 Y-25.464 E243.07388
G0 F7500 X20.216 Y-25.300
G0 X25.992 Y-25.300
G0 X25.992 Y-25.464
G1 F2100 X25.992 Y25.664 E244.91470
G0 F7500 X25.992 Y25.500
G0 X31.768 Y25.500
G0 X31.768 Y25.664
G1 F2100 X31.768 Y-25.464 E246.75551
G0 F7500 X31.768 Y-25.300
G0 X37.544 Y-25.300
G0 X37.544 Y-25.464
G1 F2100 X37.544 Y25.664 E248.59633
;LAYER:3
G1 F2400 E247.59633
G0 F7500 X0.284 Y0.284 Z0.900
;TYPE:WALL-OUTER
G1 F2400 E248.59633
G1 X0.216 Y0.284 E248.59878
G1 X0.216 Y0.216 E248.60123
G1 X0.284 Y0.216 E248.60368
G1 X0.284 Y0.284 E248.60612
G0 F7500 X1.200 Y1.200
;TYPE:SUPPORT
G1 F2220 X1.200 Y-0.700 E248.67453
G1 X-0.700 Y-0.700 E248.74294
G1 X-0.700 Y1.200 E248.81135
G1 X1.200 Y1.200 E248.87976
G0 F7500 X1.190 Y1.300
G0 X45.500 Y25.590
G0 X45.600 Y25.600
G1 F2220 X-45.500 Y25.600 E252.15973
G1 X-45.500 Y-25.400 E253.99594
G1 X45.600 Y-25.400 E257.27591
G1 X45.600 Y25.600 E259.11212
G0 F7500 X45.500 Y25.590
G0 X43.320 Y25.500
G0 X43.320 Y25.664
G1 F2220 X43.320 Y-25.464 E260.95294
G0 F7500 X43.320 Y-25.300
G0 X45.500 Y-20.215
G0 X45.664 Y-20.215
G1 F2220 X-45.563 Y-20.216 E264.23748
G0 F7500 X-45.400 Y-20.216
G0 X-43.320 Y-25.300
G0 X-43.320 Y-25.464
G1 F2220 X-43.320 Y25.664 E266.07830
G0 F7500 X-43.320 Y25.500
G0 X-45.400 Y20.215
G0 X-45.564 Y20.215
G1 F2220 X45.663 Y20.216 E269.36285
G0 F7500 X45.500 Y20.216
G0 X45.500 Y14.440
G0 X45.663 Y14.440
G1 F2220 X-45.564 Y14.439 E272.64739
G0 F7500 X-45.400 Y14.439
G0 X-45.400 Y8.663
G0 X-45.564 Y8.663
G1 F2220 X45.663 Y8.664 E275.93194
G0 F7500 X45.500 Y8.664
G0 X45.500 Y2.888
G0 X45.663 Y2.888
G1 F2220 X-45.564 Y2.887 E279.21648
G0 F7500 X-45.400 Y2.887
G0 X-45.400 Y-2.888
G0 X-45.563 Y-2.888
G1 F2220 X45.664 Y-2.887 E282.50103
G0 F7500 X45.500 Y-2.887
G0 X45.500 Y-8.663
G0 X45.664 Y-8.663
G1 F2220 X-45.563 Y-8.664 E285.78557
G0 F7500 X-45.400 Y-8.664
G0 X-45.400 Y-14.440
G0 X-45.563 Y-14.440
G1 F2220 X45.664 Y-14.439 E289.07012
G0 F7500 X45.500 Y-14.439
G0 X37.544 Y-25.300
G0 X37.544 Y-25.464
G1 F2220 X37.544 Y25.664 E290.91094
G0 F7500 X37.544 Y25.500
G0 X31.768 Y25.500
G0 X31.768 Y25.664
G1 F2220 X31.768 Y-25.464 E292.75175
G0 F7500 X31.768 Y-25.300
G0 X25.992 Y-25.300
G0 X25.992 Y-25.464
G1 F2220 X25.992 Y25.664 E294.59257
G0 F7500 X25.992 Y25.500
G0 X20.216 Y25.500
G0 X20.216 Y25.664
G1 F2220 X20.216 Y-25.464 E296.43339
G0 F7500 X20.216 Y-25.300
G0 X14.440 Y-25.300
G0 X14.440 Y-25.464
G1 F2220 X14.440 Y25.664 E298.27421
G0 F7500 X14.440 Y25.500
G0 X8.664 Y25.500
G0 X8.664 Y25.664
G1 F2220 X8.664 Y-25.464 E300.11502
G0 F7500 X8.664 Y-25.300
G0 X2.888 Y-25.300
G0 X2.888 Y-25.464
G1 F2220 X2.888 Y25.664 E301.95584
G0 F7500 X2.888 Y25.500
G0 X-2.888 Y25.500
G0 X-2.888 Y25.664
G1 F2220 X-2.888 Y-25.464 E303.79666
G0 F7500 X-2.888 Y-25.300
G0 X-8.664 Y-25.300
G0 X-8.664 Y-25.464
G1 F2220 X-8.664 Y25.664 E305.63748
G0 F7500 X-8.664 Y25.500
G0 X-14.440 Y25.500
G0 X-14.440 Y25.664
G1 F2220 X-14.440 Y-25.464 E307.47829
G0 F7500 X-14.440 Y-25.300
G0 X-20.216 Y-25.300
G0 X-20.216 Y-25.464
G1 F2220 X-20.216 Y25.664 E309.31911
G0 F7500 X-20.216 Y25.500
G0 X-25.992 Y25.500
G0 X-25.992 Y25.664
G1 F2220 X-25.992 Y-25.464 E311.15993
G0 F7500 X-25.992 Y-25.300
G0 X-31.768 Y-25.300
G0 X-31.768 Y-25.464
G1 F2220 X-31.768 Y25.664 E313.00075
G0 F7500 X-31.768 Y25.500
G0 X-37.544 Y25.500
G0 X-37.544 Y25.664
G1 F2220 X-37.544 Y-25.464 E314.84156
;LAYER:4
G1 F2400 E313.84156
G0 F7500 X0.216 Y0.216 Z1.100
;TYPE:WALL-OUTER
G1 F2400 E314.84156
G1 F2700 X0.284 Y0.216 E314.84401
G1 X0.284 Y0.284 E314.84646
G1 X0.216 Y0.284 E314.84891
G1 X0.216 Y0.216 E314.85136
G0 F7500 X-0.700 Y-0.700
;TYPE:SUPPORT
G1 F2400 X-0.700 Y1.200 E314.91976
G1 X1.200 Y1.200 E314.98817
G1 X1.200 Y-0.700 E315.05658
G1 X-0.700 Y-0.700 E315.12499
G0 F7500 X-0.690 Y-0.800
G0 X-45.500 Y-25.400
G1 F2400 X45.600 Y-25.400 E318.40496
G1 X45.600 Y25.600 E320.24117
G1 X-45.500 Y25.600 E323.52114
G1 X-45.500 Y-25.400 E325.35735
G0 F7500 X-43.320 Y-25.300
G0 X-43.320 Y-25.464
G1 F2400 X-43.320 Y25.664 E327.19817
G0 F7500 X-43.320 Y25.500
G0 X-45.400 Y20.215
G0 X-45.564 Y20.215
G1 F2400 X45.663 Y20.216 E330.48272
G0 F7500 X45.500 Y20.216
G0 X43.320 Y25.500
G0 X43.320 Y25.664
G1 F2400 X43.320 Y-25.464 E332.32353
G0 F7500 X43.320 Y-25.300
G0 X45.500 Y-20.215
G0 X45.664 Y-20.215
G1 F2400 X-45.563 Y-20.216 E335.60808
G0 F7500 X-45.400 Y-20.216
G0 X-45.400 Y-14.440
G0 X-45.563 Y-14.440
G1 F2400 X45.664 Y-14.439 E338.89262
G0 F7500 X45.500 Y-14.439
G0 X45.500 Y-8.663
G0 X45.664 Y-8.663
G1 F2400 X-45.563 Y-8.664 E342.17717
G0 F7500 X-45.400 Y-8.664
G0 X-45.400 Y-2.888
G0 X-45.563 Y-2.888
G1 F2400 X45.664 Y-2.887 E345.46172
G0 F7500 X45.500 Y-2.887
G0 X45.500 Y2.888
G0 X45.663 Y2.888
G1 F2400 X-45.564 Y2.887 E348.74626
G0 F7500 X-45.400 Y2.887
G0 X-45.400 Y8.663
G0 X-45.564 Y8.663
G1 F2400 X45.663 Y8.664 E352.03081
G0 F7500 X45.500 Y8.664
G0 X45.500 Y14.440
G0 X45.663 Y14.440
G1 F2400 X-45.564 Y14.439 E355.31535
G0 F7500 X-45.400 Y14.439
G0 X-37.544 Y25.500
G0 X-37.544 Y25.664
G1 F2400 X-37.544 Y-25.464 E357.15617
G0 F7500 X-37.544 Y-25.300
G0 X-31.768 Y-25.300
G0 X-31.768 Y-25.464
G1 F2400 X-31.768 Y25.664 E358.99699
G0 F7500 X-31.768 Y25.500
G0 X-25.992 Y25.500
G0 X-25.992 Y25.664
G1 F2400 X-25.992 Y-25.464 E360.83780
G0 F7500 X-25.992 Y-25.300
G0 X-20.216 Y-25.300
G0 X-20.216 Y-25.464
G1 F2400 X-20.216 Y25.664 E362.67862
G0 F7500 X-20.216 Y25.500
G0 X-14.440 Y25.500
G0 X-14.440 Y25.664
G1 F2400 X-14.440 Y-25.464 E364.51944
G0 F7500 X-14.440 Y-25.300
G0 X-8.664 Y-25.300
G0 X-8.664 Y-25.464
G1 F2400 X-8.664 Y25.664 E366.36026
G0 F7500 X-8.664 Y25.500
G0 X-2.888 Y25.500
G0 X-2.888 Y25.664
G1 F2400 X-2.888 Y-25.464 E368.20107
G0 F7500 X-2.888 Y-25.300
G0 X2.888 Y-25.300
G0 X2.888 Y-25.464
G1 F2400 X2.888 Y25.664 E370.04189
G0 F7500 X2.888 Y25.500
G0 X8.664 Y25.500
G0 X8.664 Y25.664
G1 F2400 X8.664 Y-25.464 E371.88271
G0 F7500 X8.664 Y-25.300
G0 X14.440 Y-25.300
G0 X14.440 Y-25.464
G1 F2400 X14.440 Y25.664 E373.72353
G0 F7500 X14.440 Y25.500
G0 X20.216 Y25.500
G0 X20.216 Y25.664
G1 F2400 X20.216 Y-25.464 E375.56434
G0 F7500 X20.216 Y-25.300
G0 X25.992 Y-25.300
G0 X25.992 Y-25.464
G1 F2400 X25.992 Y25.664 E377.40516
G0 F7500 X25.992 Y25.500
G0 X31.768 Y25.500
G0 X31.768 Y25.664
G1 F2400 X31.768 Y-25.464 E379.24598
G0 F7500 X31.768 Y-25.300
G0 X37.544 Y-25.300
G0 X37.544 Y-25.464
G1 F2400 X37.544 Y25.664 E381.08680
;LAYER:5
G1 F2400 E380.08680
G0 F7500 X0.284 Y0.284 Z1.300
;TYPE:WALL-OUTER
G1 F2400 E381.08680
G1 F2700 X0.216 Y0.284 E381.08924
G1 X0.216 Y0.216 E381.09169
G1 X0.284 Y0.216 E381.09414
G1 X0.284 Y0.284 E381.09659
G0 F7500 X1.200 Y1.200
;TYPE:SUPPORT
G1 F2400 X1.200 Y-0.700 E381.16500
G1 X-0.700 Y-0.700 E381.23340
G1 X-0.700 Y1.200 E381.30181
G1 X1.200 Y1.200 E381.37022
G0 F7500 X1.190 Y1.300
G0 X45.500 Y25.590
G0 X45.600 Y25.600
G1 F2400 X-45.500 Y25.600 E384.65019
G1 X-45.500 Y-25.400 E386.48640
G1 X45.600 Y-25.400 E389.76638
G1 X45.600 Y25.600 E391.60258
G0 F7500 X45.500 Y25.590
G0 X43.320 Y25.500
G0 X43.320 Y25.664
G1 F2400 X43.320 Y-25.464 E393.44340
G0 F7500 X43.320 Y-25.300
G0 X45.500 Y-20.215
G0 X45.664 Y-20.215
G1 F2400 X-45.563 Y-20.216 E396.72795
G0 F7500 X-45.400 Y-20.216
G0 X-43.320 Y-25.300
G0 X-43.320 Y-25.464
