;Generated with Cura_SteamEngine 15.04.6

;Layer count: 16
;LAYER:0
M107
G0 F7500 X-48.716 Y-33.616 Z0.300
;TYPE:SKIRT
G1 F1800 X48.816 Y-33.616 E5.26733
G1 X48.816 Y33.816 E8.90907
G1 X-48.716 Y33.816 E14.17640
G1 X-48.716 Y-33.616 E17.81814
G1 F2400 E16.81814
G0 F7500 X0.216 Y0.216
;TYPE:WALL-OUTER
G1 F2400 E17.81814
G1 F1800 X0.284 Y0.216 E17.82181
G1 X0.284 Y0.284 E17.82548
G1 X0.216 Y0.284 E17.82916
G1 X0.216 Y0.216 E17.83283
G0 F7500 X-0.700 Y-0.700
;TYPE:SUPPORT
G1 F1800 X-0.700 Y1.200 E17.93544
G1 X1.200 Y1.200 E18.03805
G1 X1.200 Y-0.700 E18.14066
G1 X-0.700 Y-0.700 E18.24328
G0 F7500 X-0.690 Y-0.800
G0 X-45.500 Y-30.400
G1 F1800 X45.600 Y-30.400 E23.16324
G1 X45.600 Y30.600 E26.45761
G1 X-45.500 Y30.600 E31.37757
G1 X-45.500 Y-30.400 E34.67194
G0 F7500 X-43.320 Y-30.300
G0 X-43.320 Y-30.464
G1 F1800 X-43.320 Y30.664 E37.97323
G0 F7500 X-43.320 Y30.500
G0 X-45.400 Y25.991
G0 X-45.564 Y25.991
G1 F1800 X45.663 Y25.992 E42.90005
G0 F7500 X45.500 Y25.992
G0 X43.320 Y30.500
G0 X43.320 Y30.664
G1 F1800 X43.320 Y-30.464 E46.20134
G0 F7500 X43.320 Y-30.300
G0 X45.500 Y-25.991
G0 X45.664 Y-25.991
G1 F1800 X-45.563 Y-25.992 E51.12816
G0 F7500 X-45.400 Y-25.992
G0 X-45.400 Y-20.216
G0 X-45.563 Y-20.216
G1 F1800 X45.664 Y-20.215 E56.05498
G0 F7500 X45.500 Y-20.215
G0 X45.500 Y-14.439
G0 X45.664 Y-14.439
G1 F1800 X-45.563 Y-14.440 E60.98179
G0 F7500 X-45.400 Y-14.440
G0 X-45.400 Y-8.664
G0 X-45.563 Y-8.664
G1 F1800 X45.664 Y-8.663 E65.90861
G0 F7500 X45.500 Y-8.663
G0 X45.500 Y-2.887
G0 X45.664 Y-2.887
G1 F1800 X-45.563 Y-2.888 E70.83543
G0 F7500 X-45.400 Y-2.888
G0 X-45.400 Y2.887
G0 X-45.564 Y2.887
G1 F1800 X45.663 Y2.888 E75.76225
G0 F7500 X45.500 Y2.888
G0 X45.500 Y8.664
G0 X45.663 Y8.664
G1 F1800 X-45.564 Y8.663 E80.68907
G0 F7500 X-45.400 Y8.663
G0 X-45.400 Y14.439
G0 X-45.564 Y14.439
G1 F1800 X45.663 Y14.440 E85.61589
G0 F7500 X45.500 Y14.440
G0 X45.500 Y20.216
G0 X45.663 Y20.216
G1 F1800 X-45.564 Y20.215 E90.54271
G0 F7500 X-45.400 Y20.215
G0 X-37.544 Y30.500
G0 X-37.544 Y30.664
G1 F1800 X-37.544 Y-30.464 E93.84399
G0 F7500 X-37.544 Y-30.300
G0 X-31.768 Y-30.300
G0 X-31.768 Y-30.464
G1 F1800 X-31.768 Y30.664 E97.14528
G0 F7500 X-31.768 Y30.500
G0 X-25.992 Y30.500
G0 X-25.992 Y30.664
G1 F1800 X-25.992 Y-30.464 E100.44657
G0 F7500 X-25.992 Y-30.300
G0 X-20.216 Y-30.300
G0 X-20.216 Y-30.464
G1 F1800 X-20.216 Y30.664 E103.74786
G0 F7500 X-20.216 Y30.500
G0 X-14.440 Y30.500
G0 X-14.440 Y30.664
G1 F1800 X-14.440 Y-30.464 E107.04914
G0 F7500 X-14.440 Y-30.300
G0 X-8.664 Y-30.300
G0 X-8.664 Y-30.464
G1 F1800 X-8.664 Y30.664 E110.35043
G0 F7500 X-8.664 Y30.500
G0 X-2.888 Y30.500
G0 X-2.888 Y30.664
G1 F1800 X-2.888 Y-30.464 E113.65172
G0 F7500 X-2.888 Y-30.300
G0 X2.888 Y-30.300
G0 X2.888 Y-30.464
G1 F1800 X2.888 Y30.664 E116.95301
G0 F7500 X2.888 Y30.500
G0 X8.664 Y30.500
G0 X8.664 Y30.664
G1 F1800 X8.664 Y-30.464 E120.25429
G0 F7500 X8.664 Y-30.300
G0 X14.440 Y-30.300
G0 X14.440 Y-30.464
G1 F1800 X14.440 Y30.664 E123.55558
G0 F7500 X14.440 Y30.500
G0 X20.216 Y30.500
G0 X20.216 Y30.664
G1 F1800 X20.216 Y-30.464 E126.85687
G0 F7500 X20.216 Y-30.300
G0 X25.992 Y-30.300
G0 X25.992 Y-30.464
G1 F1800 X25.992 Y30.664 E130.15816
G0 F7500 X25.992 Y30.500
G0 X31.768 Y30.500
G0 X31.768 Y30.664
G1 F1800 X31.768 Y-30.464 E133.45944
G0 F7500 X31.768 Y-30.300
G0 X37.544 Y-30.300
G0 X37.544 Y-30.464
G1 F1800 X37.544 Y30.664 E136.76073
;LAYER:1
M106 S63
G1 F2400 E135.76073
G0 F7500 X0.284 Y0.284 Z0.500
;TYPE:WALL-OUTER
G1 F2400 E136.76073
G1 F1980 X0.216 Y0.284 E136.76318
G1 X0.216 Y0.216 E136.76563
G1 X0.284 Y0.216 E136.76808
G1 X0.284 Y0.284 E136.77052
G0 F7500 X1.200 Y1.200
;TYPE:SUPPORT
G1 F1920 X1.200 Y-0.700 E136.83893
G1 X-0.700 Y-0.700 E136.90734
G1 X-0.700 Y1.200 E136.97575
G1 X1.200 Y1.200 E137.04416
G0 F7500 X1.190 Y1.300
G0 X45.500 Y30.590
G0 X45.600 Y30.600
G1 F1920 X-45.500 Y30.600 E140.32413
G1 X-45.500 Y-30.400 E142.52038
G1 X45.600 Y-30.400 E145.80035
G1 X45.600 Y30.600 E147.99660
G0 F7500 X45.500 Y30.590
G0 X43.320 Y30.500
G0 X43.320 Y30.664
G1 F1920 X43.320 Y-30.464 E150.19746
G0 F7500 X43.320 Y-30.300
G0 X45.500 Y-25.991
G0 X45.664 Y-25.991
G1 F1920 X-45.563 Y-25.992 E153.48201
G0 F7500 X-45.400 Y-25.992
G0 X-43.320 Y-30.300
G0 X-43.320 Y-30.464
G1 F1920 X-43.320 Y30.664 E155.68286
G0 F7500 X-43.320 Y30.500
G0 X-45.400 Y25.991
G0 X-45.564 Y25.991
G1 F1920 X45.663 Y25.992 E158.96741
G0 F7500 X45.500 Y25.992
G0 X45.500 Y20.216
G0 X45.663 Y20.216
G1 F1920 X-45.564 Y20.215 E162.25196
G0 F7500 X-45.400 Y20.215
G0 X-45.400 Y14.439
G0 X-45.564 Y14.439
G1 F1920 X45.663 Y14.440 E165.53650
G0 F7500 X45.500 Y14.440
G0 X45.500 Y8.664
G0 X45.663 Y8.664
G1 F1920 X-45.564 Y8.663 E168.82105
G0 F7500 X-45.400 Y8.663
G0 X-45.400 Y2.887
G0 X-45.564 Y2.887
G1 F1920 X45.663 Y2.888 E172.10559
G0 F7500 X45.500 Y2.888
G0 X45.500 Y-2.887
G0 X45.664 Y-2.887
G1 F1920 X-45.563 Y-2.888 E175.39014
G0 F7500 X-45.400 Y-2.888
G0 X-45.400 Y-8.664
G0 X-45.563 Y-8.664
G1 F1920 X45.664 Y-8.663 E178.67468
G0 F7500 X45.500 Y-8.663
G0 X45.500 Y-14.439
G0 X45.664 Y-14.439
G1 F1920 X-45.563 Y-14.440 E181.95923
G0 F7500 X-45.400 Y-14.440
G0 X-45.400 Y-20.216
G0 X-45.563 Y-20.216
G1 F1920 X45.664 Y-20.215 E185.24378
G0 F7500 X45.500 Y-20.215
G0 X37.544 Y-30.300
G0 X37.544 Y-30.464
G1 F1920 X37.544 Y30.664 E187.44463
G0 F7500 X37.544 Y30.500
G0 X31.768 Y30.500
G0 X31.768 Y30.664
G1 F1920 X31.768 Y-30.464 E189.64549
G0 F7500 X31.768 Y-30.300
G0 X25.992 Y-30.300
G0 X25.992 Y-30.464
G1 F1920 X25.992 Y30.664 E191.84635
G0 F7500 X25.992 Y30.500
G0 X20.216 Y30.500
G0 X20.216 Y30.664
G1 F1920 X20.216 Y-30.464 E194.04721
G0 F7500 X20.216 Y-30.300
G0 X14.440 Y-30.300
G0 X14.440 Y-30.464
G1 F1920 X14.440 Y30.664 E196.24807
G0 F7500 X14.440 Y30.500
G0 X8.664 Y30.500
G0 X8.664 Y30.664
G1 F1920 X8.664 Y-30.464 E198.44893
G0 F7500 X8.664 Y-30.300
G0 X2.888 Y-30.300
G0 X2.888 Y-30.464
G1 F1920 X2.888 Y30.664 E200.64978
G0 F7500 X2.888 Y30.500
G0 X-2.888 Y30.500
G0 X-2.888 Y30.664
G1 F1920 X-2.888 Y-30.464 E202.85064
G0 F7500 X-2.888 Y-30.300
G0 X-8.664 Y-30.300
G0 X-8.664 Y-30.464
G1 F1920 X-8.664 Y30.664 E205.05150
G0 F7500 X-8.664 Y30.500
G0 X-14.440 Y30.500
G0 X-14.440 Y30.664
G1 F1920 X-14.440 Y-30.464 E207.25236
G0 F7500 X-14.440 Y-30.300
G0 X-20.216 Y-30.300
G0 X-20.216 Y-30.464
G1 F1920 X-20.216 Y30.664 E209.45322
G0 F7500 X-20.216 Y30.500
G0 X-25.992 Y30.500
G0 X-25.992 Y30.664
G1 F1920 X-25.992 Y-30.464 E211.65408
G0 F7500 X-25.992 Y-30.300
G0 X-31.768 Y-30.300
G0 X-31.768 Y-30.464
G1 F1920 X-31.768 Y30.664 E213.85493
G0 F7500 X-31.768 Y30.500
G0 X-37.544 Y30.500
G0 X-37.544 Y30.664
G1 F1920 X-37.544 Y-30.464 E216.05579
;LAYER:2
M106 S127
G1 F2400 E215.05579
G0 F7500 X0.216 Y0.216 Z0.700
;TYPE:WALL-OUTER
G1 F2400 E216.05579
G1 F2220 X0.284 Y0.216 E216.05824
G1 X0.284 Y0.284 E216.06069
G1 X0.216 Y0.284 E216.06314
G1 X0.216 Y0.216 E216.06559
G0 F7500 X-0.700 Y-0.700
;TYPE:SUPPORT
G1 F2100 X-0.700 Y1.200 E216.13399
G1 X1.200 Y1.200 E216.20240
G1 X1.200 Y-0.700 E216.27081
G1 X-0.700 Y-0.700 E216.33922
G0 F7500 X-0.690 Y-0.800
G0 X-45.500 Y-30.400
G1 F2100 X45.600 Y-30.400 E219.61919
G1 X45.600 Y30.600 E221.81544
G1 X-45.500 Y30.600 E225.09541
G1 X-45.500 Y-30.400 E227.29166
G0 F7500 X-43.320 Y-30.300
G0 X-43.320 Y-30.464
G1 F2100 X-43.320 Y30.664 E229.49252
G0 F7500 X-43.320 Y30.500
G0 X-45.400 Y25.991
G0 X-45.564 Y25.991
G1 F2100 X45.663 Y25.992 E232.77707
G0 F7500 X45.500 Y25.992
G0 X43.320 Y30.500
G0 X43.320 Y30.664
G1 F2100 X43.320 Y-30.464 E234.97793
G0 F7500 X43.320 Y-30.300
G0 X45.500 Y-25.991
G0 X45.664 Y-25.991
G1 F2100 X-45.563 Y-25.992 E238.26247
G0 F7500 X-45.400 Y-25.992
G0 X-45.400 Y-20.216
G0 X-45.563 Y-20.216
G1 F2100 X45.664 Y-20.215 E241.54702
G0 F7500 X45.500 Y-20.215
G0 X45.500 Y-14.439
G0 X45.664 Y-14.439
G1 F2100 X-45.563 Y-14.440 E244.83156
G0 F7500 X-45.400 Y-14.440
G0 X-45.400 Y-8.664
G0 X-45.563 Y-8.664
G1 F2100 X45.664 Y-8.663 E248.11611
G0 F7500 X45.500 Y-8.663
G0 X45.500 Y-2.887
G0 X45.664 Y-2.887
G1 F2100 X-45.563 Y-2.888 E251.40065
G0 F7500 X-45.400 Y-2.888
G0 X-45.400 Y2.887
G0 X-45.564 Y2.887
G1 F2100 X45.663 Y2.888 E254.68520
G0 F7500 X45.500 Y2.888
G0 X45.500 Y8.664
G0 X45.663 Y8.664
G1 F2100 X-45.564 Y8.663 E257.96975
G0 F7500 X-45.400 Y8.663
G0 X-45.400 Y14.439
G0 X-45.564 Y14.439
G1 F2100 X45.663 Y14.440 E261.25429
G0 F7500 X45.500 Y14.440
G0 X45.500 Y20.216
G0 X45.663 Y20.216
G1 F2100 X-45.564 Y20.215 E264.53884
G0 F7500 X-45.400 Y20.215
G0 X-37.544 Y30.500
G0 X-37.544 Y30.664
G1 F2100 X-37.544 Y-30.464 E266.73969
G0 F7500 X-37.544 Y-30.300
G0 X-31.768 Y-30.300
G0 X-31.768 Y-30.464
G1 F2100 X-31.768 Y30.664 E268.94055
G0 F7500 X-31.768 Y30.500
G0 X-25.992 Y30.500
G0 X-25.992 Y30.664
G1 F2100 X-25.992 Y-30.464 E271.14141
G0 F7500 X-25.992 Y-30.300
G0 X-20.216 Y-30.300
G0 X-20.216 Y-30.464
G1 F2100 X-20.216 Y30.664 E273.34227
G0 F7500 X-20.216 Y30.500
G0 X-14.440 Y30.500
G0 X-14.440 Y30.664
G1 F2100 X-14.440 Y-30.464 E275.54313
G0 F7500 X-14.440 Y-30.300
G0 X-8.664 Y-30.300
G0 X-8.664 Y-30.464
G1 F2100 X-8.664 Y30.664 E277.74399
G0 F7500 X-8.664 Y30.500
G0 X-2.888 Y30.500
G0 X-2.888 Y30.664
G1 F2100 X-2.888 Y-30.464 E279.94485
G0 F7500 X-2.888 Y-30.300
G0 X2.888 Y-30.300
G0 X2.888 Y-30.464
G1 F2100 X2.888 Y30.664 E282.14570
G0 F7500 X2.888 Y30.500
G0 X8.664 Y30.500
G0 X8.664 Y30.664
G1 F2100 X8.664 Y-30.464 E284.34656
G0 F7500 X8.664 Y-30.300
G0 X14.440 Y-30.300
G0 X14.440 Y-30.464
G1 F2100 X14.440 Y30.664 E286.54742
G0 F7500 X14.440 Y30.500
G0 X20.216 Y30.500
G0 X20.216 Y30.664
G1 F2100 X20.216 Y-30.464 E288.74828
G0 F7500 X20.216 Y-30.300
G0 X25.992 Y-30.300
G0 X25.992 Y-30.464
G1 F2100 X25.992 Y30.664 E290.94914
G0 F7500 X25.992 Y30.500
G0 X31.768 Y30.500
G0 X31.768 Y30.664
G1 F2100 X31.768 Y-30.464 E293.15000
G0 F7500 X31.768 Y-30.300
G0 X37.544 Y-30.300
G0 X37.544 Y-30.464
G1 F2100 X37.544 Y30.664 E295.35085
;LAYER:3
G1 F2400 E294.35085
G0 F7500 X0.284 Y0.284 Z0.900
;TYPE:WALL-OUTER
G1 F2400 E295.35085
G1 X0.216 Y0.284 E295.35330
G1 X0.216 Y0.216 E295.35575
G1 X0.284 Y0.216 E295.35820
G1 X0.284 Y0.284 E295.36065
G0 F7500 X1.200 Y1.200
;TYPE:SUPPORT
G1 F2220 X1.200 Y-0.700 E295.42905
G1 X-0.700 Y-0.700 E295.49746
G1 X-0.700 Y1.200 E295.56587
G1 X1.200 Y1.200 E295.63428
G0 F7500 X1.190 Y1.300
G0 X45.500 Y30.590
G0 X45.600 Y30.600
G1 F2220 X-45.500 Y30.600 E298.91425
G1 X-45.500 Y-30.400 E301.11050
G1 X45.600 Y-30.400 E304.39047
G1 X45.600 Y30.600 E306.58672
G0 F7500 X45.500 Y30.590
G0 X43.320 Y30.500
G0 X43.320 Y30.664
G1 F2220 X43.320 Y-30.464 E308.78758
G0 F7500 X43.320 Y-30.300
G0 X45.500 Y-25.991
G0 X45.664 Y-25.991
G1 F2220 X-45.563 Y-25.992 E312.07213
G0 F7500 X-45.400 Y-25.992
G0 X-43.320 Y-30.300
G0 X-43.320 Y-30.464
G1 F2220 X-43.320 Y30.664 E314.27299
G0 F7500 X-43.320 Y30.500
G0 X-45.400 Y25.991
G0 X-45.564 Y25.991
G1 F2220 X45.663 Y25.992 E317.55753
G0 F7500 X45.500 Y25.992
G0 X45.500 Y20.216
G0 X45.663 Y20.216
G1 F2220 X-45.564 Y20.215 E320.84208
G0 F7500 X-45.400 Y20.215
G0 X-45.400 Y14.439
G0 X-45.564 Y14.439
G1 F2220 X45.663 Y14.440 E324.12662
G0 F7500 X45.500 Y14.440
G0 X45.500 Y8.664
G0 X45.663 Y8.664
G1 F2220 X-45.564 Y8.663 E327.41117
G0 F7500 X-45.400 Y8.663
G0 X-45.400 Y2.887
G0 X-45.564 Y2.887
G1 F2220 X45.663 Y2.888 E330.69572
G0 F7500 X45.500 Y2.888
G0 X45.500 Y-2.887
G0 X45.664 Y-2.887
G1 F2220 X-45.563 Y-2.888 E333.98026
G0 F7500 X-45.400 Y-2.888
G0 X-45.400 Y-8.664
G0 X-45.563 Y-8.664
G1 F2220 X45.664 Y-8.663 E337.26481
G0 F7500 X45.500 Y-8.663
G0 X45.500 Y-14.439
G0 X45.664 Y-14.439
G1 F2220 X-45.563 Y-14.440 E340.54935
G0 F7500 X-45.400 Y-14.440
G0 X-45.400 Y-20.216
G0 X-45.563 Y-20.216
G1 F2220 X45.664 Y-20.215 E343.83390
G0 F7500 X45.500 Y-20.215
G0 X37.544 Y-30.300
G0 X37.544 Y-30.464
G1 F2220 X37.544 Y30.664 E346.03476
G0 F7500 X37.544 Y30.500
G0 X31.768 Y30.500
G0 X31.768 Y30.664
G1 F2220 X31.768 Y-30.464 E348.23561
G0 F7500 X31.768 Y-30.300
G0 X25.992 Y-30.300
G0 X25.992 Y-30.464
G1 F2220 X25.992 Y30.664 E350.43647
G0 F7500 X25.992 Y30.500
G0 X20.216 Y30.500
G0 X20.216 Y30.664
G1 F2220 X20.216 Y-30.464 E352.63733
G0 F7500 X20.216 Y-30.300
G0 X14.440 Y-30.300
G0 X14.440 Y-30.464
G1 F2220 X14.440 Y30.664 E354.83819
G0 F7500 X14.440 Y30.500
G0 X8.664 Y30.500
G0 X8.664 Y30.664
G1 F2220 X8.664 Y-30.464 E357.03905
G0 F7500 X8.664 Y-30.300
G0 X2.888 Y-30.300
G0 X2.888 Y-30.464
G1 F2220 X2.888 Y30.664 E359.23991
G0 F7500 X2.888 Y30.500
G0 X-2.888 Y30.500
G0 X-2.888 Y30.664
G1 F2220 X-2.888 Y-30.464 E361.44077
G0 F7500 X-2.888 Y-30.300
G0 X-8.664 Y-30.300
G0 X-8.664 Y-30.464
G1 F2220 X-8.664 Y30.664 E363.64162
G0 F7500 X-8.664 Y30.500
G0 X-14.440 Y30.500
G0 X-14.440 Y30.664
G1 F2220 X-14.440 Y-30.464 E365.84248
G0 F7500 X-14.440 Y-30.300
G0 X-20.216 Y-30.300
G0 X-20.216 Y-30.464
G1 F2220 X-20.216 Y30.664 E368.04334
G0 F7500 X-20.216 Y30.500
G0 X-25.992 Y30.500
G0 X-25.992 Y30.664
G1 F2220 X-25.992 Y-30.464 E370.24420
G0 F7500 X-25.992 Y-30.300
G0 X-31.768 Y-30.300
G0 X-31.768 Y-30.464
G1 F2220 X-31.768 Y30.664 E372.44506
G0 F7500 X-31.768 Y30.500
G0 X-37.544 Y30.500
G0 X-37.544 Y30.664
G1 F2220 X-37.544 Y-30.464 E374.64592
;LAYER:4
G1 F2400 E373.64592
G0 F7500 X0.216 Y0.216 Z1.100
;TYPE:WALL-OUTER
G1 F2400 E374.64592
G1 F2700 X0.284 Y0.216 E374.64836
G1 X0.284 Y0.284 E374.65081
G1 X0.216 Y0.284 E374.65326
G1 X0.216 Y0.216 E374.65571
G0 F7500 X-0.700 Y-0.700
;TYPE:SUPPORT
G1 F2400 X-0.700 Y1.200 E374.72412
G1 X1.200 Y1.200 E374.79252
G1 X1.200 Y-0.700 E374.86093
G1 X-0.700 Y-0.700 E374.92934
G0 F7500 X-0.690 Y-0.800
G0 X-45.500 Y-30.400
G1 F2400 X45.600 Y-30.400 E378.20931
G1 X45.600 Y30.600 E380.40556
G1 X-45.500 Y30.600 E383.68554
G1 X-45.500 Y-30.400 E385.88179
G0 F7500 X-43.320 Y-30.300
G0 X-43.320 Y-30.464
G1 F2400 X-43.320 Y30.664 E388.08264
G0 F7500 X-43.320 Y30.500
G0 X-45.400 Y25.991
G0 X-45.564 Y25.991
G1 F2400 X45.663 Y25.992 E391.36719
G0 F7500 X45.500 Y25.992
G0 X43.320 Y30.500
G0 X43.320 Y30.664
G1 F2400 X43.320 Y-30.464 E393.56805
G0 F7500 X43.320 Y-30.300
G0 X45.500 Y-25.991
G0 X45.664 Y-25.991
G1 F2400 X-45.563 Y-25.992 E396.85259
G0 F7500 X-45.400 Y-25.992
G0 X-45.400 Y-20.216
G0 X-45.563 Y-20.216
G1 F2400 X45.664 Y-20.215 E400.13714
G0 F7500 X45.500 Y-20.215
G0 X45.500 Y-14.439
G0 X45.664 Y-14.439
G1 F2400 X-45.563 Y-14.440 E403.42169
G0 F7500 X-45.400 Y-14.440
G0 X-45.400 Y-8.664
G0 X-45.563 Y-8.664
G1 F2400 X45.664 Y-8.663 E406.70623
G0 F7500 X45.500 Y-8.663
G0 X45.500 Y-2.887
G0 X45.664 Y-2.887
G1 F2400 X-45.563 Y-2.888 E409.99078
G0 F7500 X-45.400 Y-2.888
G0 X-45.400 Y2.887
G0 X-45.564 Y2.887
G1 F2400 X45.663 Y2.888 E413.27532
G0 F7500 X45.500 Y2.888
G0 X45.500 Y8.664
G0 X45.663 Y8.664
G1 F2400 X-45.564 Y8.663 E416.55987
G0 F7500 X-45.400 Y8.663
G0 X-45.400 Y14.439
G0 X-45.564 Y14.439
G1 F2400 X45.663 Y14.440 E419.84441
G0 F7500 X45.500 Y14.440
G0 X45.500 Y20.216
G0 X45.663 Y20.216
G1 F2400 X-45.564 Y20.215 E423.12896
G0 F7500 X-45.400 Y20.215
G0 X-37.544 Y30.500
G0 X-37.544 Y30.664
G1 F2400 X-37.544 Y-30.464 E425.32982
G0 F7500 X-37.544 Y-30.300
G0 X-31.768 Y-30.300
G0 X-31.768 Y-30.464
G1 F2400 X-31.768 Y30.664 E427.53068
G0 F7500 X-31.768 Y30.500
G0 X-25.992 Y30.500
G0 X-25.992 Y30.664
G1 F2400 X-25.992 Y-30.464 E429.73153
G0 F7500 X-25.992 Y-30.300
G0 X-20.216 Y-30.300
G0 X-20.216 Y-30.464
G1 F2400 X-20.216 Y30.664 E431.93239
G0 F7500 X-20.216 Y30.500
G0 X-14.440 Y30.500
G0 X-14.440 Y30.664
G1 F2400 X-14.440 Y-30.464 E434.13325
G0 F7500 X-14.440 Y-30.300
G0 X-8.664 Y-30.300
G0 X-8.664 Y-30.464
G1 F2400 X-8.664 Y30.664 E436.33411
G0 F7500 X-8.664 Y30.500
G0 X-2.888 Y30.500
G0 X-2.888 Y30.664
G1 F2400 X-2.888 Y-30.464 E438.53497
G0 F7500 X-2.888 Y-30.300
G0 X2.888 Y-30.300
G0 X2.888 Y-30.464
G1 F2400 X2.888 Y30.664 E440.73583
G0 F7500 X2.888 Y30.500
G0 X8.664 Y30.500
G0 X8.664 Y30.664
G1 F2400 X8.664 Y-30.464 E442.93668
G0 F7500 X8.664 Y-30.300
G0 X14.440 Y-30.300
G0 X14.440 Y-30.464
G1 F2400 X14.440 Y30.664 E445.13754
G0 F7500 X14.440 Y30.500
G0 X20.216 Y30.500
G0 X20.216 Y30.664
G1 F2400 X20.216 Y-30.464 E447.33840
G0 F7500 X20.216 Y-30.300
G0 X25.992 Y-30.300
G0 X25.992 Y-30.464
G1 F2400 X25.992 Y30.664 E449.53926
G0 F7500 X25.992 Y30.500
