;Generated with Cura_SteamEngine 15.04.6

;Layer count: 16
;LAYER:0
M107
G0 F7500 X-48.716 Y-38.616 Z0.300
;TYPE:SKIRT
G1 F1800 X48.816 Y-38.616 E5.26733
G1 X48.816 Y38.816 E9.44913
G1 X-48.716 Y38.816 E14.71646
G1 X-48.716 Y-38.616 E18.89826
G1 F2400 E17.89826
G0 F7500 X0.216 Y0.216
;TYPE:WALL-OUTER
G1 F2400 E18.89826
G1 F1800 X0.284 Y0.216 E18.90193
G1 X0.284 Y0.284 E18.90561
G1 X0.216 Y0.284 E18.90928
G1 X0.216 Y0.216 E18.91295
G0 F7500 X-0.700 Y-0.700
;TYPE:SUPPORT
G1 F1800 X-0.700 Y1.200 E19.01556
G1 X1.200 Y1.200 E19.11818
G1 X1.200 Y-0.700 E19.22079
G1 X-0.700 Y-0.700 E19.32340
G0 F7500 X-0.690 Y-0.800
G0 X-45.500 Y-35.400
G1 F1800 X45.600 Y-35.400 E24.24336
G1 X45.600 Y35.600 E28.07779
G1 X-45.500 Y35.600 E32.99775
G1 X-45.500 Y-35.400 E36.83219
G0 F7500 X-43.320 Y-35.300
G0 X-43.320 Y-35.464
G1 F1800 X-43.320 Y35.664 E40.67354
G0 F7500 X-43.320 Y35.500
G0 X-45.400 Y31.767
G0 X-45.564 Y31.767
G1 F1800 X45.663 Y31.768 E45.60036
G0 F7500 X45.500 Y31.768
G0 X43.320 Y35.500
G0 X43.320 Y35.664
G1 F1800 X43.320 Y-35.464 E49.44171
G0 F7500 X43.320 Y-35.300
G0 X45.500 Y-31.767
G0 X45.664 Y-31.767
G1 F1800 X-45.563 Y-31.768 E54.36853
G0 F7500 X-45.400 Y-31.768
G0 X-45.400 Y-25.992
G0 X-45.563 Y-25.992
G1 F1800 X45.664 Y-25.991 E59.29534
G0 F7500 X45.500 Y-25.991
G0 X45.500 Y-20.215
G0 X45.664 Y-20.215
G1 F1800 X-45.563 Y-20.216 E64.22216
G0 F7500 X-45.400 Y-20.216
G0 X-45.400 Y-14.440
G0 X-45.563 Y-14.440
G1 F1800 X45.664 Y-14.439 E69.14898
G0 F7500 X45.500 Y-14.439
G0 X45.500 Y-8.663
G0 X45.664 Y-8.663
G1 F1800 X-45.563 Y-8.664 E74.07580
G0 F7500 X-45.400 Y-8.664
G0 X-45.400 Y-2.888
G0 X-45.563 Y-2.888
G1 F1800 X45.664 Y-2.887 E79.00262
G0 F7500 X45.500 Y-2.887
G0 X45.500 Y2.888
G0 X45.663 Y2.888
G1 F1800 X-45.564 Y2.887 E83.92944
G0 F7500 X-45.400 Y2.887
G0 X-45.400 Y8.663
G0 X-45.564 Y8.663
G1 F1800 X45.663 Y8.664 E88.85626
G0 F7500 X45.500 Y8.664
G0 X45.500 Y14.440
G0 X45.663 Y14.440
G1 F1800 X-45.564 Y14.439 E93.78307
G0 F7500 X-45.400 Y14.439
G0 X-45.400 Y20.215
G0 X-45.564 Y20.215
G1 F1800 X45.663 Y20.216 E98.70989
G0 F7500 X45.500 Y20.216
G0 X45.500 Y25.992
G0 X45.663 Y25.992
G1 F1800 X-45.564 Y25.991 E103.63671
G0 F7500 X-45.400 Y25.991
G0 X-37.544 Y35.500
G0 X-37.544 Y35.664
G1 F1800 X-37.544 Y-35.464 E107.47806
G0 F7500 X-37.544 Y-35.300
G0 X-31.768 Y-35.300
G0 X-31.768 Y-35.464
G1 F1800 X-31.768 Y35.664 E111.31941
G0 F7500 X-31.768 Y35.500
G0 X-25.992 Y35.500
G0 X-25.992 Y35.664
G1 F1800 X-25.992 Y-35.464 E115.16076
G0 F7500 X-25.992 Y-35.300
G0 X-20.216 Y-35.300
G0 X-20.216 Y-35.464
G1 F1800 X-20.216 Y35.664 E119.00211
G0 F7500 X-20.216 Y35.500
G0 X-14.440 Y35.500
G0 X-14.440 Y35.664
G1 F1800 X-14.440 Y-35.464 E122.84346
G0 F7500 X-14.440 Y-35.300
G0 X-8.664 Y-35.300
G0 X-8.664 Y-35.464
G1 F1800 X-8.664 Y35.664 E126.68480
G0 F7500 X-8.664 Y35.500
G0 X-2.888 Y35.500
G0 X-2.888 Y35.664
G1 F1800 X-2.888 Y-35.464 E130.52615
G0 F7500 X-2.888 Y-35.300
G0 X2.888 Y-35.300
G0 X2.888 Y-35.464
G1 F1800 X2.888 Y35.664 E134.36750
G0 F7500 X2.888 Y35.500
G0 X8.664 Y35.500
G0 X8.664 Y35.664
G1 F1800 X8.664 Y-35.464 E138.20885
G0 F7500 X8.664 Y-35.300
G0 X14.440 Y-35.300
G0 X14.440 Y-35.464
G1 F1800 X14.440 Y35.664 E142.05020
G0 F7500 X14.440 Y35.500
G0 X20.216 Y35.500
G0 X20.216 Y35.664
G1 F1800 X20.216 Y-35.464 E145.89155
G0 F7500 X20.216 Y-35.300
G0 X25.992 Y-35.300
G0 X25.992 Y-35.464
G1 F1800 X25.992 Y35.664 E149.73290
G0 F7500 X25.992 Y35.500
G0 X31.768 Y35.500
G0 X31.768 Y35.664
G1 F1800 X31.768 Y-35.464 E153.57425
G0 F7500 X31.768 Y-35.300
G0 X37.544 Y-35.300
G0 X37.544 Y-35.464
G1 F1800 X37.544 Y35.664 E157.41560
;LAYER:1
M106 S63
G1 F2400 E156.41560
G0 F7500 X0.284 Y0.284 Z0.500
;TYPE:WALL-OUTER
G1 F2400 E157.41560
G1 F1980 X0.216 Y0.284 E157.41805
G1 X0.216 Y0.216 E157.42049
G1 X0.284 Y0.216 E157.42294
G1 X0.284 Y0.284 E157.42539
G0 F7500 X1.200 Y1.200
;TYPE:SUPPORT
G1 F1920 X1.200 Y-0.700 E157.49380
G1 X-0.700 Y-0.700 E157.56221
G1 X-0.700 Y1.200 E157.63061
G1 X1.200 Y1.200 E157.69902
G0 F7500 X1.190 Y1.300
G0 X45.500 Y35.590
G0 X45.600 Y35.600
G1 F1920 X-45.500 Y35.600 E160.97899
G1 X-45.500 Y-35.400 E163.53529
G1 X45.600 Y-35.400 E166.81526
G1 X45.600 Y35.600 E169.37155
G0 F7500 X45.500 Y35.590
G0 X43.320 Y35.500
G0 X43.320 Y35.664
G1 F1920 X43.320 Y-35.464 E171.93245
G0 F7500 X43.320 Y-35.300
G0 X45.500 Y-31.767
G0 X45.664 Y-31.767
G1 F1920 X-45.563 Y-31.768 E175.21699
G0 F7500 X-45.400 Y-31.768
G0 X-43.320 Y-35.300
G0 X-43.320 Y-35.464
G1 F1920 X-43.320 Y35.664 E177.77789
G0 F7500 X-43.320 Y35.500
G0 X-45.400 Y31.767
G0 X-45.564 Y31.767
G1 F1920 X45.663 Y31.768 E181.06244
G0 F7500 X45.500 Y31.768
G0 X45.500 Y25.992
G0 X45.663 Y25.992
G1 F1920 X-45.564 Y25.991 E184.34699
G0 F7500 X-45.400 Y25.991
G0 X-45.400 Y20.215
G0 X-45.564 Y20.215
G1 F1920 X45.663 Y20.216 E187.63153
G0 F7500 X45.500 Y20.216
G0 X45.500 Y14.440
G0 X45.663 Y14.440
G1 F1920 X-45.564 Y14.439 E190.91608
G0 F7500 X-45.400 Y14.439
G0 X-45.400 Y8.663
G0 X-45.564 Y8.663
G1 F1920 X45.663 Y8.664 E194.20062
G0 F7500 X45.500 Y8.664
G0 X45.500 Y2.888
G0 X45.663 Y2.888
G1 F1920 X-45.564 Y2.887 E197.48517
G0 F7500 X-45.400 Y2.887
G0 X-45.400 Y-2.888
G0 X-45.563 Y-2.888
G1 F1920 X45.664 Y-2.887 E200.76971
G0 F7500 X45.500 Y-2.887
G0 X45.500 Y-8.663
G0 X45.664 Y-8.663
G1 F1920 X-45.563 Y-8.664 E204.05426
G0 F7500 X-45.400 Y-8.664
G0 X-45.400 Y-14.440
G0 X-45.563 Y-14.440
G1 F1920 X45.664 Y-14.439 E207.33880
G0 F7500 X45.500 Y-14.439
G0 X45.500 Y-20.215
G0 X45.664 Y-20.215
G1 F1920 X-45.563 Y-20.216 E210.62335
G0 F7500 X-45.400 Y-20.216
G0 X-45.400 Y-25.992
G0 X-45.563 Y-25.992
G1 F1920 X45.664 Y-25.991 E213.90790
G0 F7500 X45.500 Y-25.991
G0 X37.544 Y-35.300
G0 X37.544 Y-35.464
G1 F1920 X37.544 Y35.664 E216.46880
G0 F7500 X37.544 Y35.500
G0 X31.768 Y35.500
G0 X31.768 Y35.664
G1 F1920 X31.768 Y-35.464 E219.02970
G0 F7500 X31.768 Y-35.300
G0 X25.992 Y-35.300
G0 X25.992 Y-35.464
G1 F1920 X25.992 Y35.664 E221.59059
G0 F7500 X25.992 Y35.500
G0 X20.216 Y35.500
G0 X20.216 Y35.664
G1 F1920 X20.216 Y-35.464 E224.15149
G0 F7500 X20.216 Y-35.300
G0 X14.440 Y-35.300
G0 X14.440 Y-35.464
G1 F1920 X14.440 Y35.664 E226.71239
G0 F7500 X14.440 Y35.500
G0 X8.664 Y35.500
G0 X8.664 Y35.664
G1 F1920 X8.664 Y-35.464 E229.27329
G0 F7500 X8.664 Y-35.300
G0 X2.888 Y-35.300
G0 X2.888 Y-35.464
G1 F1920 X2.888 Y35.664 E231.83419
G0 F7500 X2.888 Y35.500
G0 X-2.888 Y35.500
G0 X-2.888 Y35.664
G1 F1920 X-2.888 Y-35.464 E234.39509
G0 F7500 X-2.888 Y-35.300
G0 X-8.664 Y-35.300
G0 X-8.664 Y-35.464
G1 F1920 X-8.664 Y35.664 E236.95599
G0 F7500 X-8.664 Y35.500
G0 X-14.440 Y35.500
G0 X-14.440 Y35.664
G1 F1920 X-14.440 Y-35.464 E239.51689
G0 F7500 X-14.440 Y-35.300
G0 X-20.216 Y-35.300
G0 X-20.216 Y-35.464
G1 F1920 X-20.216 Y35.664 E242.07779
G0 F7500 X-20.216 Y35.500
G0 X-25.992 Y35.500
G0 X-25.992 Y35.664
G1 F1920 X-25.992 Y-35.464 E244.63869
G0 F7500 X-25.992 Y-35.300
G0 X-31.768 Y-35.300
G0 X-31.768 Y-35.464
G1 F1920 X-31.768 Y35.664 E247.19959
G0 F7500 X-31.768 Y35.500
G0 X-37.544 Y35.500
G0 X-37.544 Y35.664
G1 F1920 X-37.544 Y-35.464 E249.76049
;LAYER:2
M106 S127
G1 F2400 E248.76049
G0 F7500 X0.216 Y0.216 Z0.700
;TYPE:WALL-OUTER
G1 F2400 E249.76049
G1 F2220 X0.284 Y0.216 E249.76294
G1 X0.284 Y0.284 E249.76538
G1 X0.216 Y0.284 E249.76783
G1 X0.216 Y0.216 E249.77028
G0 F7500 X-0.700 Y-0.700
;TYPE:SUPPORT
G1 F2100 X-0.700 Y1.200 E249.83869
G1 X1.200 Y1.200 E249.90710
G1 X1.200 Y-0.700 E249.97550
G1 X-0.700 Y-0.700 E250.04391
G0 F7500 X-0.690 Y-0.800
G0 X-45.500 Y-35.400
G1 F2100 X45.600 Y-35.400 E253.32388
G1 X45.600 Y35.600 E255.88018
G1 X-45.500 Y35.600 E259.16015
G1 X-45.500 Y-35.400 E261.71644
G0 F7500 X-43.320 Y-35.300
G0 X-43.320 Y-35.464
G1 F2100 X-43.320 Y35.664 E264.27734
G0 F7500 X-43.320 Y35.500
G0 X-45.400 Y31.767
G0 X-45.564 Y31.767
G1 F2100 X45.663 Y31.768 E267.56188
G0 F7500 X45.500 Y31.768
G0 X43.320 Y35.500
G0 X43.320 Y35.664
G1 F2100 X43.320 Y-35.464 E270.12278
G0 F7500 X43.320 Y-35.300
G0 X45.500 Y-31.767
G0 X45.664 Y-31.767
G1 F2100 X-45.563 Y-31.768 E273.40733
G0 F7500 X-45.400 Y-31.768
G0 X-45.400 Y-25.992
G0 X-45.563 Y-25.992
G1 F2100 X45.664 Y-25.991 E276.69188
G0 F7500 X45.500 Y-25.991
G0 X45.500 Y-20.215
G0 X45.664 Y-20.215
G1 F2100 X-45.563 Y-20.216 E279.97642
G0 F7500 X-45.400 Y-20.216
G0 X-45.400 Y-14.440
G0 X-45.563 Y-14.440
G1 F2100 X45.664 Y-14.439 E283.26097
G0 F7500 X45.500 Y-14.439
G0 X45.500 Y-8.663
G0 X45.664 Y-8.663
G1 F2100 X-45.563 Y-8.664 E286.54551
G0 F7500 X-45.400 Y-8.664
G0 X-45.400 Y-2.888
G0 X-45.563 Y-2.888
G1 F2100 X45.664 Y-2.887 E289.83006
G0 F7500 X45.500 Y-2.887
G0 X45.500 Y2.888
G0 X45.663 Y2.888
G1 F2100 X-45.564 Y2.887 E293.11460
G0 F7500 X-45.400 Y2.887
G0 X-45.400 Y8.663
G0 X-45.564 Y8.663
G1 F2100 X45.663 Y8.664 E296.39915
G0 F7500 X45.500 Y8.664
G0 X45.500 Y14.440
G0 X45.663 Y14.440
G1 F2100 X-45.564 Y14.439 E299.68370
G0 F7500 X-45.400 Y14.439
G0 X-45.400 Y20.215
G0 X-45.564 Y20.215
G1 F2100 X45.663 Y20.216 E302.96824
G0 F7500 X45.500 Y20.216
G0 X45.500 Y25.992
G0 X45.663 Y25.992
G1 F2100 X-45.564 Y25.991 E306.25279
G0 F7500 X-45.400 Y25.991
G0 X-37.544 Y35.500
G0 X-37.544 Y35.664
G1 F2100 X-37.544 Y-35.464 E308.81369
G0 F7500 X-37.544 Y-35.300
G0 X-31.768 Y-35.300
G0 X-31.768 Y-35.464
G1 F2100 X-31.768 Y35.664 E311.37459
G0 F7500 X-31.768 Y35.500
G0 X-25.992 Y35.500
G0 X-25.992 Y35.664
G1 F2100 X-25.992 Y-35.464 E313.93548
G0 F7500 X-25.992 Y-35.300
G0 X-20.216 Y-35.300
G0 X-20.216 Y-35.464
G1 F2100 X-20.216 Y35.664 E316.49638
G0 F7500 X-20.216 Y35.500
G0 X-14.440 Y35.500
G0 X-14.440 Y35.664
G1 F2100 X-14.440 Y-35.464 E319.05728
G0 F7500 X-14.440 Y-35.300
G0 X-8.664 Y-35.300
G0 X-8.664 Y-35.464
G1 F2100 X-8.664 Y35.664 E321.61818
G0 F7500 X-8.664 Y35.500
G0 X-2.888 Y35.500
G0 X-2.888 Y35.664
G1 F2100 X-2.888 Y-35.464 E324.17908
G0 F7500 X-2.888 Y-35.300
G0 X2.888 Y-35.300
G0 X2.888 Y-35.464
G1 F2100 X2.888 Y35.664 E326.73998
G0 F7500 X2.888 Y35.500
G0 X8.664 Y35.500
G0 X8.664 Y35.664
G1 F2100 X8.664 Y-35.464 E329.30088
G0 F7500 X8.664 Y-35.300
G0 X14.440 Y-35.300
G0 X14.440 Y-35.464
G1 F2100 X14.440 Y35.664 E331.86178
G0 F7500 X14.440 Y35.500
G0 X20.216 Y35.500
G0 X20.216 Y35.664
G1 F2100 X20.216 Y-35.464 E334.42268
G0 F7500 X20.216 Y-35.300
G0 X25.992 Y-35.300
G0 X25.992 Y-35.464
G1 F2100 X25.992 Y35.664 E336.98358
G0 F7500 X25.992 Y35.500
G0 X31.768 Y35.500
G0 X31.768 Y35.664
G1 F2100 X31.768 Y-35.464 E339.54448
G0 F7500 X31.768 Y-35.300
G0 X37.544 Y-35.300
G0 X37.544 Y-35.464
G1 F2100 X37.544 Y35.664 E342.10538
;LAYER:3
G1 F2400 E341.10538
G0 F7500 X0.284 Y0.284 Z0.900
;TYPE:WALL-OUTER
G1 F2400 E342.10538
G1 X0.216 Y0.284 E342.10783
G1 X0.216 Y0.216 E342.11027
G1 X0.284 Y0.216 E342.11272
G1 X0.284 Y0.284 E342.11517
G0 F7500 X1.200 Y1.200
;TYPE:SUPPORT
G1 F2220 X1.200 Y-0.700 E342.18358
G1 X-0.700 Y-0.700 E342.25199
G1 X-0.700 Y1.200 E342.32039
G1 X1.200 Y1.200 E342.38880
G0 F7500 X1.190 Y1.300
G0 X45.500 Y35.590
G0 X45.600 Y35.600
G1 F2220 X-45.500 Y35.600 E345.66877
G1 X-45.500 Y-35.400 E348.22507
G1 X45.600 Y-35.400 E351.50504
G1 X45.600 Y35.600 E354.06133
G0 F7500 X45.500 Y35.590
G0 X43.320 Y35.500
G0 X43.320 Y35.664
G1 F2220 X43.320 Y-35.464 E356.62223
G0 F7500 X43.320 Y-35.300
G0 X45.500 Y-31.767
G0 X45.664 Y-31.767
G1 F2220 X-45.563 Y-31.768 E359.90677
G0 F7500 X-45.400 Y-31.768
G0 X-43.320 Y-35.300
G0 X-43.320 Y-35.464
G1 F2220 X-43.320 Y35.664 E362.46767
G0 F7500 X-43.320 Y35.500
G0 X-45.400 Y31.767
G0 X-45.564 Y31.767
G1 F2220 X45.663 Y31.768 E365.75222
G0 F7500 X45.500 Y31.768
G0 X45.500 Y25.992
G0 X45.663 Y25.992
G1 F2220 X-45.564 Y25.991 E369.03677
G0 F7500 X-45.400 Y25.991
G0 X-45.400 Y20.215
G0 X-45.564 Y20.215
G1 F2220 X45.663 Y20.216 E372.32131
G0 F7500 X45.500 Y20.216
G0 X45.500 Y14.440
G0 X45.663 Y14.440
G1 F2220 X-45.564 Y14.439 E375.60586
G0 F7500 X-45.400 Y14.439
G0 X-45.400 Y8.663
G0 X-45.564 Y8.663
G1 F2220 X45.663 Y8.664 E378.89040
G0 F7500 X45.500 Y8.664
G0 X45.500 Y2.888
G0 X45.663 Y2.888
G1 F2220 X-45.564 Y2.887 E382.17495
G0 F7500 X-45.400 Y2.887
G0 X-45.400 Y-2.888
G0 X-45.563 Y-2.888
G1 F2220 X45.664 Y-2.887 E385.45949
G0 F7500 X45.500 Y-2.887
G0 X45.500 Y-8.663
G0 X45.664 Y-8.663
G1 F2220 X-45.563 Y-8.664 E388.74404
G0 F7500 X-45.400 Y-8.664
G0 X-45.400 Y-14.440
G0 X-45.563 Y-14.440
G1 F2220 X45.664 Y-14.439 E392.02859
G0 F7500 X45.500 Y-14.439
G0 X45.500 Y-20.215
G0 X45.664 Y-20.215
G1 F2220 X-45.563 Y-20.216 E395.31313
G0 F7500 X-45.400 Y-20.216
G0 X-45.400 Y-25.992
G0 X-45.563 Y-25.992
G1 F2220 X45.664 Y-25.991 E398.59768
G0 F7500 X45.500 Y-25.991
G0 X37.544 Y-35.300
G0 X37.544 Y-35.464
G1 F2220 X37.544 Y35.664 E401.15858
G0 F7500 X37.544 Y35.500
G0 X31.768 Y35.500
G0 X31.768 Y35.664
G1 F2220 X31.768 Y-35.464 E403.71948
G0 F7500 X31.768 Y-35.300
G0 X25.992 Y-35.300
G0 X25.992 Y-35.464
G1 F2220 X25.992 Y35.664 E406.28037
G0 F7500 X25.992 Y35.500
G0 X20.216 Y35.500
G0 X20.216 Y35.664
G1 F2220 X20.216 Y-35.464 E408.84127
G0 F7500 X20.216 Y-35.300
G0 X14.440 Y-35.300
G0 X14.440 Y-35.464
G1 F2220 X14.440 Y35.664 E411.40217
G0 F7500 X14.440 Y35.500
G0 X8.664 Y35.500
G0 X8.664 Y35.664
G1 F2220 X8.664 Y-35.464 E413.96307
G0 F7500 X8.664 Y-35.300
G0 X2.888 Y-35.300
G0 X2.888 Y-35.464
G1 F2220 X2.888 Y35.664 E416.52397
G0 F7500 X2.888 Y35.500
G0 X-2.888 Y35.500
G0 X-2.888 Y35.664
G1 F2220 X-2.888 Y-35.464 E419.08487
G0 F7500 X-2.888 Y-35.300
G0 X-8.664 Y-35.300
G0 X-8.664 Y-35.464
G1 F2220 X-8.664 Y35.664 E421.64577
G0 F7500 X-8.664 Y35.500
G0 X-14.440 Y35.500
G0 X-14.440 Y35.664
G1 F2220 X-14.440 Y-35.464 E424.20667
G0 F7500 X-14.440 Y-35.300
G0 X-20.216 Y-35.300
G0 X-20.216 Y-35.464
G1 F2220 X-20.216 Y35.664 E426.76757
G0 F7500 X-20.216 Y35.500
G0 X-25.992 Y35.500
G0 X-25.992 Y35.664
G1 F2220 X-25.992 Y-35.464 E429.32847
G0 F7500 X-25.992 Y-35.300
G0 X-31.768 Y-35.300
G0 X-31.768 Y-35.464
G1 F2220 X-31.768 Y35.664 E431.88937
G0 F7500 X-31.768 Y35.500
G0 X-37.544 Y35.500
G0 X-37.544 Y35.664
G1 F2220 X-37.544 Y-35.464 E434.45027
;LAYER:4
G1 F2400 E433.45027
G0 F7500 X0.216 Y0.216 Z1.100
;TYPE:WALL-OUTER
G1 F2400 E434.45027
G1 F2700 X0.284 Y0.216 E434.45272
G1 X0.284 Y0.284 E434.45516
G1 X0.216 Y0.284 E434.45761
G1 X0.216 Y0.216 E434.46006
G0 F7500 X-0.700 Y-0.700
;TYPE:SUPPORT
G1 F2400 X-0.700 Y1.200 E434.52847
G1 X1.200 Y1.200 E434.59688
G1 X1.200 Y-0.700 E434.66528
G1 X-0.700 Y-0.700 E434.73369
G0 F7500 X-0.690 Y-0.800
G0 X-45.500 Y-35.400
G1 F2400 X45.600 Y-35.400 E438.01366
G1 X45.600 Y35.600 E440.56996
G1 X-45.500 Y35.600 E443.84993
G1 X-45.500 Y-35.400 E446.40622
G0 F7500 X-43.320 Y-35.300
G0 X-43.320 Y-35.464
G1 F2400 X-43.320 Y35.664 E448.96712
G0 F7500 X-43.320 Y35.500
G0 X-45.400 Y31.767
G0 X-45.564 Y31.767
G1 F2400 X45.663 Y31.768 E452.25166
G0 F7500 X45.500 Y31.768
G0 X43.320 Y35.500
G0 X43.320 Y35.664
G1 F2400 X43.320 Y-35.464 E454.81256
G0 F7500 X43.320 Y-35.300
G0 X45.500 Y-31.767
G0 X45.664 Y-31.767
G1 F2400 X-45.563 Y-31.768 E458.09711
G0 F7500 X-45.400 Y-31.768
G0 X-45.400 Y-25.992
G0 X-45.563 Y-25.992
G1 F2400 X45.664 Y-25.991 E461.38166
G0 F7500 X45.500 Y-25.991
G0 X45.500 Y-20.215
G0 X45.664 Y-20.215
G1 F2400 X-45.563 Y-20.216 E464.66620
G0 F7500 X-45.400 Y-20.216
G0 X-45.400 Y-14.440
G0 X-45.563 Y-14.440
G1 F2400 X45.664 Y-14.439 E467.95075
G0 F7500 X45.500 Y-14.439
G0 X45.500 Y-8.663
G0 X45.664 Y-8.663
G1 F2400 X-45.563 Y-8.664 E471.23529
G0 F7500 X-45.400 Y-8.664
G0 X-45.400 Y-2.888
G0 X-45.563 Y-2.888
G1 F2400 X45.664 Y-2.887 E474.51984
G0 F7500 X45.500 Y-2.887
G0 X45.500 Y2.888
G0 X45.663 Y2.888
G1 F2400 X-45.564 Y2.887 E477.80438
G0 F7500 X-45.400 Y2.887
G0 X-45.400 Y8.663
G0 X-45.564 Y8.663
G1 F2400 X45.663 Y8.664 E481.08893
G0 F7500 X45.500 Y8.664
G0 X45.500 Y14.440
G0 X45.663 Y14.440
G1 F2400 X-45.564 Y14.439 E484.37348
G0 F7500 X-45.400 Y14.439
G0 X-45.400 Y20.215
G0 X-45.564 Y20.215
G1 F2400 X45.663 Y20.216 E487.65802
G0 F7500 X45.500 Y20.216
G0 X45.500 Y25.992
G0 X45.663 Y25.992
G1 F2400 X-45.564 Y25.991 E490.94257
G0 F7500 X-45.400 Y25.991
G0 X-37.544 Y35.500
G0 X-37.544 Y35.664
G1 F2400 X-37.544 Y-35.464 E493.50347
G0 F7500 X-37.544 Y-35.300
G0 X-31.768 Y-35.300
G0 X-31.768 Y-35.464
G1 F2400 X-31.768 Y35.664 E496.06437
