;Generated with Cura_SteamEngine 15.04.6

;Layer count: 16
;LAYER:0
M107
G0 F7500 X-48.716 Y-43.616 Z0.300
;TYPE:SKIRT
G1 F1800 X48.816 Y-43.616 E5.26733
G1 X48.816 Y43.816 E9.98919
G1 X-48.716 Y43.816 E15.25652
G1 X-48.716 Y-43.616 E19.97838
G1 F2400 E18.97838
G0 F7500 X0.216 Y0.216
;TYPE:WALL-OUTER
G1 F2400 E19.97838
G1 F1800 X0.284 Y0.216 E19.98206
G1 X0.284 Y0.284 E19.98573
G1 X0.216 Y0.284 E19.98940
G1 X0.216 Y0.216 E19.99307
G0 F7500 X-0.700 Y-0.700
;TYPE:SUPPORT
G1 F1800 X-0.700 Y1.200 E20.09569
G1 X1.200 Y1.200 E20.19830
G1 X1.200 Y-0.700 E20.30091
G1 X-0.700 Y-0.700 E20.40352
G0 F7500 X-0.690 Y-0.800
G0 X-45.500 Y-40.400
G1 F1800 X45.600 Y-40.400 E25.32348
G1 X45.600 Y40.600 E29.69798
G1 X-45.500 Y40.600 E34.61794
G1 X-45.500 Y-40.400 E38.99244
G0 F7500 X-43.320 Y-40.300
G0 X-43.320 Y-40.464
G1 F1800 X-43.320 Y40.664 E43.37385
G0 F7500 X-43.320 Y40.500
G0 X-45.400 Y37.543
G0 X-45.564 Y37.543
G1 F1800 X45.663 Y37.544 E48.30067
G0 F7500 X45.500 Y37.544
G0 X45.500 Y31.768
G0 X45.663 Y31.768
G1 F1800 X-45.564 Y31.767 E53.22748
G0 F7500 X-45.400 Y31.767
G0 X-45.400 Y25.991
G0 X-45.564 Y25.991
G1 F1800 X45.663 Y25.992 E58.15430
G0 F7500 X45.500 Y25.992
G0 X45.500 Y20.216
G0 X45.663 Y20.216
G1 F1800 X-45.564 Y20.215 E63.08112
G0 F7500 X-45.400 Y20.215
G0 X-45.400 Y14.439
G0 X-45.564 Y14.439
G1 F1800 X45.663 Y14.440 E68.00794
G0 F7500 X45.500 Y14.440
G0 X45.500 Y8.664
G0 X45.663 Y8.664
G1 F1800 X-45.564 Y8.663 E72.93476
G0 F7500 X-45.400 Y8.663
G0 X-45.400 Y2.887
G0 X-45.564 Y2.887
G1 F1800 X45.663 Y2.888 E77.86158
G0 F7500 X45.500 Y2.888
G0 X45.500 Y-2.887
G0 X45.664 Y-2.887
G1 F1800 X-45.563 Y-2.888 E82.78839
G0 F7500 X-45.400 Y-2.888
G0 X-45.400 Y-8.664
G0 X-45.563 Y-8.664
G1 F1800 X45.664 Y-8.663 E87.71521
G0 F7500 X45.500 Y-8.663
G0 X45.500 Y-14.439
G0 X45.664 Y-14.439
G1 F1800 X-45.563 Y-14.440 E92.64203
G0 F7500 X-45.400 Y-14.440
G0 X-45.400 Y-20.216
G0 X-45.563 Y-20.216
G1 F1800 X45.664 Y-20.215 E97.56885
G0 F7500 X45.500 Y-20.215
G0 X45.500 Y-25.991
G0 X45.664 Y-25.991
G1 F1800 X-45.563 Y-25.992 E102.49567
G0 F7500 X-45.400 Y-25.992
G0 X-45.400 Y-31.768
G0 X-45.563 Y-31.768
G1 F1800 X45.664 Y-31.767 E107.42249
G0 F7500 X45.500 Y-31.767
G0 X45.500 Y-37.543
G0 X45.664 Y-37.543
G1 F1800 X-45.563 Y-37.544 E112.34931
G0 F7500 X-45.400 Y-37.544
G0 X-37.544 Y-40.300
G0 X-37.544 Y-40.464
G1 F1800 X-37.544 Y40.664 E116.73072
G0 F7500 X-37.544 Y40.500
G0 X-31.768 Y40.500
G0 X-31.768 Y40.664
G1 F1800 X-31.768 Y-40.464 E121.11213
G0 F7500 X-31.768 Y-40.300
G0 X-25.992 Y-40.300
G0 X-25.992 Y-40.464
G1 F1800 X-25.992 Y40.664 E125.49354
G0 F7500 X-25.992 Y40.500
G0 X-20.216 Y40.500
G0 X-20.216 Y40.664
G1 F1800 X-20.216 Y-40.464 E129.87495
G0 F7500 X-20.216 Y-40.300
G0 X-14.440 Y-40.300
G0 X-14.440 Y-40.464
G1 F1800 X-14.440 Y40.664 E134.25636
G0 F7500 X-14.440 Y40.500
G0 X-8.664 Y40.500
G0 X-8.664 Y40.664
G1 F1800 X-8.664 Y-40.464 E138.63777
G0 F7500 X-8.664 Y-40.300
G0 X-2.888 Y-40.300
G0 X-2.888 Y-40.464
G1 F1800 X-2.888 Y40.664 E143.01918
G0 F7500 X-2.888 Y40.500
G0 X2.888 Y40.500
G0 X2.888 Y40.664
G1 F1800 X2.888 Y-40.464 E147.40059
G0 F7500 X2.888 Y-40.300
G0 X8.664 Y-40.300
G0 X8.664 Y-40.464
G1 F1800 X8.664 Y40.664 E151.78200
G0 F7500 X8.664 Y40.500
G0 X14.440 Y40.500
G0 X14.440 Y40.664
G1 F1800 X14.440 Y-40.464 E156.16341
G0 F7500 X14.440 Y-40.300
G0 X20.216 Y-40.300
G0 X20.216 Y-40.464
G1 F1800 X20.216 Y40.664 E160.54482
G0 F7500 X20.216 Y40.500
G0 X25.992 Y40.500
G0 X25.992 Y40.664
G1 F1800 X25.992 Y-40.464 E164.92623
G0 F7500 X25.992 Y-40.300
G0 X31.768 Y-40.300
G0 X31.768 Y-40.464
G1 F1800 X31.768 Y40.664 E169.30764
G0 F7500 X31.768 Y40.500
G0 X37.544 Y40.500
G0 X37.544 Y40.664
G1 F1800 X37.544 Y-40.464 E173.68905
G0 F7500 X37.544 Y-40.300
G0 X43.320 Y-40.300
G0 X43.320 Y-40.464
G1 F1800 X43.320 Y40.664 E178.07046
;LAYER:1
M106 S63
G1 F2400 E177.07046
G0 F7500 X0.284 Y0.284 Z0.500
;TYPE:WALL-OUTER
G1 F2400 E178.07046
G1 F1980 X0.216 Y0.284 E178.07291
G1 X0.216 Y0.216 E178.07536
G1 X0.284 Y0.216 E178.07781
G1 X0.284 Y0.284 E178.08026
G0 F7500 X1.200 Y1.200
;TYPE:SUPPORT
G1 F1920 X1.200 Y-0.700 E178.14866
G1 X-0.700 Y-0.700 E178.21707
G1 X-0.700 Y1.200 E178.28548
G1 X1.200 Y1.200 E178.35389
G0 F7500 X1.190 Y1.300
G0 X45.500 Y40.590
G0 X45.600 Y40.600
G1 F1920 X-45.500 Y40.600 E181.63386
G1 X-45.500 Y-40.400 E184.55019
G1 X45.600 Y-40.400 E187.83017
G1 X45.600 Y40.600 E190.74650
G0 F7500 X45.500 Y40.590
G0 X43.320 Y40.500
G0 X43.320 Y40.664
G1 F1920 X43.320 Y-40.464 E193.66744
G0 F7500 X43.320 Y-40.300
G0 X45.500 Y-37.543
G0 X45.664 Y-37.543
G1 F1920 X-45.563 Y-37.544 E196.95198
G0 F7500 X-45.400 Y-37.544
G0 X-45.400 Y-31.768
G0 X-45.563 Y-31.768
G1 F1920 X45.664 Y-31.767 E200.23653
G0 F7500 X45.500 Y-31.767
G0 X45.500 Y-25.991
G0 X45.664 Y-25.991
G1 F1920 X-45.563 Y-25.992 E203.52107
G0 F7500 X-45.400 Y-25.992
G0 X-45.400 Y-20.216
G0 X-45.563 Y-20.216
G1 F1920 X45.664 Y-20.215 E206.80562
G0 F7500 X45.500 Y-20.215
G0 X45.500 Y-14.439
G0 X45.664 Y-14.439
G1 F1920 X-45.563 Y-14.440 E210.09017
G0 F7500 X-45.400 Y-14.440
G0 X-45.400 Y-8.664
G0 X-45.563 Y-8.664
G1 F1920 X45.664 Y-8.663 E213.37471
G0 F7500 X45.500 Y-8.663
G0 X45.500 Y-2.887
G0 X45.664 Y-2.887
G1 F1920 X-45.563 Y-2.888 E216.65926
G0 F7500 X-45.400 Y-2.888
G0 X-45.400 Y2.887
G0 X-45.564 Y2.887
G1 F1920 X45.663 Y2.888 E219.94380
G0 F7500 X45.500 Y2.888
G0 X45.500 Y8.664
G0 X45.663 Y8.664
G1 F1920 X-45.564 Y8.663 E223.22835
G0 F7500 X-45.400 Y8.663
G0 X-45.400 Y14.439
G0 X-45.564 Y14.439
G1 F1920 X45.663 Y14.440 E226.51289
G0 F7500 X45.500 Y14.440
G0 X45.500 Y20.216
G0 X45.663 Y20.216
G1 F1920 X-45.564 Y20.215 E229.79744
G0 F7500 X-45.400 Y20.215
G0 X-45.400 Y25.991
G0 X-45.564 Y25.991
G1 F1920 X45.663 Y25.992 E233.08199
G0 F7500 X45.500 Y25.992
G0 X45.500 Y31.768
G0 X45.663 Y31.768
G1 F1920 X-45.564 Y31.767 E236.36653
G0 F7500 X-45.400 Y31.767
G0 X-45.400 Y37.543
G0 X-45.564 Y37.543
G1 F1920 X45.663 Y37.544 E239.65108
G0 F7500 X45.500 Y37.544
G0 X37.544 Y40.500
G0 X37.544 Y40.664
G1 F1920 X37.544 Y-40.464 E242.57202
G0 F7500 X37.544 Y-40.300
G0 X31.768 Y-40.300
G0 X31.768 Y-40.464
G1 F1920 X31.768 Y40.664 E245.49296
G0 F7500 X31.768 Y40.500
G0 X25.992 Y40.500
G0 X25.992 Y40.664
G1 F1920 X25.992 Y-40.464 E248.41390
G0 F7500 X25.992 Y-40.300
G0 X20.216 Y-40.300
G0 X20.216 Y-40.464
G1 F1920 X20.216 Y40.664 E251.33484
G0 F7500 X20.216 Y40.500
G0 X14.440 Y40.500
G0 X14.440 Y40.664
G1 F1920 X14.440 Y-40.464 E254.25578
G0 F7500 X14.440 Y-40.300
G0 X8.664 Y-40.300
G0 X8.664 Y-40.464
G1 F1920 X8.664 Y40.664 E257.17672
G0 F7500 X8.664 Y40.500
G0 X2.888 Y40.500
G0 X2.888 Y40.664
G1 F1920 X2.888 Y-40.464 E260.09766
G0 F7500 X2.888 Y-40.300
G0 X-2.888 Y-40.300
G0 X-2.888 Y-40.464
G1 F1920 X-2.888 Y40.664 E263.01860
G0 F7500 X-2.888 Y40.500
G0 X-8.664 Y40.500
G0 X-8.664 Y40.664
G1 F1920 X-8.664 Y-40.464 E265.93954
G0 F7500 X-8.664 Y-40.300
G0 X-14.440 Y-40.300
G0 X-14.440 Y-40.464
G1 F1920 X-14.440 Y40.664 E268.86048
G0 F7500 X-14.440 Y40.500
G0 X-20.216 Y40.500
G0 X-20.216 Y40.664
G1 F1920 X-20.216 Y-40.464 E271.78142
G0 F7500 X-20.216 Y-40.300
G0 X-25.992 Y-40.300
G0 X-25.992 Y-40.464
G1 F1920 X-25.992 Y40.664 E274.70236
G0 F7500 X-25.992 Y40.500
G0 X-31.768 Y40.500
G0 X-31.768 Y40.664
G1 F1920 X-31.768 Y-40.464 E277.62330
G0 F7500 X-31.768 Y-40.300
G0 X-37.544 Y-40.300
G0 X-37.544 Y-40.464
G1 F1920 X-37.544 Y40.664 E280.54424
G0 F7500 X-37.544 Y40.500
G0 X-43.320 Y40.500
G0 X-43.320 Y40.664
G1 F1920 X-43.320 Y-40.464 E283.46518
;LAYER:2
M106 S127
G1 F2400 E282.46518
G0 F7500 X0.216 Y0.216 Z0.700
;TYPE:WALL-OUTER
G1 F2400 E283.46518
G1 F2220 X0.284 Y0.216 E283.46763
G1 X0.284 Y0.284 E283.47008
G1 X0.216 Y0.284 E283.47253
G1 X0.216 Y0.216 E283.47497
G0 F7500 X-0.700 Y-0.700
;TYPE:SUPPORT
G1 F2100 X-0.700 Y1.200 E283.54338
G1 X1.200 Y1.200 E283.61179
G1 X1.200 Y-0.700 E283.68020
G1 X-0.700 Y-0.700 E283.74861
G0 F7500 X-0.690 Y-0.800
G0 X-45.500 Y-40.400
G1 F2100 X45.600 Y-40.400 E287.02858
G1 X45.600 Y40.600 E289.94491
G1 X-45.500 Y40.600 E293.22488
G1 X-45.500 Y-40.400 E296.14122
G0 F7500 X-43.320 Y-40.300
G0 X-43.320 Y-40.464
G1 F2100 X-43.320 Y40.664 E299.06216
G0 F7500 X-43.320 Y40.500
G0 X-45.400 Y37.543
G0 X-45.564 Y37.543
G1 F2100 X45.663 Y37.544 E302.34670
G0 F7500 X45.500 Y37.544
G0 X45.500 Y31.768
G0 X45.663 Y31.768
G1 F2100 X-45.564 Y31.767 E305.63125
G0 F7500 X-45.400 Y31.767
G0 X-45.400 Y25.991
G0 X-45.564 Y25.991
G1 F2100 X45.663 Y25.992 E308.91579
G0 F7500 X45.500 Y25.992
G0 X45.500 Y20.216
G0 X45.663 Y20.216
G1 F2100 X-45.564 Y20.215 E312.20034
G0 F7500 X-45.400 Y20.215
G0 X-45.400 Y14.439
G0 X-45.564 Y14.439
G1 F2100 X45.663 Y14.440 E315.48488
G0 F7500 X45.500 Y14.440
G0 X45.500 Y8.664
G0 X45.663 Y8.664
G1 F2100 X-45.564 Y8.663 E318.76943
G0 F7500 X-45.400 Y8.663
G0 X-45.400 Y2.887
G0 X-45.564 Y2.887
G1 F2100 X45.663 Y2.888 E322.05398
G0 F7500 X45.500 Y2.888
G0 X45.500 Y-2.887
G0 X45.664 Y-2.887
G1 F2100 X-45.563 Y-2.888 E325.33852
G0 F7500 X-45.400 Y-2.888
G0 X-45.400 Y-8.664
G0 X-45.563 Y-8.664
G1 F2100 X45.664 Y-8.663 E328.62307
G0 F7500 X45.500 Y-8.663
G0 X45.500 Y-14.439
G0 X45.664 Y-14.439
G1 F2100 X-45.563 Y-14.440 E331.90761
G0 F7500 X-45.400 Y-14.440
G0 X-45.400 Y-20.216
G0 X-45.563 Y-20.216
G1 F2100 X45.664 Y-20.215 E335.19216
G0 F7500 X45.500 Y-20.215
G0 X45.500 Y-25.991
G0 X45.664 Y-25.991
G1 F2100 X-45.563 Y-25.992 E338.47670
G0 F7500 X-45.400 Y-25.992
G0 X-45.400 Y-31.768
G0 X-45.563 Y-31.768
G1 F2100 X45.664 Y-31.767 E341.76125
G0 F7500 X45.500 Y-31.767
G0 X45.500 Y-37.543
G0 X45.664 Y-37.543
G1 F2100 X-45.563 Y-37.544 E345.04580
G0 F7500 X-45.400 Y-37.544
G0 X-37.544 Y-40.300
G0 X-37.544 Y-40.464
G1 F2100 X-37.544 Y40.664 E347.96674
G0 F7500 X-37.544 Y40.500
G0 X-31.768 Y40.500
G0 X-31.768 Y40.664
G1 F2100 X-31.768 Y-40.464 E350.88768
G0 F7500 X-31.768 Y-40.300
G0 X-25.992 Y-40.300
G0 X-25.992 Y-40.464
G1 F2100 X-25.992 Y40.664 E353.80862
G0 F7500 X-25.992 Y40.500
G0 X-20.216 Y40.500
G0 X-20.216 Y40.664
G1 F2100 X-20.216 Y-40.464 E356.72956
G0 F7500 X-20.216 Y-40.300
G0 X-14.440 Y-40.300
G0 X-14.440 Y-40.464
G1 F2100 X-14.440 Y40.664 E359.65050
G0 F7500 X-14.440 Y40.500
G0 X-8.664 Y40.500
G0 X-8.664 Y40.664
G1 F2100 X-8.664 Y-40.464 E362.57144
G0 F7500 X-8.664 Y-40.300
G0 X-2.888 Y-40.300
G0 X-2.888 Y-40.464
G1 F2100 X-2.888 Y40.664 E365.49238
G0 F7500 X-2.888 Y40.500
G0 X2.888 Y40.500
G0 X2.888 Y40.664
G1 F2100 X2.888 Y-40.464 E368.41332
G0 F7500 X2.888 Y-40.300
G0 X8.664 Y-40.300
G0 X8.664 Y-40.464
G1 F2100 X8.664 Y40.664 E371.33426
G0 F7500 X8.664 Y40.500
G0 X14.440 Y40.500
G0 X14.440 Y40.664
G1 F2100 X14.440 Y-40.464 E374.25520
G0 F7500 X14.440 Y-40.300
G0 X20.216 Y-40.300
G0 X20.216 Y-40.464
G1 F2100 X20.216 Y40.664 E377.17614
G0 F7500 X20.216 Y40.500
G0 X25.992 Y40.500
G0 X25.992 Y40.664
G1 F2100 X25.992 Y-40.464 E380.09708
G0 F7500 X25.992 Y-40.300
G0 X31.768 Y-40.300
G0 X31.768 Y-40.464
G1 F2100 X31.768 Y40.664 E383.01802
G0 F7500 X31.768 Y40.500
G0 X37.544 Y40.500
G0 X37.544 Y40.664
G1 F2100 X37.544 Y-40.464 E385.93896
G0 F7500 X37.544 Y-40.300
G0 X43.320 Y-40.300
G0 X43.320 Y-40.464
G1 F2100 X43.320 Y40.664 E388.85990
;LAYER:3
G1 F2400 E387.85990
G0 F7500 X0.284 Y0.284 Z0.900
;TYPE:WALL-OUTER
G1 F2400 E388.85990
G1 X0.216 Y0.284 E388.86235
G1 X0.216 Y0.216 E388.86480
G1 X0.284 Y0.216 E388.86725
G1 X0.284 Y0.284 E388.86969
G0 F7500 X1.200 Y1.200
;TYPE:SUPPORT
G1 F2220 X1.200 Y-0.700 E388.93810
G1 X-0.700 Y-0.700 E389.00651
G1 X-0.700 Y1.200 E389.07492
G1 X1.200 Y1.200 E389.14332
G0 F7500 X1.190 Y1.300
G0 X45.500 Y40.590
G0 X45.600 Y40.600
G1 F2220 X-45.500 Y40.600 E392.42330
G1 X-45.500 Y-40.400 E395.33963
G1 X45.600 Y-40.400 E398.61960
G1 X45.600 Y40.600 E401.53593
G0 F7500 X45.500 Y40.590
G0 X43.320 Y40.500
G0 X43.320 Y40.664
G1 F2220 X43.320 Y-40.464 E404.45688
G0 F7500 X43.320 Y-40.300
G0 X45.500 Y-37.543
G0 X45.664 Y-37.543
G1 F2220 X-45.563 Y-37.544 E407.74142
G0 F7500 X-45.400 Y-37.544
G0 X-45.400 Y-31.768
G0 X-45.563 Y-31.768
G1 F2220 X45.664 Y-31.767 E411.02597
G0 F7500 X45.500 Y-31.767
G0 X45.500 Y-25.991
G0 X45.664 Y-25.991
G1 F2220 X-45.563 Y-25.992 E414.31051
G0 F7500 X-45.400 Y-25.992
G0 X-45.400 Y-20.216
G0 X-45.563 Y-20.216
G1 F2220 X45.664 Y-20.215 E417.59506
G0 F7500 X45.500 Y-20.215
G0 X45.500 Y-14.439
G0 X45.664 Y-14.439
G1 F2220 X-45.563 Y-14.440 E420.87960
G0 F7500 X-45.400 Y-14.440
G0 X-45.400 Y-8.664
G0 X-45.563 Y-8.664
G1 F2220 X45.664 Y-8.663 E424.16415
G0 F7500 X45.500 Y-8.663
G0 X45.500 Y-2.887
G0 X45.664 Y-2.887
G1 F2220 X-45.563 Y-2.888 E427.44869
G0 F7500 X-45.400 Y-2.888
G0 X-45.400 Y2.887
G0 X-45.564 Y2.887
G1 F2220 X45.663 Y2.888 E430.73324
G0 F7500 X45.500 Y2.888
G0 X45.500 Y8.664
G0 X45.663 Y8.664
G1 F2220 X-45.564 Y8.663 E434.01779
G0 F7500 X-45.400 Y8.663
G0 X-45.400 Y14.439
G0 X-45.564 Y14.439
G1 F2220 X45.663 Y14.440 E437.30233
G0 F7500 X45.500 Y14.440
G0 X45.500 Y20.216
G0 X45.663 Y20.216
G1 F2220 X-45.564 Y20.215 E440.58688
G0 F7500 X-45.400 Y20.215
G0 X-45.400 Y25.991
G0 X-45.564 Y25.991
G1 F2220 X45.663 Y25.992 E443.87142
G0 F7500 X45.500 Y25.992
G0 X45.500 Y31.768
G0 X45.663 Y31.768
G1 F2220 X-45.564 Y31.767 E447.15597
G0 F7500 X-45.400 Y31.767
G0 X-45.400 Y37.543
G0 X-45.564 Y37.543
G1 F2220 X45.663 Y37.544 E450.44051
G0 F7500 X45.500 Y37.544
G0 X37.544 Y40.500
G0 X37.544 Y40.664
G1 F2220 X37.544 Y-40.464 E453.36145
G0 F7500 X37.544 Y-40.300
G0 X31.768 Y-40.300
G0 X31.768 Y-40.464
G1 F2220 X31.768 Y40.664 E456.28240
G0 F7500 X31.768 Y40.500
G0 X25.992 Y40.500
G0 X25.992 Y40.664
G1 F2220 X25.992 Y-40.464 E459.20334
G0 F7500 X25.992 Y-40.300
G0 X20.216 Y-40.300
G0 X20.216 Y-40.464
G1 F2220 X20.216 Y40.664 E462.12428
G0 F7500 X20.216 Y40.500
G0 X14.440 Y40.500
G0 X14.440 Y40.664
G1 F2220 X14.440 Y-40.464 E465.04522
G0 F7500 X14.440 Y-40.300
G0 X8.664 Y-40.300
G0 X8.664 Y-40.464
G1 F2220 X8.664 Y40.664 E467.96616
G0 F7500 X8.664 Y40.500
G0 X2.888 Y40.500
G0 X2.888 Y40.664
G1 F2220 X2.888 Y-40.464 E470.88710
G0 F7500 X2.888 Y-40.300
G0 X-2.888 Y-40.300
G0 X-2.888 Y-40.464
G1 F2220 X-2.888 Y40.664 E473.80804
G0 F7500 X-2.888 Y40.500
G0 X-8.664 Y40.500
G0 X-8.664 Y40.664
G1 F2220 X-8.664 Y-40.464 E476.72898
G0 F7500 X-8.664 Y-40.300
G0 X-14.440 Y-40.300
G0 X-14.440 Y-40.464
G1 F2220 X-14.440 Y40.664 E479.64992
G0 F7500 X-14.440 Y40.500
G0 X-20.216 Y40.500
G0 X-20.216 Y40.664
G1 F2220 X-20.216 Y-40.464 E482.57086
G0 F7500 X-20.216 Y-40.300
G0 X-25.992 Y-40.300
G0 X-25.992 Y-40.464
G1 F2220 X-25.992 Y40.664 E485.49180
G0 F7500 X-25.992 Y40.500
G0 X-31.768 Y40.500
G0 X-31.768 Y40.664
G1 F2220 X-31.768 Y-40.464 E488.41274
G0 F7500 X-31.768 Y-40.300
G0 X-37.544 Y-40.300
G0 X-37.544 Y-40.464
G1 F2220 X-37.544 Y40.664 E491.33368
G0 F7500 X-37.544 Y40.500
G0 X-43.320 Y40.500
G0 X-43.320 Y40.664
G1 F2220 X-43.320 Y-40.464 E494.25462
;LAYER:4
G1 F2400 E493.25462
G0 F7500 X0.216 Y0.216 Z1.100
;TYPE:WALL-OUTER
G1 F2400 E494.25462
G1 F2700 X0.284 Y0.216 E494.25707
G1 X0.284 Y0.284 E494.25952
G1 X0.216 Y0.284 E494.26196
G1 X0.216 Y0.216 E494.26441
G0 F7500 X-0.700 Y-0.700
;TYPE:SUPPORT
G1 F2400 X-0.700 Y1.200 E494.33282
G1 X1.200 Y1.200 E494.40123
G1 X1.200 Y-0.700 E494.46964
G1 X-0.700 Y-0.700 E494.53804
G0 F7500 X-0.690 Y-0.800
G0 X-45.500 Y-40.400
G1 F2400 X45.600 Y-40.400 E497.81802
G1 X45.600 Y40.600 E500.73435
G1 X-45.500 Y40.600 E504.01432
G1 X-45.500 Y-40.400 E506.93065
G0 F7500 X-43.320 Y-40.300
G0 X-43.320 Y-40.464
G1 F2400 X-43.320 Y40.664 E509.85159
G0 F7500 X-43.320 Y40.500
G0 X-45.400 Y37.543
G0 X-45.564 Y37.543
G1 F2400 X45.663 Y37.544 E513.13614
G0 F7500 X45.500 Y37.544
G0 X45.500 Y31.768
G0 X45.663 Y31.768
G1 F2400 X-45.564 Y31.767 E516.42069
G0 F7500 X-45.400 Y31.767
G0 X-45.400 Y25.991
G0 X-45.564 Y25.991
G1 F2400 X45.663 Y25.992 E519.70523
G0 F7500 X45.500 Y25.992
G0 X45.500 Y20.216
G0 X45.663 Y20.216
G1 F2400 X-45.564 Y20.215 E522.98978
G0 F7500 X-45.400 Y20.215
G0 X-45.400 Y14.439
G0 X-45.564 Y14.439
G1 F2400 X45.663 Y14.440 E526.27432
G0 F7500 X45.500 Y14.440
G0 X45.500 Y8.664
G0 X45.663 Y8.664
G1 F2400 X-45.564 Y8.663 E529.55887
G0 F7500 X-45.400 Y8.663
G0 X-45.400 Y2.887
G0 X-45.564 Y2.887
G1 F2400 X45.663 Y2.888 E532.84341
G0 F7500 X45.500 Y2.888
