;Generated with Cura_SteamEngine 15.04.6

;Layer count: 16
;LAYER:0
M107
G0 F7500 X-48.716 Y-48.616 Z0.300
;TYPE:SKIRT
G1 F1800 X48.816 Y-48.616 E5.26733
G1 X48.816 Y48.816 E10.52925
G1 X-48.716 Y48.816 E15.79658
G1 X-48.716 Y-48.616 E21.05851
G1 F2400 E20.05851
G0 F7500 X0.216 Y0.216
;TYPE:WALL-OUTER
G1 F2400 E21.05851
G1 F1800 X0.284 Y0.216 E21.06218
G1 X0.284 Y0.284 E21.06585
G1 X0.216 Y0.284 E21.06953
G1 X0.216 Y0.216 E21.07320
G0 F7500 X-0.700 Y-0.700
;TYPE:SUPPORT
G1 F1800 X-0.700 Y1.200 E21.17581
G1 X1.200 Y1.200 E21.27842
G1 X1.200 Y-0.700 E21.38103
G1 X-0.700 Y-0.700 E21.48364
G0 F7500 X-0.690 Y-0.800
G0 X-45.500 Y-45.400
G1 F1800 X45.600 Y-45.400 E26.40360
G1 X45.600 Y45.600 E31.31816
G1 X-45.500 Y45.600 E36.23812
G1 X-45.500 Y-45.400 E41.15268
G0 F7500 X-45.400 Y-43.320
G0 X-45.563 Y-43.320
G1 F1800 X45.664 Y-43.319 E46.07950
G0 F7500 X45.500 Y-43.319
G0 X43.320 Y-45.300
G0 X43.320 Y-45.464
G1 F1800 X43.320 Y45.664 E51.00097
G0 F7500 X43.320 Y45.500
G0 X45.500 Y43.320
G0 X45.663 Y43.320
G1 F1800 X-45.564 Y43.319 E55.92779
G0 F7500 X-45.400 Y43.319
G0 X-43.320 Y45.500
G0 X-43.320 Y45.664
G1 F1800 X-43.320 Y-45.464 E60.84926
G0 F7500 X-43.320 Y-45.300
G0 X-37.544 Y-45.300
G0 X-37.544 Y-45.464
G1 F1800 X-37.544 Y45.664 E65.77073
G0 F7500 X-37.544 Y45.500
G0 X-31.768 Y45.500
G0 X-31.768 Y45.664
G1 F1800 X-31.768 Y-45.464 E70.69221
G0 F7500 X-31.768 Y-45.300
G0 X-25.992 Y-45.300
G0 X-25.992 Y-45.464
G1 F1800 X-25.992 Y45.664 E75.61368
G0 F7500 X-25.992 Y45.500
G0 X-20.216 Y45.500
G0 X-20.216 Y45.664
G1 F1800 X-20.216 Y-45.464 E80.53515
G0 F7500 X-20.216 Y-45.300
G0 X-14.440 Y-45.300
G0 X-14.440 Y-45.464
G1 F1800 X-14.440 Y45.664 E85.45662
G0 F7500 X-14.440 Y45.500
G0 X-8.664 Y45.500
G0 X-8.664 Y45.664
G1 F1800 X-8.664 Y-45.464 E90.37809
G0 F7500 X-8.664 Y-45.300
G0 X-2.888 Y-45.300
G0 X-2.888 Y-45.464
G1 F1800 X-2.888 Y45.664 E95.29957
G0 F7500 X-2.888 Y45.500
G0 X2.888 Y45.500
G0 X2.888 Y45.664
G1 F1800 X2.888 Y-45.464 E100.22104
G0 F7500 X2.888 Y-45.300
G0 X8.664 Y-45.300
G0 X8.664 Y-45.464
G1 F1800 X8.664 Y45.664 E105.14251
G0 F7500 X8.664 Y45.500
G0 X14.440 Y45.500
G0 X14.440 Y45.664
G1 F1800 X14.440 Y-45.464 E110.06398
G0 F7500 X14.440 Y-45.300
G0 X20.216 Y-45.300
G0 X20.216 Y-45.464
G1 F1800 X20.216 Y45.664 E114.98545
G0 F7500 X20.216 Y45.500
G0 X25.992 Y45.500
G0 X25.992 Y45.664
G1 F1800 X25.992 Y-45.464 E119.90693
G0 F7500 X25.992 Y-45.300
G0 X31.768 Y-45.300
G0 X31.768 Y-45.464
G1 F1800 X31.768 Y45.664 E124.82840
G0 F7500 X31.768 Y45.500
G0 X37.544 Y45.500
G0 X37.544 Y45.664
G1 F1800 X37.544 Y-45.464 E129.74987
G0 F7500 X37.544 Y-45.300
G0 X45.500 Y-37.543
G0 X45.664 Y-37.543
G1 F1800 X-45.563 Y-37.544 E134.67669
G0 F7500 X-45.400 Y-37.544
G0 X-45.400 Y-31.768
G0 X-45.563 Y-31.768
G1 F1800 X45.664 Y-31.767 E139.60351
G0 F7500 X45.500 Y-31.767
G0 X45.500 Y-25.991
G0 X45.664 Y-25.991
G1 F1800 X-45.563 Y-25.992 E144.53033
G0 F7500 X-45.400 Y-25.992
G0 X-45.400 Y-20.216
G0 X-45.563 Y-20.216
G1 F1800 X45.664 Y-20.215 E149.45714
G0 F7500 X45.500 Y-20.215
G0 X45.500 Y-14.439
G0 X45.664 Y-14.439
G1 F1800 X-45.563 Y-14.440 E154.38396
G0 F7500 X-45.400 Y-14.440
G0 X-45.400 Y-8.664
G0 X-45.563 Y-8.664
G1 F1800 X45.664 Y-8.663 E159.31078
G0 F7500 X45.500 Y-8.663
G0 X45.500 Y-2.887
G0 X45.664 Y-2.887
G1 F1800 X-45.563 Y-2.888 E164.23760
G0 F7500 X-45.400 Y-2.888
G0 X-45.400 Y2.887
G0 X-45.564 Y2.887
G1 F1800 X45.663 Y2.888 E169.16442
G0 F7500 X45.500 Y2.888
G0 X45.500 Y8.664
G0 X45.663 Y8.664
G1 F1800 X-45.564 Y8.663 E174.09124
G0 F7500 X-45.400 Y8.663
G0 X-45.400 Y14.439
G0 X-45.564 Y14.439
G1 F1800 X45.663 Y14.440 E179.01805
G0 F7500 X45.500 Y14.440
G0 X45.500 Y20.216
G0 X45.663 Y20.216
G1 F1800 X-45.564 Y20.215 E183.94487
G0 F7500 X-45.400 Y20.215
G0 X-45.400 Y25.991
G0 X-45.564 Y25.991
G1 F1800 X45.663 Y25.992 E188.87169
G0 F7500 X45.500 Y25.992
G0 X45.500 Y31.768
G0 X45.663 Y31.768
G1 F1800 X-45.564 Y31.767 E193.79851
G0 F7500 X-45.400 Y31.767
G0 X-45.400 Y37.543
G0 X-45.564 Y37.543
G1 F1800 X45.663 Y37.544 E198.72533
;LAYER:1
M106 S63
G1 F2400 E197.72533
G0 F7500 X0.284 Y0.284 Z0.500
;TYPE:WALL-OUTER
G1 F2400 E198.72533
G1 F1980 X0.216 Y0.284 E198.72778
G1 X0.216 Y0.216 E198.73023
G1 X0.284 Y0.216 E198.73267
G1 X0.284 Y0.284 E198.73512
G0 F7500 X1.200 Y1.200
;TYPE:SUPPORT
G1 F1920 X1.200 Y-0.700 E198.80353
G1 X-0.700 Y-0.700 E198.87194
G1 X-0.700 Y1.200 E198.94035
G1 X1.200 Y1.200 E199.00875
G0 F7500 X1.190 Y1.300
G0 X45.500 Y45.590
G0 X45.600 Y45.600
G1 F1920 X-45.500 Y45.600 E202.28873
G1 X-45.500 Y-45.400 E205.56510
G1 X45.600 Y-45.400 E208.84507
G1 X45.600 Y45.600 E212.12145
G0 F7500 X45.500 Y45.590
G0 X45.500 Y43.320
G0 X45.663 Y43.320
G1 F1920 X-45.564 Y43.319 E215.40599
G0 F7500 X-45.400 Y43.319
G0 X-43.320 Y45.500
G0 X-43.320 Y45.664
G1 F1920 X-43.320 Y-45.464 E218.68697
G0 F7500 X-43.320 Y-45.300
G0 X-45.400 Y-43.320
G0 X-45.563 Y-43.320
G1 F1920 X45.664 Y-43.319 E221.97152
G0 F7500 X45.500 Y-43.319
G0 X43.320 Y-45.300
G0 X43.320 Y-45.464
G1 F1920 X43.320 Y45.664 E225.25250
G0 F7500 X43.320 Y45.500
G0 X37.544 Y45.500
G0 X37.544 Y45.664
G1 F1920 X37.544 Y-45.464 E228.53348
G0 F7500 X37.544 Y-45.300
G0 X31.768 Y-45.300
G0 X31.768 Y-45.464
G1 F1920 X31.768 Y45.664 E231.81446
G0 F7500 X31.768 Y45.500
G0 X25.992 Y45.500
G0 X25.992 Y45.664
G1 F1920 X25.992 Y-45.464 E235.09544
G0 F7500 X25.992 Y-45.300
G0 X20.216 Y-45.300
G0 X20.216 Y-45.464
G1 F1920 X20.216 Y45.664 E238.37642
G0 F7500 X20.216 Y45.500
G0 X14.440 Y45.500
G0 X14.440 Y45.664
G1 F1920 X14.440 Y-45.464 E241.65741
G0 F7500 X14.440 Y-45.300
G0 X8.664 Y-45.300
G0 X8.664 Y-45.464
G1 F1920 X8.664 Y45.664 E244.93839
G0 F7500 X8.664 Y45.500
G0 X2.888 Y45.500
G0 X2.888 Y45.664
G1 F1920 X2.888 Y-45.464 E248.21937
G0 F7500 X2.888 Y-45.300
G0 X-2.888 Y-45.300
G0 X-2.888 Y-45.464
G1 F1920 X-2.888 Y45.664 E251.50035
G0 F7500 X-2.888 Y45.500
G0 X-8.664 Y45.500
G0 X-8.664 Y45.664
G1 F1920 X-8.664 Y-45.464 E254.78133
G0 F7500 X-8.664 Y-45.300
G0 X-14.440 Y-45.300
G0 X-14.440 Y-45.464
G1 F1920 X-14.440 Y45.664 E258.06231
G0 F7500 X-14.440 Y45.500
G0 X-20.216 Y45.500
G0 X-20.216 Y45.664
G1 F1920 X-20.216 Y-45.464 E261.34329
G0 F7500 X-20.216 Y-45.300
G0 X-25.992 Y-45.300
G0 X-25.992 Y-45.464
G1 F1920 X-25.992 Y45.664 E264.62427
G0 F7500 X-25.992 Y45.500
G0 X-31.768 Y45.500
G0 X-31.768 Y45.664
G1 F1920 X-31.768 Y-45.464 E267.90526
G0 F7500 X-31.768 Y-45.300
G0 X-37.544 Y-45.300
G0 X-37.544 Y-45.464
G1 F1920 X-37.544 Y45.664 E271.18624
G0 F7500 X-37.544 Y45.500
G0 X-45.400 Y37.543
G0 X-45.564 Y37.543
G1 F1920 X45.663 Y37.544 E274.47078
G0 F7500 X45.500 Y37.544
G0 X45.500 Y31.768
G0 X45.663 Y31.768
G1 F1920 X-45.564 Y31.767 E277.75533
G0 F7500 X-45.400 Y31.767
G0 X-45.400 Y25.991
G0 X-45.564 Y25.991
G1 F1920 X45.663 Y25.992 E281.03987
G0 F7500 X45.500 Y25.992
G0 X45.500 Y20.216
G0 X45.663 Y20.216
G1 F1920 X-45.564 Y20.215 E284.32442
G0 F7500 X-45.400 Y20.215
G0 X-45.400 Y14.439
G0 X-45.564 Y14.439
G1 F1920 X45.663 Y14.440 E287.60897
G0 F7500 X45.500 Y14.440
G0 X45.500 Y8.664
G0 X45.663 Y8.664
G1 F1920 X-45.564 Y8.663 E290.89351
G0 F7500 X-45.400 Y8.663
G0 X-45.400 Y2.887
G0 X-45.564 Y2.887
G1 F1920 X45.663 Y2.888 E294.17806
G0 F7500 X45.500 Y2.888
G0 X45.500 Y-2.887
G0 X45.664 Y-2.887
G1 F1920 X-45.563 Y-2.888 E297.46260
G0 F7500 X-45.400 Y-2.888
G0 X-45.400 Y-8.664
G0 X-45.563 Y-8.664
G1 F1920 X45.664 Y-8.663 E300.74715
G0 F7500 X45.500 Y-8.663
G0 X45.500 Y-14.439
G0 X45.664 Y-14.439
G1 F1920 X-45.563 Y-14.440 E304.03169
G0 F7500 X-45.400 Y-14.440
G0 X-45.400 Y-20.216
G0 X-45.563 Y-20.216
G1 F1920 X45.664 Y-20.215 E307.31624
G0 F7500 X45.500 Y-20.215
G0 X45.500 Y-25.991
G0 X45.664 Y-25.991
G1 F1920 X-45.563 Y-25.992 E310.60079
G0 F7500 X-45.400 Y-25.992
G0 X-45.400 Y-31.768
G0 X-45.563 Y-31.768
G1 F1920 X45.664 Y-31.767 E313.88533
G0 F7500 X45.500 Y-31.767
G0 X45.500 Y-37.543
G0 X45.664 Y-37.543
G1 F1920 X-45.563 Y-37.544 E317.16988
;LAYER:2
M106 S127
G1 F2400 E316.16988
G0 F7500 X0.216 Y0.216 Z0.700
;TYPE:WALL-OUTER
G1 F2400 E317.16988
G1 F2220 X0.284 Y0.216 E317.17232
G1 X0.284 Y0.284 E317.17477
G1 X0.216 Y0.284 E317.17722
G1 X0.216 Y0.216 E317.17967
G0 F7500 X-0.700 Y-0.700
;TYPE:SUPPORT
G1 F2100 X-0.700 Y1.200 E317.24808
G1 X1.200 Y1.200 E317.31649
G1 X1.200 Y-0.700 E317.38489
G1 X-0.700 Y-0.700 E317.45330
G0 F7500 X-0.690 Y-0.800
G0 X-45.500 Y-45.400
G1 F2100 X45.600 Y-45.400 E320.73327
G1 X45.600 Y45.600 E324.00965
G1 X-45.500 Y45.600 E327.28962
G1 X-45.500 Y-45.400 E330.56599
G0 F7500 X-45.400 Y-43.320
G0 X-45.563 Y-43.320
G1 F2100 X45.664 Y-43.319 E333.85054
G0 F7500 X45.500 Y-43.319
G0 X43.320 Y-45.300
G0 X43.320 Y-45.464
G1 F2100 X43.320 Y45.664 E337.13152
G0 F7500 X43.320 Y45.500
G0 X45.500 Y43.320
G0 X45.663 Y43.320
G1 F2100 X-45.564 Y43.319 E340.41607
G0 F7500 X-45.400 Y43.319
G0 X-43.320 Y45.500
G0 X-43.320 Y45.664
G1 F2100 X-43.320 Y-45.464 E343.69705
G0 F7500 X-43.320 Y-45.300
G0 X-37.544 Y-45.300
G0 X-37.544 Y-45.464
G1 F2100 X-37.544 Y45.664 E346.97803
G0 F7500 X-37.544 Y45.500
G0 X-31.768 Y45.500
G0 X-31.768 Y45.664
G1 F2100 X-31.768 Y-45.464 E350.25901
G0 F7500 X-31.768 Y-45.300
G0 X-25.992 Y-45.300
G0 X-25.992 Y-45.464
G1 F2100 X-25.992 Y45.664 E353.53999
G0 F7500 X-25.992 Y45.500
G0 X-20.216 Y45.500
G0 X-20.216 Y45.664
G1 F2100 X-20.216 Y-45.464 E356.82097
G0 F7500 X-20.216 Y-45.300
G0 X-14.440 Y-45.300
G0 X-14.440 Y-45.464
G1 F2100 X-14.440 Y45.664 E360.10195
G0 F7500 X-14.440 Y45.500
G0 X-8.664 Y45.500
G0 X-8.664 Y45.664
G1 F2100 X-8.664 Y-45.464 E363.38293
G0 F7500 X-8.664 Y-45.300
G0 X-2.888 Y-45.300
G0 X-2.888 Y-45.464
G1 F2100 X-2.888 Y45.664 E366.66392
G0 F7500 X-2.888 Y45.500
G0 X2.888 Y45.500
G0 X2.888 Y45.664
G1 F2100 X2.888 Y-45.464 E369.94490
G0 F7500 X2.888 Y-45.300
G0 X8.664 Y-45.300
G0 X8.664 Y-45.464
G1 F2100 X8.664 Y45.664 E373.22588
G0 F7500 X8.664 Y45.500
G0 X14.440 Y45.500
G0 X14.440 Y45.664
G1 F2100 X14.440 Y-45.464 E376.50686
G0 F7500 X14.440 Y-45.300
G0 X20.216 Y-45.300
G0 X20.216 Y-45.464
G1 F2100 X20.216 Y45.664 E379.78784
G0 F7500 X20.216 Y45.500
G0 X25.992 Y45.500
G0 X25.992 Y45.664
G1 F2100 X25.992 Y-45.464 E383.06882
G0 F7500 X25.992 Y-45.300
G0 X31.768 Y-45.300
G0 X31.768 Y-45.464
G1 F2100 X31.768 Y45.664 E386.34980
G0 F7500 X31.768 Y45.500
G0 X37.544 Y45.500
G0 X37.544 Y45.664
G1 F2100 X37.544 Y-45.464 E389.63078
G0 F7500 X37.544 Y-45.300
G0 X45.500 Y-37.543
G0 X45.664 Y-37.543
G1 F2100 X-45.563 Y-37.544 E392.91533
G0 F7500 X-45.400 Y-37.544
G0 X-45.400 Y-31.768
G0 X-45.563 Y-31.768
G1 F2100 X45.664 Y-31.767 E396.19988
G0 F7500 X45.500 Y-31.767
G0 X45.500 Y-25.991
G0 X45.664 Y-25.991
G1 F2100 X-45.563 Y-25.992 E399.48442
G0 F7500 X-45.400 Y-25.992
G0 X-45.400 Y-20.216
G0 X-45.563 Y-20.216
G1 F2100 X45.664 Y-20.215 E402.76897
G0 F7500 X45.500 Y-20.215
G0 X45.500 Y-14.439
G0 X45.664 Y-14.439
G1 F2100 X-45.563 Y-14.440 E406.05351
G0 F7500 X-45.400 Y-14.440
G0 X-45.400 Y-8.664
G0 X-45.563 Y-8.664
G1 F2100 X45.664 Y-8.663 E409.33806
G0 F7500 X45.500 Y-8.663
G0 X45.500 Y-2.887
G0 X45.664 Y-2.887
G1 F2100 X-45.563 Y-2.888 E412.62260
G0 F7500 X-45.400 Y-2.888
G0 X-45.400 Y2.887
G0 X-45.564 Y2.887
G1 F2100 X45.663 Y2.888 E415.90715
G0 F7500 X45.500 Y2.888
G0 X45.500 Y8.664
G0 X45.663 Y8.664
G1 F2100 X-45.564 Y8.663 E419.19170
G0 F7500 X-45.400 Y8.663
G0 X-45.400 Y14.439
G0 X-45.564 Y14.439
G1 F2100 X45.663 Y14.440 E422.47624
G0 F7500 X45.500 Y14.440
G0 X45.500 Y20.216
G0 X45.663 Y20.216
G1 F2100 X-45.564 Y20.215 E425.76079
G0 F7500 X-45.400 Y20.215
G0 X-45.400 Y25.991
G0 X-45.564 Y25.991
G1 F2100 X45.663 Y25.992 E429.04533
G0 F7500 X45.500 Y25.992
G0 X45.500 Y31.768
G0 X45.663 Y31.768
G1 F2100 X-45.564 Y31.767 E432.32988
G0 F7500 X-45.400 Y31.767
G0 X-45.400 Y37.543
G0 X-45.564 Y37.543
G1 F2100 X45.663 Y37.544 E435.61442
;LAYER:3
G1 F2400 E434.61442
G0 F7500 X0.284 Y0.284 Z0.900
;TYPE:WALL-OUTER
G1 F2400 E435.61442
G1 X0.216 Y0.284 E435.61687
G1 X0.216 Y0.216 E435.61932
G1 X0.284 Y0.216 E435.62177
G1 X0.284 Y0.284 E435.62422
G0 F7500 X1.200 Y1.200
;TYPE:SUPPORT
G1 F2220 X1.200 Y-0.700 E435.69262
G1 X-0.700 Y-0.700 E435.76103
G1 X-0.700 Y1.200 E435.82944
G1 X1.200 Y1.200 E435.89785
G0 F7500 X1.190 Y1.300
G0 X45.500 Y45.590
G0 X45.600 Y45.600
G1 F2220 X-45.500 Y45.600 E439.17782
G1 X-45.500 Y-45.400 E442.45419
G1 X45.600 Y-45.400 E445.73417
G1 X45.600 Y45.600 E449.01054
G0 F7500 X45.500 Y45.590
G0 X45.500 Y43.320
G0 X45.663 Y43.320
G1 F2220 X-45.564 Y43.319 E452.29509
G0 F7500 X-45.400 Y43.319
G0 X-43.320 Y45.500
G0 X-43.320 Y45.664
G1 F2220 X-43.320 Y-45.464 E455.57607
G0 F7500 X-43.320 Y-45.300
G0 X-45.400 Y-43.320
G0 X-45.563 Y-43.320
G1 F2220 X45.664 Y-43.319 E458.86061
G0 F7500 X45.500 Y-43.319
G0 X43.320 Y-45.300
G0 X43.320 Y-45.464
G1 F2220 X43.320 Y45.664 E462.14159
G0 F7500 X43.320 Y45.500
G0 X37.544 Y45.500
G0 X37.544 Y45.664
G1 F2220 X37.544 Y-45.464 E465.42258
G0 F7500 X37.544 Y-45.300
G0 X31.768 Y-45.300
G0 X31.768 Y-45.464
G1 F2220 X31.768 Y45.664 E468.70356
G0 F7500 X31.768 Y45.500
G0 X25.992 Y45.500
G0 X25.992 Y45.664
G1 F2220 X25.992 Y-45.464 E471.98454
G0 F7500 X25.992 Y-45.300
G0 X20.216 Y-45.300
G0 X20.216 Y-45.464
G1 F2220 X20.216 Y45.664 E475.26552
G0 F7500 X20.216 Y45.500
G0 X14.440 Y45.500
G0 X14.440 Y45.664
G1 F2220 X14.440 Y-45.464 E478.54650
G0 F7500 X14.440 Y-45.300
G0 X8.664 Y-45.300
G0 X8.664 Y-45.464
G1 F2220 X8.664 Y45.664 E481.82748
G0 F7500 X8.664 Y45.500
G0 X2.888 Y45.500
G0 X2.888 Y45.664
G1 F2220 X2.888 Y-45.464 E485.10846
G0 F7500 X2.888 Y-45.300
G0 X-2.888 Y-45.300
G0 X-2.888 Y-45.464
G1 F2220 X-2.888 Y45.664 E488.38944
G0 F7500 X-2.888 Y45.500
G0 X-8.664 Y45.500
G0 X-8.664 Y45.664
G1 F2220 X-8.664 Y-45.464 E491.67043
G0 F7500 X-8.664 Y-45.300
G0 X-14.440 Y-45.300
G0 X-14.440 Y-45.464
G1 F2220 X-14.440 Y45.664 E494.95141
G0 F7500 X-14.440 Y45.500
G0 X-20.216 Y45.500
G0 X-20.216 Y45.664
G1 F2220 X-20.216 Y-45.464 E498.23239
G0 F7500 X-20.216 Y-45.300
G0 X-25.992 Y-45.300
G0 X-25.992 Y-45.464
G1 F2220 X-25.992 Y45.664 E501.51337
G0 F7500 X-25.992 Y45.500
G0 X-31.768 Y45.500
G0 X-31.768 Y45.664
G1 F2220 X-31.768 Y-45.464 E504.79435
G0 F7500 X-31.768 Y-45.300
G0 X-37.544 Y-45.300
G0 X-37.544 Y-45.464
G1 F2220 X-37.544 Y45.664 E508.07533
G0 F7500 X-37.544 Y45.500
G0 X-45.400 Y37.543
G0 X-45.564 Y37.543
G1 F2220 X45.663 Y37.544 E511.35988
G0 F7500 X45.500 Y37.544
G0 X45.500 Y31.768
G0 X45.663 Y31.768
G1 F2220 X-45.564 Y31.767 E514.64442
G0 F7500 X-45.400 Y31.767
G0 X-45.400 Y25.991
G0 X-45.564 Y25.991
G1 F2220 X45.663 Y25.992 E517.92897
G0 F7500 X45.500 Y25.992
G0 X45.500 Y20.216
G0 X45.663 Y20.216
G1 F2220 X-45.564 Y20.215 E521.21351
G0 F7500 X-45.400 Y20.215
G0 X-45.400 Y14.439
G0 X-45.564 Y14.439
G1 F2220 X45.663 Y14.440 E524.49806
G0 F7500 X45.500 Y14.440
G0 X45.500 Y8.664
G0 X45.663 Y8.664
G1 F2220 X-45.564 Y8.663 E527.78261
G0 F7500 X-45.400 Y8.663
G0 X-45.400 Y2.887
G0 X-45.564 Y2.887
G1 F2220 X45.663 Y2.888 E531.06715
G0 F7500 X45.500 Y2.888
G0 X45.500 Y-2.887
G0 X45.664 Y-2.887
G1 F2220 X-45.563 Y-2.888 E534.35170
G0 F7500 X-45.400 Y-2.888
G0 X-45.400 Y-8.664
G0 X-45.563 Y-8.664
G1 F2220 X45.664 Y-8.663 E537.63624
G0 F7500 X45.500 Y-8.663
G0 X45.500 Y-14.439
G0 X45.664 Y-14.439
G1 F2220 X-45.563 Y-14.440 E540.92079
G0 F7500 X-45.400 Y-14.440
G0 X-45.400 Y-20.216
G0 X-45.563 Y-20.216
G1 F2220 X45.664 Y-20.215 E544.20533
G0 F7500 X45.500 Y-20.215
G0 X45.500 Y-25.991
G0 X45.664 Y-25.991
G1 F2220 X-45.563 Y-25.992 E547.48988
G0 F7500 X-45.400 Y-25.992
G0 X-45.400 Y-31.768
G0 X-45.563 Y-31.768
G1 F2220 X45.664 Y-31.767 E550.77443
G0 F7500 X45.500 Y-31.767
G0 X45.500 Y-37.543
G0 X45.664 Y-37.543
G1 F2220 X-45.563 Y-37.544 E554.05897
;LAYER:4
G1 F2400 E553.05897
G0 F7500 X0.216 Y0.216 Z1.100
;TYPE:WALL-OUTER
G1 F2400 E554.05897
G1 F2700 X0.284 Y0.216 E554.06142
G1 X0.284 Y0.284 E554.06387
G1 X0.216 Y0.284 E554.06632
G1 X0.216 Y0.216 E554.06876
G0 F7500 X-0.700 Y-0.700
;TYPE:SUPPORT
G1 F2400 X-0.700 Y1.200 E554.13717
G1 X1.200 Y1.200 E554.20558
G1 X1.200 Y-0.700 E554.27399
G1 X-0.700 Y-0.700 E554.34240
G0 F7500 X-0.690 Y-0.800
G0 X-45.500 Y-45.400
G1 F2400 X45.600 Y-45.400 E557.62237
G1 X45.600 Y45.600 E560.89874
G1 X-45.500 Y45.600 E564.17871
